NCOLS 215
NROWS 375
XLLCORNER 4809000
YLLCORNER 3480000
CELLSIZE 1000
NODATA_value -9999
0.38 0.49 0.47 0.38 0.36 0.39 0.37 0.38 0.41 0.48 0.43 0.33 0.32 0.47 0.31 0.35 0.43 0.30 0.35 0.39 0.43 0.37 0.43 0.42 0.47 0.44 0.36 0.33 0.34 0.33 0.40 0.33 0.42 0.34 0.35 0.48 0.46 0.46 0.43 0.40 0.30 0.46 0.45 0.46 0.38 0.33 0.40 0.31 0.36 0.47 0.31 0.31 0.46 0.46 0.34 0.30 0.49 0.34 0.37 0.47 0.34 0.43 0.49 0.49 0.40 0.31 0.49 0.46 0.30 0.41 0.37 0.44 0.30 0.45 0.43 0.37 0.39 0.34 0.39 0.45 0.41 0.50 0.32 0.50 0.32 0.39 0.44 0.37 0.33 0.45 0.40 0.33 0.43 0.30 0.31 0.40 0.41 0.34 0.43 0.38 0.45 0.44 0.46 0.35 0.32 0.40 0.31 0.45 0.49 0.48 0.36 0.37 0.42 0.31 0.38 0.44 0.48 0.33 0.39 0.32 0.32 0.38 0.47 0.38 0.43 0.35 0.34 0.39 0.38 0.30 0.40 0.33 0.31 0.49 0.32 0.47 0.40 0.32 0.31 0.40 0.49 0.42 0.31 0.44 0.35 0.38 0.39 0.36 0.44 0.37 0.33 0.42 0.32 0.46 0.44 0.39 0.34 0.50 0.46 0.43 0.37 0.38 0.33 0.31 0.34 0.36 0.35 0.47 0.50 0.43 0.35 0.47 0.39 -9999 -9999 -9999 -9999 -9999 -9999 -9999 -9999 -9999 -9999 -9999 -9999 -9999 -9999 -9999 -9999 -9999 -9999 -9999 -9999 -9999 -9999 -9999 -9999 -9999 -9999 -9999 -9999 -9999 -9999 -9999 -9999 -9999 -9999 -9999 -9999 -9999 -9999 -9999 -9999 -9999 -9999
0.45 0.33 0.33 0.35 0.37 0.48 0.33 0.43 0.34 0.33 0.43 0.34 0.42 0.45 0.43 0.30 0.47 0.46 0.33 0.44 0.50 0.46 0.48 0.37 0.46 0.46 0.34 0.35 0.31 0.40 0.43 0.38 0.44 0.43 0.35 0.47 0.37 0.49 0.50 0.39 0.30 0.30 0.45 0.42 0.37 0.31 0.32 0.37 0.32 0.41 0.44 0.36 0.47 0.45 0.50 0.31 0.36 0.35 0.31 0.39 0.39 0.36 0.40 0.49 0.41 0.35 0.43 0.44 0.47 0.41 0.45 0.40 0.31 0.33 0.36 0.40 0.31 0.34 0.38 0.44 0.46 0.42 0.46 0.48 0.32 0.38 0.35 0.30 0.31 0.31 0.35 0.30 0.37 0.33 0.34 0.38 0.39 0.38 0.49 0.41 0.43 0.44 0.35 0.39 0.36 0.38 0.43 0.36 0.42 0.32 0.45 0.36 0.35 0.43 0.42 0.45 0.38 0.36 0.39 0.38 0.49 0.33 0.48 0.30 0.33 0.37 0.42 0.44 0.44 0.40 0.39 0.46 0.32 0.33 0.37 0.46 0.31 0.31 0.50 0.41 0.37 0.39 0.40 0.43 0.30 0.43 0.48 0.49 0.31 0.41 0.47 0.46 0.45 0.37 0.41 0.35 0.31 0.45 0.46 0.46 0.39 0.41 0.47 0.48 0.49 0.36 0.49 0.44 0.36 0.39 0.34 0.40 0.40 -9999 -9999 -9999 -9999 -9999 -9999 -9999 -9999 -9999 -9999 -9999 -9999 -9999 -9999 -9999 -9999 -9999 -9999 -9999 -9999 -9999 -9999 -9999 -9999 -9999 -9999 -9999 -9999 -9999 -9999 -9999 -9999 -9999 -9999 -9999 -9999 -9999 -9999 -9999 -9999 -9999 -9999
0.31 0.40 0.41 0.39 0.38 0.41 0.31 0.48 0.48 0.44 0.34 0.41 0.38 0.46 0.30 0.39 0.49 0.46 0.45 0.32 0.41 0.37 0.44 0.48 0.39 0.43 0.39 0.37 0.49 0.43 0.39 0.40 0.50 0.38 0.32 0.33 0.30 0.32 0.35 0.50 0.40 0.44 0.41 0.44 0.38 0.31 0.41 0.46 0.31 0.36 0.44 0.37 0.44 0.39 0.38 0.31 0.45 0.43 0.45 0.46 0.37 0.33 0.34 0.42 0.48 0.45 0.41 0.41 0.32 0.38 0.46 0.43 0.45 0.41 0.44 0.40 0.31 0.44 0.44 0.36 0.49 0.49 0.35 0.46 0.35 0.38 0.31 0.45 0.36 0.44 0.33 0.36 0.48 0.37 0.42 0.39 0.33 0.34 0.32 0.46 0.46 0.45 0.47 0.42 0.45 0.32 0.43 0.44 0.38 0.47 0.44 0.49 0.45 0.31 0.38 0.44 0.32 0.39 0.41 0.33 0.43 0.47 0.34 0.37 0.31 0.47 0.37 0.45 0.47 0.31 0.46 0.32 0.48 0.49 0.36 0.39 0.32 0.38 0.30 0.38 0.45 0.30 0.50 0.37 0.37 0.36 0.44 0.46 0.43 0.38 0.33 0.31 0.39 0.34 0.31 0.39 0.36 0.37 0.36 0.46 0.33 0.39 0.45 0.48 0.44 0.46 0.46 0.47 0.44 0.38 0.41 0.35 0.35 -9999 -9999 -9999 -9999 -9999 -9999 -9999 -9999 -9999 -9999 -9999 -9999 -9999 -9999 -9999 -9999 -9999 -9999 -9999 -9999 -9999 -9999 -9999 -9999 -9999 -9999 -9999 -9999 -9999 -9999 -9999 -9999 -9999 -9999 -9999 -9999 -9999 -9999 -9999 -9999 -9999 -9999
0.40 0.31 0.48 0.48 0.31 0.44 0.32 0.34 0.41 0.46 0.36 0.45 0.39 0.33 0.48 0.45 0.49 0.39 0.45 0.42 0.49 0.43 0.45 0.38 0.46 0.43 0.33 0.41 0.38 0.39 0.44 0.32 0.47 0.48 0.47 0.33 0.41 0.46 0.49 0.40 0.45 0.47 0.39 0.40 0.45 0.49 0.32 0.50 0.49 0.30 0.33 0.42 0.34 0.30 0.37 0.37 0.39 0.43 0.33 0.50 0.43 0.30 0.44 0.38 0.34 0.43 0.35 0.50 0.33 0.39 0.40 0.38 0.41 0.39 0.34 0.31 0.30 0.43 0.49 0.44 0.44 0.32 0.32 0.31 0.30 0.33 0.45 0.43 0.40 0.47 0.45 0.48 0.45 0.39 0.44 0.30 0.31 0.42 0.41 0.40 0.35 0.32 0.30 0.37 0.46 0.38 0.31 0.32 0.31 0.35 0.35 0.39 0.33 0.42 0.33 0.42 0.41 0.37 0.35 0.43 0.36 0.49 0.32 0.49 0.31 0.36 0.33 0.40 0.34 0.32 0.37 0.44 0.36 0.45 0.43 0.44 0.35 0.41 0.30 0.49 0.45 0.35 0.41 0.44 0.40 0.30 0.43 0.33 0.47 0.37 0.38 0.35 0.43 0.43 0.47 0.38 0.46 0.40 0.47 0.34 0.42 0.44 0.32 0.47 0.32 0.42 0.31 0.46 0.44 0.32 0.32 0.39 0.48 -9999 -9999 -9999 -9999 -9999 -9999 -9999 -9999 -9999 -9999 -9999 -9999 -9999 -9999 -9999 -9999 -9999 -9999 -9999 -9999 -9999 -9999 -9999 -9999 -9999 -9999 -9999 -9999 -9999 -9999 -9999 -9999 -9999 -9999 -9999 -9999 -9999 -9999 -9999 -9999 -9999 -9999
0.34 0.49 0.39 0.48 0.49 0.43 0.36 0.48 0.34 0.34 0.46 0.39 0.42 0.50 0.32 0.49 0.41 0.36 0.35 0.49 0.45 0.31 0.37 0.33 0.48 0.45 0.31 0.46 0.35 0.38 0.48 0.48 0.30 0.41 0.38 0.47 0.36 0.47 0.36 0.33 0.44 0.49 0.43 0.46 0.47 0.37 0.34 0.32 0.49 0.36 0.33 0.49 0.31 0.40 0.45 0.32 0.49 0.37 0.39 0.41 0.31 0.44 0.34 0.36 0.42 0.47 0.32 0.40 0.50 0.47 0.49 0.36 0.47 0.40 0.42 0.35 0.43 0.45 0.39 0.40 0.48 0.48 0.42 0.42 0.36 0.39 0.36 0.40 0.38 0.32 0.44 0.41 0.34 0.39 0.40 0.32 0.31 0.39 0.33 0.33 0.32 0.43 0.41 0.43 0.39 0.41 0.42 0.47 0.35 0.34 0.30 0.44 0.32 0.39 0.50 0.35 0.34 0.41 0.49 0.38 0.31 0.49 0.50 0.44 0.49 0.36 0.40 0.48 0.45 0.37 0.35 0.47 0.32 0.37 0.32 0.43 0.40 0.44 0.42 0.49 0.49 0.50 0.36 0.46 0.43 0.32 0.49 0.41 0.33 0.32 0.48 0.48 0.33 0.43 0.48 0.43 0.36 0.39 0.47 0.47 0.42 0.36 0.39 0.45 0.40 0.40 0.39 0.38 0.33 0.47 0.46 0.33 0.44 -9999 -9999 -9999 -9999 -9999 -9999 -9999 -9999 -9999 -9999 -9999 -9999 -9999 -9999 -9999 -9999 -9999 -9999 -9999 -9999 -9999 -9999 -9999 -9999 -9999 -9999 -9999 -9999 -9999 -9999 -9999 -9999 -9999 -9999 -9999 -9999 -9999 -9999 -9999 -9999 -9999 -9999
0.41 0.33 0.31 0.47 0.32 0.39 0.37 0.35 0.43 0.46 0.38 0.39 0.36 0.43 0.31 0.47 0.43 0.41 0.38 0.32 0.43 0.45 0.38 0.30 0.46 0.38 0.47 0.47 0.42 0.36 0.39 0.36 0.34 0.32 0.32 0.44 0.49 0.45 0.39 0.32 0.36 0.31 0.32 0.30 0.30 0.49 0.37 0.44 0.47 0.49 0.43 0.31 0.38 0.46 0.36 0.41 0.34 0.44 0.36 0.32 0.31 0.47 0.33 0.46 0.49 0.49 0.45 0.43 0.49 0.43 0.39 0.43 0.32 0.34 0.49 0.49 0.38 0.31 0.46 0.39 0.48 0.36 0.35 0.44 0.37 0.44 0.36 0.30 0.46 0.49 0.35 0.38 0.44 0.30 0.44 0.35 0.48 0.30 0.49 0.40 0.32 0.42 0.43 0.45 0.50 0.32 0.35 0.47 0.47 0.43 0.47 0.42 0.45 0.42 0.42 0.30 0.38 0.32 0.43 0.40 0.37 0.37 0.40 0.42 0.47 0.47 0.35 0.38 0.45 0.45 0.32 0.33 0.48 0.38 0.46 0.33 0.36 0.37 0.46 0.42 0.38 0.40 0.50 0.49 0.49 0.35 0.33 0.46 0.48 0.40 0.41 0.38 0.48 0.37 0.41 0.39 0.35 0.48 0.34 0.30 0.48 0.30 0.46 0.44 0.44 0.41 0.45 0.43 0.47 0.40 0.35 0.45 0.47 0.41 -9999 -9999 -9999 -9999 -9999 -9999 -9999 -9999 -9999 -9999 -9999 -9999 -9999 -9999 -9999 -9999 -9999 -9999 -9999 -9999 -9999 -9999 -9999 -9999 -9999 -9999 -9999 -9999 -9999 -9999 -9999 -9999 -9999 -9999 -9999 -9999 -9999 -9999 -9999 -9999 -9999
0.32 0.40 0.40 0.42 0.37 0.33 0.46 0.47 0.33 0.37 0.37 0.50 0.46 0.49 0.31 0.44 0.31 0.32 0.39 0.36 0.39 0.45 0.33 0.35 0.37 0.47 0.47 0.35 0.41 0.49 0.44 0.32 0.47 0.30 0.31 0.36 0.41 0.40 0.37 0.45 0.30 0.45 0.49 0.33 0.32 0.41 0.45 0.43 0.34 0.34 0.46 0.34 0.48 0.30 0.38 0.38 0.46 0.45 0.34 0.48 0.48 0.34 0.34 0.45 0.48 0.37 0.33 0.49 0.45 0.49 0.41 0.31 0.32 0.39 0.35 0.34 0.47 0.42 0.40 0.43 0.39 0.50 0.34 0.41 0.33 0.38 0.35 0.36 0.36 0.46 0.43 0.45 0.34 0.48 0.38 0.39 0.35 0.32 0.44 0.38 0.49 0.43 0.41 0.49 0.46 0.35 0.46 0.48 0.33 0.48 0.36 0.40 0.43 0.40 0.33 0.36 0.35 0.49 0.44 0.38 0.35 0.34 0.47 0.31 0.36 0.37 0.36 0.41 0.38 0.46 0.32 0.31 0.48 0.45 0.39 0.43 0.32 0.49 0.32 0.44 0.48 0.47 0.33 0.33 0.44 0.46 0.38 0.36 0.46 0.50 0.31 0.35 0.42 0.33 0.30 0.35 0.33 0.33 0.37 0.42 0.42 0.41 0.42 0.30 0.49 0.39 0.46 0.47 0.34 0.31 0.43 0.44 0.49 0.32 -9999 -9999 -9999 -9999 -9999 -9999 -9999 -9999 -9999 -9999 -9999 -9999 -9999 -9999 -9999 -9999 -9999 -9999 -9999 -9999 -9999 -9999 -9999 -9999 -9999 -9999 -9999 -9999 -9999 -9999 -9999 -9999 -9999 -9999 -9999 -9999 -9999 -9999 -9999 -9999 -9999
0.47 0.41 0.45 0.32 0.47 0.48 0.45 0.42 0.35 0.34 0.40 0.49 0.48 0.32 0.39 0.39 0.39 0.40 0.36 0.32 0.31 0.45 0.38 0.33 0.34 0.35 0.45 0.43 0.30 0.39 0.34 0.42 0.31 0.47 0.46 0.50 0.44 0.32 0.41 0.37 0.49 0.33 0.48 0.30 0.49 0.45 0.49 0.30 0.50 0.45 0.31 0.33 0.30 0.39 0.34 0.31 0.41 0.31 0.43 0.37 0.45 0.45 0.32 0.32 0.38 0.36 0.42 0.45 0.47 0.48 0.34 0.32 0.45 0.47 0.35 0.49 0.41 0.33 0.33 0.44 0.44 0.35 0.39 0.30 0.33 0.43 0.41 0.37 0.47 0.49 0.43 0.40 0.40 0.47 0.44 0.38 0.47 0.49 0.49 0.50 0.32 0.42 0.41 0.42 0.40 0.49 0.32 0.31 0.34 0.37 0.37 0.36 0.35 0.48 0.32 0.33 0.41 0.43 0.47 0.39 0.42 0.47 0.33 0.47 0.44 0.40 0.43 0.35 0.36 0.50 0.41 0.47 0.35 0.47 0.48 0.44 0.31 0.35 0.32 0.31 0.36 0.47 0.41 0.46 0.44 0.36 0.35 0.47 0.48 0.48 0.43 0.42 0.38 0.30 0.43 0.37 0.31 0.46 0.35 0.32 0.49 0.47 0.42 0.40 0.38 0.49 0.46 0.47 0.39 0.41 0.31 0.33 0.38 0.47 -9999 -9999 -9999 -9999 -9999 -9999 -9999 -9999 -9999 -9999 -9999 -9999 -9999 -9999 -9999 -9999 -9999 -9999 -9999 -9999 -9999 -9999 -9999 -9999 -9999 -9999 -9999 -9999 -9999 -9999 -9999 -9999 -9999 -9999 -9999 -9999 -9999 -9999 -9999 -9999 -9999
0.36 0.32 0.36 0.38 0.45 0.39 0.43 0.32 0.30 0.46 0.31 0.41 0.46 0.50 0.48 0.36 0.41 0.48 0.42 0.46 0.31 0.30 0.33 0.34 0.48 0.35 0.46 0.48 0.36 0.34 0.41 0.43 0.44 0.36 0.32 0.48 0.48 0.44 0.48 0.48 0.41 0.37 0.33 0.40 0.33 0.43 0.32 0.41 0.39 0.36 0.33 0.41 0.35 0.46 0.39 0.40 0.32 0.48 0.49 0.37 0.36 0.33 0.44 0.39 0.47 0.31 0.35 0.36 0.46 0.31 0.49 0.36 0.34 0.40 0.35 0.40 0.40 0.35 0.30 0.48 0.44 0.45 0.46 0.36 0.36 0.32 0.46 0.30 0.39 0.43 0.37 0.40 0.46 0.39 0.44 0.41 0.31 0.34 0.47 0.46 0.36 0.39 0.49 0.39 0.31 0.36 0.31 0.33 0.49 0.44 0.44 0.32 0.32 0.37 0.44 0.31 0.50 0.34 0.46 0.42 0.41 0.33 0.40 0.46 0.42 0.31 0.36 0.46 0.32 0.34 0.31 0.50 0.48 0.33 0.33 0.33 0.39 0.39 0.48 0.42 0.44 0.33 0.34 0.47 0.38 0.45 0.32 0.39 0.44 0.48 0.35 0.31 0.34 0.40 0.47 0.39 0.42 0.46 0.45 0.38 0.46 0.30 0.43 0.36 0.32 0.36 0.48 0.34 0.37 0.31 0.37 0.45 0.42 0.45 -9999 -9999 -9999 -9999 -9999 -9999 -9999 -9999 -9999 -9999 -9999 -9999 -9999 -9999 -9999 -9999 -9999 -9999 -9999 -9999 -9999 -9999 -9999 -9999 -9999 -9999 -9999 -9999 -9999 -9999 -9999 -9999 -9999 -9999 -9999 -9999 -9999 -9999 -9999 -9999 -9999
0.44 0.33 0.48 0.48 0.46 0.33 0.41 0.42 0.41 0.37 0.46 0.32 0.33 0.40 0.39 0.48 0.42 0.48 0.49 0.35 0.43 0.31 0.47 0.48 0.34 0.44 0.48 0.41 0.45 0.34 0.45 0.31 0.37 0.36 0.37 0.41 0.41 0.47 0.44 0.35 0.39 0.48 0.49 0.41 0.31 0.44 0.43 0.42 0.42 0.46 0.38 0.46 0.43 0.30 0.40 0.38 0.46 0.48 0.44 0.38 0.40 0.30 0.45 0.43 0.47 0.48 0.46 0.30 0.37 0.45 0.49 0.50 0.34 0.32 0.34 0.35 0.32 0.41 0.45 0.49 0.30 0.30 0.50 0.34 0.31 0.46 0.41 0.42 0.31 0.49 0.39 0.39 0.41 0.47 0.38 0.37 0.40 0.44 0.35 0.46 0.37 0.42 0.30 0.30 0.47 0.42 0.48 0.37 0.48 0.41 0.45 0.37 0.44 0.45 0.43 0.43 0.42 0.37 0.45 0.36 0.31 0.31 0.37 0.41 0.41 0.36 0.49 0.37 0.32 0.35 0.31 0.41 0.41 0.35 0.46 0.49 0.44 0.43 0.33 0.32 0.45 0.37 0.31 0.46 0.34 0.44 0.32 0.34 0.46 0.31 0.40 0.40 0.37 0.45 0.32 0.46 0.37 0.40 0.37 0.50 0.37 0.46 0.41 0.31 0.36 0.47 0.43 0.31 0.43 0.44 0.38 0.45 0.35 0.35 -9999 -9999 -9999 -9999 -9999 -9999 -9999 -9999 -9999 -9999 -9999 -9999 -9999 -9999 -9999 -9999 -9999 -9999 -9999 -9999 -9999 -9999 -9999 -9999 -9999 -9999 -9999 -9999 -9999 -9999 -9999 -9999 -9999 -9999 -9999 -9999 -9999 -9999 -9999 -9999 -9999
0.42 0.39 0.33 0.44 0.38 0.32 0.31 0.39 0.35 0.37 0.49 0.47 0.40 0.36 0.50 0.38 0.30 0.43 0.34 0.49 0.42 0.35 0.41 0.45 0.33 0.41 0.48 0.46 0.36 0.48 0.36 0.32 0.44 0.43 0.44 0.40 0.47 0.39 0.48 0.50 0.41 0.49 0.30 0.41 0.40 0.35 0.30 0.37 0.38 0.48 0.34 0.45 0.38 0.40 0.47 0.35 0.40 0.40 0.37 0.38 0.38 0.40 0.49 0.32 0.46 0.40 0.46 0.44 0.34 0.37 0.49 0.31 0.39 0.38 0.47 0.34 0.43 0.38 0.39 0.36 0.38 0.44 0.35 0.34 0.46 0.43 0.50 0.47 0.41 0.31 0.46 0.36 0.43 0.30 0.30 0.49 0.32 0.33 0.50 0.31 0.40 0.48 0.49 0.47 0.32 0.47 0.40 0.38 0.34 0.34 0.42 0.43 0.34 0.36 0.35 0.43 0.39 0.49 0.31 0.39 0.42 0.43 0.37 0.39 0.48 0.37 0.35 0.37 0.40 0.48 0.35 0.31 0.48 0.41 0.44 0.46 0.34 0.32 0.44 0.46 0.38 0.30 0.44 0.31 0.39 0.47 0.38 0.47 0.32 0.50 0.50 0.34 0.40 0.43 0.34 0.39 0.36 0.37 0.40 0.49 0.36 0.50 0.33 0.38 0.36 0.43 0.48 0.38 0.32 0.45 0.50 0.50 0.49 0.40 -9999 -9999 -9999 -9999 -9999 -9999 -9999 -9999 -9999 -9999 -9999 -9999 -9999 -9999 -9999 -9999 -9999 -9999 -9999 -9999 -9999 -9999 -9999 -9999 -9999 -9999 -9999 -9999 -9999 -9999 -9999 -9999 -9999 -9999 -9999 -9999 -9999 -9999 -9999 -9999 -9999
0.47 0.31 0.45 0.46 0.41 0.37 0.44 0.33 0.43 0.38 0.35 0.48 0.42 0.44 0.43 0.39 0.37 0.31 0.31 0.47 0.37 0.39 0.37 0.49 0.43 0.30 0.37 0.39 0.44 0.44 0.42 0.47 0.31 0.38 0.44 0.31 0.42 0.37 0.34 0.41 0.37 0.45 0.47 0.33 0.35 0.39 0.39 0.37 0.45 0.44 0.36 0.37 0.46 0.38 0.45 0.44 0.31 0.37 0.41 0.38 0.45 0.46 0.35 0.31 0.31 0.31 0.39 0.33 0.30 0.45 0.31 0.39 0.48 0.33 0.46 0.43 0.46 0.43 0.38 0.35 0.50 0.49 0.46 0.46 0.37 0.40 0.32 0.46 0.30 0.40 0.35 0.33 0.31 0.46 0.30 0.38 0.42 0.31 0.45 0.32 0.48 0.41 0.43 0.45 0.38 0.37 0.44 0.43 0.36 0.45 0.36 0.36 0.35 0.46 0.45 0.31 0.31 0.44 0.36 0.46 0.48 0.35 0.35 0.44 0.42 0.40 0.36 0.39 0.34 0.46 0.30 0.34 0.32 0.31 0.39 0.40 0.47 0.47 0.36 0.44 0.37 0.48 0.34 0.40 0.41 0.42 0.44 0.33 0.33 0.32 0.39 0.37 0.47 0.49 0.31 0.37 0.48 0.44 0.43 0.37 0.39 0.49 0.36 0.48 0.36 0.38 0.30 0.48 0.46 0.44 0.41 0.40 0.49 0.32 0.36 -9999 -9999 -9999 -9999 -9999 -9999 -9999 -9999 -9999 -9999 -9999 -9999 -9999 -9999 -9999 -9999 -9999 -9999 -9999 -9999 -9999 -9999 -9999 -9999 -9999 -9999 -9999 -9999 -9999 -9999 -9999 -9999 -9999 -9999 -9999 -9999 -9999 -9999 -9999 -9999
0.48 0.36 0.36 0.46 0.46 0.43 0.44 0.50 0.47 0.35 0.44 0.31 0.31 0.32 0.31 0.37 0.31 0.44 0.47 0.38 0.46 0.32 0.33 0.43 0.42 0.37 0.37 0.38 0.43 0.49 0.40 0.39 0.32 0.36 0.46 0.31 0.32 0.36 0.33 0.32 0.32 0.34 0.45 0.49 0.33 0.34 0.32 0.36 0.48 0.33 0.42 0.47 0.48 0.42 0.45 0.35 0.39 0.49 0.33 0.33 0.35 0.48 0.48 0.44 0.39 0.43 0.33 0.35 0.36 0.33 0.31 0.50 0.32 0.32 0.34 0.46 0.31 0.48 0.39 0.39 0.34 0.35 0.37 0.40 0.47 0.47 0.37 0.37 0.50 0.41 0.36 0.33 0.44 0.33 0.43 0.41 0.30 0.36 0.37 0.34 0.33 0.43 0.43 0.45 0.41 0.40 0.48 0.40 0.49 0.45 0.37 0.49 0.39 0.36 0.45 0.38 0.41 0.36 0.38 0.33 0.43 0.36 0.30 0.40 0.34 0.49 0.42 0.45 0.45 0.42 0.46 0.41 0.30 0.45 0.39 0.31 0.41 0.40 0.50 0.40 0.33 0.42 0.31 0.41 0.42 0.46 0.37 0.45 0.40 0.48 0.31 0.49 0.45 0.36 0.41 0.45 0.35 0.44 0.46 0.36 0.50 0.43 0.33 0.44 0.33 0.31 0.36 0.36 0.31 0.31 0.47 0.43 0.34 0.31 0.38 -9999 -9999 -9999 -9999 -9999 -9999 -9999 -9999 -9999 -9999 -9999 -9999 -9999 -9999 -9999 -9999 -9999 -9999 -9999 -9999 -9999 -9999 -9999 -9999 -9999 -9999 -9999 -9999 -9999 -9999 -9999 -9999 -9999 -9999 -9999 -9999 -9999 -9999 -9999 -9999
0.45 0.35 0.49 0.46 0.31 0.42 0.42 0.33 0.46 0.41 0.46 0.43 0.36 0.33 0.34 0.42 0.48 0.31 0.49 0.45 0.48 0.41 0.42 0.34 0.32 0.50 0.38 0.36 0.44 0.39 0.34 0.39 0.41 0.47 0.42 0.30 0.34 0.37 0.33 0.43 0.49 0.32 0.41 0.39 0.31 0.47 0.33 0.43 0.35 0.48 0.45 0.45 0.35 0.42 0.36 0.33 0.45 0.49 0.34 0.41 0.40 0.37 0.44 0.33 0.31 0.31 0.44 0.49 0.48 0.39 0.42 0.38 0.49 0.46 0.34 0.43 0.47 0.34 0.42 0.42 0.50 0.44 0.36 0.31 0.38 0.49 0.37 0.39 0.41 0.47 0.41 0.34 0.46 0.32 0.47 0.43 0.44 0.39 0.41 0.47 0.40 0.46 0.34 0.31 0.32 0.38 0.35 0.40 0.30 0.50 0.49 0.42 0.43 0.48 0.43 0.46 0.41 0.44 0.45 0.37 0.36 0.36 0.47 0.47 0.47 0.41 0.43 0.42 0.35 0.37 0.36 0.36 0.36 0.43 0.48 0.32 0.31 0.44 0.41 0.37 0.31 0.49 0.42 0.49 0.36 0.32 0.42 0.41 0.36 0.49 0.42 0.44 0.32 0.37 0.35 0.38 0.31 0.41 0.31 0.46 0.49 0.46 0.34 0.33 0.44 0.42 0.39 0.45 0.44 0.37 0.40 0.32 0.35 0.32 0.41 -9999 -9999 -9999 -9999 -9999 -9999 -9999 -9999 -9999 -9999 -9999 -9999 -9999 -9999 -9999 -9999 -9999 -9999 -9999 -9999 -9999 -9999 -9999 -9999 -9999 -9999 -9999 -9999 -9999 -9999 -9999 -9999 -9999 -9999 -9999 -9999 -9999 -9999 -9999 -9999
0.35 0.48 0.33 0.48 0.45 0.32 0.45 0.36 0.43 0.36 0.30 0.32 0.41 0.47 0.36 0.30 0.40 0.33 0.43 0.35 0.32 0.46 0.40 0.31 0.31 0.31 0.33 0.30 0.36 0.42 0.37 0.44 0.42 0.41 0.37 0.39 0.32 0.36 0.40 0.39 0.46 0.37 0.41 0.31 0.35 0.41 0.45 0.46 0.40 0.37 0.48 0.35 0.38 0.31 0.30 0.49 0.45 0.34 0.31 0.41 0.42 0.42 0.33 0.49 0.49 0.38 0.30 0.47 0.39 0.35 0.45 0.31 0.33 0.40 0.42 0.49 0.40 0.40 0.34 0.37 0.45 0.31 0.36 0.50 0.45 0.48 0.37 0.39 0.41 0.40 0.38 0.42 0.42 0.48 0.36 0.38 0.33 0.30 0.44 0.37 0.30 0.32 0.45 0.42 0.44 0.48 0.43 0.43 0.48 0.32 0.39 0.31 0.32 0.37 0.47 0.45 0.39 0.48 0.48 0.30 0.45 0.37 0.47 0.48 0.49 0.32 0.45 0.38 0.37 0.35 0.42 0.34 0.40 0.38 0.36 0.36 0.48 0.38 0.44 0.41 0.37 0.49 0.45 0.34 0.43 0.43 0.36 0.46 0.46 0.35 0.39 0.47 0.39 0.34 0.35 0.45 0.36 0.33 0.46 0.34 0.39 0.48 0.39 0.36 0.41 0.44 0.37 0.50 0.48 0.32 0.45 0.33 0.36 0.46 0.33 -9999 -9999 -9999 -9999 -9999 -9999 -9999 -9999 -9999 -9999 -9999 -9999 -9999 -9999 -9999 -9999 -9999 -9999 -9999 -9999 -9999 -9999 -9999 -9999 -9999 -9999 -9999 -9999 -9999 -9999 -9999 -9999 -9999 -9999 -9999 -9999 -9999 -9999 -9999 -9999
0.41 0.34 0.47 0.30 0.44 0.46 0.31 0.39 0.45 0.47 0.34 0.33 0.42 0.35 0.40 0.44 0.34 0.38 0.43 0.38 0.43 0.35 0.44 0.46 0.40 0.45 0.49 0.32 0.47 0.32 0.37 0.45 0.41 0.40 0.43 0.49 0.35 0.49 0.41 0.49 0.46 0.35 0.31 0.47 0.30 0.39 0.49 0.47 0.37 0.37 0.43 0.46 0.39 0.39 0.44 0.42 0.35 0.36 0.49 0.48 0.36 0.40 0.36 0.35 0.35 0.49 0.37 0.34 0.38 0.48 0.32 0.46 0.36 0.45 0.30 0.49 0.46 0.33 0.40 0.47 0.43 0.48 0.46 0.31 0.35 0.30 0.47 0.42 0.46 0.43 0.40 0.37 0.45 0.35 0.46 0.40 0.38 0.42 0.42 0.40 0.41 0.46 0.43 0.43 0.46 0.33 0.41 0.43 0.49 0.43 0.34 0.49 0.49 0.31 0.44 0.35 0.49 0.40 0.33 0.47 0.45 0.37 0.31 0.47 0.41 0.38 0.41 0.31 0.39 0.36 0.42 0.38 0.42 0.41 0.33 0.50 0.45 0.32 0.39 0.40 0.32 0.31 0.46 0.30 0.41 0.45 0.36 0.31 0.34 0.41 0.47 0.42 0.43 0.42 0.45 0.50 0.37 0.41 0.49 0.38 0.30 0.37 0.40 0.36 0.38 0.44 0.34 0.30 0.32 0.42 0.39 0.46 0.38 0.45 0.44 -9999 -9999 -9999 -9999 -9999 -9999 -9999 -9999 -9999 -9999 -9999 -9999 -9999 -9999 -9999 -9999 -9999 -9999 -9999 -9999 -9999 -9999 -9999 -9999 -9999 -9999 -9999 -9999 -9999 -9999 -9999 -9999 -9999 -9999 -9999 -9999 -9999 -9999 -9999 -9999
0.44 0.42 0.48 0.49 0.47 0.35 0.45 0.44 0.44 0.45 0.35 0.50 0.31 0.50 0.34 0.31 0.47 0.45 0.38 0.37 0.45 0.42 0.41 0.42 0.36 0.32 0.47 0.45 0.43 0.40 0.36 0.36 0.40 0.42 0.49 0.42 0.33 0.39 0.43 0.39 0.50 0.33 0.37 0.43 0.48 0.49 0.35 0.32 0.49 0.41 0.34 0.49 0.48 0.34 0.45 0.44 0.46 0.48 0.35 0.41 0.44 0.41 0.44 0.43 0.42 0.48 0.45 0.43 0.40 0.33 0.33 0.31 0.41 0.42 0.48 0.31 0.48 0.45 0.41 0.31 0.35 0.31 0.36 0.31 0.36 0.43 0.36 0.48 0.41 0.36 0.37 0.46 0.40 0.32 0.35 0.32 0.33 0.37 0.41 0.50 0.32 0.43 0.41 0.42 0.34 0.41 0.44 0.45 0.36 0.38 0.47 0.48 0.43 0.31 0.39 0.38 0.43 0.37 0.37 0.40 0.48 0.32 0.48 0.39 0.47 0.47 0.43 0.31 0.37 0.41 0.35 0.33 0.46 0.50 0.37 0.44 0.31 0.36 0.37 0.36 0.49 0.42 0.39 0.45 0.34 0.40 0.42 0.45 0.39 0.39 0.37 0.41 0.38 0.49 0.30 0.48 0.45 0.33 0.50 0.40 0.33 0.36 0.43 0.48 0.48 0.49 0.41 0.36 0.38 0.45 0.42 0.40 0.44 0.42 0.35 -9999 -9999 -9999 -9999 -9999 -9999 -9999 -9999 -9999 -9999 -9999 -9999 -9999 -9999 -9999 -9999 -9999 -9999 -9999 -9999 -9999 -9999 -9999 -9999 -9999 -9999 -9999 -9999 -9999 -9999 -9999 -9999 -9999 -9999 -9999 -9999 -9999 -9999 -9999 -9999
0.31 0.32 0.39 0.48 0.31 0.40 0.37 0.44 0.48 0.44 0.45 0.39 0.41 0.39 0.39 0.32 0.45 0.38 0.34 0.43 0.34 0.33 0.46 0.40 0.46 0.46 0.34 0.35 0.34 0.42 0.46 0.48 0.49 0.37 0.37 0.42 0.45 0.33 0.50 0.36 0.42 0.33 0.35 0.33 0.43 0.36 0.40 0.40 0.38 0.45 0.31 0.34 0.31 0.47 0.34 0.45 0.46 0.32 0.45 0.42 0.39 0.46 0.48 0.34 0.40 0.50 0.33 0.50 0.45 0.36 0.39 0.38 0.47 0.48 0.42 0.46 0.37 0.35 0.35 0.44 0.37 0.45 0.39 0.36 0.38 0.31 0.46 0.45 0.41 0.49 0.32 0.32 0.38 0.35 0.37 0.44 0.36 0.46 0.34 0.46 0.39 0.47 0.50 0.45 0.40 0.48 0.48 0.37 0.47 0.45 0.42 0.34 0.48 0.34 0.38 0.38 0.31 0.46 0.47 0.47 0.34 0.41 0.34 0.39 0.41 0.39 0.39 0.45 0.48 0.33 0.32 0.38 0.41 0.33 0.37 0.38 0.38 0.32 0.30 0.40 0.31 0.34 0.37 0.36 0.32 0.33 0.42 0.46 0.41 0.36 0.49 0.35 0.33 0.47 0.49 0.38 0.34 0.49 0.33 0.49 0.36 0.36 0.34 0.50 0.40 0.48 0.40 0.36 0.46 0.30 0.43 0.33 0.31 0.47 0.40 0.34 -9999 -9999 -9999 -9999 -9999 -9999 -9999 -9999 -9999 -9999 -9999 -9999 -9999 -9999 -9999 -9999 -9999 -9999 -9999 -9999 -9999 -9999 -9999 -9999 -9999 -9999 -9999 -9999 -9999 -9999 -9999 -9999 -9999 -9999 -9999 -9999 -9999 -9999 -9999
0.47 0.34 0.48 0.36 0.35 0.32 0.32 0.41 0.46 0.48 0.46 0.37 0.43 0.42 0.41 0.45 0.42 0.45 0.46 0.31 0.40 0.46 0.43 0.35 0.31 0.49 0.31 0.36 0.33 0.35 0.34 0.33 0.47 0.45 0.47 0.43 0.32 0.31 0.36 0.44 0.43 0.45 0.37 0.41 0.48 0.49 0.30 0.42 0.47 0.38 0.48 0.45 0.33 0.49 0.33 0.30 0.37 0.45 0.44 0.41 0.43 0.41 0.38 0.36 0.46 0.34 0.38 0.41 0.46 0.45 0.47 0.45 0.30 0.48 0.40 0.36 0.31 0.43 0.41 0.47 0.46 0.34 0.41 0.42 0.41 0.36 0.35 0.31 0.36 0.36 0.38 0.46 0.36 0.39 0.35 0.37 0.40 0.37 0.37 0.35 0.33 0.42 0.44 0.43 0.36 0.48 0.36 0.47 0.39 0.44 0.45 0.41 0.48 0.47 0.43 0.38 0.36 0.43 0.35 0.48 0.42 0.41 0.38 0.42 0.47 0.37 0.42 0.42 0.44 0.42 0.30 0.43 0.33 0.50 0.40 0.40 0.40 0.47 0.32 0.42 0.40 0.33 0.50 0.39 0.46 0.47 0.48 0.42 0.44 0.46 0.39 0.31 0.35 0.46 0.36 0.47 0.39 0.46 0.49 0.47 0.43 0.35 0.39 0.41 0.46 0.30 0.41 0.44 0.41 0.46 0.33 0.47 0.32 0.31 0.41 0.40 -9999 -9999 -9999 -9999 -9999 -9999 -9999 -9999 -9999 -9999 -9999 -9999 -9999 -9999 -9999 -9999 -9999 -9999 -9999 -9999 -9999 -9999 -9999 -9999 -9999 -9999 -9999 -9999 -9999 -9999 -9999 -9999 -9999 -9999 -9999 -9999 -9999 -9999 -9999
0.31 0.37 0.34 0.34 0.40 0.31 0.48 0.32 0.32 0.30 0.35 0.35 0.46 0.38 0.30 0.41 0.32 0.36 0.44 0.44 0.42 0.38 0.35 0.35 0.48 0.49 0.36 0.48 0.45 0.35 0.42 0.34 0.43 0.40 0.33 0.48 0.35 0.38 0.42 0.47 0.33 0.50 0.43 0.45 0.41 0.33 0.43 0.44 0.31 0.37 0.36 0.37 0.33 0.49 0.35 0.47 0.42 0.32 0.46 0.44 0.49 0.30 0.43 0.49 0.33 0.45 0.41 0.44 0.33 0.38 0.43 0.40 0.40 0.44 0.34 0.31 0.34 0.32 0.34 0.41 0.38 0.33 0.46 0.39 0.36 0.32 0.42 0.30 0.49 0.35 0.39 0.34 0.49 0.35 0.31 0.43 0.37 0.33 0.31 0.42 0.46 0.40 0.34 0.35 0.42 0.41 0.42 0.35 0.40 0.46 0.34 0.47 0.34 0.47 0.50 0.40 0.34 0.50 0.31 0.50 0.46 0.43 0.34 0.36 0.45 0.39 0.45 0.35 0.45 0.36 0.42 0.34 0.44 0.33 0.33 0.42 0.32 0.40 0.43 0.37 0.33 0.37 0.31 0.48 0.41 0.37 0.35 0.38 0.32 0.49 0.48 0.48 0.35 0.48 0.34 0.35 0.35 0.38 0.48 0.47 0.38 0.40 0.33 0.43 0.43 0.35 0.49 0.40 0.50 0.39 0.41 0.32 0.42 0.36 0.39 0.43 -9999 -9999 -9999 -9999 -9999 -9999 -9999 -9999 -9999 -9999 -9999 -9999 -9999 -9999 -9999 -9999 -9999 -9999 -9999 -9999 -9999 -9999 -9999 -9999 -9999 -9999 -9999 -9999 -9999 -9999 -9999 -9999 -9999 -9999 -9999 -9999 -9999 -9999 -9999
0.35 0.44 0.47 0.35 0.34 0.32 0.46 0.33 0.44 0.49 0.44 0.40 0.37 0.33 0.43 0.33 0.35 0.35 0.35 0.30 0.35 0.49 0.31 0.32 0.49 0.46 0.38 0.47 0.42 0.40 0.42 0.40 0.40 0.33 0.33 0.43 0.33 0.41 0.38 0.33 0.37 0.38 0.34 0.35 0.47 0.39 0.43 0.30 0.43 0.40 0.45 0.50 0.33 0.42 0.33 0.45 0.40 0.45 0.31 0.34 0.38 0.48 0.33 0.36 0.36 0.48 0.36 0.41 0.47 0.41 0.37 0.33 0.33 0.32 0.41 0.50 0.42 0.38 0.33 0.35 0.39 0.42 0.47 0.34 0.41 0.38 0.37 0.36 0.31 0.41 0.49 0.40 0.36 0.38 0.34 0.43 0.42 0.48 0.44 0.36 0.31 0.44 0.47 0.42 0.48 0.33 0.44 0.35 0.43 0.42 0.35 0.34 0.46 0.49 0.47 0.47 0.30 0.42 0.42 0.43 0.39 0.40 0.32 0.49 0.42 0.49 0.35 0.32 0.46 0.49 0.46 0.32 0.42 0.43 0.47 0.36 0.38 0.46 0.31 0.45 0.40 0.41 0.50 0.36 0.48 0.33 0.45 0.43 0.50 0.50 0.44 0.47 0.44 0.49 0.50 0.32 0.34 0.49 0.34 0.46 0.41 0.35 0.50 0.41 0.45 0.47 0.31 0.41 0.49 0.49 0.33 0.45 0.43 0.32 0.48 0.44 -9999 -9999 -9999 -9999 -9999 -9999 -9999 -9999 -9999 -9999 -9999 -9999 -9999 -9999 -9999 -9999 -9999 -9999 -9999 -9999 -9999 -9999 -9999 -9999 -9999 -9999 -9999 -9999 -9999 -9999 -9999 -9999 -9999 -9999 -9999 -9999 -9999 -9999 -9999
0.43 0.48 0.48 0.44 0.33 0.33 0.48 0.37 0.35 0.41 0.45 0.39 0.48 0.38 0.30 0.34 0.41 0.43 0.41 0.42 0.38 0.45 0.33 0.41 0.42 0.42 0.45 0.39 0.41 0.37 0.30 0.31 0.37 0.38 0.42 0.35 0.40 0.40 0.47 0.36 0.34 0.49 0.49 0.35 0.35 0.34 0.38 0.50 0.39 0.42 0.49 0.43 0.40 0.45 0.46 0.42 0.39 0.31 0.32 0.40 0.36 0.47 0.35 0.41 0.46 0.34 0.45 0.44 0.36 0.31 0.36 0.48 0.50 0.31 0.48 0.35 0.34 0.44 0.49 0.42 0.38 0.44 0.43 0.36 0.34 0.49 0.36 0.31 0.43 0.41 0.45 0.48 0.45 0.47 0.48 0.42 0.48 0.34 0.49 0.48 0.45 0.48 0.42 0.44 0.43 0.31 0.34 0.39 0.31 0.42 0.44 0.42 0.45 0.32 0.41 0.32 0.36 0.39 0.36 0.40 0.46 0.47 0.46 0.30 0.48 0.43 0.33 0.39 0.41 0.36 0.43 0.38 0.48 0.40 0.42 0.30 0.39 0.35 0.46 0.46 0.34 0.43 0.45 0.43 0.44 0.42 0.34 0.32 0.45 0.33 0.36 0.38 0.50 0.45 0.48 0.31 0.47 0.42 0.47 0.38 0.41 0.37 0.46 0.46 0.42 0.43 0.34 0.45 0.34 0.30 0.37 0.44 0.47 0.37 0.37 0.39 -9999 -9999 -9999 -9999 -9999 -9999 -9999 -9999 -9999 -9999 -9999 -9999 -9999 -9999 -9999 -9999 -9999 -9999 -9999 -9999 -9999 -9999 -9999 -9999 -9999 -9999 -9999 -9999 -9999 -9999 -9999 -9999 -9999 -9999 -9999 -9999 -9999 -9999 -9999
0.38 0.36 0.34 0.34 0.40 0.43 0.41 0.44 0.50 0.36 0.30 0.46 0.40 0.39 0.35 0.36 0.33 0.34 0.37 0.46 0.42 0.39 0.35 0.42 0.30 0.34 0.34 0.47 0.32 0.37 0.43 0.47 0.34 0.36 0.49 0.36 0.40 0.33 0.31 0.34 0.33 0.33 0.36 0.36 0.46 0.31 0.31 0.33 0.49 0.38 0.36 0.46 0.35 0.42 0.35 0.48 0.38 0.48 0.35 0.35 0.33 0.47 0.34 0.43 0.45 0.32 0.37 0.36 0.48 0.31 0.31 0.49 0.32 0.37 0.43 0.31 0.49 0.31 0.47 0.30 0.44 0.40 0.40 0.47 0.44 0.35 0.31 0.35 0.45 0.31 0.43 0.34 0.34 0.33 0.31 0.37 0.32 0.31 0.48 0.43 0.35 0.41 0.39 0.49 0.45 0.39 0.30 0.37 0.50 0.47 0.36 0.33 0.44 0.38 0.39 0.45 0.43 0.44 0.33 0.40 0.46 0.36 0.43 0.45 0.37 0.45 0.39 0.35 0.32 0.44 0.49 0.32 0.47 0.37 0.41 0.45 0.30 0.36 0.31 0.48 0.39 0.32 0.42 0.45 0.33 0.35 0.38 0.39 0.48 0.46 0.38 0.32 0.31 0.48 0.40 0.50 0.46 0.42 0.47 0.41 0.34 0.40 0.38 0.44 0.38 0.38 0.49 0.41 0.34 0.39 0.39 0.39 0.34 0.33 0.48 0.31 -9999 -9999 -9999 -9999 -9999 -9999 -9999 -9999 -9999 -9999 -9999 -9999 -9999 -9999 -9999 -9999 -9999 -9999 -9999 -9999 -9999 -9999 -9999 -9999 -9999 -9999 -9999 -9999 -9999 -9999 -9999 -9999 -9999 -9999 -9999 -9999 -9999 -9999 -9999
0.44 0.32 0.49 0.35 0.46 0.48 0.33 0.41 0.33 0.36 0.47 0.34 0.31 0.32 0.50 0.45 0.43 0.35 0.36 0.49 0.34 0.34 0.34 0.46 0.41 0.35 0.42 0.39 0.45 0.43 0.43 0.49 0.43 0.47 0.35 0.38 0.47 0.41 0.41 0.30 0.44 0.32 0.50 0.36 0.46 0.30 0.41 0.34 0.40 0.49 0.37 0.49 0.39 0.37 0.41 0.31 0.48 0.32 0.35 0.43 0.42 0.33 0.39 0.36 0.32 0.40 0.45 0.49 0.32 0.48 0.37 0.39 0.47 0.35 0.36 0.31 0.36 0.48 0.46 0.32 0.36 0.33 0.34 0.47 0.45 0.39 0.31 0.37 0.48 0.33 0.47 0.45 0.44 0.46 0.35 0.40 0.34 0.34 0.30 0.38 0.35 0.39 0.46 0.38 0.38 0.49 0.47 0.47 0.39 0.35 0.46 0.47 0.46 0.40 0.37 0.48 0.33 0.42 0.45 0.45 0.42 0.35 0.33 0.40 0.40 0.31 0.46 0.38 0.45 0.42 0.46 0.38 0.32 0.30 0.46 0.42 0.40 0.47 0.33 0.41 0.34 0.34 0.46 0.50 0.47 0.46 0.44 0.30 0.44 0.38 0.38 0.44 0.40 0.30 0.49 0.42 0.39 0.31 0.49 0.42 0.32 0.34 0.39 0.44 0.45 0.40 0.36 0.37 0.36 0.37 0.45 0.40 0.41 0.32 0.34 0.32 -9999 -9999 -9999 -9999 -9999 -9999 -9999 -9999 -9999 -9999 -9999 -9999 -9999 -9999 -9999 -9999 -9999 -9999 -9999 -9999 -9999 -9999 -9999 -9999 -9999 -9999 -9999 -9999 -9999 -9999 -9999 -9999 -9999 -9999 -9999 -9999 -9999 -9999 -9999
0.30 0.40 0.35 0.41 0.34 0.41 0.42 0.34 0.31 0.49 0.37 0.40 0.49 0.35 0.40 0.34 0.35 0.40 0.35 0.34 0.43 0.42 0.40 0.43 0.44 0.38 0.36 0.34 0.33 0.35 0.33 0.37 0.37 0.46 0.50 0.30 0.33 0.33 0.36 0.42 0.37 0.43 0.40 0.47 0.43 0.39 0.34 0.43 0.39 0.33 0.39 0.49 0.35 0.47 0.48 0.32 0.44 0.31 0.37 0.39 0.38 0.31 0.48 0.34 0.49 0.50 0.32 0.49 0.43 0.41 0.30 0.42 0.40 0.43 0.47 0.32 0.31 0.46 0.48 0.34 0.35 0.42 0.47 0.41 0.39 0.37 0.36 0.46 0.37 0.37 0.41 0.39 0.31 0.40 0.50 0.44 0.32 0.42 0.39 0.47 0.48 0.45 0.35 0.43 0.35 0.44 0.31 0.46 0.35 0.47 0.34 0.37 0.46 0.37 0.37 0.41 0.39 0.49 0.32 0.40 0.39 0.45 0.31 0.43 0.43 0.49 0.34 0.41 0.40 0.33 0.40 0.39 0.36 0.31 0.33 0.39 0.35 0.49 0.42 0.49 0.44 0.47 0.40 0.46 0.48 0.48 0.49 0.35 0.39 0.45 0.38 0.43 0.42 0.36 0.40 0.46 0.38 0.49 0.30 0.50 0.36 0.48 0.37 0.35 0.45 0.42 0.48 0.31 0.36 0.46 0.34 0.40 0.38 0.39 0.32 0.35 0.46 -9999 -9999 -9999 -9999 -9999 -9999 -9999 -9999 -9999 -9999 -9999 -9999 -9999 -9999 -9999 -9999 -9999 -9999 -9999 -9999 -9999 -9999 -9999 -9999 -9999 -9999 -9999 -9999 -9999 -9999 -9999 -9999 -9999 -9999 -9999 -9999 -9999 -9999
0.42 0.40 0.47 0.44 0.39 0.49 0.34 0.43 0.42 0.42 0.40 0.42 0.47 0.49 0.44 0.40 0.30 0.36 0.47 0.41 0.44 0.45 0.48 0.36 0.35 0.35 0.43 0.45 0.31 0.35 0.39 0.37 0.30 0.37 0.47 0.46 0.42 0.31 0.39 0.45 0.47 0.48 0.38 0.32 0.41 0.32 0.47 0.34 0.47 0.45 0.38 0.45 0.34 0.33 0.35 0.39 0.39 0.39 0.35 0.39 0.37 0.35 0.37 0.37 0.48 0.45 0.39 0.39 0.31 0.41 0.32 0.36 0.32 0.44 0.40 0.43 0.50 0.43 0.44 0.48 0.32 0.33 0.35 0.38 0.44 0.48 0.39 0.47 0.41 0.39 0.33 0.37 0.40 0.39 0.48 0.33 0.32 0.39 0.49 0.43 0.39 0.31 0.50 0.43 0.43 0.33 0.35 0.37 0.37 0.35 0.50 0.33 0.33 0.45 0.38 0.47 0.42 0.42 0.37 0.49 0.36 0.45 0.39 0.40 0.47 0.37 0.34 0.50 0.50 0.47 0.47 0.42 0.36 0.42 0.33 0.43 0.38 0.43 0.45 0.46 0.44 0.46 0.45 0.33 0.31 0.46 0.43 0.33 0.36 0.46 0.50 0.36 0.45 0.35 0.39 0.47 0.34 0.47 0.47 0.41 0.32 0.34 0.50 0.46 0.39 0.47 0.38 0.38 0.37 0.39 0.38 0.45 0.32 0.37 0.47 0.32 0.41 -9999 -9999 -9999 -9999 -9999 -9999 -9999 -9999 -9999 -9999 -9999 -9999 -9999 -9999 -9999 -9999 -9999 -9999 -9999 -9999 -9999 -9999 -9999 -9999 -9999 -9999 -9999 -9999 -9999 -9999 -9999 -9999 -9999 -9999 -9999 -9999 -9999 -9999
0.47 0.50 0.34 0.34 0.45 0.45 0.36 0.48 0.32 0.50 0.37 0.30 0.35 0.38 0.42 0.43 0.43 0.46 0.38 0.34 0.50 0.40 0.31 0.32 0.45 0.43 0.41 0.37 0.41 0.39 0.46 0.45 0.49 0.37 0.43 0.40 0.41 0.38 0.44 0.46 0.43 0.40 0.37 0.46 0.39 0.41 0.31 0.45 0.49 0.42 0.42 0.31 0.38 0.47 0.46 0.36 0.43 0.41 0.39 0.35 0.42 0.45 0.47 0.39 0.40 0.32 0.47 0.41 0.44 0.31 0.37 0.36 0.36 0.33 0.45 0.42 0.49 0.30 0.45 0.47 0.42 0.39 0.40 0.41 0.49 0.33 0.38 0.39 0.50 0.40 0.45 0.47 0.47 0.46 0.48 0.34 0.38 0.33 0.40 0.32 0.35 0.36 0.34 0.45 0.31 0.45 0.46 0.46 0.39 0.42 0.41 0.32 0.46 0.33 0.32 0.47 0.45 0.45 0.33 0.49 0.34 0.44 0.30 0.40 0.37 0.39 0.42 0.46 0.44 0.50 0.39 0.41 0.46 0.40 0.49 0.45 0.41 0.43 0.34 0.31 0.36 0.46 0.35 0.33 0.40 0.38 0.48 0.35 0.34 0.31 0.50 0.39 0.30 0.41 0.48 0.35 0.45 0.35 0.48 0.35 0.47 0.41 0.43 0.48 0.45 0.32 0.38 0.36 0.35 0.39 0.34 0.48 0.32 0.32 0.48 0.43 0.32 -9999 -9999 -9999 -9999 -9999 -9999 -9999 -9999 -9999 -9999 -9999 -9999 -9999 -9999 -9999 -9999 -9999 -9999 -9999 -9999 -9999 -9999 -9999 -9999 -9999 -9999 -9999 -9999 -9999 -9999 -9999 -9999 -9999 -9999 -9999 -9999 -9999 -9999
0.50 0.39 0.33 0.32 0.32 0.49 0.35 0.36 0.34 0.50 0.48 0.40 0.37 0.39 0.31 0.39 0.48 0.49 0.48 0.36 0.37 0.46 0.42 0.31 0.40 0.42 0.34 0.41 0.34 0.32 0.50 0.34 0.36 0.40 0.45 0.46 0.34 0.43 0.30 0.36 0.31 0.47 0.42 0.41 0.47 0.35 0.50 0.44 0.42 0.42 0.47 0.39 0.33 0.42 0.40 0.40 0.40 0.45 0.48 0.40 0.38 0.40 0.41 0.33 0.38 0.48 0.42 0.38 0.36 0.32 0.44 0.48 0.47 0.30 0.39 0.41 0.46 0.41 0.41 0.49 0.37 0.43 0.39 0.49 0.34 0.38 0.33 0.50 0.40 0.44 0.33 0.47 0.46 0.39 0.31 0.35 0.40 0.33 0.43 0.47 0.46 0.45 0.38 0.31 0.44 0.30 0.34 0.43 0.31 0.32 0.46 0.33 0.36 0.47 0.50 0.41 0.35 0.48 0.36 0.46 0.50 0.35 0.31 0.31 0.41 0.36 0.45 0.32 0.44 0.38 0.38 0.41 0.34 0.35 0.40 0.31 0.44 0.45 0.40 0.39 0.31 0.50 0.48 0.35 0.41 0.43 0.40 0.44 0.44 0.36 0.40 0.42 0.47 0.43 0.47 0.47 0.49 0.34 0.44 0.44 0.40 0.41 0.43 0.45 0.40 0.30 0.34 0.31 0.46 0.33 0.45 0.36 0.32 0.32 0.46 0.38 0.47 -9999 -9999 -9999 -9999 -9999 -9999 -9999 -9999 -9999 -9999 -9999 -9999 -9999 -9999 -9999 -9999 -9999 -9999 -9999 -9999 -9999 -9999 -9999 -9999 -9999 -9999 -9999 -9999 -9999 -9999 -9999 -9999 -9999 -9999 -9999 -9999 -9999 -9999
0.42 0.47 0.46 0.45 0.33 0.43 0.36 0.42 0.38 0.45 0.39 0.30 0.36 0.31 0.50 0.41 0.46 0.48 0.31 0.36 0.40 0.42 0.31 0.30 0.40 0.36 0.35 0.38 0.37 0.49 0.30 0.41 0.43 0.34 0.39 0.48 0.45 0.32 0.39 0.35 0.47 0.42 0.37 0.49 0.41 0.36 0.41 0.43 0.37 0.31 0.48 0.35 0.49 0.35 0.45 0.34 0.36 0.36 0.35 0.48 0.50 0.47 0.39 0.32 0.42 0.35 0.49 0.31 0.38 0.46 0.38 0.43 0.49 0.40 0.40 0.49 0.37 0.34 0.46 0.34 0.42 0.40 0.45 0.34 0.47 0.47 0.31 0.31 0.44 0.38 0.33 0.45 0.42 0.45 0.33 0.46 0.42 0.41 0.34 0.36 0.34 0.41 0.49 0.35 0.39 0.46 0.49 0.34 0.37 0.39 0.43 0.41 0.38 0.40 0.37 0.40 0.36 0.46 0.33 0.45 0.35 0.42 0.46 0.30 0.32 0.38 0.35 0.32 0.45 0.32 0.49 0.39 0.40 0.36 0.37 0.40 0.39 0.46 0.33 0.41 0.37 0.37 0.48 0.47 0.40 0.33 0.36 0.32 0.47 0.43 0.31 0.46 0.49 0.45 0.30 0.50 0.44 0.31 0.46 0.36 0.39 0.48 0.34 0.33 0.47 0.41 0.44 0.43 0.36 0.30 0.35 0.44 0.45 0.48 0.47 0.50 0.31 -9999 -9999 -9999 -9999 -9999 -9999 -9999 -9999 -9999 -9999 -9999 -9999 -9999 -9999 -9999 -9999 -9999 -9999 -9999 -9999 -9999 -9999 -9999 -9999 -9999 -9999 -9999 -9999 -9999 -9999 -9999 -9999 -9999 -9999 -9999 -9999 -9999 -9999
0.36 0.31 0.36 0.38 0.49 0.48 0.43 0.42 0.46 0.33 0.32 0.46 0.35 0.49 0.34 0.50 0.30 0.33 0.49 0.36 0.36 0.34 0.37 0.34 0.37 0.38 0.37 0.43 0.32 0.32 0.40 0.30 0.46 0.35 0.38 0.45 0.34 0.45 0.38 0.45 0.44 0.30 0.32 0.47 0.48 0.46 0.37 0.33 0.42 0.44 0.32 0.36 0.49 0.32 0.36 0.45 0.30 0.49 0.37 0.41 0.31 0.43 0.45 0.34 0.31 0.34 0.49 0.41 0.48 0.44 0.36 0.44 0.35 0.32 0.47 0.46 0.40 0.48 0.37 0.38 0.44 0.30 0.41 0.44 0.32 0.45 0.43 0.34 0.47 0.36 0.50 0.50 0.50 0.31 0.33 0.36 0.48 0.50 0.46 0.40 0.31 0.50 0.41 0.39 0.44 0.30 0.41 0.49 0.49 0.36 0.48 0.44 0.45 0.45 0.36 0.34 0.37 0.34 0.40 0.48 0.45 0.41 0.49 0.38 0.34 0.41 0.32 0.37 0.38 0.50 0.31 0.50 0.43 0.42 0.49 0.48 0.31 0.30 0.50 0.30 0.42 0.39 0.41 0.35 0.31 0.49 0.45 0.32 0.37 0.40 0.37 0.42 0.37 0.42 0.33 0.37 0.34 0.30 0.40 0.48 0.43 0.41 0.47 0.33 0.44 0.46 0.33 0.33 0.36 0.41 0.43 0.42 0.47 0.35 0.30 0.41 0.46 -9999 -9999 -9999 -9999 -9999 -9999 -9999 -9999 -9999 -9999 -9999 -9999 -9999 -9999 -9999 -9999 -9999 -9999 -9999 -9999 -9999 -9999 -9999 -9999 -9999 -9999 -9999 -9999 -9999 -9999 -9999 -9999 -9999 -9999 -9999 -9999 -9999 -9999
0.34 0.31 0.44 0.35 0.40 0.32 0.40 0.43 0.38 0.31 0.35 0.36 0.33 0.31 0.42 0.43 0.48 0.48 0.50 0.44 0.48 0.32 0.31 0.31 0.46 0.50 0.40 0.33 0.37 0.43 0.32 0.46 0.36 0.44 0.46 0.49 0.48 0.48 0.30 0.46 0.32 0.33 0.47 0.37 0.34 0.44 0.34 0.41 0.43 0.31 0.30 0.30 0.31 0.50 0.34 0.48 0.38 0.42 0.37 0.33 0.30 0.38 0.36 0.48 0.31 0.37 0.37 0.40 0.43 0.38 0.36 0.34 0.32 0.42 0.49 0.33 0.45 0.36 0.30 0.36 0.37 0.45 0.36 0.47 0.37 0.47 0.31 0.33 0.32 0.38 0.50 0.38 0.38 0.47 0.36 0.32 0.47 0.33 0.31 0.45 0.35 0.45 0.50 0.33 0.32 0.48 0.40 0.49 0.46 0.46 0.49 0.46 0.41 0.40 0.40 0.44 0.38 0.41 0.41 0.36 0.35 0.47 0.45 0.34 0.46 0.46 0.37 0.46 0.39 0.47 0.37 0.38 0.34 0.35 0.49 0.43 0.36 0.46 0.41 0.41 0.39 0.50 0.49 0.49 0.32 0.49 0.46 0.39 0.41 0.34 0.37 0.43 0.33 0.31 0.37 0.49 0.45 0.31 0.50 0.46 0.45 0.42 0.43 0.47 0.49 0.49 0.49 0.50 0.42 0.30 0.50 0.33 0.40 0.37 0.45 0.31 0.43 0.47 -9999 -9999 -9999 -9999 -9999 -9999 -9999 -9999 -9999 -9999 -9999 -9999 -9999 -9999 -9999 -9999 -9999 -9999 -9999 -9999 -9999 -9999 -9999 -9999 -9999 -9999 -9999 -9999 -9999 -9999 -9999 -9999 -9999 -9999 -9999 -9999 -9999
0.35 0.45 0.44 0.46 0.30 0.37 0.32 0.46 0.50 0.40 0.35 0.32 0.35 0.47 0.31 0.32 0.32 0.43 0.49 0.32 0.44 0.33 0.41 0.44 0.47 0.48 0.33 0.37 0.37 0.33 0.36 0.41 0.42 0.39 0.31 0.33 0.35 0.38 0.44 0.45 0.46 0.37 0.32 0.48 0.35 0.45 0.49 0.42 0.40 0.48 0.35 0.32 0.31 0.40 0.39 0.44 0.31 0.50 0.47 0.43 0.38 0.31 0.39 0.44 0.47 0.41 0.48 0.35 0.38 0.49 0.41 0.48 0.37 0.39 0.41 0.43 0.34 0.36 0.47 0.35 0.40 0.40 0.33 0.31 0.46 0.31 0.35 0.40 0.38 0.36 0.45 0.39 0.39 0.48 0.35 0.45 0.47 0.45 0.32 0.45 0.32 0.43 0.45 0.50 0.39 0.36 0.45 0.41 0.44 0.37 0.36 0.49 0.40 0.34 0.34 0.35 0.41 0.43 0.43 0.49 0.35 0.33 0.43 0.33 0.44 0.30 0.38 0.44 0.35 0.36 0.36 0.33 0.45 0.48 0.42 0.50 0.47 0.47 0.31 0.42 0.46 0.35 0.34 0.41 0.46 0.36 0.46 0.48 0.32 0.48 0.36 0.35 0.36 0.32 0.48 0.37 0.40 0.49 0.46 0.38 0.46 0.44 0.41 0.32 0.47 0.45 0.46 0.32 0.41 0.42 0.42 0.48 0.45 0.46 0.40 0.41 0.38 0.33 -9999 -9999 -9999 -9999 -9999 -9999 -9999 -9999 -9999 -9999 -9999 -9999 -9999 -9999 -9999 -9999 -9999 -9999 -9999 -9999 -9999 -9999 -9999 -9999 -9999 -9999 -9999 -9999 -9999 -9999 -9999 -9999 -9999 -9999 -9999 -9999 -9999
0.47 0.48 0.36 0.45 0.40 0.40 0.33 0.40 0.45 0.31 0.34 0.35 0.43 0.47 0.34 0.45 0.47 0.33 0.38 0.31 0.46 0.38 0.43 0.37 0.40 0.33 0.47 0.47 0.30 0.41 0.30 0.48 0.42 0.41 0.33 0.42 0.45 0.35 0.47 0.43 0.35 0.35 0.31 0.44 0.44 0.46 0.42 0.37 0.41 0.38 0.46 0.30 0.39 0.33 0.45 0.42 0.34 0.33 0.41 0.44 0.38 0.44 0.50 0.38 0.50 0.47 0.50 0.49 0.35 0.31 0.33 0.33 0.36 0.36 0.46 0.33 0.31 0.41 0.35 0.33 0.32 0.38 0.32 0.45 0.48 0.41 0.31 0.39 0.42 0.39 0.36 0.45 0.39 0.42 0.42 0.41 0.42 0.31 0.47 0.46 0.50 0.38 0.49 0.46 0.41 0.42 0.47 0.35 0.34 0.42 0.31 0.48 0.43 0.33 0.46 0.44 0.35 0.37 0.49 0.48 0.32 0.37 0.31 0.47 0.47 0.43 0.49 0.32 0.49 0.41 0.39 0.49 0.50 0.32 0.48 0.34 0.46 0.48 0.34 0.47 0.33 0.49 0.42 0.35 0.38 0.44 0.44 0.31 0.46 0.47 0.36 0.34 0.49 0.31 0.32 0.33 0.35 0.43 0.42 0.43 0.31 0.38 0.48 0.36 0.45 0.49 0.32 0.49 0.33 0.33 0.49 0.33 0.30 0.36 0.38 0.43 0.33 0.50 -9999 -9999 -9999 -9999 -9999 -9999 -9999 -9999 -9999 -9999 -9999 -9999 -9999 -9999 -9999 -9999 -9999 -9999 -9999 -9999 -9999 -9999 -9999 -9999 -9999 -9999 -9999 -9999 -9999 -9999 -9999 -9999 -9999 -9999 -9999 -9999 -9999
0.32 0.44 0.48 0.33 0.39 0.39 0.39 0.47 0.33 0.45 0.48 0.32 0.31 0.33 0.32 0.44 0.41 0.31 0.47 0.38 0.43 0.31 0.31 0.34 0.35 0.41 0.46 0.34 0.38 0.44 0.48 0.34 0.32 0.40 0.49 0.32 0.36 0.36 0.42 0.35 0.31 0.46 0.34 0.50 0.33 0.50 0.39 0.40 0.50 0.44 0.31 0.43 0.38 0.38 0.30 0.34 0.48 0.33 0.40 0.39 0.31 0.46 0.39 0.40 0.47 0.35 0.42 0.40 0.45 0.43 0.33 0.34 0.44 0.41 0.47 0.39 0.32 0.49 0.42 0.38 0.50 0.40 0.31 0.32 0.31 0.32 0.31 0.48 0.43 0.35 0.46 0.40 0.35 0.30 0.49 0.35 0.40 0.35 0.45 0.44 0.39 0.33 0.42 0.32 0.43 0.44 0.48 0.46 0.34 0.39 0.32 0.39 0.35 0.33 0.33 0.31 0.31 0.42 0.49 0.30 0.44 0.31 0.50 0.31 0.43 0.39 0.33 0.49 0.41 0.42 0.37 0.34 0.40 0.34 0.47 0.40 0.34 0.41 0.42 0.40 0.44 0.36 0.30 0.34 0.36 0.48 0.33 0.41 0.34 0.43 0.43 0.35 0.33 0.49 0.36 0.39 0.44 0.49 0.41 0.35 0.49 0.49 0.32 0.44 0.34 0.49 0.30 0.41 0.32 0.31 0.34 0.40 0.50 0.47 0.44 0.43 0.33 0.35 -9999 -9999 -9999 -9999 -9999 -9999 -9999 -9999 -9999 -9999 -9999 -9999 -9999 -9999 -9999 -9999 -9999 -9999 -9999 -9999 -9999 -9999 -9999 -9999 -9999 -9999 -9999 -9999 -9999 -9999 -9999 -9999 -9999 -9999 -9999 -9999 -9999
0.39 0.47 0.35 0.49 0.41 0.35 0.44 0.42 0.36 0.49 0.49 0.34 0.46 0.43 0.50 0.48 0.49 0.44 0.44 0.46 0.33 0.47 0.40 0.41 0.36 0.46 0.47 0.44 0.35 0.41 0.46 0.34 0.41 0.31 0.37 0.32 0.49 0.43 0.37 0.49 0.35 0.35 0.43 0.37 0.39 0.42 0.42 0.43 0.46 0.47 0.37 0.30 0.39 0.38 0.37 0.36 0.46 0.37 0.46 0.32 0.40 0.41 0.33 0.32 0.44 0.38 0.44 0.47 0.31 0.35 0.45 0.49 0.30 0.43 0.31 0.49 0.39 0.35 0.41 0.43 0.40 0.43 0.37 0.45 0.48 0.36 0.32 0.32 0.39 0.31 0.32 0.46 0.34 0.44 0.32 0.30 0.45 0.45 0.40 0.31 0.37 0.40 0.41 0.37 0.35 0.32 0.31 0.31 0.39 0.34 0.47 0.31 0.32 0.47 0.48 0.42 0.32 0.33 0.41 0.34 0.49 0.40 0.35 0.41 0.34 0.34 0.34 0.42 0.42 0.50 0.34 0.47 0.41 0.36 0.39 0.46 0.38 0.46 0.36 0.31 0.42 0.36 0.47 0.38 0.41 0.43 0.34 0.46 0.34 0.43 0.31 0.47 0.41 0.31 0.32 0.44 0.37 0.39 0.36 0.47 0.43 0.43 0.43 0.41 0.37 0.39 0.30 0.47 0.41 0.31 0.48 0.32 0.48 0.35 0.40 0.30 0.34 0.37 -9999 -9999 -9999 -9999 -9999 -9999 -9999 -9999 -9999 -9999 -9999 -9999 -9999 -9999 -9999 -9999 -9999 -9999 -9999 -9999 -9999 -9999 -9999 -9999 -9999 -9999 -9999 -9999 -9999 -9999 -9999 -9999 -9999 -9999 -9999 -9999 -9999
0.35 0.34 0.35 0.43 0.49 0.37 0.34 0.39 0.36 0.45 0.40 0.50 0.44 0.41 0.35 0.46 0.36 0.41 0.38 0.41 0.40 0.34 0.44 0.50 0.44 0.49 0.36 0.31 0.43 0.34 0.44 0.47 0.49 0.31 0.32 0.31 0.48 0.38 0.46 0.36 0.48 0.42 0.39 0.35 0.31 0.42 0.50 0.41 0.42 0.40 0.49 0.50 0.39 0.35 0.44 0.37 0.33 0.31 0.34 0.35 0.43 0.37 0.36 0.34 0.45 0.41 0.38 0.47 0.35 0.34 0.44 0.47 0.49 0.37 0.41 0.49 0.48 0.40 0.36 0.36 0.44 0.46 0.36 0.34 0.41 0.46 0.50 0.42 0.32 0.40 0.42 0.32 0.40 0.34 0.45 0.32 0.33 0.41 0.45 0.35 0.41 0.41 0.45 0.33 0.47 0.34 0.35 0.33 0.49 0.39 0.43 0.45 0.37 0.36 0.38 0.40 0.47 0.33 0.36 0.32 0.37 0.48 0.45 0.40 0.39 0.32 0.46 0.46 0.34 0.40 0.36 0.35 0.36 0.38 0.38 0.46 0.32 0.43 0.47 0.32 0.50 0.39 0.32 0.32 0.49 0.48 0.43 0.30 0.40 0.46 0.38 0.30 0.36 0.43 0.33 0.45 0.32 0.42 0.33 0.50 0.35 0.47 0.33 0.47 0.47 0.47 0.44 0.35 0.43 0.40 0.36 0.42 0.45 0.47 0.38 0.32 0.37 0.34 -9999 -9999 -9999 -9999 -9999 -9999 -9999 -9999 -9999 -9999 -9999 -9999 -9999 -9999 -9999 -9999 -9999 -9999 -9999 -9999 -9999 -9999 -9999 -9999 -9999 -9999 -9999 -9999 -9999 -9999 -9999 -9999 -9999 -9999 -9999 -9999 -9999
0.35 0.46 0.46 0.41 0.38 0.42 0.34 0.34 0.35 0.47 0.33 0.49 0.30 0.45 0.32 0.45 0.35 0.34 0.33 0.46 0.47 0.35 0.41 0.42 0.35 0.32 0.31 0.37 0.34 0.39 0.44 0.33 0.41 0.49 0.36 0.31 0.38 0.33 0.46 0.41 0.37 0.43 0.49 0.32 0.32 0.41 0.31 0.46 0.50 0.33 0.46 0.45 0.41 0.33 0.38 0.48 0.43 0.31 0.44 0.33 0.35 0.38 0.40 0.47 0.35 0.36 0.49 0.36 0.36 0.43 0.34 0.38 0.39 0.41 0.38 0.32 0.48 0.46 0.39 0.44 0.34 0.33 0.35 0.39 0.34 0.39 0.41 0.30 0.35 0.50 0.40 0.31 0.41 0.33 0.44 0.34 0.41 0.44 0.35 0.43 0.31 0.33 0.39 0.32 0.48 0.49 0.45 0.33 0.46 0.45 0.36 0.37 0.45 0.37 0.34 0.42 0.36 0.32 0.37 0.33 0.46 0.30 0.32 0.46 0.45 0.40 0.47 0.33 0.45 0.41 0.33 0.46 0.39 0.46 0.36 0.47 0.42 0.35 0.34 0.46 0.36 0.41 0.50 0.39 0.38 0.32 0.38 0.38 0.32 0.44 0.30 0.40 0.49 0.31 0.49 0.34 0.47 0.39 0.42 0.40 0.46 0.32 0.32 0.33 0.31 0.47 0.45 0.34 0.49 0.47 0.45 0.38 0.35 0.42 0.45 0.39 0.43 0.33 0.42 -9999 -9999 -9999 -9999 -9999 -9999 -9999 -9999 -9999 -9999 -9999 -9999 -9999 -9999 -9999 -9999 -9999 -9999 -9999 -9999 -9999 -9999 -9999 -9999 -9999 -9999 -9999 -9999 -9999 -9999 -9999 -9999 -9999 -9999 -9999 -9999
0.38 0.39 0.39 0.48 0.43 0.42 0.31 0.34 0.48 0.30 0.30 0.40 0.31 0.37 0.47 0.31 0.48 0.32 0.46 0.44 0.38 0.31 0.42 0.31 0.45 0.41 0.47 0.48 0.50 0.47 0.49 0.37 0.42 0.35 0.33 0.44 0.39 0.42 0.40 0.41 0.48 0.34 0.41 0.34 0.40 0.44 0.50 0.44 0.46 0.38 0.46 0.41 0.36 0.32 0.46 0.45 0.37 0.44 0.31 0.32 0.43 0.42 0.48 0.33 0.32 0.45 0.48 0.45 0.30 0.48 0.36 0.43 0.40 0.33 0.43 0.46 0.44 0.36 0.47 0.30 0.30 0.31 0.46 0.42 0.37 0.33 0.38 0.32 0.47 0.31 0.34 0.39 0.33 0.45 0.48 0.43 0.45 0.34 0.36 0.45 0.47 0.43 0.50 0.30 0.39 0.38 0.48 0.45 0.38 0.49 0.47 0.31 0.36 0.44 0.39 0.45 0.32 0.33 0.36 0.31 0.31 0.49 0.40 0.30 0.33 0.43 0.33 0.38 0.43 0.41 0.47 0.44 0.36 0.42 0.46 0.46 0.37 0.34 0.35 0.34 0.35 0.34 0.43 0.44 0.47 0.36 0.42 0.38 0.30 0.38 0.40 0.39 0.31 0.45 0.32 0.48 0.38 0.37 0.46 0.40 0.48 0.36 0.49 0.49 0.38 0.33 0.36 0.45 0.35 0.34 0.36 0.39 0.36 0.33 0.45 0.37 0.30 0.48 0.33 -9999 -9999 -9999 -9999 -9999 -9999 -9999 -9999 -9999 -9999 -9999 -9999 -9999 -9999 -9999 -9999 -9999 -9999 -9999 -9999 -9999 -9999 -9999 -9999 -9999 -9999 -9999 -9999 -9999 -9999 -9999 -9999 -9999 -9999 -9999 -9999
0.39 0.38 0.40 0.36 0.37 0.48 0.34 0.41 0.35 0.48 0.34 0.48 0.46 0.35 0.36 0.42 0.37 0.41 0.37 0.48 0.49 0.48 0.32 0.36 0.50 0.33 0.49 0.39 0.41 0.34 0.41 0.47 0.48 0.46 0.38 0.35 0.31 0.41 0.38 0.44 0.38 0.44 0.47 0.41 0.44 0.33 0.44 0.48 0.34 0.43 0.41 0.38 0.34 0.42 0.48 0.50 0.44 0.48 0.31 0.48 0.41 0.43 0.47 0.37 0.41 0.40 0.49 0.42 0.49 0.45 0.45 0.41 0.49 0.38 0.34 0.47 0.32 0.48 0.45 0.44 0.48 0.34 0.44 0.43 0.40 0.35 0.42 0.42 0.43 0.31 0.41 0.43 0.35 0.47 0.41 0.32 0.49 0.35 0.45 0.48 0.46 0.40 0.39 0.37 0.44 0.48 0.36 0.48 0.40 0.38 0.31 0.35 0.31 0.50 0.33 0.38 0.37 0.37 0.39 0.36 0.43 0.47 0.46 0.46 0.48 0.42 0.42 0.30 0.42 0.45 0.35 0.33 0.42 0.37 0.46 0.37 0.39 0.46 0.40 0.45 0.45 0.38 0.48 0.37 0.41 0.32 0.34 0.48 0.32 0.35 0.49 0.40 0.31 0.34 0.47 0.37 0.33 0.35 0.46 0.34 0.45 0.32 0.40 0.47 0.38 0.44 0.43 0.31 0.41 0.43 0.42 0.42 0.48 0.31 0.30 0.34 0.43 0.32 0.32 -9999 -9999 -9999 -9999 -9999 -9999 -9999 -9999 -9999 -9999 -9999 -9999 -9999 -9999 -9999 -9999 -9999 -9999 -9999 -9999 -9999 -9999 -9999 -9999 -9999 -9999 -9999 -9999 -9999 -9999 -9999 -9999 -9999 -9999 -9999 -9999
0.38 0.46 0.46 0.47 0.46 0.34 0.33 0.35 0.45 0.43 0.50 0.47 0.45 0.31 0.48 0.35 0.49 0.44 0.46 0.48 0.44 0.42 0.39 0.35 0.50 0.43 0.43 0.30 0.49 0.49 0.49 0.48 0.45 0.34 0.48 0.31 0.37 0.40 0.31 0.46 0.34 0.33 0.43 0.39 0.48 0.44 0.47 0.46 0.45 0.37 0.39 0.47 0.50 0.50 0.45 0.42 0.49 0.43 0.46 0.32 0.44 0.34 0.37 0.38 0.42 0.42 0.43 0.31 0.36 0.30 0.34 0.37 0.34 0.34 0.38 0.49 0.42 0.36 0.32 0.46 0.41 0.46 0.39 0.40 0.31 0.39 0.49 0.49 0.43 0.35 0.41 0.35 0.42 0.38 0.43 0.30 0.31 0.35 0.46 0.40 0.37 0.33 0.48 0.35 0.40 0.35 0.48 0.49 0.36 0.38 0.47 0.48 0.45 0.45 0.37 0.47 0.37 0.37 0.46 0.36 0.48 0.31 0.50 0.35 0.40 0.41 0.45 0.30 0.39 0.32 0.43 0.41 0.43 0.35 0.41 0.33 0.33 0.42 0.47 0.49 0.43 0.32 0.33 0.37 0.49 0.48 0.37 0.34 0.34 0.41 0.43 0.37 0.49 0.45 0.38 0.30 0.47 0.34 0.30 0.43 0.43 0.30 0.49 0.42 0.33 0.45 0.36 0.49 0.44 0.45 0.35 0.37 0.31 0.47 0.33 0.30 0.46 0.33 0.35 -9999 -9999 -9999 -9999 -9999 -9999 -9999 -9999 -9999 -9999 -9999 -9999 -9999 -9999 -9999 -9999 -9999 -9999 -9999 -9999 -9999 -9999 -9999 -9999 -9999 -9999 -9999 -9999 -9999 -9999 -9999 -9999 -9999 -9999 -9999 -9999
0.33 0.39 0.50 0.50 0.49 0.35 0.33 0.33 0.47 0.44 0.43 0.41 0.40 0.42 0.38 0.36 0.47 0.44 0.47 0.32 0.36 0.41 0.45 0.49 0.38 0.38 0.41 0.50 0.39 0.49 0.48 0.31 0.35 0.38 0.31 0.32 0.44 0.36 0.31 0.42 0.37 0.43 0.45 0.40 0.40 0.43 0.38 0.34 0.45 0.36 0.48 0.36 0.45 0.35 0.45 0.36 0.42 0.48 0.40 0.46 0.48 0.31 0.47 0.31 0.36 0.49 0.42 0.46 0.49 0.36 0.49 0.37 0.43 0.47 0.34 0.48 0.34 0.45 0.33 0.30 0.32 0.41 0.31 0.47 0.35 0.30 0.42 0.41 0.33 0.36 0.44 0.41 0.36 0.30 0.32 0.32 0.49 0.35 0.47 0.39 0.48 0.48 0.34 0.37 0.31 0.36 0.46 0.40 0.30 0.49 0.32 0.32 0.43 0.38 0.40 0.49 0.41 0.50 0.40 0.39 0.32 0.30 0.35 0.34 0.48 0.33 0.43 0.49 0.32 0.38 0.49 0.36 0.45 0.40 0.37 0.31 0.44 0.50 0.47 0.33 0.37 0.38 0.39 0.40 0.37 0.43 0.42 0.49 0.41 0.43 0.40 0.35 0.34 0.35 0.37 0.37 0.32 0.42 0.44 0.34 0.45 0.48 0.49 0.33 0.34 0.37 0.47 0.48 0.33 0.40 0.36 0.49 0.41 0.36 0.33 0.31 0.40 0.40 0.36 -9999 -9999 -9999 -9999 -9999 -9999 -9999 -9999 -9999 -9999 -9999 -9999 -9999 -9999 -9999 -9999 -9999 -9999 -9999 -9999 -9999 -9999 -9999 -9999 -9999 -9999 -9999 -9999 -9999 -9999 -9999 -9999 -9999 -9999 -9999 -9999
0.43 0.50 0.43 0.47 0.49 0.43 0.33 0.35 0.50 0.30 0.31 0.45 0.36 0.36 0.35 0.43 0.30 0.36 0.39 0.45 0.42 0.48 0.45 0.32 0.31 0.41 0.50 0.45 0.47 0.32 0.38 0.38 0.36 0.40 0.43 0.36 0.45 0.50 0.50 0.40 0.45 0.33 0.39 0.30 0.41 0.42 0.40 0.37 0.44 0.31 0.36 0.41 0.45 0.49 0.45 0.41 0.49 0.41 0.38 0.48 0.34 0.38 0.34 0.50 0.44 0.30 0.48 0.43 0.43 0.34 0.45 0.47 0.37 0.43 0.38 0.42 0.34 0.46 0.36 0.39 0.39 0.33 0.47 0.36 0.43 0.42 0.37 0.43 0.36 0.47 0.37 0.41 0.32 0.46 0.42 0.47 0.32 0.35 0.46 0.32 0.42 0.36 0.30 0.32 0.47 0.42 0.40 0.41 0.32 0.45 0.31 0.46 0.36 0.43 0.45 0.37 0.40 0.31 0.45 0.39 0.33 0.50 0.36 0.34 0.35 0.37 0.48 0.38 0.50 0.34 0.50 0.31 0.36 0.36 0.31 0.44 0.48 0.36 0.41 0.50 0.37 0.35 0.50 0.35 0.32 0.34 0.35 0.42 0.37 0.45 0.36 0.42 0.35 0.39 0.33 0.45 0.49 0.42 0.39 0.43 0.31 0.43 0.37 0.34 0.31 0.37 0.48 0.42 0.49 0.43 0.44 0.39 0.39 0.49 0.32 0.50 0.35 0.45 0.31 -9999 -9999 -9999 -9999 -9999 -9999 -9999 -9999 -9999 -9999 -9999 -9999 -9999 -9999 -9999 -9999 -9999 -9999 -9999 -9999 -9999 -9999 -9999 -9999 -9999 -9999 -9999 -9999 -9999 -9999 -9999 -9999 -9999 -9999 -9999 -9999
0.42 0.37 0.33 0.43 0.31 0.38 0.44 0.33 0.41 0.33 0.42 0.36 0.45 0.39 0.46 0.41 0.46 0.42 0.45 0.42 0.35 0.37 0.48 0.48 0.47 0.34 0.31 0.31 0.42 0.49 0.40 0.40 0.31 0.40 0.32 0.43 0.45 0.36 0.33 0.42 0.41 0.35 0.47 0.37 0.49 0.48 0.37 0.38 0.37 0.40 0.35 0.32 0.37 0.38 0.37 0.32 0.44 0.44 0.45 0.40 0.35 0.32 0.37 0.40 0.33 0.49 0.34 0.33 0.42 0.37 0.31 0.46 0.44 0.48 0.48 0.44 0.34 0.43 0.45 0.49 0.33 0.41 0.49 0.31 0.32 0.31 0.39 0.33 0.42 0.31 0.36 0.45 0.38 0.44 0.31 0.32 0.35 0.33 0.45 0.42 0.49 0.41 0.34 0.32 0.34 0.48 0.35 0.45 0.46 0.41 0.38 0.38 0.30 0.38 0.49 0.32 0.33 0.47 0.45 0.34 0.48 0.40 0.47 0.46 0.46 0.41 0.31 0.34 0.43 0.32 0.41 0.39 0.46 0.35 0.50 0.35 0.34 0.49 0.40 0.35 0.36 0.38 0.45 0.33 0.40 0.34 0.34 0.37 0.45 0.33 0.41 0.42 0.45 0.46 0.39 0.42 0.46 0.37 0.31 0.45 0.35 0.48 0.46 0.36 0.40 0.33 0.43 0.47 0.48 0.49 0.40 0.34 0.40 0.37 0.44 0.33 0.33 0.34 0.39 0.35 -9999 -9999 -9999 -9999 -9999 -9999 -9999 -9999 -9999 -9999 -9999 -9999 -9999 -9999 -9999 -9999 -9999 -9999 -9999 -9999 -9999 -9999 -9999 -9999 -9999 -9999 -9999 -9999 -9999 -9999 -9999 -9999 -9999 -9999 -9999
0.42 0.42 0.49 0.37 0.32 0.31 0.42 0.43 0.47 0.43 0.42 0.31 0.48 0.45 0.42 0.33 0.37 0.50 0.45 0.34 0.48 0.50 0.32 0.39 0.46 0.34 0.43 0.32 0.33 0.48 0.45 0.44 0.38 0.44 0.42 0.35 0.30 0.48 0.49 0.39 0.50 0.37 0.50 0.35 0.47 0.33 0.49 0.45 0.45 0.32 0.43 0.33 0.46 0.32 0.48 0.32 0.44 0.33 0.47 0.40 0.33 0.42 0.33 0.39 0.49 0.46 0.35 0.42 0.41 0.47 0.39 0.32 0.35 0.49 0.39 0.47 0.46 0.35 0.34 0.39 0.43 0.34 0.42 0.30 0.33 0.36 0.41 0.38 0.39 0.39 0.40 0.47 0.48 0.36 0.31 0.44 0.33 0.49 0.41 0.41 0.30 0.50 0.42 0.36 0.31 0.33 0.46 0.35 0.33 0.37 0.34 0.47 0.44 0.41 0.45 0.49 0.48 0.35 0.40 0.46 0.31 0.44 0.36 0.35 0.35 0.47 0.32 0.49 0.33 0.44 0.37 0.50 0.49 0.45 0.46 0.50 0.30 0.47 0.45 0.43 0.40 0.43 0.35 0.49 0.40 0.44 0.46 0.42 0.42 0.44 0.47 0.37 0.45 0.39 0.40 0.37 0.33 0.42 0.40 0.48 0.32 0.33 0.35 0.49 0.43 0.33 0.31 0.49 0.36 0.32 0.39 0.34 0.36 0.38 0.49 0.47 0.36 0.46 0.41 0.38 -9999 -9999 -9999 -9999 -9999 -9999 -9999 -9999 -9999 -9999 -9999 -9999 -9999 -9999 -9999 -9999 -9999 -9999 -9999 -9999 -9999 -9999 -9999 -9999 -9999 -9999 -9999 -9999 -9999 -9999 -9999 -9999 -9999 -9999 -9999
0.45 0.45 0.35 0.49 0.41 0.46 0.46 0.43 0.47 0.42 0.48 0.32 0.37 0.40 0.35 0.36 0.44 0.44 0.42 0.40 0.41 0.39 0.35 0.47 0.31 0.34 0.41 0.48 0.35 0.48 0.38 0.42 0.44 0.42 0.31 0.47 0.46 0.45 0.40 0.40 0.39 0.42 0.46 0.34 0.39 0.45 0.33 0.34 0.44 0.33 0.36 0.41 0.38 0.41 0.38 0.31 0.48 0.32 0.46 0.48 0.40 0.30 0.31 0.47 0.32 0.33 0.31 0.42 0.32 0.33 0.43 0.45 0.42 0.46 0.49 0.31 0.36 0.43 0.43 0.46 0.43 0.34 0.48 0.37 0.36 0.41 0.37 0.44 0.43 0.46 0.39 0.38 0.37 0.40 0.41 0.33 0.43 0.41 0.46 0.49 0.31 0.31 0.35 0.38 0.34 0.30 0.49 0.44 0.42 0.37 0.44 0.33 0.33 0.47 0.43 0.42 0.45 0.31 0.49 0.31 0.48 0.50 0.32 0.36 0.42 0.35 0.31 0.32 0.42 0.39 0.46 0.40 0.47 0.49 0.45 0.43 0.47 0.30 0.47 0.34 0.33 0.44 0.48 0.33 0.31 0.45 0.35 0.34 0.39 0.30 0.40 0.40 0.38 0.48 0.31 0.45 0.45 0.40 0.34 0.50 0.41 0.47 0.31 0.32 0.34 0.35 0.43 0.31 0.39 0.40 0.39 0.35 0.30 0.41 0.44 0.37 0.43 0.43 0.42 0.33 -9999 -9999 -9999 -9999 -9999 -9999 -9999 -9999 -9999 -9999 -9999 -9999 -9999 -9999 -9999 -9999 -9999 -9999 -9999 -9999 -9999 -9999 -9999 -9999 -9999 -9999 -9999 -9999 -9999 -9999 -9999 -9999 -9999 -9999 -9999
0.37 0.37 0.40 0.30 0.49 0.39 0.37 0.36 0.49 0.32 0.35 0.35 0.44 0.43 0.37 0.34 0.48 0.43 0.48 0.41 0.49 0.47 0.37 0.34 0.34 0.42 0.49 0.34 0.41 0.44 0.42 0.46 0.37 0.33 0.45 0.33 0.43 0.41 0.35 0.42 0.49 0.42 0.47 0.36 0.50 0.45 0.37 0.44 0.45 0.32 0.41 0.46 0.48 0.46 0.32 0.41 0.38 0.36 0.47 0.36 0.32 0.31 0.34 0.48 0.32 0.44 0.48 0.34 0.35 0.32 0.46 0.39 0.49 0.40 0.41 0.38 0.32 0.40 0.39 0.44 0.41 0.36 0.34 0.36 0.49 0.37 0.44 0.32 0.48 0.40 0.33 0.46 0.32 0.45 0.44 0.31 0.38 0.48 0.48 0.50 0.34 0.40 0.41 0.41 0.36 0.33 0.46 0.35 0.39 0.40 0.43 0.31 0.39 0.47 0.46 0.49 0.42 0.38 0.48 0.42 0.38 0.42 0.38 0.32 0.39 0.49 0.34 0.43 0.40 0.35 0.34 0.50 0.44 0.37 0.45 0.36 0.36 0.40 0.42 0.37 0.46 0.33 0.49 0.44 0.34 0.40 0.39 0.48 0.41 0.36 0.32 0.46 0.49 0.48 0.38 0.40 0.47 0.44 0.45 0.40 0.35 0.48 0.44 0.40 0.41 0.47 0.31 0.41 0.32 0.48 0.44 0.45 0.37 0.47 0.39 0.31 0.50 0.35 0.44 0.49 -9999 -9999 -9999 -9999 -9999 -9999 -9999 -9999 -9999 -9999 -9999 -9999 -9999 -9999 -9999 -9999 -9999 -9999 -9999 -9999 -9999 -9999 -9999 -9999 -9999 -9999 -9999 -9999 -9999 -9999 -9999 -9999 -9999 -9999 -9999
0.41 0.47 0.37 0.32 0.48 0.44 0.46 0.38 0.50 0.45 0.34 0.40 0.45 0.36 0.39 0.49 0.42 0.41 0.50 0.36 0.49 0.32 0.31 0.44 0.36 0.43 0.39 0.37 0.31 0.43 0.45 0.30 0.34 0.38 0.30 0.31 0.36 0.32 0.39 0.40 0.31 0.32 0.46 0.45 0.40 0.31 0.36 0.32 0.39 0.45 0.43 0.42 0.49 0.45 0.36 0.41 0.38 0.32 0.48 0.33 0.36 0.39 0.49 0.46 0.35 0.41 0.47 0.48 0.36 0.47 0.35 0.44 0.36 0.34 0.33 0.41 0.47 0.36 0.50 0.33 0.38 0.36 0.40 0.33 0.32 0.44 0.44 0.44 0.31 0.30 0.43 0.43 0.41 0.31 0.48 0.47 0.46 0.35 0.30 0.47 0.38 0.48 0.44 0.32 0.38 0.37 0.31 0.38 0.39 0.37 0.47 0.35 0.41 0.34 0.30 0.43 0.36 0.48 0.33 0.39 0.31 0.31 0.40 0.44 0.37 0.32 0.31 0.40 0.32 0.33 0.49 0.32 0.47 0.48 0.46 0.48 0.40 0.45 0.36 0.49 0.49 0.47 0.30 0.41 0.44 0.31 0.33 0.46 0.37 0.44 0.49 0.31 0.47 0.42 0.31 0.36 0.30 0.33 0.49 0.47 0.34 0.33 0.49 0.45 0.37 0.35 0.38 0.49 0.40 0.33 0.34 0.44 0.43 0.48 0.42 0.32 0.45 0.49 0.44 0.45 -9999 -9999 -9999 -9999 -9999 -9999 -9999 -9999 -9999 -9999 -9999 -9999 -9999 -9999 -9999 -9999 -9999 -9999 -9999 -9999 -9999 -9999 -9999 -9999 -9999 -9999 -9999 -9999 -9999 -9999 -9999 -9999 -9999 -9999 -9999
0.40 0.47 0.32 0.36 0.31 0.35 0.30 0.35 0.47 0.37 0.32 0.37 0.34 0.39 0.45 0.47 0.39 0.49 0.32 0.46 0.31 0.37 0.43 0.34 0.36 0.37 0.40 0.33 0.45 0.50 0.42 0.46 0.43 0.48 0.48 0.39 0.30 0.48 0.49 0.39 0.37 0.49 0.36 0.31 0.35 0.43 0.45 0.36 0.42 0.35 0.33 0.47 0.42 0.35 0.46 0.38 0.49 0.41 0.40 0.39 0.30 0.31 0.46 0.48 0.41 0.37 0.33 0.43 0.32 0.34 0.42 0.47 0.42 0.49 0.31 0.47 0.46 0.45 0.40 0.36 0.45 0.46 0.36 0.41 0.44 0.49 0.40 0.31 0.37 0.33 0.42 0.45 0.35 0.36 0.39 0.44 0.40 0.31 0.48 0.36 0.41 0.41 0.34 0.37 0.31 0.42 0.31 0.36 0.37 0.39 0.31 0.42 0.45 0.43 0.43 0.30 0.38 0.41 0.30 0.40 0.37 0.37 0.46 0.32 0.41 0.37 0.37 0.31 0.30 0.40 0.31 0.34 0.34 0.34 0.37 0.32 0.43 0.49 0.40 0.31 0.43 0.33 0.43 0.34 0.46 0.47 0.48 0.49 0.33 0.46 0.34 0.45 0.31 0.41 0.39 0.41 0.33 0.48 0.43 0.47 0.41 0.33 0.45 0.38 0.50 0.48 0.32 0.49 0.32 0.50 0.45 0.39 0.45 0.33 0.36 0.40 0.43 0.41 0.47 0.44 -9999 -9999 -9999 -9999 -9999 -9999 -9999 -9999 -9999 -9999 -9999 -9999 -9999 -9999 -9999 -9999 -9999 -9999 -9999 -9999 -9999 -9999 -9999 -9999 -9999 -9999 -9999 -9999 -9999 -9999 -9999 -9999 -9999 -9999 -9999
0.35 0.49 0.39 0.44 0.43 0.34 0.39 0.40 0.36 0.31 0.50 0.40 0.48 0.47 0.39 0.35 0.50 0.37 0.47 0.38 0.32 0.33 0.44 0.38 0.45 0.48 0.40 0.32 0.45 0.40 0.44 0.40 0.45 0.42 0.44 0.47 0.39 0.39 0.32 0.44 0.49 0.37 0.35 0.44 0.43 0.44 0.35 0.34 0.43 0.42 0.37 0.31 0.34 0.38 0.43 0.36 0.48 0.42 0.35 0.31 0.35 0.49 0.46 0.38 0.41 0.32 0.31 0.47 0.47 0.33 0.33 0.36 0.39 0.33 0.43 0.44 0.43 0.46 0.47 0.33 0.46 0.32 0.49 0.40 0.35 0.31 0.32 0.38 0.37 0.34 0.33 0.36 0.33 0.36 0.49 0.34 0.43 0.44 0.49 0.39 0.38 0.44 0.40 0.40 0.45 0.43 0.36 0.34 0.43 0.38 0.47 0.46 0.33 0.44 0.41 0.32 0.37 0.31 0.35 0.44 0.31 0.32 0.47 0.43 0.46 0.48 0.45 0.39 0.41 0.45 0.35 0.48 0.39 0.41 0.48 0.42 0.32 0.33 0.33 0.48 0.43 0.33 0.46 0.32 0.37 0.41 0.39 0.39 0.43 0.45 0.41 0.42 0.49 0.44 0.33 0.35 0.30 0.44 0.39 0.37 0.50 0.44 0.34 0.49 0.32 0.37 0.31 0.34 0.43 0.44 0.43 0.43 0.45 0.49 0.36 0.47 0.35 0.43 0.40 0.43 -9999 -9999 -9999 -9999 -9999 -9999 -9999 -9999 -9999 -9999 -9999 -9999 -9999 -9999 -9999 -9999 -9999 -9999 -9999 -9999 -9999 -9999 -9999 -9999 -9999 -9999 -9999 -9999 -9999 -9999 -9999 -9999 -9999 -9999 -9999
0.43 0.31 0.33 0.48 0.49 0.36 0.48 0.36 0.40 0.46 0.49 0.37 0.48 0.45 0.36 0.31 0.38 0.49 0.30 0.48 0.49 0.38 0.32 0.36 0.34 0.32 0.37 0.39 0.48 0.39 0.47 0.41 0.40 0.32 0.38 0.49 0.46 0.47 0.44 0.42 0.30 0.41 0.39 0.41 0.46 0.31 0.40 0.45 0.49 0.37 0.48 0.46 0.35 0.47 0.41 0.41 0.47 0.41 0.31 0.38 0.47 0.42 0.31 0.36 0.43 0.44 0.40 0.37 0.47 0.46 0.37 0.49 0.38 0.48 0.42 0.40 0.48 0.42 0.36 0.33 0.49 0.32 0.40 0.48 0.39 0.34 0.33 0.45 0.47 0.37 0.31 0.43 0.38 0.30 0.37 0.35 0.35 0.45 0.41 0.38 0.31 0.45 0.46 0.35 0.41 0.42 0.37 0.49 0.44 0.31 0.35 0.47 0.31 0.46 0.40 0.32 0.41 0.47 0.46 0.32 0.39 0.44 0.32 0.38 0.33 0.44 0.42 0.47 0.39 0.36 0.34 0.36 0.34 0.50 0.35 0.44 0.47 0.41 0.39 0.31 0.34 0.36 0.41 0.38 0.40 0.31 0.47 0.44 0.41 0.45 0.50 0.32 0.43 0.37 0.45 0.44 0.46 0.37 0.36 0.40 0.32 0.31 0.44 0.38 0.48 0.44 0.50 0.44 0.32 0.43 0.33 0.36 0.49 0.50 0.35 0.50 0.38 0.43 0.32 0.38 0.46 -9999 -9999 -9999 -9999 -9999 -9999 -9999 -9999 -9999 -9999 -9999 -9999 -9999 -9999 -9999 -9999 -9999 -9999 -9999 -9999 -9999 -9999 -9999 -9999 -9999 -9999 -9999 -9999 -9999 -9999 -9999 -9999 -9999 -9999
0.35 0.39 0.46 0.39 0.48 0.42 0.42 0.40 0.39 0.38 0.38 0.45 0.37 0.37 0.40 0.39 0.47 0.34 0.42 0.42 0.44 0.38 0.50 0.44 0.32 0.33 0.36 0.36 0.38 0.47 0.36 0.44 0.33 0.39 0.44 0.36 0.34 0.40 0.45 0.34 0.37 0.40 0.37 0.50 0.37 0.49 0.46 0.41 0.37 0.45 0.35 0.32 0.37 0.48 0.40 0.45 0.42 0.42 0.41 0.39 0.31 0.45 0.45 0.36 0.50 0.35 0.42 0.49 0.39 0.36 0.33 0.36 0.47 0.44 0.38 0.48 0.38 0.43 0.42 0.37 0.35 0.34 0.36 0.30 0.48 0.33 0.41 0.41 0.43 0.37 0.42 0.36 0.41 0.33 0.42 0.35 0.35 0.39 0.35 0.45 0.43 0.35 0.44 0.32 0.31 0.48 0.33 0.39 0.39 0.39 0.36 0.31 0.37 0.39 0.40 0.35 0.41 0.36 0.49 0.44 0.36 0.30 0.31 0.32 0.38 0.31 0.37 0.37 0.47 0.32 0.34 0.33 0.45 0.37 0.47 0.45 0.37 0.50 0.48 0.38 0.43 0.34 0.45 0.44 0.46 0.42 0.43 0.32 0.41 0.30 0.36 0.49 0.48 0.38 0.46 0.38 0.42 0.49 0.46 0.38 0.36 0.31 0.40 0.41 0.48 0.43 0.44 0.44 0.38 0.38 0.30 0.34 0.47 0.39 0.42 0.39 0.32 0.40 0.44 0.38 0.48 -9999 -9999 -9999 -9999 -9999 -9999 -9999 -9999 -9999 -9999 -9999 -9999 -9999 -9999 -9999 -9999 -9999 -9999 -9999 -9999 -9999 -9999 -9999 -9999 -9999 -9999 -9999 -9999 -9999 -9999 -9999 -9999 -9999 -9999
0.46 0.39 0.31 0.50 0.41 0.49 0.37 0.37 0.47 0.31 0.46 0.47 0.46 0.49 0.40 0.31 0.31 0.33 0.44 0.32 0.30 0.42 0.37 0.40 0.36 0.45 0.47 0.48 0.45 0.41 0.44 0.46 0.36 0.41 0.47 0.48 0.37 0.48 0.42 0.48 0.43 0.41 0.35 0.37 0.43 0.33 0.42 0.43 0.30 0.38 0.45 0.50 0.49 0.48 0.46 0.44 0.50 0.47 0.48 0.41 0.40 0.45 0.48 0.35 0.47 0.39 0.37 0.37 0.48 0.50 0.31 0.32 0.47 0.48 0.43 0.34 0.45 0.48 0.46 0.50 0.32 0.46 0.44 0.45 0.40 0.44 0.40 0.46 0.38 0.39 0.40 0.45 0.32 0.47 0.44 0.33 0.40 0.32 0.31 0.42 0.44 0.49 0.37 0.48 0.34 0.44 0.39 0.39 0.41 0.39 0.36 0.45 0.35 0.50 0.48 0.43 0.37 0.50 0.35 0.40 0.40 0.39 0.42 0.35 0.43 0.38 0.38 0.42 0.34 0.43 0.35 0.32 0.46 0.38 0.48 0.31 0.34 0.50 0.34 0.34 0.30 0.31 0.48 0.39 0.50 0.49 0.50 0.31 0.37 0.36 0.42 0.38 0.37 0.44 0.42 0.34 0.48 0.43 0.50 0.34 0.34 0.40 0.32 0.40 0.36 0.41 0.49 0.48 0.34 0.35 0.37 0.36 0.45 0.37 0.33 0.45 0.39 0.46 0.44 0.44 0.46 -9999 -9999 -9999 -9999 -9999 -9999 -9999 -9999 -9999 -9999 -9999 -9999 -9999 -9999 -9999 -9999 -9999 -9999 -9999 -9999 -9999 -9999 -9999 -9999 -9999 -9999 -9999 -9999 -9999 -9999 -9999 -9999 -9999 -9999
0.31 0.33 0.31 0.34 0.42 0.44 0.36 0.36 0.36 0.34 0.34 0.43 0.37 0.31 0.41 0.44 0.40 0.41 0.34 0.40 0.31 0.38 0.40 0.34 0.40 0.44 0.36 0.34 0.41 0.50 0.49 0.38 0.36 0.30 0.37 0.41 0.32 0.41 0.47 0.35 0.31 0.42 0.39 0.45 0.34 0.36 0.36 0.47 0.50 0.49 0.43 0.45 0.49 0.45 0.41 0.35 0.41 0.34 0.43 0.47 0.37 0.41 0.38 0.45 0.30 0.45 0.39 0.41 0.41 0.33 0.34 0.39 0.38 0.36 0.45 0.32 0.31 0.45 0.42 0.37 0.41 0.39 0.32 0.40 0.36 0.34 0.44 0.36 0.45 0.31 0.35 0.34 0.44 0.31 0.37 0.47 0.41 0.36 0.33 0.42 0.39 0.31 0.35 0.38 0.48 0.40 0.49 0.31 0.36 0.34 0.48 0.31 0.32 0.45 0.48 0.32 0.42 0.37 0.36 0.31 0.37 0.47 0.31 0.32 0.50 0.30 0.41 0.33 0.41 0.45 0.42 0.34 0.48 0.45 0.43 0.37 0.39 0.35 0.47 0.44 0.46 0.46 0.38 0.33 0.32 0.35 0.31 0.33 0.35 0.31 0.46 0.38 0.39 0.38 0.38 0.44 0.49 0.43 0.34 0.33 0.35 0.42 0.46 0.39 0.31 0.36 0.49 0.35 0.36 0.31 0.45 0.41 0.45 0.34 0.42 0.39 0.41 0.49 0.33 0.46 0.43 -9999 -9999 -9999 -9999 -9999 -9999 -9999 -9999 -9999 -9999 -9999 -9999 -9999 -9999 -9999 -9999 -9999 -9999 -9999 -9999 -9999 -9999 -9999 -9999 -9999 -9999 -9999 -9999 -9999 -9999 -9999 -9999 -9999 -9999
0.38 0.39 0.38 0.42 0.38 0.30 0.41 0.46 0.38 0.32 0.41 0.40 0.30 0.50 0.48 0.46 0.46 0.43 0.37 0.30 0.43 0.42 0.43 0.39 0.36 0.36 0.36 0.41 0.31 0.37 0.50 0.33 0.45 0.36 0.45 0.36 0.40 0.46 0.37 0.48 0.34 0.36 0.49 0.39 0.47 0.36 0.38 0.36 0.49 0.42 0.35 0.32 0.37 0.32 0.35 0.42 0.30 0.31 0.36 0.44 0.31 0.48 0.39 0.47 0.43 0.42 0.35 0.34 0.45 0.43 0.47 0.33 0.44 0.41 0.34 0.42 0.50 0.48 0.34 0.36 0.47 0.49 0.36 0.41 0.44 0.48 0.47 0.48 0.33 0.50 0.39 0.43 0.37 0.39 0.48 0.35 0.41 0.36 0.44 0.42 0.45 0.31 0.40 0.46 0.38 0.46 0.34 0.46 0.38 0.46 0.43 0.30 0.46 0.49 0.46 0.42 0.39 0.46 0.35 0.36 0.48 0.39 0.49 0.41 0.36 0.35 0.43 0.44 0.32 0.50 0.41 0.38 0.37 0.31 0.40 0.34 0.33 0.34 0.37 0.44 0.36 0.36 0.42 0.39 0.36 0.35 0.32 0.41 0.41 0.42 0.39 0.42 0.46 0.43 0.37 0.32 0.40 0.34 0.37 0.33 0.43 0.37 0.41 0.37 0.35 0.35 0.35 0.49 0.50 0.39 0.31 0.33 0.31 0.36 0.44 0.33 0.43 0.48 0.49 0.30 0.40 -9999 -9999 -9999 -9999 -9999 -9999 -9999 -9999 -9999 -9999 -9999 -9999 -9999 -9999 -9999 -9999 -9999 -9999 -9999 -9999 -9999 -9999 -9999 -9999 -9999 -9999 -9999 -9999 -9999 -9999 -9999 -9999 -9999 -9999
0.33 0.33 0.47 0.48 0.41 0.37 0.37 0.44 0.40 0.39 0.46 0.50 0.33 0.36 0.50 0.35 0.46 0.48 0.38 0.43 0.42 0.45 0.45 0.43 0.47 0.42 0.43 0.31 0.46 0.37 0.33 0.38 0.34 0.40 0.48 0.47 0.46 0.41 0.48 0.45 0.40 0.48 0.31 0.48 0.32 0.46 0.45 0.45 0.38 0.41 0.47 0.37 0.36 0.35 0.44 0.46 0.49 0.50 0.42 0.45 0.36 0.46 0.34 0.41 0.41 0.39 0.31 0.42 0.45 0.45 0.32 0.49 0.49 0.35 0.44 0.44 0.34 0.39 0.44 0.43 0.38 0.43 0.30 0.30 0.45 0.45 0.43 0.30 0.34 0.40 0.45 0.45 0.46 0.47 0.34 0.40 0.31 0.30 0.37 0.45 0.35 0.37 0.36 0.42 0.33 0.35 0.38 0.32 0.48 0.35 0.37 0.48 0.40 0.43 0.36 0.37 0.30 0.41 0.43 0.32 0.49 0.30 0.30 0.38 0.50 0.32 0.47 0.36 0.48 0.45 0.39 0.33 0.44 0.48 0.31 0.44 0.44 0.48 0.36 0.49 0.42 0.35 0.48 0.46 0.43 0.50 0.40 0.44 0.38 0.32 0.37 0.39 0.40 0.50 0.46 0.36 0.45 0.36 0.32 0.45 0.48 0.36 0.41 0.34 0.44 0.41 0.32 0.36 0.45 0.32 0.31 0.40 0.48 0.40 0.34 0.39 0.41 0.46 0.33 0.36 0.46 -9999 -9999 -9999 -9999 -9999 -9999 -9999 -9999 -9999 -9999 -9999 -9999 -9999 -9999 -9999 -9999 -9999 -9999 -9999 -9999 -9999 -9999 -9999 -9999 -9999 -9999 -9999 -9999 -9999 -9999 -9999 -9999 -9999 -9999
0.40 0.35 0.49 0.31 0.34 0.36 0.43 0.47 0.43 0.41 0.39 0.42 0.40 0.35 0.36 0.40 0.34 0.41 0.46 0.35 0.46 0.47 0.40 0.35 0.47 0.44 0.37 0.44 0.32 0.45 0.35 0.34 0.49 0.48 0.36 0.44 0.42 0.37 0.47 0.36 0.30 0.48 0.40 0.42 0.37 0.33 0.44 0.38 0.47 0.36 0.31 0.34 0.32 0.35 0.49 0.47 0.45 0.34 0.42 0.37 0.37 0.36 0.41 0.47 0.38 0.49 0.46 0.33 0.46 0.47 0.46 0.40 0.41 0.44 0.49 0.46 0.49 0.48 0.37 0.31 0.47 0.35 0.34 0.48 0.49 0.43 0.40 0.39 0.37 0.41 0.38 0.39 0.38 0.46 0.38 0.44 0.46 0.49 0.34 0.33 0.45 0.48 0.49 0.47 0.31 0.39 0.44 0.34 0.37 0.40 0.35 0.48 0.37 0.46 0.33 0.30 0.39 0.40 0.30 0.42 0.49 0.45 0.40 0.47 0.38 0.38 0.33 0.49 0.40 0.30 0.31 0.37 0.34 0.42 0.32 0.46 0.38 0.40 0.44 0.39 0.37 0.34 0.48 0.44 0.31 0.41 0.40 0.42 0.44 0.31 0.45 0.40 0.46 0.32 0.38 0.48 0.48 0.32 0.44 0.47 0.50 0.38 0.43 0.33 0.45 0.37 0.32 0.31 0.42 0.37 0.50 0.44 0.46 0.47 0.37 0.33 0.43 0.32 0.34 0.37 0.48 0.36 -9999 -9999 -9999 -9999 -9999 -9999 -9999 -9999 -9999 -9999 -9999 -9999 -9999 -9999 -9999 -9999 -9999 -9999 -9999 -9999 -9999 -9999 -9999 -9999 -9999 -9999 -9999 -9999 -9999 -9999 -9999 -9999 -9999
0.49 0.30 0.48 0.43 0.46 0.31 0.46 0.36 0.48 0.36 0.40 0.47 0.42 0.32 0.49 0.49 0.40 0.41 0.44 0.41 0.47 0.37 0.39 0.42 0.42 0.38 0.50 0.48 0.40 0.35 0.30 0.39 0.48 0.37 0.39 0.39 0.38 0.33 0.34 0.37 0.47 0.44 0.40 0.36 0.37 0.48 0.36 0.37 0.39 0.41 0.45 0.39 0.38 0.50 0.49 0.32 0.44 0.49 0.38 0.41 0.32 0.41 0.37 0.35 0.44 0.45 0.39 0.43 0.31 0.36 0.33 0.31 0.37 0.50 0.31 0.44 0.44 0.33 0.41 0.33 0.36 0.34 0.34 0.39 0.37 0.42 0.49 0.39 0.43 0.39 0.44 0.46 0.30 0.36 0.36 0.37 0.33 0.37 0.46 0.47 0.39 0.49 0.32 0.50 0.37 0.49 0.47 0.48 0.46 0.40 0.50 0.33 0.36 0.45 0.47 0.48 0.47 0.42 0.40 0.49 0.39 0.47 0.37 0.44 0.40 0.34 0.42 0.47 0.42 0.42 0.49 0.31 0.40 0.37 0.41 0.33 0.42 0.38 0.36 0.44 0.40 0.34 0.31 0.32 0.42 0.35 0.34 0.36 0.45 0.38 0.33 0.35 0.49 0.42 0.36 0.44 0.32 0.49 0.34 0.46 0.42 0.35 0.44 0.36 0.31 0.44 0.40 0.40 0.39 0.41 0.40 0.46 0.49 0.37 0.48 0.45 0.50 0.44 0.39 0.37 0.33 0.31 -9999 -9999 -9999 -9999 -9999 -9999 -9999 -9999 -9999 -9999 -9999 -9999 -9999 -9999 -9999 -9999 -9999 -9999 -9999 -9999 -9999 -9999 -9999 -9999 -9999 -9999 -9999 -9999 -9999 -9999 -9999 -9999 -9999
0.38 0.42 0.35 0.40 0.47 0.45 0.34 0.41 0.46 0.34 0.36 0.47 0.47 0.34 0.30 0.50 0.44 0.36 0.40 0.44 0.36 0.31 0.35 0.47 0.45 0.34 0.48 0.47 0.32 0.44 0.38 0.43 0.33 0.37 0.48 0.32 0.30 0.31 0.35 0.38 0.47 0.35 0.48 0.35 0.43 0.36 0.32 0.32 0.32 0.35 0.41 0.42 0.41 0.42 0.38 0.48 0.44 0.41 0.31 0.48 0.38 0.41 0.45 0.39 0.50 0.32 0.31 0.48 0.44 0.43 0.43 0.43 0.46 0.32 0.43 0.37 0.33 0.39 0.32 0.37 0.40 0.37 0.48 0.48 0.38 0.33 0.42 0.33 0.38 0.44 0.42 0.36 0.38 0.46 0.44 0.49 0.37 0.39 0.39 0.47 0.46 0.46 0.38 0.33 0.37 0.41 0.32 0.43 0.35 0.45 0.50 0.39 0.34 0.33 0.32 0.41 0.49 0.31 0.44 0.35 0.37 0.40 0.36 0.42 0.33 0.30 0.44 0.33 0.48 0.31 0.42 0.37 0.43 0.47 0.39 0.45 0.43 0.36 0.32 0.40 0.36 0.30 0.32 0.37 0.45 0.31 0.41 0.35 0.34 0.47 0.40 0.30 0.31 0.48 0.49 0.35 0.47 0.37 0.42 0.33 0.34 0.44 0.49 0.44 0.37 0.31 0.37 0.31 0.47 0.45 0.37 0.38 0.33 0.35 0.48 0.43 0.38 0.39 0.46 0.41 0.42 0.43 -9999 -9999 -9999 -9999 -9999 -9999 -9999 -9999 -9999 -9999 -9999 -9999 -9999 -9999 -9999 -9999 -9999 -9999 -9999 -9999 -9999 -9999 -9999 -9999 -9999 -9999 -9999 -9999 -9999 -9999 -9999 -9999 -9999
0.39 0.36 0.44 0.39 0.36 0.39 0.49 0.47 0.34 0.34 0.32 0.34 0.48 0.39 0.33 0.33 0.31 0.46 0.48 0.32 0.45 0.34 0.46 0.30 0.42 0.50 0.46 0.41 0.38 0.47 0.30 0.49 0.31 0.42 0.32 0.47 0.49 0.41 0.48 0.49 0.49 0.35 0.49 0.46 0.31 0.47 0.30 0.38 0.37 0.43 0.49 0.34 0.48 0.41 0.35 0.34 0.41 0.38 0.39 0.37 0.43 0.41 0.48 0.30 0.41 0.31 0.47 0.34 0.36 0.38 0.34 0.49 0.34 0.43 0.32 0.41 0.39 0.44 0.38 0.41 0.32 0.34 0.43 0.42 0.50 0.39 0.39 0.39 0.49 0.48 0.38 0.49 0.44 0.43 0.47 0.32 0.41 0.45 0.39 0.48 0.44 0.31 0.48 0.38 0.35 0.46 0.32 0.48 0.45 0.42 0.50 0.40 0.44 0.43 0.50 0.47 0.32 0.39 0.37 0.45 0.34 0.48 0.36 0.31 0.33 0.31 0.43 0.40 0.45 0.48 0.33 0.50 0.37 0.50 0.31 0.49 0.35 0.49 0.31 0.39 0.42 0.31 0.48 0.41 0.37 0.33 0.47 0.42 0.43 0.40 0.42 0.41 0.47 0.45 0.41 0.38 0.39 0.30 0.38 0.42 0.41 0.40 0.37 0.38 0.39 0.46 0.45 0.36 0.30 0.38 0.31 0.48 0.43 0.35 0.40 0.39 0.32 0.43 0.34 0.43 0.48 0.49 -9999 -9999 -9999 -9999 -9999 -9999 -9999 -9999 -9999 -9999 -9999 -9999 -9999 -9999 -9999 -9999 -9999 -9999 -9999 -9999 -9999 -9999 -9999 -9999 -9999 -9999 -9999 -9999 -9999 -9999 -9999 -9999 -9999
0.45 0.42 0.44 0.36 0.42 0.49 0.45 0.31 0.40 0.40 0.48 0.47 0.31 0.38 0.31 0.32 0.45 0.31 0.45 0.45 0.34 0.49 0.44 0.43 0.41 0.38 0.44 0.30 0.36 0.31 0.44 0.48 0.35 0.38 0.50 0.37 0.38 0.32 0.33 0.44 0.44 0.46 0.45 0.47 0.41 0.35 0.34 0.37 0.41 0.31 0.39 0.49 0.38 0.44 0.30 0.34 0.42 0.45 0.45 0.44 0.47 0.40 0.50 0.33 0.31 0.39 0.34 0.32 0.49 0.35 0.42 0.43 0.41 0.49 0.32 0.35 0.36 0.33 0.31 0.34 0.36 0.33 0.48 0.49 0.38 0.34 0.44 0.49 0.39 0.44 0.44 0.34 0.31 0.32 0.33 0.30 0.43 0.43 0.41 0.49 0.38 0.32 0.35 0.44 0.30 0.35 0.37 0.47 0.40 0.46 0.49 0.43 0.33 0.48 0.31 0.38 0.46 0.44 0.39 0.37 0.30 0.37 0.42 0.36 0.32 0.50 0.34 0.49 0.37 0.46 0.40 0.37 0.47 0.35 0.33 0.34 0.41 0.39 0.33 0.32 0.41 0.36 0.49 0.35 0.39 0.42 0.43 0.42 0.38 0.39 0.47 0.33 0.42 0.31 0.32 0.31 0.37 0.44 0.31 0.49 0.33 0.40 0.40 0.31 0.36 0.40 0.35 0.32 0.46 0.34 0.43 0.40 0.34 0.33 0.40 0.34 0.32 0.31 0.33 0.37 0.30 0.32 -9999 -9999 -9999 -9999 -9999 -9999 -9999 -9999 -9999 -9999 -9999 -9999 -9999 -9999 -9999 -9999 -9999 -9999 -9999 -9999 -9999 -9999 -9999 -9999 -9999 -9999 -9999 -9999 -9999 -9999 -9999 -9999 -9999
0.45 0.43 0.45 0.40 0.40 0.43 0.39 0.41 0.47 0.47 0.33 0.39 0.47 0.40 0.38 0.32 0.36 0.37 0.30 0.37 0.30 0.37 0.32 0.36 0.35 0.41 0.47 0.48 0.34 0.39 0.30 0.31 0.42 0.43 0.48 0.46 0.49 0.40 0.34 0.39 0.37 0.32 0.46 0.38 0.35 0.44 0.46 0.35 0.42 0.43 0.48 0.36 0.39 0.34 0.38 0.34 0.47 0.49 0.39 0.44 0.43 0.36 0.37 0.45 0.44 0.31 0.43 0.37 0.42 0.35 0.41 0.30 0.47 0.40 0.38 0.45 0.46 0.47 0.30 0.33 0.34 0.46 0.50 0.43 0.45 0.32 0.49 0.31 0.41 0.40 0.33 0.47 0.40 0.32 0.39 0.49 0.49 0.32 0.40 0.46 0.31 0.31 0.30 0.32 0.44 0.42 0.39 0.37 0.47 0.40 0.33 0.32 0.42 0.31 0.34 0.36 0.49 0.33 0.35 0.37 0.48 0.49 0.32 0.34 0.35 0.38 0.42 0.36 0.33 0.47 0.40 0.36 0.36 0.43 0.40 0.31 0.49 0.37 0.33 0.44 0.39 0.42 0.49 0.43 0.49 0.48 0.45 0.34 0.31 0.37 0.48 0.43 0.44 0.48 0.45 0.31 0.42 0.43 0.31 0.41 0.44 0.38 0.32 0.40 0.33 0.39 0.49 0.46 0.41 0.43 0.46 0.48 0.39 0.34 0.45 0.43 0.49 0.46 0.40 0.48 0.31 0.42 -9999 -9999 -9999 -9999 -9999 -9999 -9999 -9999 -9999 -9999 -9999 -9999 -9999 -9999 -9999 -9999 -9999 -9999 -9999 -9999 -9999 -9999 -9999 -9999 -9999 -9999 -9999 -9999 -9999 -9999 -9999 -9999 -9999
0.36 0.41 0.49 0.31 0.35 0.45 0.36 0.41 0.39 0.42 0.48 0.41 0.47 0.44 0.34 0.44 0.41 0.32 0.39 0.37 0.36 0.31 0.36 0.43 0.36 0.48 0.36 0.30 0.40 0.41 0.37 0.34 0.49 0.34 0.48 0.37 0.34 0.43 0.46 0.35 0.38 0.49 0.50 0.32 0.46 0.43 0.47 0.45 0.50 0.40 0.36 0.48 0.47 0.41 0.36 0.47 0.47 0.31 0.47 0.38 0.35 0.33 0.46 0.35 0.35 0.40 0.45 0.42 0.48 0.46 0.44 0.45 0.31 0.41 0.35 0.47 0.43 0.31 0.33 0.41 0.45 0.41 0.39 0.43 0.38 0.37 0.35 0.39 0.41 0.36 0.43 0.33 0.42 0.43 0.40 0.49 0.44 0.46 0.38 0.41 0.50 0.36 0.34 0.46 0.35 0.36 0.41 0.35 0.41 0.36 0.31 0.38 0.49 0.36 0.40 0.39 0.43 0.49 0.36 0.43 0.38 0.36 0.33 0.35 0.37 0.47 0.36 0.32 0.43 0.42 0.42 0.39 0.41 0.50 0.49 0.38 0.50 0.33 0.48 0.38 0.32 0.49 0.38 0.38 0.41 0.35 0.34 0.47 0.34 0.37 0.37 0.30 0.37 0.42 0.38 0.36 0.34 0.38 0.44 0.33 0.32 0.49 0.36 0.38 0.33 0.32 0.49 0.46 0.34 0.34 0.42 0.44 0.37 0.39 0.43 0.40 0.42 0.46 0.32 0.33 0.34 0.37 0.34 -9999 -9999 -9999 -9999 -9999 -9999 -9999 -9999 -9999 -9999 -9999 -9999 -9999 -9999 -9999 -9999 -9999 -9999 -9999 -9999 -9999 -9999 -9999 -9999 -9999 -9999 -9999 -9999 -9999 -9999 -9999 -9999
0.41 0.38 0.32 0.39 0.37 0.33 0.42 0.34 0.38 0.31 0.36 0.39 0.37 0.49 0.42 0.36 0.33 0.49 0.34 0.32 0.35 0.45 0.35 0.41 0.31 0.39 0.46 0.34 0.36 0.37 0.49 0.37 0.48 0.45 0.45 0.32 0.46 0.35 0.49 0.40 0.44 0.44 0.36 0.35 0.39 0.31 0.46 0.47 0.35 0.31 0.35 0.39 0.48 0.41 0.44 0.44 0.46 0.50 0.45 0.31 0.42 0.31 0.44 0.40 0.36 0.48 0.46 0.38 0.44 0.44 0.32 0.46 0.32 0.47 0.44 0.48 0.44 0.35 0.33 0.39 0.49 0.43 0.39 0.41 0.48 0.34 0.44 0.34 0.32 0.45 0.39 0.40 0.41 0.41 0.42 0.47 0.40 0.32 0.40 0.40 0.42 0.45 0.37 0.43 0.49 0.31 0.35 0.34 0.49 0.41 0.45 0.31 0.31 0.37 0.41 0.33 0.45 0.41 0.39 0.38 0.40 0.40 0.31 0.44 0.36 0.32 0.34 0.40 0.36 0.42 0.40 0.46 0.32 0.37 0.33 0.34 0.46 0.38 0.31 0.46 0.41 0.33 0.32 0.32 0.39 0.45 0.38 0.39 0.31 0.34 0.41 0.32 0.30 0.32 0.47 0.49 0.30 0.45 0.37 0.46 0.31 0.46 0.42 0.34 0.39 0.41 0.49 0.32 0.31 0.36 0.46 0.43 0.47 0.46 0.33 0.46 0.37 0.45 0.41 0.42 0.34 0.35 0.37 -9999 -9999 -9999 -9999 -9999 -9999 -9999 -9999 -9999 -9999 -9999 -9999 -9999 -9999 -9999 -9999 -9999 -9999 -9999 -9999 -9999 -9999 -9999 -9999 -9999 -9999 -9999 -9999 -9999 -9999 -9999 -9999
0.32 0.39 0.44 0.42 0.34 0.35 0.39 0.50 0.38 0.42 0.44 0.37 0.49 0.45 0.41 0.39 0.33 0.44 0.39 0.48 0.42 0.31 0.32 0.35 0.33 0.39 0.49 0.33 0.48 0.47 0.43 0.33 0.31 0.38 0.42 0.37 0.33 0.40 0.38 0.44 0.42 0.40 0.33 0.41 0.49 0.34 0.41 0.47 0.38 0.34 0.37 0.36 0.41 0.34 0.49 0.42 0.48 0.46 0.46 0.49 0.39 0.49 0.31 0.37 0.32 0.44 0.40 0.37 0.32 0.36 0.48 0.37 0.45 0.48 0.33 0.49 0.35 0.44 0.34 0.45 0.35 0.33 0.32 0.48 0.41 0.34 0.33 0.44 0.32 0.43 0.42 0.42 0.41 0.34 0.40 0.42 0.37 0.32 0.30 0.43 0.34 0.48 0.33 0.34 0.31 0.48 0.48 0.47 0.31 0.36 0.45 0.38 0.34 0.35 0.46 0.38 0.43 0.30 0.48 0.46 0.32 0.39 0.34 0.36 0.50 0.45 0.41 0.36 0.36 0.33 0.49 0.46 0.38 0.39 0.44 0.38 0.31 0.49 0.45 0.33 0.36 0.49 0.43 0.35 0.45 0.36 0.48 0.35 0.37 0.37 0.49 0.48 0.32 0.33 0.41 0.49 0.46 0.34 0.38 0.41 0.37 0.34 0.45 0.48 0.35 0.44 0.34 0.33 0.38 0.48 0.44 0.49 0.42 0.34 0.32 0.32 0.49 0.45 0.47 0.36 0.35 0.45 0.37 -9999 -9999 -9999 -9999 -9999 -9999 -9999 -9999 -9999 -9999 -9999 -9999 -9999 -9999 -9999 -9999 -9999 -9999 -9999 -9999 -9999 -9999 -9999 -9999 -9999 -9999 -9999 -9999 -9999 -9999 -9999 -9999
0.49 0.30 0.44 0.46 0.38 0.34 0.36 0.35 0.44 0.41 0.40 0.43 0.44 0.33 0.48 0.49 0.38 0.42 0.31 0.33 0.39 0.43 0.33 0.37 0.35 0.48 0.33 0.35 0.49 0.35 0.34 0.34 0.47 0.32 0.35 0.34 0.40 0.48 0.40 0.35 0.30 0.39 0.35 0.44 0.42 0.38 0.49 0.35 0.31 0.46 0.38 0.44 0.49 0.48 0.44 0.40 0.36 0.46 0.30 0.49 0.41 0.47 0.35 0.38 0.50 0.38 0.44 0.46 0.42 0.41 0.44 0.49 0.45 0.47 0.48 0.47 0.37 0.33 0.38 0.32 0.40 0.48 0.43 0.40 0.34 0.47 0.38 0.38 0.44 0.38 0.43 0.48 0.30 0.34 0.31 0.40 0.37 0.37 0.43 0.44 0.49 0.48 0.44 0.31 0.33 0.40 0.33 0.37 0.33 0.45 0.49 0.35 0.33 0.34 0.40 0.35 0.46 0.36 0.37 0.46 0.40 0.43 0.39 0.40 0.30 0.37 0.35 0.35 0.36 0.46 0.46 0.45 0.49 0.43 0.47 0.36 0.47 0.34 0.42 0.43 0.36 0.42 0.40 0.37 0.42 0.39 0.36 0.39 0.34 0.34 0.35 0.35 0.39 0.43 0.31 0.46 0.33 0.37 0.36 0.46 0.42 0.35 0.33 0.48 0.37 0.50 0.45 0.46 0.31 0.39 0.45 0.47 0.34 0.42 0.42 0.42 0.33 0.36 0.35 0.46 0.30 0.33 0.35 -9999 -9999 -9999 -9999 -9999 -9999 -9999 -9999 -9999 -9999 -9999 -9999 -9999 -9999 -9999 -9999 -9999 -9999 -9999 -9999 -9999 -9999 -9999 -9999 -9999 -9999 -9999 -9999 -9999 -9999 -9999 -9999
0.46 0.40 0.36 0.44 0.36 0.48 0.35 0.40 0.36 0.30 0.47 0.46 0.45 0.49 0.38 0.39 0.37 0.41 0.50 0.44 0.41 0.38 0.48 0.49 0.42 0.44 0.31 0.35 0.42 0.38 0.33 0.41 0.37 0.47 0.46 0.35 0.48 0.33 0.47 0.48 0.33 0.41 0.44 0.49 0.34 0.44 0.45 0.41 0.40 0.46 0.48 0.47 0.42 0.30 0.45 0.38 0.37 0.32 0.45 0.39 0.44 0.50 0.44 0.37 0.35 0.42 0.42 0.49 0.37 0.47 0.48 0.42 0.43 0.40 0.48 0.50 0.42 0.37 0.40 0.47 0.47 0.40 0.49 0.34 0.30 0.35 0.38 0.35 0.49 0.50 0.49 0.39 0.47 0.43 0.46 0.31 0.44 0.30 0.33 0.49 0.37 0.46 0.31 0.30 0.31 0.31 0.39 0.36 0.33 0.39 0.30 0.49 0.37 0.44 0.33 0.38 0.38 0.44 0.36 0.32 0.42 0.32 0.39 0.34 0.32 0.31 0.37 0.46 0.46 0.49 0.39 0.44 0.38 0.30 0.32 0.45 0.35 0.43 0.38 0.33 0.31 0.44 0.33 0.41 0.37 0.50 0.36 0.43 0.30 0.38 0.47 0.41 0.46 0.42 0.39 0.35 0.40 0.39 0.41 0.41 0.36 0.31 0.39 0.47 0.31 0.40 0.45 0.36 0.48 0.39 0.40 0.35 0.31 0.47 0.33 0.34 0.36 0.30 0.48 0.48 0.41 0.34 0.31 -9999 -9999 -9999 -9999 -9999 -9999 -9999 -9999 -9999 -9999 -9999 -9999 -9999 -9999 -9999 -9999 -9999 -9999 -9999 -9999 -9999 -9999 -9999 -9999 -9999 -9999 -9999 -9999 -9999 -9999 -9999 -9999
0.31 0.40 0.32 0.37 0.48 0.45 0.48 0.42 0.37 0.40 0.47 0.42 0.39 0.37 0.35 0.38 0.42 0.48 0.31 0.45 0.36 0.36 0.33 0.44 0.50 0.36 0.43 0.32 0.33 0.49 0.31 0.33 0.40 0.36 0.47 0.45 0.32 0.32 0.35 0.35 0.30 0.34 0.31 0.37 0.30 0.43 0.34 0.37 0.41 0.32 0.39 0.43 0.48 0.39 0.38 0.32 0.33 0.38 0.36 0.37 0.30 0.45 0.47 0.46 0.40 0.35 0.34 0.43 0.34 0.33 0.44 0.32 0.32 0.42 0.33 0.33 0.31 0.31 0.37 0.41 0.47 0.35 0.46 0.40 0.48 0.47 0.32 0.47 0.47 0.46 0.50 0.42 0.39 0.46 0.40 0.41 0.38 0.41 0.46 0.49 0.34 0.34 0.41 0.47 0.46 0.47 0.40 0.48 0.38 0.38 0.37 0.46 0.40 0.32 0.50 0.39 0.41 0.46 0.33 0.40 0.49 0.39 0.45 0.35 0.35 0.30 0.31 0.32 0.43 0.36 0.33 0.41 0.37 0.45 0.38 0.41 0.35 0.31 0.47 0.37 0.31 0.35 0.30 0.38 0.38 0.38 0.36 0.47 0.49 0.37 0.40 0.37 0.36 0.35 0.46 0.48 0.36 0.41 0.39 0.40 0.33 0.39 0.45 0.39 0.38 0.40 0.36 0.38 0.37 0.32 0.35 0.37 0.32 0.30 0.37 0.30 0.39 0.39 0.44 0.43 0.38 0.43 0.45 -9999 -9999 -9999 -9999 -9999 -9999 -9999 -9999 -9999 -9999 -9999 -9999 -9999 -9999 -9999 -9999 -9999 -9999 -9999 -9999 -9999 -9999 -9999 -9999 -9999 -9999 -9999 -9999 -9999 -9999 -9999 -9999
0.44 0.40 0.46 0.40 0.44 0.37 0.30 0.45 0.32 0.43 0.44 0.43 0.46 0.35 0.37 0.46 0.38 0.41 0.40 0.31 0.33 0.31 0.44 0.42 0.35 0.34 0.31 0.40 0.36 0.46 0.36 0.33 0.36 0.43 0.40 0.31 0.37 0.41 0.47 0.45 0.37 0.48 0.48 0.49 0.48 0.45 0.49 0.39 0.39 0.41 0.35 0.36 0.34 0.46 0.46 0.48 0.44 0.45 0.41 0.37 0.40 0.41 0.44 0.38 0.34 0.44 0.38 0.35 0.32 0.49 0.34 0.42 0.34 0.43 0.34 0.30 0.41 0.47 0.31 0.46 0.31 0.50 0.38 0.32 0.37 0.39 0.48 0.31 0.36 0.49 0.41 0.45 0.41 0.46 0.46 0.44 0.35 0.48 0.46 0.39 0.43 0.42 0.40 0.42 0.41 0.46 0.36 0.46 0.49 0.45 0.42 0.42 0.46 0.40 0.32 0.41 0.45 0.48 0.40 0.31 0.31 0.42 0.38 0.38 0.31 0.41 0.31 0.45 0.49 0.43 0.33 0.39 0.39 0.35 0.45 0.45 0.37 0.41 0.40 0.45 0.40 0.47 0.50 0.35 0.41 0.38 0.33 0.36 0.42 0.35 0.44 0.46 0.34 0.50 0.40 0.45 0.43 0.49 0.47 0.31 0.39 0.38 0.49 0.48 0.42 0.36 0.31 0.40 0.33 0.35 0.38 0.32 0.44 0.32 0.35 0.43 0.35 0.50 0.40 0.33 0.43 0.46 0.45 0.41 -9999 -9999 -9999 -9999 -9999 -9999 -9999 -9999 -9999 -9999 -9999 -9999 -9999 -9999 -9999 -9999 -9999 -9999 -9999 -9999 -9999 -9999 -9999 -9999 -9999 -9999 -9999 -9999 -9999 -9999 -9999
0.45 0.34 0.41 0.31 0.40 0.42 0.48 0.45 0.36 0.42 0.39 0.47 0.32 0.43 0.41 0.43 0.43 0.39 0.49 0.33 0.32 0.42 0.33 0.34 0.42 0.35 0.45 0.38 0.45 0.42 0.48 0.49 0.48 0.38 0.41 0.37 0.34 0.33 0.31 0.49 0.33 0.48 0.35 0.45 0.45 0.42 0.44 0.38 0.49 0.49 0.44 0.46 0.46 0.45 0.31 0.44 0.39 0.38 0.36 0.42 0.44 0.37 0.43 0.40 0.42 0.49 0.33 0.43 0.38 0.30 0.44 0.39 0.41 0.37 0.31 0.40 0.30 0.50 0.48 0.32 0.42 0.32 0.48 0.45 0.32 0.43 0.35 0.42 0.47 0.35 0.33 0.46 0.39 0.42 0.46 0.41 0.31 0.36 0.33 0.47 0.39 0.38 0.33 0.43 0.30 0.33 0.34 0.46 0.46 0.50 0.39 0.49 0.47 0.41 0.34 0.33 0.42 0.43 0.33 0.35 0.46 0.38 0.38 0.46 0.39 0.40 0.44 0.46 0.32 0.40 0.42 0.36 0.40 0.43 0.50 0.40 0.38 0.30 0.38 0.30 0.44 0.30 0.35 0.44 0.42 0.47 0.47 0.35 0.37 0.31 0.31 0.46 0.31 0.41 0.47 0.45 0.31 0.44 0.38 0.36 0.33 0.40 0.40 0.44 0.31 0.42 0.38 0.33 0.46 0.36 0.41 0.35 0.34 0.41 0.40 0.44 0.36 0.38 0.43 0.44 0.41 0.46 0.37 0.30 -9999 -9999 -9999 -9999 -9999 -9999 -9999 -9999 -9999 -9999 -9999 -9999 -9999 -9999 -9999 -9999 -9999 -9999 -9999 -9999 -9999 -9999 -9999 -9999 -9999 -9999 -9999 -9999 -9999 -9999 -9999
0.49 0.32 0.40 0.33 0.36 0.41 0.30 0.40 0.42 0.39 0.31 0.35 0.46 0.35 0.39 0.50 0.35 0.48 0.40 0.36 0.31 0.40 0.45 0.49 0.44 0.33 0.30 0.49 0.46 0.43 0.35 0.50 0.47 0.35 0.34 0.45 0.33 0.38 0.32 0.31 0.33 0.40 0.37 0.36 0.35 0.48 0.30 0.41 0.42 0.39 0.39 0.42 0.45 0.32 0.40 0.46 0.41 0.32 0.33 0.49 0.34 0.43 0.50 0.38 0.34 0.40 0.44 0.39 0.36 0.47 0.41 0.48 0.30 0.30 0.39 0.46 0.33 0.42 0.37 0.47 0.48 0.43 0.42 0.45 0.45 0.35 0.42 0.36 0.39 0.37 0.42 0.44 0.45 0.37 0.38 0.48 0.40 0.35 0.48 0.46 0.42 0.32 0.37 0.47 0.44 0.45 0.40 0.32 0.32 0.40 0.42 0.47 0.38 0.47 0.46 0.46 0.34 0.38 0.35 0.39 0.37 0.43 0.47 0.42 0.44 0.43 0.43 0.40 0.38 0.33 0.43 0.44 0.35 0.37 0.44 0.43 0.49 0.47 0.48 0.34 0.31 0.45 0.50 0.35 0.36 0.36 0.46 0.37 0.34 0.46 0.46 0.35 0.33 0.37 0.40 0.49 0.44 0.35 0.31 0.39 0.34 0.47 0.43 0.40 0.33 0.43 0.38 0.42 0.36 0.32 0.48 0.48 0.40 0.47 0.32 0.47 0.38 0.41 0.32 0.34 0.40 0.37 0.42 0.38 -9999 -9999 -9999 -9999 -9999 -9999 -9999 -9999 -9999 -9999 -9999 -9999 -9999 -9999 -9999 -9999 -9999 -9999 -9999 -9999 -9999 -9999 -9999 -9999 -9999 -9999 -9999 -9999 -9999 -9999 -9999
0.38 0.36 0.32 0.30 0.47 0.44 0.44 0.35 0.46 0.38 0.46 0.44 0.46 0.39 0.49 0.30 0.48 0.49 0.48 0.45 0.33 0.43 0.46 0.34 0.41 0.30 0.39 0.32 0.34 0.41 0.43 0.42 0.43 0.32 0.46 0.39 0.32 0.30 0.46 0.40 0.44 0.48 0.40 0.45 0.49 0.39 0.47 0.34 0.40 0.43 0.41 0.33 0.49 0.47 0.42 0.40 0.49 0.48 0.47 0.33 0.42 0.45 0.33 0.31 0.34 0.49 0.44 0.31 0.49 0.44 0.42 0.37 0.33 0.36 0.43 0.43 0.37 0.45 0.43 0.36 0.47 0.33 0.46 0.47 0.44 0.39 0.50 0.41 0.46 0.32 0.41 0.30 0.39 0.38 0.34 0.39 0.35 0.33 0.32 0.38 0.43 0.40 0.48 0.36 0.46 0.38 0.48 0.37 0.43 0.30 0.39 0.40 0.49 0.34 0.38 0.37 0.39 0.43 0.40 0.32 0.46 0.30 0.37 0.30 0.47 0.34 0.36 0.41 0.39 0.38 0.35 0.40 0.46 0.47 0.35 0.49 0.42 0.45 0.49 0.44 0.41 0.47 0.40 0.44 0.40 0.37 0.41 0.41 0.48 0.38 0.38 0.47 0.37 0.42 0.45 0.47 0.48 0.32 0.45 0.33 0.35 0.31 0.43 0.50 0.31 0.49 0.36 0.47 0.50 0.40 0.41 0.49 0.47 0.43 0.46 0.50 0.30 0.43 0.33 0.41 0.32 0.50 0.40 0.43 -9999 -9999 -9999 -9999 -9999 -9999 -9999 -9999 -9999 -9999 -9999 -9999 -9999 -9999 -9999 -9999 -9999 -9999 -9999 -9999 -9999 -9999 -9999 -9999 -9999 -9999 -9999 -9999 -9999 -9999 -9999
0.42 0.43 0.39 0.49 0.40 0.46 0.39 0.39 0.37 0.43 0.33 0.44 0.36 0.32 0.46 0.39 0.31 0.49 0.31 0.47 0.50 0.50 0.47 0.39 0.50 0.44 0.44 0.46 0.33 0.38 0.39 0.45 0.45 0.47 0.31 0.43 0.45 0.48 0.33 0.46 0.44 0.42 0.44 0.32 0.48 0.45 0.37 0.40 0.39 0.30 0.34 0.40 0.43 0.41 0.31 0.32 0.42 0.40 0.42 0.42 0.46 0.34 0.46 0.46 0.46 0.37 0.32 0.42 0.48 0.30 0.41 0.41 0.44 0.31 0.35 0.44 0.31 0.44 0.41 0.31 0.47 0.47 0.43 0.43 0.35 0.45 0.37 0.34 0.40 0.43 0.37 0.34 0.34 0.45 0.37 0.31 0.49 0.36 0.36 0.42 0.39 0.38 0.44 0.36 0.47 0.36 0.36 0.47 0.32 0.30 0.47 0.44 0.36 0.37 0.43 0.48 0.36 0.31 0.49 0.37 0.35 0.40 0.40 0.42 0.49 0.47 0.49 0.37 0.37 0.43 0.41 0.45 0.46 0.35 0.38 0.46 0.38 0.36 0.33 0.37 0.50 0.42 0.39 0.38 0.45 0.46 0.43 0.32 0.47 0.34 0.41 0.31 0.41 0.44 0.44 0.46 0.50 0.40 0.34 0.42 0.32 0.38 0.42 0.44 0.39 0.49 0.38 0.46 0.44 0.33 0.33 0.49 0.40 0.48 0.41 0.36 0.36 0.32 0.31 0.36 0.31 0.48 0.37 0.43 -9999 -9999 -9999 -9999 -9999 -9999 -9999 -9999 -9999 -9999 -9999 -9999 -9999 -9999 -9999 -9999 -9999 -9999 -9999 -9999 -9999 -9999 -9999 -9999 -9999 -9999 -9999 -9999 -9999 -9999 -9999
0.32 0.36 0.43 0.34 0.33 0.47 0.35 0.46 0.32 0.38 0.42 0.30 0.48 0.31 0.34 0.39 0.44 0.31 0.35 0.47 0.33 0.35 0.49 0.34 0.35 0.49 0.42 0.32 0.43 0.33 0.34 0.43 0.45 0.38 0.38 0.34 0.39 0.33 0.41 0.33 0.44 0.47 0.37 0.33 0.34 0.40 0.34 0.32 0.42 0.42 0.33 0.33 0.46 0.43 0.45 0.38 0.38 0.40 0.35 0.46 0.44 0.30 0.45 0.38 0.35 0.41 0.32 0.36 0.46 0.33 0.43 0.33 0.44 0.34 0.47 0.38 0.43 0.44 0.42 0.35 0.45 0.47 0.48 0.34 0.35 0.37 0.49 0.31 0.49 0.39 0.41 0.43 0.32 0.43 0.31 0.32 0.37 0.36 0.38 0.43 0.36 0.33 0.34 0.44 0.38 0.48 0.49 0.47 0.31 0.39 0.31 0.45 0.38 0.39 0.49 0.30 0.40 0.30 0.36 0.33 0.47 0.34 0.38 0.36 0.48 0.35 0.32 0.50 0.47 0.48 0.49 0.46 0.42 0.49 0.36 0.39 0.33 0.31 0.32 0.47 0.39 0.35 0.48 0.34 0.47 0.33 0.43 0.41 0.32 0.34 0.35 0.33 0.33 0.44 0.38 0.43 0.33 0.47 0.45 0.33 0.48 0.35 0.49 0.40 0.38 0.31 0.48 0.34 0.40 0.44 0.44 0.44 0.45 0.45 0.47 0.39 0.31 0.50 0.45 0.49 0.32 0.34 0.49 0.41 -9999 -9999 -9999 -9999 -9999 -9999 -9999 -9999 -9999 -9999 -9999 -9999 -9999 -9999 -9999 -9999 -9999 -9999 -9999 -9999 -9999 -9999 -9999 -9999 -9999 -9999 -9999 -9999 -9999 -9999 -9999
0.38 0.33 0.33 0.40 0.45 0.40 0.36 0.36 0.38 0.47 0.31 0.44 0.35 0.42 0.47 0.34 0.45 0.37 0.46 0.47 0.43 0.45 0.43 0.49 0.30 0.31 0.31 0.36 0.35 0.39 0.47 0.42 0.34 0.43 0.45 0.31 0.47 0.49 0.35 0.39 0.36 0.44 0.38 0.49 0.38 0.45 0.48 0.38 0.48 0.43 0.31 0.41 0.35 0.39 0.30 0.46 0.35 0.40 0.48 0.46 0.32 0.36 0.33 0.49 0.34 0.42 0.43 0.40 0.30 0.39 0.30 0.38 0.32 0.36 0.44 0.46 0.40 0.43 0.46 0.45 0.44 0.30 0.31 0.45 0.40 0.41 0.49 0.39 0.37 0.44 0.39 0.48 0.49 0.39 0.40 0.46 0.40 0.42 0.33 0.37 0.48 0.42 0.40 0.42 0.39 0.40 0.43 0.30 0.36 0.35 0.33 0.46 0.34 0.48 0.41 0.43 0.44 0.37 0.46 0.48 0.45 0.49 0.39 0.44 0.44 0.32 0.45 0.47 0.42 0.33 0.39 0.42 0.30 0.35 0.34 0.45 0.35 0.41 0.30 0.42 0.36 0.36 0.50 0.37 0.36 0.38 0.48 0.47 0.46 0.31 0.31 0.37 0.36 0.33 0.43 0.41 0.35 0.45 0.32 0.35 0.48 0.38 0.50 0.31 0.39 0.34 0.50 0.34 0.44 0.47 0.38 0.50 0.40 0.39 0.43 0.41 0.35 0.37 0.37 0.42 0.41 0.47 0.41 0.34 -9999 -9999 -9999 -9999 -9999 -9999 -9999 -9999 -9999 -9999 -9999 -9999 -9999 -9999 -9999 -9999 -9999 -9999 -9999 -9999 -9999 -9999 -9999 -9999 -9999 -9999 -9999 -9999 -9999 -9999 -9999
0.48 0.49 0.36 0.41 0.40 0.30 0.38 0.48 0.41 0.48 0.42 0.39 0.43 0.32 0.38 0.40 0.34 0.36 0.47 0.45 0.48 0.49 0.49 0.39 0.39 0.42 0.32 0.32 0.40 0.30 0.40 0.46 0.50 0.42 0.30 0.32 0.42 0.43 0.47 0.31 0.34 0.40 0.42 0.39 0.39 0.33 0.36 0.40 0.42 0.33 0.30 0.31 0.48 0.31 0.41 0.39 0.45 0.39 0.49 0.47 0.36 0.44 0.39 0.40 0.47 0.35 0.38 0.49 0.39 0.42 0.41 0.37 0.32 0.32 0.44 0.44 0.38 0.42 0.32 0.42 0.33 0.44 0.48 0.32 0.32 0.35 0.40 0.31 0.39 0.48 0.49 0.32 0.45 0.49 0.47 0.31 0.34 0.49 0.44 0.34 0.35 0.42 0.44 0.48 0.31 0.44 0.46 0.40 0.38 0.42 0.37 0.45 0.39 0.35 0.34 0.42 0.48 0.36 0.48 0.31 0.47 0.45 0.45 0.45 0.34 0.40 0.46 0.36 0.43 0.40 0.39 0.47 0.31 0.34 0.40 0.34 0.47 0.34 0.35 0.37 0.49 0.33 0.43 0.40 0.37 0.46 0.36 0.35 0.48 0.42 0.37 0.41 0.43 0.31 0.35 0.46 0.39 0.31 0.34 0.42 0.46 0.49 0.35 0.36 0.32 0.41 0.41 0.33 0.34 0.40 0.49 0.39 0.37 0.50 0.35 0.38 0.37 0.38 0.39 0.47 0.43 0.33 0.30 0.46 0.36 -9999 -9999 -9999 -9999 -9999 -9999 -9999 -9999 -9999 -9999 -9999 -9999 -9999 -9999 -9999 -9999 -9999 -9999 -9999 -9999 -9999 -9999 -9999 -9999 -9999 -9999 -9999 -9999 -9999 -9999
0.35 0.47 0.39 0.44 0.40 0.41 0.33 0.32 0.32 0.41 0.44 0.36 0.43 0.37 0.35 0.33 0.44 0.31 0.41 0.45 0.36 0.37 0.34 0.48 0.40 0.43 0.41 0.30 0.33 0.49 0.43 0.32 0.31 0.32 0.34 0.45 0.40 0.34 0.35 0.47 0.35 0.38 0.38 0.46 0.39 0.38 0.49 0.47 0.45 0.45 0.36 0.30 0.44 0.33 0.50 0.40 0.31 0.49 0.34 0.35 0.38 0.31 0.35 0.32 0.40 0.47 0.32 0.47 0.47 0.46 0.42 0.50 0.44 0.32 0.38 0.43 0.31 0.38 0.43 0.34 0.31 0.40 0.45 0.45 0.50 0.37 0.30 0.35 0.45 0.37 0.44 0.44 0.43 0.34 0.32 0.48 0.31 0.32 0.48 0.37 0.44 0.34 0.46 0.37 0.36 0.36 0.44 0.41 0.34 0.48 0.36 0.33 0.44 0.34 0.38 0.48 0.46 0.47 0.33 0.32 0.32 0.49 0.32 0.42 0.37 0.49 0.44 0.37 0.44 0.42 0.48 0.31 0.31 0.45 0.41 0.42 0.31 0.47 0.36 0.37 0.48 0.44 0.47 0.41 0.44 0.46 0.44 0.33 0.36 0.48 0.42 0.40 0.31 0.31 0.47 0.36 0.31 0.38 0.49 0.44 0.44 0.41 0.43 0.43 0.32 0.33 0.44 0.46 0.38 0.40 0.45 0.32 0.34 0.44 0.45 0.36 0.32 0.32 0.34 0.49 0.43 0.31 0.47 0.43 0.31 -9999 -9999 -9999 -9999 -9999 -9999 -9999 -9999 -9999 -9999 -9999 -9999 -9999 -9999 -9999 -9999 -9999 -9999 -9999 -9999 -9999 -9999 -9999 -9999 -9999 -9999 -9999 -9999 -9999 -9999
0.41 0.30 0.30 0.49 0.32 0.36 0.46 0.35 0.32 0.48 0.38 0.43 0.45 0.36 0.31 0.40 0.49 0.31 0.31 0.32 0.50 0.47 0.34 0.32 0.41 0.46 0.43 0.35 0.34 0.46 0.32 0.34 0.39 0.30 0.48 0.31 0.41 0.34 0.31 0.32 0.35 0.35 0.48 0.38 0.43 0.44 0.32 0.38 0.38 0.39 0.33 0.45 0.43 0.40 0.41 0.49 0.34 0.50 0.43 0.43 0.36 0.32 0.41 0.49 0.37 0.45 0.45 0.37 0.41 0.43 0.33 0.44 0.46 0.37 0.37 0.48 0.38 0.39 0.45 0.38 0.41 0.41 0.42 0.35 0.43 0.31 0.44 0.34 0.40 0.38 0.33 0.50 0.34 0.47 0.33 0.44 0.31 0.33 0.36 0.38 0.34 0.43 0.32 0.46 0.30 0.34 0.47 0.50 0.47 0.36 0.44 0.34 0.37 0.35 0.38 0.49 0.44 0.48 0.45 0.49 0.48 0.35 0.32 0.39 0.45 0.42 0.45 0.32 0.46 0.46 0.35 0.36 0.41 0.39 0.33 0.31 0.44 0.49 0.46 0.48 0.31 0.44 0.41 0.41 0.42 0.45 0.41 0.46 0.35 0.30 0.47 0.30 0.44 0.44 0.40 0.30 0.37 0.44 0.47 0.46 0.38 0.45 0.33 0.47 0.49 0.49 0.38 0.36 0.45 0.36 0.31 0.41 0.48 0.43 0.32 0.32 0.40 0.38 0.37 0.50 0.43 0.39 0.48 0.34 0.32 -9999 -9999 -9999 -9999 -9999 -9999 -9999 -9999 -9999 -9999 -9999 -9999 -9999 -9999 -9999 -9999 -9999 -9999 -9999 -9999 -9999 -9999 -9999 -9999 -9999 -9999 -9999 -9999 -9999 -9999
0.49 0.37 0.48 0.39 0.44 0.33 0.39 0.47 0.39 0.35 0.35 0.45 0.32 0.42 0.34 0.44 0.35 0.33 0.35 0.44 0.39 0.42 0.34 0.45 0.47 0.37 0.42 0.31 0.42 0.41 0.46 0.43 0.37 0.32 0.41 0.49 0.42 0.50 0.34 0.31 0.40 0.46 0.46 0.39 0.50 0.38 0.34 0.43 0.37 0.35 0.48 0.44 0.31 0.42 0.45 0.41 0.42 0.40 0.39 0.40 0.37 0.31 0.33 0.47 0.33 0.37 0.32 0.32 0.35 0.50 0.37 0.33 0.40 0.37 0.42 0.50 0.35 0.49 0.38 0.41 0.38 0.42 0.33 0.49 0.45 0.33 0.34 0.41 0.44 0.43 0.35 0.48 0.34 0.31 0.49 0.43 0.41 0.39 0.31 0.33 0.47 0.46 0.39 0.46 0.46 0.30 0.38 0.49 0.35 0.34 0.44 0.50 0.41 0.33 0.48 0.37 0.49 0.39 0.31 0.40 0.47 0.42 0.38 0.41 0.35 0.43 0.43 0.33 0.35 0.40 0.33 0.36 0.31 0.49 0.48 0.31 0.45 0.44 0.31 0.48 0.49 0.31 0.39 0.39 0.34 0.31 0.33 0.34 0.48 0.49 0.49 0.34 0.31 0.37 0.45 0.39 0.33 0.39 0.37 0.34 0.41 0.46 0.41 0.39 0.40 0.41 0.48 0.48 0.41 0.43 0.31 0.42 0.36 0.43 0.32 0.34 0.31 0.30 0.48 0.45 0.45 0.43 0.49 0.49 0.41 -9999 -9999 -9999 -9999 -9999 -9999 -9999 -9999 -9999 -9999 -9999 -9999 -9999 -9999 -9999 -9999 -9999 -9999 -9999 -9999 -9999 -9999 -9999 -9999 -9999 -9999 -9999 -9999 -9999 -9999
0.31 0.39 0.38 0.39 0.31 0.44 0.35 0.47 0.34 0.48 0.41 0.50 0.49 0.39 0.44 0.40 0.32 0.47 0.46 0.36 0.44 0.44 0.36 0.47 0.34 0.34 0.43 0.40 0.37 0.44 0.36 0.44 0.37 0.41 0.40 0.40 0.38 0.49 0.45 0.33 0.41 0.38 0.48 0.33 0.38 0.41 0.50 0.47 0.32 0.39 0.45 0.39 0.32 0.37 0.35 0.50 0.39 0.40 0.41 0.44 0.43 0.41 0.47 0.41 0.30 0.34 0.48 0.42 0.32 0.34 0.39 0.38 0.48 0.44 0.46 0.39 0.39 0.33 0.41 0.47 0.40 0.36 0.45 0.44 0.35 0.45 0.48 0.36 0.46 0.39 0.41 0.34 0.42 0.35 0.45 0.35 0.32 0.40 0.43 0.35 0.38 0.35 0.39 0.30 0.32 0.47 0.36 0.41 0.34 0.42 0.33 0.42 0.31 0.31 0.44 0.38 0.42 0.47 0.47 0.41 0.40 0.44 0.41 0.45 0.33 0.42 0.42 0.32 0.38 0.47 0.44 0.40 0.45 0.43 0.33 0.32 0.34 0.41 0.32 0.45 0.42 0.39 0.44 0.45 0.47 0.46 0.47 0.40 0.41 0.40 0.41 0.33 0.37 0.39 0.38 0.47 0.44 0.34 0.46 0.33 0.45 0.38 0.45 0.31 0.32 0.45 0.49 0.41 0.37 0.49 0.32 0.45 0.36 0.39 0.44 0.48 0.33 0.47 0.49 0.33 0.47 0.34 0.38 0.39 0.38 -9999 -9999 -9999 -9999 -9999 -9999 -9999 -9999 -9999 -9999 -9999 -9999 -9999 -9999 -9999 -9999 -9999 -9999 -9999 -9999 -9999 -9999 -9999 -9999 -9999 -9999 -9999 -9999 -9999 -9999
0.48 0.50 0.40 0.40 0.30 0.42 0.49 0.38 0.38 0.30 0.40 0.44 0.49 0.39 0.39 0.34 0.37 0.39 0.35 0.32 0.30 0.49 0.34 0.34 0.40 0.45 0.44 0.36 0.34 0.39 0.36 0.37 0.42 0.47 0.47 0.39 0.32 0.49 0.35 0.32 0.38 0.50 0.50 0.48 0.43 0.48 0.50 0.39 0.45 0.38 0.35 0.35 0.45 0.32 0.49 0.43 0.48 0.39 0.47 0.45 0.47 0.43 0.49 0.43 0.45 0.38 0.32 0.33 0.35 0.43 0.33 0.45 0.47 0.40 0.35 0.45 0.35 0.39 0.42 0.48 0.47 0.43 0.36 0.34 0.49 0.45 0.34 0.40 0.30 0.34 0.37 0.50 0.36 0.35 0.47 0.32 0.31 0.41 0.33 0.44 0.34 0.50 0.39 0.46 0.31 0.47 0.38 0.40 0.32 0.43 0.34 0.36 0.31 0.39 0.46 0.50 0.50 0.37 0.43 0.42 0.47 0.45 0.49 0.38 0.44 0.46 0.39 0.47 0.49 0.36 0.36 0.36 0.46 0.40 0.33 0.41 0.46 0.43 0.39 0.32 0.47 0.39 0.47 0.48 0.31 0.48 0.32 0.41 0.33 0.44 0.41 0.35 0.46 0.49 0.48 0.49 0.42 0.38 0.49 0.43 0.31 0.40 0.50 0.37 0.34 0.50 0.48 0.31 0.31 0.34 0.39 0.35 0.32 0.37 0.44 0.48 0.37 0.39 0.35 0.35 0.42 0.45 0.44 0.36 0.39 -9999 -9999 -9999 -9999 -9999 -9999 -9999 -9999 -9999 -9999 -9999 -9999 -9999 -9999 -9999 -9999 -9999 -9999 -9999 -9999 -9999 -9999 -9999 -9999 -9999 -9999 -9999 -9999 -9999 -9999
0.32 0.45 0.42 0.50 0.47 0.39 0.37 0.32 0.49 0.36 0.43 0.33 0.38 0.49 0.30 0.35 0.37 0.44 0.36 0.34 0.44 0.46 0.34 0.34 0.40 0.37 0.39 0.31 0.37 0.40 0.49 0.39 0.41 0.37 0.46 0.48 0.36 0.36 0.37 0.47 0.47 0.38 0.40 0.32 0.36 0.46 0.37 0.47 0.45 0.50 0.33 0.36 0.44 0.31 0.41 0.47 0.43 0.31 0.31 0.47 0.43 0.32 0.49 0.45 0.33 0.33 0.47 0.40 0.45 0.43 0.34 0.35 0.41 0.41 0.31 0.47 0.31 0.48 0.42 0.46 0.40 0.44 0.37 0.32 0.46 0.47 0.43 0.31 0.43 0.35 0.35 0.37 0.44 0.48 0.31 0.46 0.45 0.31 0.34 0.35 0.48 0.33 0.36 0.44 0.43 0.42 0.42 0.40 0.42 0.31 0.42 0.49 0.41 0.42 0.48 0.31 0.46 0.41 0.44 0.34 0.45 0.35 0.31 0.44 0.49 0.32 0.44 0.45 0.40 0.36 0.35 0.47 0.45 0.49 0.41 0.39 0.45 0.39 0.34 0.41 0.30 0.46 0.35 0.45 0.33 0.43 0.48 0.37 0.46 0.33 0.38 0.38 0.33 0.43 0.43 0.31 0.33 0.31 0.49 0.38 0.32 0.31 0.38 0.44 0.38 0.42 0.47 0.40 0.43 0.49 0.47 0.46 0.41 0.49 0.32 0.50 0.40 0.35 0.40 0.46 0.31 0.46 0.39 0.34 0.34 0.46 -9999 -9999 -9999 -9999 -9999 -9999 -9999 -9999 -9999 -9999 -9999 -9999 -9999 -9999 -9999 -9999 -9999 -9999 -9999 -9999 -9999 -9999 -9999 -9999 -9999 -9999 -9999 -9999 -9999
0.44 0.44 0.45 0.43 0.38 0.38 0.36 0.37 0.32 0.46 0.31 0.31 0.43 0.37 0.36 0.33 0.35 0.37 0.33 0.49 0.41 0.39 0.42 0.49 0.48 0.45 0.40 0.44 0.32 0.49 0.46 0.41 0.49 0.45 0.36 0.48 0.49 0.49 0.31 0.46 0.42 0.34 0.31 0.35 0.41 0.31 0.43 0.38 0.34 0.37 0.35 0.47 0.31 0.48 0.42 0.32 0.42 0.40 0.37 0.37 0.48 0.49 0.34 0.35 0.49 0.36 0.41 0.47 0.39 0.31 0.30 0.49 0.42 0.47 0.46 0.49 0.30 0.47 0.43 0.45 0.31 0.35 0.33 0.45 0.38 0.40 0.37 0.32 0.49 0.40 0.50 0.47 0.42 0.47 0.39 0.40 0.40 0.40 0.40 0.35 0.46 0.32 0.37 0.30 0.37 0.32 0.38 0.43 0.46 0.45 0.44 0.33 0.46 0.38 0.44 0.42 0.47 0.38 0.34 0.49 0.43 0.37 0.37 0.44 0.41 0.45 0.49 0.49 0.36 0.32 0.45 0.42 0.33 0.42 0.38 0.45 0.32 0.35 0.46 0.50 0.46 0.44 0.34 0.44 0.31 0.35 0.44 0.44 0.40 0.48 0.39 0.33 0.42 0.42 0.35 0.36 0.32 0.49 0.44 0.48 0.35 0.40 0.43 0.45 0.33 0.45 0.43 0.37 0.49 0.36 0.42 0.32 0.42 0.49 0.49 0.32 0.42 0.41 0.44 0.37 0.48 0.43 0.34 0.34 0.49 0.44 -9999 -9999 -9999 -9999 -9999 -9999 -9999 -9999 -9999 -9999 -9999 -9999 -9999 -9999 -9999 -9999 -9999 -9999 -9999 -9999 -9999 -9999 -9999 -9999 -9999 -9999 -9999 -9999 -9999
0.44 0.48 0.31 0.48 0.32 0.39 0.32 0.45 0.39 0.34 0.43 0.34 0.34 0.30 0.41 0.46 0.40 0.49 0.30 0.45 0.44 0.42 0.49 0.39 0.45 0.32 0.37 0.33 0.33 0.44 0.46 0.40 0.31 0.32 0.32 0.37 0.35 0.36 0.38 0.46 0.49 0.49 0.45 0.45 0.31 0.35 0.47 0.43 0.44 0.37 0.40 0.40 0.44 0.38 0.47 0.48 0.38 0.33 0.37 0.49 0.48 0.34 0.30 0.32 0.44 0.38 0.38 0.50 0.39 0.31 0.34 0.31 0.46 0.36 0.34 0.31 0.41 0.40 0.45 0.48 0.37 0.48 0.50 0.46 0.45 0.45 0.50 0.41 0.35 0.33 0.44 0.41 0.48 0.38 0.45 0.43 0.42 0.45 0.44 0.31 0.38 0.44 0.48 0.48 0.47 0.43 0.36 0.37 0.40 0.31 0.49 0.46 0.38 0.45 0.44 0.40 0.37 0.40 0.47 0.48 0.39 0.33 0.39 0.41 0.47 0.46 0.45 0.33 0.31 0.34 0.41 0.36 0.41 0.48 0.49 0.37 0.47 0.42 0.44 0.30 0.44 0.47 0.44 0.36 0.46 0.49 0.41 0.39 0.42 0.42 0.35 0.38 0.49 0.41 0.38 0.45 0.40 0.41 0.31 0.44 0.46 0.45 0.46 0.39 0.39 0.47 0.50 0.42 0.47 0.34 0.47 0.49 0.33 0.42 0.45 0.30 0.33 0.49 0.47 0.41 0.36 0.41 0.48 0.35 0.46 0.44 -9999 -9999 -9999 -9999 -9999 -9999 -9999 -9999 -9999 -9999 -9999 -9999 -9999 -9999 -9999 -9999 -9999 -9999 -9999 -9999 -9999 -9999 -9999 -9999 -9999 -9999 -9999 -9999 -9999
0.35 0.48 0.42 0.36 0.49 0.37 0.44 0.47 0.40 0.50 0.38 0.48 0.47 0.35 0.36 0.36 0.44 0.37 0.38 0.47 0.36 0.42 0.30 0.40 0.42 0.45 0.43 0.31 0.34 0.45 0.44 0.47 0.49 0.34 0.31 0.42 0.48 0.42 0.44 0.31 0.36 0.41 0.31 0.34 0.38 0.32 0.32 0.35 0.41 0.39 0.41 0.45 0.38 0.36 0.37 0.38 0.33 0.42 0.41 0.35 0.49 0.49 0.35 0.37 0.34 0.31 0.43 0.43 0.46 0.40 0.45 0.37 0.34 0.31 0.40 0.45 0.32 0.37 0.47 0.43 0.36 0.50 0.37 0.35 0.40 0.37 0.42 0.37 0.50 0.41 0.33 0.32 0.48 0.35 0.31 0.46 0.38 0.43 0.37 0.41 0.44 0.34 0.34 0.49 0.36 0.39 0.48 0.38 0.39 0.48 0.32 0.32 0.35 0.38 0.42 0.42 0.31 0.35 0.37 0.37 0.32 0.30 0.42 0.31 0.46 0.42 0.33 0.41 0.46 0.41 0.46 0.39 0.38 0.43 0.42 0.33 0.50 0.44 0.39 0.45 0.36 0.41 0.44 0.46 0.42 0.31 0.45 0.40 0.42 0.35 0.32 0.34 0.32 0.38 0.32 0.30 0.49 0.35 0.30 0.47 0.31 0.34 0.39 0.39 0.34 0.37 0.35 0.38 0.34 0.33 0.39 0.41 0.46 0.33 0.30 0.49 0.37 0.47 0.47 0.37 0.36 0.46 0.32 0.33 0.33 0.36 -9999 -9999 -9999 -9999 -9999 -9999 -9999 -9999 -9999 -9999 -9999 -9999 -9999 -9999 -9999 -9999 -9999 -9999 -9999 -9999 -9999 -9999 -9999 -9999 -9999 -9999 -9999 -9999 -9999
0.31 0.37 0.41 0.36 0.46 0.41 0.39 0.41 0.37 0.37 0.47 0.45 0.49 0.34 0.30 0.43 0.48 0.46 0.45 0.36 0.48 0.44 0.41 0.34 0.32 0.40 0.39 0.43 0.40 0.37 0.42 0.44 0.34 0.48 0.42 0.35 0.36 0.44 0.44 0.40 0.34 0.37 0.31 0.49 0.48 0.48 0.39 0.33 0.48 0.39 0.37 0.40 0.45 0.37 0.32 0.37 0.49 0.34 0.41 0.32 0.46 0.44 0.36 0.34 0.50 0.32 0.43 0.43 0.32 0.34 0.31 0.35 0.45 0.40 0.31 0.33 0.48 0.32 0.43 0.35 0.43 0.49 0.45 0.34 0.48 0.38 0.39 0.38 0.30 0.37 0.33 0.34 0.45 0.30 0.44 0.49 0.48 0.30 0.45 0.38 0.37 0.47 0.45 0.43 0.34 0.45 0.48 0.33 0.30 0.35 0.45 0.46 0.43 0.37 0.32 0.37 0.46 0.35 0.46 0.41 0.31 0.32 0.44 0.31 0.37 0.43 0.42 0.32 0.37 0.45 0.42 0.42 0.43 0.37 0.36 0.40 0.49 0.36 0.30 0.45 0.40 0.35 0.49 0.38 0.45 0.41 0.44 0.40 0.48 0.36 0.40 0.44 0.48 0.47 0.30 0.36 0.45 0.46 0.35 0.45 0.44 0.43 0.43 0.36 0.50 0.36 0.45 0.35 0.38 0.35 0.40 0.39 0.31 0.34 0.31 0.49 0.33 0.39 0.31 0.34 0.37 0.36 0.47 0.35 0.31 0.45 -9999 -9999 -9999 -9999 -9999 -9999 -9999 -9999 -9999 -9999 -9999 -9999 -9999 -9999 -9999 -9999 -9999 -9999 -9999 -9999 -9999 -9999 -9999 -9999 -9999 -9999 -9999 -9999 -9999
0.38 0.44 0.34 0.40 0.48 0.47 0.48 0.37 0.47 0.46 0.40 0.33 0.33 0.45 0.50 0.50 0.38 0.32 0.36 0.49 0.47 0.36 0.44 0.31 0.40 0.47 0.31 0.36 0.36 0.44 0.43 0.34 0.35 0.31 0.41 0.47 0.31 0.33 0.40 0.32 0.48 0.35 0.37 0.36 0.40 0.45 0.47 0.48 0.36 0.35 0.36 0.45 0.32 0.41 0.40 0.37 0.35 0.32 0.41 0.38 0.42 0.45 0.42 0.44 0.44 0.31 0.38 0.47 0.35 0.38 0.42 0.33 0.36 0.38 0.39 0.33 0.37 0.39 0.34 0.45 0.31 0.42 0.44 0.45 0.43 0.36 0.32 0.38 0.47 0.49 0.32 0.30 0.31 0.32 0.44 0.38 0.32 0.50 0.42 0.35 0.32 0.49 0.46 0.41 0.38 0.37 0.42 0.46 0.37 0.47 0.37 0.43 0.37 0.33 0.39 0.32 0.34 0.39 0.33 0.49 0.43 0.33 0.34 0.43 0.41 0.35 0.47 0.44 0.37 0.37 0.47 0.35 0.34 0.47 0.37 0.44 0.48 0.38 0.31 0.36 0.46 0.32 0.32 0.33 0.47 0.45 0.33 0.44 0.32 0.43 0.35 0.48 0.50 0.41 0.38 0.33 0.46 0.47 0.33 0.39 0.38 0.34 0.48 0.42 0.31 0.41 0.39 0.41 0.49 0.39 0.48 0.36 0.40 0.48 0.37 0.33 0.39 0.35 0.35 0.38 0.34 0.39 0.42 0.35 0.43 0.48 -9999 -9999 -9999 -9999 -9999 -9999 -9999 -9999 -9999 -9999 -9999 -9999 -9999 -9999 -9999 -9999 -9999 -9999 -9999 -9999 -9999 -9999 -9999 -9999 -9999 -9999 -9999 -9999 -9999
0.42 0.42 0.50 0.44 0.48 0.39 0.32 0.31 0.41 0.36 0.40 0.43 0.42 0.32 0.48 0.39 0.48 0.43 0.48 0.31 0.34 0.31 0.48 0.35 0.49 0.45 0.45 0.33 0.46 0.31 0.40 0.39 0.36 0.49 0.40 0.33 0.39 0.42 0.38 0.45 0.36 0.47 0.47 0.42 0.46 0.42 0.48 0.34 0.31 0.48 0.46 0.37 0.40 0.32 0.37 0.32 0.43 0.31 0.44 0.33 0.39 0.46 0.44 0.31 0.43 0.47 0.42 0.44 0.36 0.33 0.35 0.31 0.46 0.35 0.45 0.34 0.32 0.37 0.34 0.46 0.40 0.38 0.47 0.32 0.34 0.37 0.36 0.32 0.49 0.38 0.42 0.48 0.47 0.37 0.38 0.39 0.31 0.40 0.50 0.48 0.49 0.31 0.48 0.40 0.37 0.47 0.44 0.42 0.50 0.38 0.44 0.35 0.35 0.41 0.38 0.32 0.36 0.43 0.48 0.41 0.33 0.38 0.43 0.35 0.43 0.50 0.37 0.33 0.37 0.33 0.36 0.41 0.40 0.35 0.42 0.33 0.34 0.35 0.42 0.38 0.48 0.49 0.47 0.30 0.41 0.31 0.48 0.47 0.31 0.36 0.30 0.47 0.42 0.37 0.44 0.47 0.40 0.41 0.33 0.37 0.36 0.33 0.46 0.33 0.30 0.39 0.45 0.48 0.48 0.38 0.48 0.50 0.34 0.44 0.43 0.44 0.36 0.32 0.38 0.30 0.49 0.45 0.40 0.43 0.42 0.34 0.47 -9999 -9999 -9999 -9999 -9999 -9999 -9999 -9999 -9999 -9999 -9999 -9999 -9999 -9999 -9999 -9999 -9999 -9999 -9999 -9999 -9999 -9999 -9999 -9999 -9999 -9999 -9999 -9999
0.39 0.48 0.47 0.33 0.42 0.42 0.32 0.42 0.36 0.42 0.36 0.47 0.40 0.33 0.36 0.35 0.37 0.35 0.31 0.45 0.42 0.42 0.47 0.46 0.39 0.35 0.43 0.33 0.47 0.44 0.32 0.45 0.32 0.42 0.30 0.43 0.37 0.39 0.30 0.45 0.44 0.49 0.31 0.35 0.31 0.44 0.49 0.37 0.45 0.45 0.43 0.35 0.31 0.49 0.47 0.41 0.36 0.31 0.31 0.44 0.34 0.47 0.42 0.42 0.40 0.46 0.40 0.39 0.30 0.30 0.35 0.42 0.48 0.36 0.45 0.44 0.39 0.49 0.36 0.31 0.41 0.35 0.38 0.48 0.33 0.38 0.45 0.42 0.35 0.40 0.44 0.37 0.35 0.49 0.36 0.33 0.45 0.33 0.42 0.49 0.35 0.46 0.50 0.32 0.30 0.38 0.45 0.39 0.37 0.43 0.44 0.41 0.37 0.43 0.31 0.42 0.33 0.39 0.42 0.44 0.34 0.38 0.43 0.40 0.35 0.37 0.33 0.41 0.47 0.44 0.48 0.34 0.33 0.35 0.36 0.43 0.32 0.34 0.31 0.36 0.33 0.41 0.38 0.43 0.47 0.49 0.40 0.33 0.43 0.43 0.47 0.40 0.44 0.49 0.38 0.48 0.44 0.44 0.41 0.38 0.46 0.37 0.33 0.44 0.49 0.43 0.34 0.35 0.38 0.40 0.42 0.31 0.34 0.34 0.35 0.40 0.46 0.47 0.35 0.45 0.50 0.40 0.30 0.48 0.36 0.44 0.35 -9999 -9999 -9999 -9999 -9999 -9999 -9999 -9999 -9999 -9999 -9999 -9999 -9999 -9999 -9999 -9999 -9999 -9999 -9999 -9999 -9999 -9999 -9999 -9999 -9999 -9999 -9999 -9999
0.44 0.31 0.32 0.32 0.48 0.36 0.47 0.34 0.34 0.35 0.34 0.36 0.43 0.40 0.41 0.35 0.44 0.34 0.31 0.36 0.39 0.31 0.49 0.41 0.40 0.37 0.48 0.34 0.34 0.35 0.38 0.43 0.43 0.44 0.47 0.42 0.42 0.41 0.33 0.42 0.49 0.41 0.49 0.41 0.50 0.47 0.41 0.46 0.39 0.43 0.43 0.36 0.37 0.49 0.32 0.49 0.33 0.38 0.39 0.31 0.45 0.31 0.50 0.41 0.49 0.37 0.48 0.46 0.44 0.33 0.33 0.39 0.42 0.44 0.40 0.49 0.46 0.47 0.35 0.43 0.50 0.31 0.49 0.30 0.34 0.41 0.44 0.33 0.43 0.34 0.49 0.47 0.43 0.31 0.49 0.39 0.42 0.36 0.38 0.48 0.50 0.42 0.39 0.30 0.38 0.32 0.47 0.43 0.39 0.34 0.46 0.47 0.32 0.44 0.31 0.35 0.32 0.36 0.38 0.45 0.45 0.43 0.31 0.48 0.49 0.38 0.43 0.35 0.40 0.43 0.40 0.48 0.47 0.43 0.38 0.44 0.42 0.35 0.41 0.46 0.32 0.42 0.44 0.45 0.50 0.39 0.49 0.41 0.42 0.37 0.32 0.43 0.42 0.39 0.32 0.35 0.40 0.38 0.39 0.47 0.32 0.35 0.47 0.36 0.46 0.31 0.50 0.31 0.48 0.48 0.34 0.34 0.32 0.34 0.40 0.36 0.40 0.32 0.40 0.49 0.37 0.43 0.40 0.42 0.42 0.30 0.49 -9999 -9999 -9999 -9999 -9999 -9999 -9999 -9999 -9999 -9999 -9999 -9999 -9999 -9999 -9999 -9999 -9999 -9999 -9999 -9999 -9999 -9999 -9999 -9999 -9999 -9999 -9999 -9999
0.45 0.37 0.35 0.36 0.32 0.42 0.30 0.41 0.44 0.47 0.32 0.39 0.46 0.38 0.47 0.45 0.39 0.46 0.30 0.32 0.30 0.49 0.48 0.36 0.44 0.32 0.44 0.32 0.35 0.32 0.43 0.37 0.45 0.46 0.31 0.37 0.50 0.31 0.36 0.33 0.41 0.42 0.48 0.41 0.35 0.39 0.31 0.35 0.34 0.36 0.38 0.35 0.31 0.44 0.45 0.40 0.47 0.31 0.47 0.32 0.35 0.50 0.36 0.44 0.50 0.31 0.33 0.30 0.41 0.45 0.38 0.39 0.40 0.32 0.36 0.32 0.45 0.49 0.33 0.36 0.37 0.34 0.37 0.43 0.41 0.32 0.31 0.30 0.31 0.42 0.35 0.50 0.47 0.37 0.38 0.44 0.43 0.35 0.34 0.31 0.39 0.35 0.47 0.41 0.49 0.49 0.36 0.43 0.34 0.44 0.33 0.33 0.31 0.42 0.31 0.49 0.32 0.35 0.45 0.35 0.32 0.33 0.41 0.39 0.37 0.49 0.40 0.39 0.31 0.36 0.40 0.34 0.33 0.33 0.43 0.39 0.40 0.46 0.41 0.35 0.40 0.39 0.43 0.39 0.36 0.44 0.35 0.43 0.34 0.30 0.43 0.44 0.45 0.49 0.41 0.43 0.50 0.31 0.49 0.32 0.46 0.47 0.39 0.48 0.44 0.38 0.37 0.49 0.44 0.45 0.31 0.36 0.41 0.38 0.49 0.47 0.44 0.44 0.32 0.35 0.44 0.48 0.42 0.47 0.47 0.38 0.48 -9999 -9999 -9999 -9999 -9999 -9999 -9999 -9999 -9999 -9999 -9999 -9999 -9999 -9999 -9999 -9999 -9999 -9999 -9999 -9999 -9999 -9999 -9999 -9999 -9999 -9999 -9999 -9999
0.32 0.34 0.31 0.43 0.35 0.50 0.35 0.35 0.45 0.33 0.30 0.39 0.38 0.33 0.44 0.41 0.42 0.47 0.37 0.31 0.45 0.32 0.43 0.37 0.31 0.44 0.47 0.32 0.49 0.47 0.30 0.37 0.39 0.38 0.35 0.37 0.40 0.49 0.33 0.45 0.34 0.48 0.31 0.31 0.34 0.42 0.31 0.42 0.36 0.48 0.36 0.41 0.31 0.37 0.47 0.48 0.49 0.40 0.36 0.47 0.33 0.40 0.43 0.42 0.36 0.36 0.35 0.44 0.37 0.45 0.43 0.35 0.44 0.42 0.50 0.42 0.32 0.31 0.44 0.46 0.33 0.49 0.34 0.36 0.41 0.41 0.40 0.48 0.39 0.33 0.33 0.35 0.37 0.38 0.35 0.46 0.36 0.38 0.42 0.30 0.39 0.39 0.32 0.42 0.38 0.45 0.31 0.42 0.33 0.38 0.32 0.48 0.31 0.43 0.44 0.37 0.34 0.43 0.41 0.46 0.48 0.35 0.35 0.43 0.40 0.44 0.36 0.48 0.47 0.38 0.32 0.37 0.36 0.34 0.39 0.44 0.42 0.46 0.31 0.38 0.44 0.37 0.42 0.45 0.33 0.48 0.45 0.39 0.33 0.43 0.49 0.33 0.42 0.37 0.38 0.43 0.45 0.35 0.45 0.35 0.37 0.36 0.36 0.46 0.36 0.40 0.42 0.45 0.31 0.43 0.34 0.32 0.37 0.48 0.49 0.37 0.36 0.35 0.48 0.35 0.38 0.36 0.31 0.37 0.32 0.40 0.40 -9999 -9999 -9999 -9999 -9999 -9999 -9999 -9999 -9999 -9999 -9999 -9999 -9999 -9999 -9999 -9999 -9999 -9999 -9999 -9999 -9999 -9999 -9999 -9999 -9999 -9999 -9999 -9999
0.48 0.39 0.31 0.33 0.38 0.36 0.33 0.36 0.33 0.38 0.32 0.48 0.42 0.39 0.31 0.44 0.32 0.49 0.33 0.32 0.36 0.44 0.37 0.34 0.30 0.44 0.42 0.34 0.35 0.49 0.32 0.49 0.36 0.50 0.30 0.48 0.46 0.44 0.38 0.45 0.42 0.36 0.50 0.42 0.30 0.42 0.34 0.42 0.36 0.35 0.45 0.48 0.35 0.50 0.37 0.42 0.41 0.42 0.32 0.43 0.47 0.39 0.45 0.38 0.33 0.31 0.47 0.39 0.30 0.38 0.32 0.39 0.33 0.32 0.37 0.41 0.45 0.40 0.49 0.49 0.33 0.47 0.45 0.48 0.43 0.33 0.39 0.34 0.49 0.44 0.38 0.45 0.42 0.32 0.46 0.49 0.35 0.32 0.47 0.30 0.48 0.49 0.38 0.33 0.31 0.47 0.37 0.34 0.48 0.37 0.49 0.32 0.32 0.33 0.43 0.45 0.48 0.32 0.30 0.42 0.30 0.49 0.50 0.31 0.48 0.49 0.38 0.43 0.47 0.36 0.42 0.30 0.30 0.40 0.36 0.44 0.37 0.45 0.43 0.38 0.46 0.36 0.37 0.48 0.32 0.31 0.39 0.31 0.50 0.47 0.33 0.45 0.41 0.40 0.49 0.34 0.39 0.38 0.39 0.39 0.48 0.43 0.33 0.48 0.40 0.49 0.47 0.48 0.37 0.44 0.33 0.37 0.44 0.41 0.32 0.44 0.30 0.48 0.37 0.45 0.34 0.48 0.38 0.47 0.41 0.34 0.43 -9999 -9999 -9999 -9999 -9999 -9999 -9999 -9999 -9999 -9999 -9999 -9999 -9999 -9999 -9999 -9999 -9999 -9999 -9999 -9999 -9999 -9999 -9999 -9999 -9999 -9999 -9999 -9999
0.37 0.41 0.35 0.45 0.44 0.41 0.46 0.32 0.38 0.31 0.42 0.37 0.37 0.32 0.42 0.39 0.37 0.33 0.32 0.48 0.49 0.33 0.45 0.39 0.31 0.35 0.36 0.46 0.41 0.42 0.30 0.48 0.39 0.42 0.39 0.48 0.44 0.33 0.43 0.32 0.49 0.31 0.33 0.50 0.45 0.40 0.39 0.47 0.47 0.44 0.41 0.46 0.44 0.40 0.47 0.50 0.32 0.47 0.43 0.34 0.46 0.44 0.42 0.46 0.44 0.43 0.48 0.41 0.43 0.36 0.48 0.33 0.45 0.47 0.30 0.46 0.38 0.35 0.34 0.42 0.40 0.35 0.33 0.32 0.41 0.33 0.30 0.49 0.39 0.45 0.33 0.48 0.34 0.36 0.38 0.44 0.48 0.32 0.39 0.46 0.44 0.46 0.46 0.41 0.32 0.49 0.33 0.49 0.38 0.42 0.36 0.43 0.44 0.45 0.31 0.45 0.47 0.40 0.41 0.41 0.44 0.42 0.36 0.43 0.48 0.50 0.48 0.39 0.47 0.48 0.48 0.36 0.35 0.47 0.35 0.49 0.39 0.43 0.32 0.43 0.32 0.46 0.50 0.41 0.49 0.37 0.36 0.50 0.32 0.42 0.34 0.36 0.33 0.30 0.31 0.36 0.31 0.39 0.47 0.36 0.32 0.36 0.42 0.45 0.50 0.37 0.41 0.43 0.33 0.36 0.39 0.32 0.40 0.40 0.47 0.40 0.30 0.44 0.47 0.36 0.42 0.45 0.34 0.34 0.39 0.37 0.49 0.46 -9999 -9999 -9999 -9999 -9999 -9999 -9999 -9999 -9999 -9999 -9999 -9999 -9999 -9999 -9999 -9999 -9999 -9999 -9999 -9999 -9999 -9999 -9999 -9999 -9999 -9999 -9999
0.39 0.34 0.41 0.35 0.34 0.46 0.37 0.30 0.45 0.38 0.35 0.46 0.48 0.33 0.37 0.44 0.42 0.50 0.49 0.42 0.42 0.35 0.45 0.39 0.37 0.30 0.33 0.33 0.50 0.33 0.39 0.31 0.30 0.33 0.36 0.37 0.42 0.47 0.46 0.32 0.37 0.37 0.43 0.37 0.44 0.31 0.37 0.39 0.37 0.42 0.35 0.41 0.44 0.47 0.41 0.50 0.33 0.34 0.48 0.35 0.49 0.47 0.38 0.36 0.44 0.49 0.37 0.44 0.47 0.34 0.42 0.36 0.38 0.31 0.48 0.31 0.40 0.32 0.44 0.38 0.47 0.44 0.38 0.30 0.37 0.45 0.35 0.36 0.40 0.50 0.49 0.45 0.30 0.47 0.36 0.34 0.39 0.31 0.36 0.46 0.43 0.45 0.47 0.43 0.36 0.46 0.48 0.30 0.39 0.38 0.36 0.38 0.31 0.48 0.34 0.42 0.49 0.35 0.33 0.39 0.48 0.37 0.46 0.30 0.46 0.36 0.39 0.37 0.30 0.35 0.37 0.35 0.48 0.34 0.37 0.33 0.32 0.49 0.37 0.32 0.33 0.47 0.49 0.48 0.30 0.32 0.39 0.33 0.45 0.42 0.34 0.40 0.49 0.46 0.46 0.42 0.30 0.32 0.41 0.48 0.46 0.37 0.42 0.37 0.44 0.44 0.49 0.39 0.36 0.39 0.36 0.49 0.41 0.33 0.46 0.45 0.31 0.45 0.49 0.31 0.42 0.45 0.41 0.49 0.49 0.46 0.38 0.34 -9999 -9999 -9999 -9999 -9999 -9999 -9999 -9999 -9999 -9999 -9999 -9999 -9999 -9999 -9999 -9999 -9999 -9999 -9999 -9999 -9999 -9999 -9999 -9999 -9999 -9999 -9999
0.40 0.44 0.46 0.44 0.42 0.40 0.37 0.49 0.43 0.50 0.47 0.39 0.42 0.32 0.41 0.44 0.37 0.38 0.46 0.44 0.40 0.32 0.34 0.37 0.30 0.42 0.35 0.48 0.35 0.45 0.31 0.39 0.39 0.43 0.39 0.41 0.33 0.48 0.39 0.44 0.32 0.44 0.39 0.38 0.43 0.31 0.45 0.31 0.38 0.45 0.43 0.45 0.49 0.45 0.34 0.37 0.46 0.43 0.47 0.31 0.45 0.40 0.38 0.30 0.45 0.30 0.49 0.39 0.39 0.35 0.45 0.31 0.38 0.40 0.50 0.45 0.38 0.33 0.38 0.44 0.37 0.45 0.44 0.43 0.33 0.39 0.36 0.30 0.42 0.38 0.31 0.44 0.36 0.48 0.37 0.32 0.35 0.46 0.49 0.38 0.39 0.32 0.33 0.39 0.44 0.35 0.33 0.44 0.44 0.40 0.36 0.44 0.38 0.42 0.50 0.34 0.31 0.37 0.39 0.30 0.43 0.36 0.42 0.45 0.50 0.38 0.44 0.38 0.40 0.41 0.31 0.46 0.50 0.47 0.46 0.42 0.35 0.33 0.39 0.39 0.46 0.43 0.46 0.41 0.34 0.48 0.45 0.38 0.32 0.47 0.48 0.34 0.32 0.34 0.44 0.44 0.36 0.48 0.40 0.46 0.44 0.38 0.36 0.46 0.44 0.44 0.50 0.42 0.49 0.47 0.35 0.45 0.34 0.48 0.32 0.36 0.38 0.32 0.48 0.43 0.44 0.37 0.48 0.45 0.37 0.49 0.32 0.45 -9999 -9999 -9999 -9999 -9999 -9999 -9999 -9999 -9999 -9999 -9999 -9999 -9999 -9999 -9999 -9999 -9999 -9999 -9999 -9999 -9999 -9999 -9999 -9999 -9999 -9999 -9999
0.39 0.42 0.46 0.44 0.41 0.35 0.49 0.50 0.30 0.31 0.33 0.33 0.33 0.34 0.47 0.47 0.33 0.33 0.48 0.39 0.43 0.48 0.41 0.46 0.31 0.34 0.48 0.35 0.44 0.50 0.44 0.43 0.32 0.47 0.32 0.35 0.43 0.35 0.49 0.49 0.47 0.30 0.40 0.35 0.40 0.34 0.48 0.48 0.43 0.48 0.45 0.40 0.42 0.32 0.40 0.41 0.35 0.40 0.45 0.31 0.34 0.41 0.36 0.46 0.42 0.49 0.49 0.42 0.38 0.47 0.34 0.38 0.44 0.43 0.39 0.32 0.50 0.49 0.44 0.43 0.40 0.37 0.31 0.41 0.33 0.50 0.33 0.38 0.49 0.37 0.44 0.36 0.35 0.44 0.42 0.34 0.43 0.37 0.42 0.49 0.46 0.36 0.45 0.33 0.34 0.49 0.33 0.45 0.48 0.49 0.34 0.42 0.44 0.36 0.36 0.30 0.49 0.33 0.49 0.31 0.38 0.37 0.45 0.41 0.37 0.45 0.32 0.39 0.32 0.34 0.33 0.40 0.34 0.44 0.49 0.43 0.35 0.40 0.37 0.31 0.33 0.38 0.31 0.50 0.49 0.44 0.43 0.34 0.37 0.36 0.31 0.42 0.40 0.32 0.42 0.48 0.42 0.37 0.43 0.48 0.39 0.48 0.36 0.31 0.41 0.47 0.37 0.33 0.31 0.38 0.34 0.49 0.45 0.35 0.31 0.43 0.36 0.49 0.35 0.37 0.32 0.37 0.36 0.33 0.48 0.50 0.38 0.31 -9999 -9999 -9999 -9999 -9999 -9999 -9999 -9999 -9999 -9999 -9999 -9999 -9999 -9999 -9999 -9999 -9999 -9999 -9999 -9999 -9999 -9999 -9999 -9999 -9999 -9999 -9999
0.32 0.50 0.44 0.34 0.35 0.32 0.35 0.33 0.40 0.36 0.41 0.42 0.44 0.35 0.35 0.35 0.49 0.35 0.43 0.42 0.50 0.44 0.36 0.32 0.32 0.33 0.43 0.37 0.46 0.40 0.43 0.37 0.47 0.38 0.30 0.48 0.32 0.50 0.47 0.34 0.42 0.34 0.41 0.49 0.50 0.45 0.42 0.50 0.39 0.47 0.44 0.41 0.39 0.39 0.50 0.37 0.31 0.39 0.45 0.50 0.35 0.34 0.36 0.33 0.33 0.39 0.43 0.31 0.47 0.34 0.39 0.35 0.36 0.41 0.49 0.36 0.36 0.49 0.44 0.39 0.34 0.46 0.47 0.46 0.39 0.38 0.48 0.46 0.47 0.36 0.31 0.39 0.39 0.32 0.41 0.35 0.46 0.39 0.36 0.39 0.32 0.37 0.35 0.36 0.33 0.36 0.47 0.48 0.41 0.31 0.34 0.31 0.35 0.37 0.49 0.36 0.49 0.44 0.48 0.37 0.33 0.39 0.33 0.35 0.33 0.34 0.47 0.41 0.44 0.30 0.45 0.41 0.49 0.37 0.37 0.37 0.50 0.45 0.43 0.33 0.36 0.42 0.37 0.34 0.45 0.46 0.34 0.35 0.41 0.33 0.41 0.46 0.41 0.46 0.48 0.32 0.47 0.49 0.40 0.36 0.30 0.45 0.40 0.44 0.30 0.44 0.42 0.42 0.39 0.45 0.42 0.35 0.36 0.37 0.45 0.48 0.35 0.49 0.37 0.44 0.38 0.43 0.39 0.34 0.37 0.47 0.33 0.44 -9999 -9999 -9999 -9999 -9999 -9999 -9999 -9999 -9999 -9999 -9999 -9999 -9999 -9999 -9999 -9999 -9999 -9999 -9999 -9999 -9999 -9999 -9999 -9999 -9999 -9999 -9999
0.46 0.44 0.45 0.31 0.42 0.39 0.35 0.43 0.45 0.43 0.47 0.34 0.33 0.32 0.43 0.39 0.42 0.34 0.38 0.33 0.36 0.32 0.41 0.33 0.46 0.39 0.46 0.32 0.44 0.34 0.48 0.33 0.47 0.33 0.33 0.33 0.43 0.48 0.49 0.41 0.38 0.48 0.41 0.36 0.37 0.44 0.49 0.31 0.32 0.33 0.34 0.47 0.45 0.35 0.46 0.44 0.47 0.44 0.32 0.33 0.49 0.40 0.36 0.31 0.40 0.36 0.40 0.33 0.36 0.38 0.40 0.40 0.44 0.43 0.47 0.38 0.48 0.44 0.34 0.45 0.46 0.41 0.34 0.50 0.45 0.41 0.49 0.47 0.33 0.36 0.47 0.50 0.40 0.47 0.45 0.42 0.45 0.35 0.46 0.32 0.50 0.40 0.38 0.38 0.39 0.40 0.38 0.31 0.38 0.36 0.35 0.46 0.39 0.31 0.34 0.32 0.49 0.39 0.44 0.42 0.39 0.37 0.47 0.41 0.34 0.46 0.46 0.42 0.47 0.36 0.33 0.47 0.42 0.32 0.37 0.37 0.32 0.41 0.48 0.39 0.43 0.46 0.47 0.47 0.33 0.34 0.44 0.44 0.42 0.42 0.37 0.31 0.31 0.41 0.50 0.42 0.30 0.41 0.30 0.49 0.43 0.41 0.34 0.30 0.33 0.38 0.36 0.39 0.48 0.49 0.48 0.50 0.42 0.40 0.32 0.31 0.34 0.45 0.39 0.30 0.31 0.37 0.41 0.38 0.31 0.41 0.42 0.37 -9999 -9999 -9999 -9999 -9999 -9999 -9999 -9999 -9999 -9999 -9999 -9999 -9999 -9999 -9999 -9999 -9999 -9999 -9999 -9999 -9999 -9999 -9999 -9999 -9999 -9999 -9999
0.36 0.38 0.38 0.40 0.46 0.48 0.40 0.34 0.50 0.32 0.44 0.47 0.40 0.34 0.45 0.49 0.40 0.45 0.49 0.40 0.40 0.43 0.40 0.45 0.49 0.35 0.44 0.35 0.49 0.34 0.49 0.49 0.33 0.44 0.41 0.49 0.39 0.36 0.49 0.45 0.46 0.36 0.37 0.37 0.35 0.48 0.42 0.36 0.32 0.49 0.44 0.49 0.45 0.33 0.32 0.38 0.44 0.42 0.34 0.39 0.30 0.48 0.40 0.48 0.49 0.38 0.33 0.46 0.41 0.40 0.45 0.48 0.30 0.37 0.39 0.38 0.30 0.42 0.42 0.43 0.39 0.45 0.42 0.36 0.48 0.31 0.35 0.48 0.42 0.45 0.33 0.49 0.44 0.48 0.36 0.50 0.32 0.36 0.37 0.30 0.46 0.46 0.45 0.49 0.50 0.45 0.34 0.39 0.45 0.49 0.39 0.49 0.40 0.36 0.33 0.37 0.37 0.45 0.46 0.44 0.50 0.43 0.46 0.47 0.31 0.46 0.31 0.40 0.47 0.35 0.36 0.47 0.48 0.38 0.32 0.39 0.40 0.33 0.46 0.47 0.36 0.32 0.33 0.41 0.41 0.41 0.34 0.35 0.30 0.34 0.45 0.49 0.38 0.37 0.40 0.46 0.45 0.41 0.47 0.36 0.45 0.32 0.31 0.48 0.37 0.38 0.42 0.49 0.41 0.39 0.44 0.48 0.48 0.46 0.42 0.45 0.43 0.47 0.35 0.45 0.43 0.38 0.41 0.30 0.42 0.38 0.40 0.49 -9999 -9999 -9999 -9999 -9999 -9999 -9999 -9999 -9999 -9999 -9999 -9999 -9999 -9999 -9999 -9999 -9999 -9999 -9999 -9999 -9999 -9999 -9999 -9999 -9999 -9999 -9999
0.49 0.45 0.39 0.45 0.31 0.32 0.47 0.32 0.36 0.38 0.31 0.32 0.48 0.37 0.39 0.35 0.30 0.35 0.35 0.47 0.39 0.49 0.33 0.49 0.40 0.43 0.40 0.42 0.32 0.35 0.47 0.48 0.47 0.32 0.46 0.43 0.35 0.42 0.37 0.31 0.43 0.35 0.36 0.43 0.45 0.40 0.44 0.42 0.36 0.34 0.48 0.36 0.48 0.37 0.46 0.44 0.41 0.44 0.35 0.43 0.35 0.48 0.35 0.48 0.49 0.32 0.35 0.37 0.45 0.46 0.33 0.30 0.42 0.48 0.32 0.33 0.34 0.46 0.40 0.41 0.33 0.44 0.42 0.42 0.40 0.42 0.41 0.36 0.40 0.44 0.45 0.42 0.42 0.37 0.47 0.44 0.40 0.46 0.45 0.48 0.31 0.30 0.34 0.48 0.35 0.48 0.45 0.32 0.41 0.43 0.49 0.47 0.47 0.46 0.32 0.45 0.37 0.48 0.36 0.41 0.45 0.38 0.43 0.39 0.44 0.46 0.34 0.39 0.45 0.31 0.43 0.48 0.31 0.31 0.42 0.40 0.49 0.47 0.46 0.45 0.43 0.42 0.49 0.31 0.36 0.38 0.31 0.39 0.38 0.46 0.36 0.36 0.37 0.38 0.39 0.36 0.37 0.32 0.36 0.40 0.34 0.32 0.36 0.50 0.32 0.47 0.36 0.39 0.38 0.44 0.46 0.32 0.34 0.46 0.34 0.40 0.41 0.47 0.49 0.48 0.49 0.47 0.41 0.32 0.35 0.32 0.47 0.46 0.33 -9999 -9999 -9999 -9999 -9999 -9999 -9999 -9999 -9999 -9999 -9999 -9999 -9999 -9999 -9999 -9999 -9999 -9999 -9999 -9999 -9999 -9999 -9999 -9999 -9999 -9999
0.38 0.37 0.44 0.49 0.35 0.49 0.46 0.37 0.37 0.46 0.50 0.47 0.37 0.35 0.43 0.41 0.31 0.32 0.37 0.31 0.32 0.32 0.33 0.32 0.39 0.32 0.45 0.40 0.39 0.38 0.32 0.45 0.46 0.50 0.37 0.45 0.47 0.44 0.39 0.43 0.49 0.44 0.39 0.34 0.41 0.43 0.42 0.31 0.44 0.33 0.32 0.43 0.34 0.34 0.34 0.32 0.39 0.45 0.44 0.32 0.32 0.32 0.46 0.37 0.40 0.30 0.47 0.38 0.45 0.36 0.37 0.47 0.41 0.50 0.47 0.48 0.47 0.36 0.33 0.44 0.36 0.49 0.42 0.48 0.36 0.50 0.47 0.33 0.47 0.42 0.42 0.38 0.48 0.34 0.37 0.42 0.46 0.30 0.49 0.30 0.41 0.32 0.48 0.33 0.32 0.47 0.49 0.40 0.39 0.44 0.30 0.43 0.45 0.32 0.43 0.41 0.43 0.37 0.46 0.35 0.49 0.48 0.35 0.43 0.40 0.41 0.39 0.39 0.37 0.44 0.34 0.48 0.38 0.34 0.34 0.46 0.39 0.48 0.44 0.35 0.41 0.34 0.36 0.42 0.45 0.31 0.43 0.36 0.36 0.48 0.40 0.46 0.45 0.41 0.35 0.48 0.47 0.44 0.37 0.40 0.42 0.38 0.50 0.31 0.36 0.48 0.39 0.34 0.32 0.38 0.41 0.37 0.37 0.44 0.42 0.41 0.38 0.46 0.38 0.41 0.49 0.47 0.39 0.48 0.41 0.48 0.34 0.39 0.47 -9999 -9999 -9999 -9999 -9999 -9999 -9999 -9999 -9999 -9999 -9999 -9999 -9999 -9999 -9999 -9999 -9999 -9999 -9999 -9999 -9999 -9999 -9999 -9999 -9999 -9999
0.34 0.44 0.42 0.38 0.47 0.35 0.37 0.34 0.47 0.47 0.31 0.34 0.44 0.46 0.48 0.32 0.37 0.47 0.33 0.30 0.36 0.36 0.31 0.31 0.36 0.32 0.37 0.38 0.33 0.37 0.38 0.49 0.41 0.45 0.45 0.34 0.43 0.41 0.38 0.33 0.47 0.32 0.33 0.47 0.37 0.31 0.31 0.44 0.38 0.48 0.39 0.30 0.48 0.43 0.42 0.49 0.42 0.48 0.31 0.39 0.37 0.46 0.43 0.31 0.45 0.42 0.46 0.43 0.40 0.36 0.42 0.37 0.31 0.49 0.40 0.33 0.36 0.44 0.30 0.37 0.41 0.36 0.41 0.45 0.50 0.45 0.31 0.45 0.48 0.39 0.45 0.46 0.33 0.48 0.44 0.44 0.41 0.30 0.48 0.46 0.43 0.34 0.30 0.39 0.42 0.43 0.34 0.41 0.40 0.45 0.49 0.43 0.37 0.45 0.34 0.31 0.41 0.36 0.48 0.47 0.37 0.30 0.50 0.48 0.40 0.44 0.34 0.38 0.42 0.32 0.40 0.30 0.43 0.43 0.45 0.32 0.36 0.42 0.43 0.46 0.41 0.38 0.47 0.48 0.48 0.42 0.38 0.32 0.37 0.41 0.34 0.37 0.44 0.30 0.38 0.41 0.46 0.45 0.39 0.49 0.49 0.44 0.41 0.50 0.48 0.45 0.37 0.49 0.41 0.49 0.48 0.33 0.36 0.32 0.44 0.41 0.36 0.43 0.42 0.42 0.31 0.47 0.50 0.36 0.40 0.32 0.35 0.49 0.30 -9999 -9999 -9999 -9999 -9999 -9999 -9999 -9999 -9999 -9999 -9999 -9999 -9999 -9999 -9999 -9999 -9999 -9999 -9999 -9999 -9999 -9999 -9999 -9999 -9999 -9999
0.46 0.46 0.39 0.30 0.32 0.49 0.34 0.44 0.30 0.38 0.41 0.36 0.33 0.48 0.38 0.34 0.43 0.39 0.44 0.41 0.49 0.32 0.42 0.36 0.33 0.33 0.44 0.34 0.35 0.43 0.37 0.33 0.31 0.31 0.41 0.38 0.35 0.42 0.32 0.31 0.31 0.44 0.47 0.50 0.45 0.39 0.43 0.43 0.48 0.32 0.48 0.50 0.33 0.36 0.43 0.33 0.37 0.40 0.37 0.35 0.42 0.34 0.49 0.40 0.43 0.38 0.43 0.41 0.46 0.36 0.44 0.41 0.37 0.31 0.46 0.31 0.38 0.44 0.34 0.40 0.32 0.37 0.35 0.43 0.44 0.42 0.41 0.36 0.41 0.30 0.31 0.31 0.46 0.44 0.40 0.38 0.40 0.48 0.44 0.43 0.44 0.41 0.43 0.40 0.48 0.36 0.31 0.35 0.45 0.48 0.46 0.35 0.43 0.47 0.39 0.37 0.33 0.50 0.50 0.38 0.30 0.45 0.34 0.43 0.33 0.48 0.46 0.41 0.41 0.33 0.33 0.32 0.32 0.35 0.38 0.49 0.37 0.39 0.32 0.39 0.31 0.43 0.37 0.44 0.38 0.35 0.31 0.41 0.48 0.35 0.38 0.44 0.43 0.45 0.40 0.45 0.47 0.45 0.39 0.47 0.31 0.40 0.49 0.49 0.42 0.46 0.40 0.42 0.50 0.31 0.39 0.32 0.42 0.41 0.48 0.47 0.33 0.32 0.44 0.47 0.48 0.43 0.36 0.39 0.37 0.34 0.32 0.45 0.34 -9999 -9999 -9999 -9999 -9999 -9999 -9999 -9999 -9999 -9999 -9999 -9999 -9999 -9999 -9999 -9999 -9999 -9999 -9999 -9999 -9999 -9999 -9999 -9999 -9999 -9999
0.50 0.36 0.37 0.49 0.43 0.41 0.35 0.31 0.50 0.50 0.41 0.31 0.49 0.42 0.35 0.46 0.42 0.37 0.44 0.37 0.37 0.36 0.44 0.45 0.47 0.44 0.48 0.38 0.44 0.45 0.41 0.42 0.33 0.40 0.31 0.33 0.42 0.37 0.40 0.46 0.45 0.34 0.34 0.42 0.34 0.39 0.30 0.31 0.50 0.34 0.50 0.47 0.34 0.44 0.37 0.49 0.44 0.45 0.35 0.36 0.30 0.34 0.44 0.30 0.41 0.31 0.34 0.35 0.36 0.37 0.31 0.30 0.34 0.46 0.37 0.38 0.42 0.38 0.42 0.34 0.36 0.43 0.38 0.36 0.46 0.44 0.37 0.41 0.42 0.37 0.33 0.40 0.31 0.42 0.33 0.36 0.33 0.40 0.45 0.32 0.44 0.38 0.41 0.38 0.41 0.32 0.42 0.31 0.39 0.33 0.41 0.34 0.44 0.47 0.44 0.47 0.42 0.41 0.41 0.33 0.45 0.40 0.33 0.37 0.44 0.44 0.32 0.37 0.38 0.47 0.30 0.38 0.47 0.33 0.43 0.41 0.48 0.47 0.45 0.43 0.45 0.47 0.33 0.39 0.46 0.45 0.31 0.40 0.46 0.44 0.38 0.35 0.36 0.32 0.45 0.49 0.34 0.31 0.31 0.48 0.35 0.43 0.33 0.47 0.34 0.31 0.49 0.33 0.43 0.47 0.47 0.33 0.40 0.43 0.37 0.38 0.32 0.44 0.38 0.50 0.37 0.32 0.42 0.36 0.42 0.47 0.38 0.42 0.37 -9999 -9999 -9999 -9999 -9999 -9999 -9999 -9999 -9999 -9999 -9999 -9999 -9999 -9999 -9999 -9999 -9999 -9999 -9999 -9999 -9999 -9999 -9999 -9999 -9999 -9999
0.34 0.47 0.34 0.41 0.36 0.32 0.38 0.33 0.37 0.33 0.45 0.32 0.44 0.45 0.32 0.35 0.41 0.36 0.46 0.46 0.40 0.36 0.46 0.36 0.47 0.46 0.31 0.38 0.48 0.45 0.38 0.49 0.45 0.35 0.49 0.41 0.44 0.45 0.48 0.48 0.37 0.48 0.39 0.49 0.32 0.48 0.32 0.37 0.39 0.40 0.32 0.48 0.42 0.49 0.49 0.33 0.40 0.36 0.34 0.48 0.43 0.40 0.44 0.45 0.40 0.40 0.36 0.36 0.41 0.40 0.41 0.32 0.43 0.47 0.49 0.36 0.31 0.34 0.35 0.46 0.39 0.32 0.32 0.42 0.38 0.46 0.32 0.45 0.45 0.38 0.48 0.35 0.35 0.44 0.39 0.32 0.42 0.45 0.46 0.49 0.30 0.40 0.43 0.40 0.49 0.45 0.46 0.49 0.33 0.39 0.49 0.49 0.48 0.38 0.42 0.31 0.44 0.44 0.48 0.34 0.31 0.31 0.34 0.40 0.36 0.35 0.41 0.39 0.43 0.43 0.48 0.39 0.47 0.43 0.42 0.41 0.30 0.35 0.41 0.32 0.45 0.34 0.33 0.32 0.32 0.47 0.35 0.33 0.46 0.41 0.44 0.35 0.39 0.49 0.39 0.46 0.43 0.33 0.47 0.34 0.47 0.41 0.48 0.35 0.46 0.34 0.42 0.40 0.36 0.34 0.38 0.48 0.42 0.37 0.31 0.50 0.41 0.40 0.35 0.38 0.46 0.46 0.41 0.32 0.43 0.48 0.38 0.34 0.47 -9999 -9999 -9999 -9999 -9999 -9999 -9999 -9999 -9999 -9999 -9999 -9999 -9999 -9999 -9999 -9999 -9999 -9999 -9999 -9999 -9999 -9999 -9999 -9999 -9999 -9999
0.35 0.44 0.40 0.34 0.32 0.46 0.41 0.37 0.43 0.48 0.49 0.33 0.30 0.50 0.34 0.49 0.46 0.36 0.34 0.50 0.38 0.34 0.49 0.41 0.37 0.43 0.42 0.39 0.49 0.46 0.46 0.43 0.37 0.46 0.36 0.41 0.39 0.35 0.49 0.43 0.48 0.32 0.43 0.31 0.31 0.47 0.49 0.33 0.34 0.30 0.45 0.36 0.39 0.47 0.48 0.31 0.30 0.30 0.34 0.39 0.39 0.41 0.35 0.37 0.47 0.39 0.37 0.35 0.47 0.46 0.39 0.35 0.40 0.38 0.35 0.42 0.40 0.48 0.47 0.47 0.46 0.35 0.46 0.30 0.35 0.43 0.48 0.34 0.39 0.37 0.40 0.40 0.33 0.38 0.38 0.33 0.34 0.49 0.46 0.43 0.32 0.38 0.45 0.39 0.34 0.35 0.33 0.42 0.44 0.46 0.30 0.33 0.36 0.41 0.46 0.31 0.48 0.38 0.43 0.34 0.41 0.45 0.37 0.37 0.47 0.41 0.33 0.50 0.32 0.36 0.46 0.37 0.48 0.48 0.31 0.33 0.43 0.48 0.50 0.38 0.48 0.44 0.46 0.38 0.31 0.50 0.45 0.46 0.50 0.47 0.43 0.34 0.33 0.36 0.49 0.31 0.40 0.38 0.32 0.32 0.48 0.36 0.48 0.40 0.37 0.48 0.35 0.34 0.32 0.37 0.37 0.46 0.41 0.37 0.33 0.49 0.42 0.47 0.43 0.42 0.35 0.44 0.39 0.34 0.49 0.47 0.45 0.35 0.48 0.37 -9999 -9999 -9999 -9999 -9999 -9999 -9999 -9999 -9999 -9999 -9999 -9999 -9999 -9999 -9999 -9999 -9999 -9999 -9999 -9999 -9999 -9999 -9999 -9999 -9999
0.43 0.37 0.39 0.35 0.48 0.30 0.43 0.44 0.39 0.49 0.31 0.34 0.48 0.33 0.49 0.44 0.43 0.41 0.36 0.31 0.32 0.50 0.46 0.39 0.45 0.30 0.41 0.40 0.33 0.33 0.35 0.43 0.45 0.46 0.32 0.34 0.36 0.42 0.35 0.40 0.37 0.44 0.45 0.36 0.37 0.43 0.33 0.42 0.38 0.32 0.49 0.36 0.49 0.30 0.34 0.37 0.31 0.49 0.42 0.35 0.30 0.39 0.43 0.49 0.45 0.41 0.46 0.36 0.41 0.31 0.37 0.38 0.38 0.46 0.44 0.32 0.38 0.44 0.40 0.32 0.30 0.35 0.49 0.42 0.36 0.45 0.49 0.37 0.37 0.38 0.40 0.37 0.39 0.32 0.31 0.33 0.34 0.38 0.49 0.38 0.41 0.49 0.35 0.47 0.47 0.31 0.45 0.38 0.48 0.37 0.38 0.37 0.39 0.30 0.47 0.34 0.49 0.40 0.44 0.41 0.46 0.45 0.44 0.37 0.31 0.37 0.43 0.41 0.42 0.43 0.39 0.38 0.43 0.34 0.34 0.32 0.50 0.49 0.31 0.50 0.32 0.38 0.37 0.42 0.31 0.32 0.31 0.30 0.42 0.32 0.50 0.35 0.49 0.44 0.31 0.47 0.35 0.40 0.42 0.46 0.33 0.48 0.50 0.44 0.43 0.48 0.40 0.37 0.36 0.35 0.38 0.49 0.35 0.42 0.32 0.46 0.50 0.45 0.43 0.46 0.34 0.36 0.44 0.39 0.38 0.40 0.46 0.42 0.46 0.42 -9999 -9999 -9999 -9999 -9999 -9999 -9999 -9999 -9999 -9999 -9999 -9999 -9999 -9999 -9999 -9999 -9999 -9999 -9999 -9999 -9999 -9999 -9999 -9999 -9999
0.46 0.38 0.36 0.33 0.38 0.40 0.36 0.39 0.45 0.47 0.46 0.42 0.40 0.50 0.49 0.32 0.38 0.48 0.48 0.35 0.41 0.34 0.34 0.43 0.45 0.32 0.36 0.49 0.34 0.36 0.33 0.48 0.45 0.48 0.43 0.47 0.38 0.48 0.41 0.37 0.32 0.50 0.48 0.41 0.41 0.31 0.39 0.37 0.40 0.39 0.41 0.48 0.47 0.47 0.31 0.42 0.41 0.35 0.44 0.45 0.34 0.50 0.42 0.50 0.39 0.35 0.31 0.48 0.41 0.39 0.32 0.49 0.36 0.43 0.41 0.48 0.43 0.44 0.43 0.35 0.46 0.44 0.41 0.41 0.33 0.31 0.43 0.48 0.33 0.41 0.33 0.35 0.31 0.34 0.34 0.46 0.44 0.48 0.43 0.32 0.47 0.46 0.38 0.42 0.43 0.32 0.40 0.42 0.30 0.49 0.45 0.36 0.31 0.49 0.33 0.38 0.41 0.32 0.34 0.36 0.43 0.36 0.36 0.32 0.34 0.41 0.41 0.39 0.33 0.40 0.37 0.45 0.35 0.31 0.45 0.32 0.49 0.45 0.45 0.35 0.36 0.43 0.40 0.45 0.44 0.33 0.33 0.44 0.36 0.34 0.47 0.41 0.35 0.41 0.48 0.38 0.46 0.37 0.38 0.32 0.47 0.33 0.48 0.42 0.49 0.46 0.36 0.39 0.33 0.43 0.46 0.37 0.36 0.36 0.40 0.40 0.39 0.38 0.38 0.34 0.47 0.37 0.48 0.49 0.34 0.30 0.34 0.46 0.35 0.48 -9999 -9999 -9999 -9999 -9999 -9999 -9999 -9999 -9999 -9999 -9999 -9999 -9999 -9999 -9999 -9999 -9999 -9999 -9999 -9999 -9999 -9999 -9999 -9999 -9999
0.43 0.49 0.50 0.44 0.41 0.40 0.30 0.44 0.33 0.46 0.47 0.40 0.42 0.46 0.35 0.45 0.35 0.46 0.45 0.41 0.42 0.47 0.50 0.32 0.30 0.49 0.31 0.39 0.30 0.50 0.48 0.33 0.43 0.47 0.49 0.49 0.35 0.37 0.40 0.31 0.43 0.49 0.49 0.44 0.42 0.33 0.35 0.44 0.32 0.31 0.46 0.45 0.49 0.46 0.34 0.44 0.46 0.35 0.38 0.41 0.48 0.30 0.36 0.38 0.33 0.45 0.31 0.49 0.44 0.33 0.39 0.35 0.41 0.31 0.44 0.31 0.50 0.35 0.35 0.42 0.43 0.48 0.50 0.40 0.43 0.48 0.39 0.48 0.36 0.32 0.34 0.33 0.45 0.47 0.48 0.44 0.33 0.39 0.32 0.48 0.41 0.43 0.37 0.40 0.36 0.49 0.38 0.36 0.42 0.36 0.41 0.48 0.42 0.38 0.49 0.32 0.47 0.37 0.31 0.41 0.38 0.44 0.47 0.33 0.34 0.38 0.41 0.34 0.41 0.38 0.31 0.45 0.44 0.42 0.43 0.36 0.45 0.46 0.43 0.35 0.31 0.48 0.47 0.30 0.42 0.32 0.37 0.47 0.31 0.41 0.40 0.46 0.37 0.48 0.47 0.44 0.37 0.43 0.37 0.42 0.46 0.30 0.34 0.33 0.48 0.36 0.45 0.40 0.40 0.48 0.46 0.39 0.32 0.37 0.38 0.49 0.34 0.49 0.32 0.38 0.32 0.47 0.44 0.47 0.39 0.34 0.45 0.35 0.46 0.44 -9999 -9999 -9999 -9999 -9999 -9999 -9999 -9999 -9999 -9999 -9999 -9999 -9999 -9999 -9999 -9999 -9999 -9999 -9999 -9999 -9999 -9999 -9999 -9999 -9999
0.47 0.49 0.45 0.42 0.49 0.32 0.40 0.42 0.41 0.50 0.31 0.50 0.33 0.46 0.41 0.34 0.38 0.48 0.46 0.34 0.33 0.33 0.50 0.35 0.37 0.47 0.38 0.35 0.35 0.49 0.42 0.43 0.38 0.39 0.47 0.39 0.30 0.45 0.47 0.38 0.33 0.43 0.45 0.33 0.34 0.32 0.49 0.35 0.47 0.47 0.47 0.39 0.47 0.30 0.43 0.47 0.39 0.48 0.31 0.42 0.31 0.47 0.48 0.38 0.36 0.35 0.43 0.43 0.45 0.31 0.34 0.50 0.44 0.47 0.45 0.40 0.39 0.32 0.42 0.50 0.39 0.41 0.38 0.37 0.43 0.35 0.47 0.44 0.39 0.43 0.49 0.43 0.44 0.38 0.45 0.35 0.41 0.35 0.47 0.41 0.50 0.35 0.39 0.49 0.50 0.44 0.45 0.48 0.34 0.44 0.32 0.38 0.37 0.41 0.41 0.49 0.48 0.41 0.43 0.39 0.47 0.34 0.34 0.43 0.47 0.31 0.40 0.38 0.31 0.32 0.41 0.31 0.36 0.48 0.41 0.49 0.50 0.50 0.33 0.32 0.32 0.30 0.43 0.34 0.39 0.42 0.42 0.34 0.50 0.30 0.50 0.44 0.37 0.47 0.41 0.42 0.38 0.44 0.37 0.36 0.41 0.44 0.33 0.39 0.43 0.48 0.43 0.30 0.45 0.42 0.44 0.40 0.41 0.40 0.31 0.42 0.46 0.37 0.31 0.48 0.40 0.39 0.32 0.50 0.37 0.50 0.41 0.38 0.41 0.47 -9999 -9999 -9999 -9999 -9999 -9999 -9999 -9999 -9999 -9999 -9999 -9999 -9999 -9999 -9999 -9999 -9999 -9999 -9999 -9999 -9999 -9999 -9999 -9999 -9999
0.39 0.35 0.40 0.42 0.38 0.39 0.44 0.45 0.45 0.46 0.45 0.47 0.40 0.37 0.40 0.36 0.37 0.49 0.31 0.30 0.36 0.40 0.37 0.31 0.32 0.33 0.46 0.44 0.37 0.31 0.42 0.43 0.45 0.46 0.39 0.39 0.30 0.48 0.34 0.49 0.48 0.37 0.36 0.44 0.47 0.48 0.42 0.35 0.32 0.32 0.39 0.46 0.46 0.49 0.39 0.45 0.36 0.48 0.39 0.42 0.47 0.44 0.32 0.42 0.46 0.36 0.40 0.37 0.32 0.50 0.39 0.37 0.42 0.30 0.40 0.37 0.32 0.50 0.42 0.32 0.45 0.33 0.41 0.41 0.34 0.33 0.45 0.49 0.33 0.37 0.50 0.43 0.44 0.35 0.34 0.41 0.39 0.40 0.36 0.40 0.46 0.38 0.47 0.43 0.38 0.47 0.48 0.43 0.44 0.44 0.35 0.43 0.46 0.47 0.32 0.36 0.35 0.44 0.39 0.37 0.32 0.46 0.42 0.42 0.47 0.47 0.43 0.37 0.44 0.48 0.41 0.39 0.39 0.45 0.45 0.35 0.47 0.33 0.45 0.41 0.47 0.49 0.30 0.40 0.39 0.31 0.31 0.34 0.31 0.42 0.34 0.44 0.33 0.37 0.32 0.48 0.39 0.50 0.43 0.32 0.50 0.41 0.33 0.46 0.45 0.30 0.41 0.33 0.32 0.48 0.33 0.45 0.39 0.44 0.35 0.36 0.49 0.30 0.41 0.40 0.37 0.38 0.42 0.45 0.41 0.42 0.43 0.46 0.32 0.49 -9999 -9999 -9999 -9999 -9999 -9999 -9999 -9999 -9999 -9999 -9999 -9999 -9999 -9999 -9999 -9999 -9999 -9999 -9999 -9999 -9999 -9999 -9999 -9999 -9999
0.50 0.35 0.39 0.47 0.45 0.30 0.31 0.40 0.43 0.45 0.48 0.45 0.48 0.43 0.44 0.50 0.38 0.37 0.32 0.39 0.49 0.34 0.31 0.39 0.31 0.47 0.30 0.50 0.34 0.49 0.36 0.49 0.48 0.40 0.36 0.49 0.32 0.32 0.41 0.42 0.44 0.34 0.47 0.47 0.46 0.44 0.34 0.32 0.45 0.42 0.40 0.35 0.41 0.48 0.33 0.49 0.35 0.42 0.41 0.47 0.34 0.34 0.31 0.50 0.31 0.33 0.45 0.45 0.47 0.45 0.44 0.39 0.44 0.49 0.41 0.34 0.34 0.31 0.41 0.35 0.45 0.37 0.39 0.39 0.31 0.45 0.42 0.35 0.40 0.35 0.41 0.34 0.48 0.36 0.44 0.36 0.39 0.43 0.32 0.42 0.35 0.41 0.47 0.31 0.42 0.41 0.31 0.44 0.37 0.31 0.42 0.37 0.47 0.30 0.45 0.43 0.44 0.46 0.38 0.43 0.41 0.31 0.32 0.44 0.40 0.44 0.38 0.45 0.46 0.41 0.39 0.40 0.31 0.44 0.41 0.50 0.41 0.30 0.32 0.38 0.45 0.43 0.40 0.48 0.40 0.43 0.35 0.49 0.32 0.37 0.45 0.33 0.47 0.35 0.49 0.47 0.44 0.47 0.49 0.43 0.46 0.32 0.41 0.47 0.45 0.41 0.50 0.33 0.43 0.39 0.32 0.35 0.50 0.35 0.47 0.41 0.50 0.39 0.46 0.49 0.42 0.40 0.41 0.42 0.41 0.47 0.49 0.38 0.46 0.35 0.48 -9999 -9999 -9999 -9999 -9999 -9999 -9999 -9999 -9999 -9999 -9999 -9999 -9999 -9999 -9999 -9999 -9999 -9999 -9999 -9999 -9999 -9999 -9999 -9999
0.35 0.31 0.32 0.31 0.31 0.39 0.46 0.34 0.32 0.46 0.38 0.44 0.48 0.50 0.32 0.38 0.31 0.39 0.32 0.30 0.36 0.49 0.41 0.47 0.30 0.39 0.31 0.39 0.49 0.37 0.41 0.41 0.46 0.36 0.38 0.32 0.31 0.46 0.32 0.42 0.39 0.45 0.40 0.50 0.35 0.30 0.38 0.45 0.35 0.48 0.46 0.44 0.42 0.50 0.48 0.31 0.32 0.37 0.34 0.39 0.43 0.41 0.40 0.31 0.30 0.33 0.36 0.42 0.33 0.31 0.32 0.39 0.42 0.41 0.49 0.46 0.48 0.32 0.30 0.32 0.41 0.38 0.39 0.47 0.43 0.36 0.43 0.34 0.44 0.33 0.34 0.43 0.41 0.48 0.35 0.49 0.32 0.49 0.39 0.33 0.42 0.40 0.32 0.41 0.47 0.40 0.40 0.36 0.31 0.31 0.46 0.44 0.49 0.37 0.31 0.37 0.50 0.34 0.35 0.33 0.37 0.34 0.42 0.35 0.46 0.34 0.42 0.45 0.44 0.48 0.38 0.49 0.35 0.37 0.45 0.47 0.49 0.48 0.49 0.38 0.41 0.45 0.39 0.42 0.32 0.40 0.39 0.47 0.42 0.49 0.36 0.39 0.36 0.46 0.49 0.44 0.41 0.36 0.34 0.46 0.31 0.48 0.38 0.38 0.39 0.34 0.38 0.45 0.42 0.46 0.45 0.36 0.30 0.49 0.45 0.48 0.31 0.41 0.43 0.50 0.38 0.33 0.31 0.31 0.45 0.32 0.34 0.43 0.47 0.31 0.46 -9999 -9999 -9999 -9999 -9999 -9999 -9999 -9999 -9999 -9999 -9999 -9999 -9999 -9999 -9999 -9999 -9999 -9999 -9999 -9999 -9999 -9999 -9999 -9999
0.39 0.46 0.47 0.37 0.45 0.37 0.40 0.32 0.42 0.37 0.35 0.39 0.43 0.36 0.34 0.37 0.47 0.40 0.43 0.40 0.33 0.41 0.41 0.36 0.46 0.34 0.32 0.32 0.33 0.47 0.42 0.36 0.44 0.32 0.34 0.38 0.35 0.43 0.42 0.44 0.45 0.39 0.49 0.37 0.35 0.49 0.38 0.45 0.45 0.48 0.47 0.34 0.38 0.33 0.41 0.40 0.37 0.33 0.38 0.34 0.37 0.44 0.43 0.44 0.43 0.33 0.32 0.40 0.46 0.49 0.35 0.42 0.45 0.31 0.50 0.40 0.48 0.44 0.45 0.43 0.38 0.32 0.44 0.36 0.39 0.35 0.31 0.44 0.43 0.40 0.32 0.33 0.34 0.45 0.49 0.47 0.48 0.31 0.44 0.35 0.37 0.41 0.48 0.40 0.31 0.34 0.31 0.42 0.37 0.47 0.37 0.47 0.41 0.39 0.45 0.42 0.32 0.48 0.37 0.38 0.47 0.50 0.31 0.41 0.47 0.41 0.45 0.38 0.46 0.35 0.47 0.41 0.46 0.50 0.32 0.38 0.38 0.46 0.33 0.36 0.37 0.41 0.45 0.46 0.34 0.46 0.42 0.31 0.44 0.49 0.47 0.31 0.47 0.37 0.43 0.37 0.48 0.37 0.44 0.34 0.37 0.36 0.41 0.40 0.42 0.46 0.43 0.36 0.33 0.39 0.48 0.49 0.34 0.48 0.33 0.30 0.47 0.45 0.35 0.41 0.36 0.41 0.45 0.50 0.47 0.36 0.38 0.33 0.32 0.48 0.44 -9999 -9999 -9999 -9999 -9999 -9999 -9999 -9999 -9999 -9999 -9999 -9999 -9999 -9999 -9999 -9999 -9999 -9999 -9999 -9999 -9999 -9999 -9999 -9999
0.48 0.49 0.42 0.43 0.32 0.42 0.47 0.48 0.49 0.43 0.32 0.33 0.32 0.37 0.34 0.31 0.50 0.34 0.48 0.40 0.43 0.33 0.33 0.41 0.44 0.41 0.42 0.33 0.36 0.42 0.48 0.39 0.39 0.47 0.49 0.42 0.36 0.49 0.40 0.34 0.40 0.46 0.46 0.40 0.46 0.50 0.49 0.34 0.47 0.48 0.41 0.41 0.34 0.33 0.47 0.44 0.33 0.42 0.43 0.43 0.33 0.32 0.42 0.46 0.38 0.43 0.38 0.34 0.31 0.46 0.32 0.38 0.43 0.38 0.49 0.46 0.36 0.48 0.49 0.33 0.37 0.43 0.34 0.38 0.50 0.33 0.39 0.30 0.42 0.42 0.40 0.41 0.49 0.40 0.36 0.48 0.34 0.32 0.38 0.45 0.39 0.34 0.37 0.46 0.34 0.39 0.46 0.42 0.47 0.34 0.46 0.47 0.36 0.34 0.39 0.46 0.30 0.31 0.41 0.36 0.44 0.39 0.33 0.36 0.43 0.39 0.37 0.35 0.47 0.36 0.47 0.46 0.31 0.31 0.47 0.37 0.49 0.34 0.38 0.38 0.36 0.50 0.41 0.37 0.36 0.45 0.34 0.47 0.44 0.41 0.37 0.45 0.42 0.41 0.40 0.39 0.34 0.46 0.32 0.38 0.36 0.32 0.48 0.48 0.44 0.44 0.35 0.42 0.33 0.42 0.35 0.40 0.39 0.43 0.43 0.38 0.41 0.46 0.34 0.42 0.31 0.49 0.39 0.31 0.49 0.35 0.47 0.49 0.32 0.48 0.43 -9999 -9999 -9999 -9999 -9999 -9999 -9999 -9999 -9999 -9999 -9999 -9999 -9999 -9999 -9999 -9999 -9999 -9999 -9999 -9999 -9999 -9999 -9999 -9999
0.38 0.45 0.48 0.34 0.44 0.38 0.43 0.36 0.45 0.38 0.46 0.31 0.35 0.41 0.43 0.42 0.41 0.33 0.39 0.47 0.31 0.49 0.49 0.43 0.30 0.31 0.32 0.45 0.40 0.43 0.41 0.31 0.34 0.38 0.33 0.39 0.32 0.46 0.36 0.35 0.42 0.46 0.30 0.41 0.48 0.50 0.31 0.30 0.41 0.43 0.39 0.49 0.48 0.48 0.41 0.40 0.40 0.46 0.44 0.44 0.49 0.46 0.46 0.40 0.36 0.34 0.47 0.37 0.47 0.36 0.41 0.42 0.31 0.48 0.46 0.45 0.32 0.35 0.49 0.37 0.41 0.33 0.37 0.38 0.38 0.38 0.43 0.44 0.34 0.32 0.32 0.30 0.40 0.49 0.37 0.45 0.40 0.42 0.34 0.30 0.37 0.50 0.40 0.31 0.32 0.35 0.34 0.49 0.33 0.32 0.49 0.50 0.32 0.47 0.31 0.39 0.39 0.39 0.38 0.48 0.34 0.38 0.30 0.34 0.39 0.31 0.41 0.48 0.42 0.50 0.49 0.42 0.46 0.32 0.46 0.46 0.39 0.50 0.35 0.39 0.46 0.44 0.32 0.40 0.49 0.31 0.34 0.44 0.47 0.45 0.40 0.40 0.49 0.33 0.48 0.49 0.40 0.39 0.48 0.45 0.46 0.42 0.42 0.45 0.36 0.42 0.44 0.46 0.36 0.35 0.31 0.46 0.35 0.41 0.39 0.36 0.48 0.43 0.44 0.33 0.33 0.30 0.43 0.46 0.37 0.48 0.36 0.49 0.35 0.33 0.30 -9999 -9999 -9999 -9999 -9999 -9999 -9999 -9999 -9999 -9999 -9999 -9999 -9999 -9999 -9999 -9999 -9999 -9999 -9999 -9999 -9999 -9999 -9999 -9999
0.37 0.38 0.43 0.36 0.37 0.42 0.34 0.46 0.32 0.42 0.48 0.48 0.48 0.45 0.48 0.40 0.43 0.35 0.32 0.42 0.42 0.37 0.34 0.43 0.48 0.38 0.41 0.48 0.34 0.48 0.30 0.31 0.34 0.41 0.37 0.32 0.48 0.33 0.37 0.31 0.48 0.42 0.41 0.35 0.39 0.36 0.40 0.38 0.31 0.35 0.47 0.42 0.46 0.49 0.32 0.43 0.39 0.36 0.49 0.34 0.45 0.34 0.33 0.32 0.34 0.35 0.32 0.42 0.31 0.50 0.35 0.33 0.45 0.49 0.44 0.36 0.45 0.37 0.41 0.34 0.48 0.37 0.49 0.37 0.44 0.49 0.43 0.49 0.33 0.39 0.32 0.30 0.36 0.37 0.44 0.38 0.33 0.32 0.36 0.33 0.46 0.42 0.33 0.32 0.30 0.49 0.39 0.46 0.33 0.35 0.35 0.41 0.31 0.42 0.31 0.42 0.33 0.31 0.40 0.34 0.41 0.34 0.42 0.43 0.49 0.37 0.38 0.47 0.48 0.36 0.33 0.45 0.38 0.43 0.45 0.37 0.46 0.43 0.38 0.43 0.40 0.43 0.30 0.47 0.37 0.39 0.44 0.45 0.32 0.38 0.48 0.40 0.46 0.49 0.50 0.45 0.38 0.48 0.45 0.39 0.34 0.33 0.41 0.31 0.30 0.32 0.48 0.34 0.36 0.39 0.49 0.46 0.45 0.46 0.38 0.32 0.49 0.50 0.38 0.45 0.50 0.48 0.38 0.39 0.42 0.44 0.37 0.48 0.37 0.50 0.39 -9999 -9999 -9999 -9999 -9999 -9999 -9999 -9999 -9999 -9999 -9999 -9999 -9999 -9999 -9999 -9999 -9999 -9999 -9999 -9999 -9999 -9999 -9999 -9999
0.31 0.31 0.48 0.33 0.39 0.48 0.44 0.48 0.31 0.36 0.44 0.42 0.45 0.42 0.47 0.34 0.45 0.33 0.45 0.47 0.49 0.49 0.32 0.46 0.39 0.47 0.45 0.38 0.48 0.35 0.43 0.39 0.47 0.48 0.42 0.30 0.42 0.43 0.40 0.49 0.45 0.37 0.42 0.41 0.36 0.32 0.46 0.42 0.38 0.48 0.49 0.47 0.41 0.42 0.48 0.36 0.43 0.31 0.32 0.36 0.31 0.35 0.34 0.50 0.41 0.36 0.35 0.50 0.33 0.38 0.45 0.45 0.49 0.40 0.35 0.40 0.41 0.39 0.50 0.36 0.46 0.34 0.34 0.37 0.31 0.49 0.41 0.33 0.42 0.36 0.31 0.50 0.34 0.43 0.36 0.38 0.43 0.34 0.40 0.34 0.37 0.48 0.32 0.37 0.46 0.48 0.48 0.38 0.37 0.32 0.41 0.41 0.46 0.34 0.32 0.31 0.40 0.33 0.50 0.49 0.31 0.40 0.39 0.44 0.33 0.43 0.47 0.34 0.47 0.32 0.48 0.42 0.45 0.35 0.38 0.47 0.31 0.46 0.49 0.48 0.38 0.44 0.32 0.44 0.41 0.44 0.44 0.42 0.42 0.42 0.32 0.39 0.35 0.50 0.32 0.44 0.42 0.35 0.50 0.35 0.50 0.38 0.39 0.40 0.32 0.41 0.31 0.32 0.50 0.48 0.32 0.48 0.49 0.45 0.35 0.35 0.35 0.44 0.35 0.39 0.41 0.34 0.34 0.40 0.48 0.41 0.47 0.38 0.34 0.48 0.49 -9999 -9999 -9999 -9999 -9999 -9999 -9999 -9999 -9999 -9999 -9999 -9999 -9999 -9999 -9999 -9999 -9999 -9999 -9999 -9999 -9999 -9999 -9999 -9999
0.44 0.44 0.47 0.33 0.49 0.49 0.46 0.34 0.45 0.45 0.39 0.50 0.49 0.45 0.46 0.40 0.35 0.35 0.39 0.49 0.50 0.38 0.45 0.44 0.40 0.40 0.36 0.43 0.49 0.48 0.37 0.37 0.50 0.40 0.41 0.35 0.34 0.45 0.33 0.35 0.45 0.45 0.38 0.45 0.34 0.33 0.38 0.33 0.38 0.34 0.39 0.33 0.42 0.38 0.34 0.34 0.42 0.43 0.43 0.41 0.43 0.30 0.43 0.47 0.46 0.49 0.41 0.35 0.42 0.38 0.43 0.49 0.35 0.38 0.42 0.37 0.38 0.45 0.31 0.31 0.33 0.33 0.46 0.36 0.46 0.45 0.49 0.35 0.50 0.47 0.34 0.33 0.41 0.42 0.40 0.37 0.34 0.32 0.41 0.39 0.43 0.50 0.50 0.46 0.50 0.41 0.34 0.50 0.46 0.35 0.49 0.38 0.44 0.32 0.47 0.44 0.32 0.48 0.44 0.34 0.41 0.35 0.44 0.36 0.40 0.44 0.31 0.31 0.37 0.45 0.46 0.39 0.48 0.49 0.43 0.49 0.31 0.37 0.45 0.48 0.35 0.41 0.40 0.30 0.40 0.42 0.31 0.31 0.40 0.41 0.45 0.38 0.46 0.44 0.50 0.39 0.44 0.41 0.36 0.34 0.33 0.32 0.32 0.44 0.48 0.46 0.49 0.37 0.42 0.48 0.50 0.40 0.40 0.46 0.39 0.32 0.38 0.45 0.33 0.37 0.43 0.43 0.50 0.49 0.32 0.43 0.41 0.32 0.33 0.32 0.47 0.35 -9999 -9999 -9999 -9999 -9999 -9999 -9999 -9999 -9999 -9999 -9999 -9999 -9999 -9999 -9999 -9999 -9999 -9999 -9999 -9999 -9999 -9999 -9999
0.46 0.44 0.48 0.43 0.41 0.33 0.32 0.30 0.49 0.34 0.33 0.47 0.43 0.47 0.40 0.37 0.45 0.42 0.43 0.41 0.34 0.37 0.38 0.41 0.41 0.34 0.42 0.38 0.31 0.37 0.48 0.38 0.42 0.47 0.42 0.41 0.45 0.49 0.42 0.34 0.43 0.41 0.48 0.48 0.38 0.32 0.33 0.40 0.45 0.42 0.32 0.32 0.33 0.45 0.37 0.44 0.41 0.50 0.50 0.46 0.46 0.38 0.38 0.31 0.35 0.48 0.40 0.31 0.42 0.43 0.44 0.48 0.40 0.47 0.50 0.50 0.35 0.31 0.32 0.33 0.40 0.45 0.33 0.49 0.34 0.39 0.46 0.46 0.37 0.39 0.37 0.43 0.46 0.35 0.31 0.48 0.36 0.43 0.47 0.33 0.33 0.39 0.45 0.32 0.37 0.37 0.37 0.48 0.37 0.31 0.34 0.48 0.44 0.46 0.41 0.42 0.38 0.46 0.30 0.43 0.33 0.32 0.36 0.41 0.43 0.31 0.46 0.45 0.38 0.40 0.46 0.42 0.32 0.40 0.47 0.45 0.36 0.30 0.32 0.43 0.31 0.36 0.46 0.47 0.41 0.30 0.47 0.32 0.41 0.33 0.38 0.36 0.48 0.30 0.33 0.38 0.44 0.39 0.34 0.47 0.48 0.31 0.39 0.30 0.46 0.35 0.31 0.50 0.35 0.47 0.49 0.30 0.41 0.44 0.41 0.32 0.37 0.49 0.47 0.44 0.34 0.42 0.34 0.41 0.36 0.47 0.43 0.44 0.31 0.44 0.32 0.41 -9999 -9999 -9999 -9999 -9999 -9999 -9999 -9999 -9999 -9999 -9999 -9999 -9999 -9999 -9999 -9999 -9999 -9999 -9999 -9999 -9999 -9999 -9999
0.39 0.46 0.49 0.38 0.41 0.49 0.44 0.32 0.40 0.37 0.46 0.33 0.40 0.47 0.37 0.46 0.44 0.35 0.47 0.41 0.35 0.33 0.33 0.30 0.44 0.40 0.44 0.40 0.45 0.39 0.48 0.43 0.36 0.37 0.39 0.48 0.47 0.37 0.50 0.46 0.46 0.42 0.41 0.48 0.41 0.49 0.42 0.46 0.39 0.38 0.44 0.32 0.42 0.46 0.31 0.37 0.48 0.47 0.50 0.41 0.47 0.45 0.38 0.46 0.40 0.42 0.42 0.34 0.43 0.33 0.35 0.37 0.41 0.32 0.47 0.41 0.40 0.45 0.50 0.42 0.45 0.44 0.31 0.50 0.48 0.38 0.32 0.44 0.35 0.46 0.30 0.32 0.42 0.32 0.47 0.44 0.36 0.41 0.36 0.33 0.30 0.31 0.44 0.39 0.49 0.48 0.33 0.34 0.30 0.30 0.42 0.41 0.38 0.41 0.44 0.39 0.32 0.33 0.35 0.36 0.32 0.32 0.44 0.41 0.44 0.48 0.40 0.45 0.43 0.49 0.36 0.35 0.43 0.43 0.37 0.36 0.41 0.41 0.31 0.33 0.40 0.41 0.35 0.43 0.33 0.30 0.33 0.36 0.43 0.48 0.50 0.47 0.33 0.40 0.35 0.50 0.43 0.46 0.38 0.39 0.48 0.48 0.49 0.48 0.50 0.33 0.40 0.40 0.32 0.32 0.30 0.31 0.39 0.47 0.43 0.49 0.38 0.40 0.34 0.35 0.31 0.49 0.42 0.47 0.47 0.50 0.41 0.39 0.31 0.37 0.41 0.43 -9999 -9999 -9999 -9999 -9999 -9999 -9999 -9999 -9999 -9999 -9999 -9999 -9999 -9999 -9999 -9999 -9999 -9999 -9999 -9999 -9999 -9999 -9999
0.32 0.42 0.41 0.50 0.36 0.46 0.37 0.49 0.39 0.34 0.48 0.41 0.32 0.41 0.41 0.44 0.47 0.47 0.41 0.31 0.35 0.38 0.48 0.49 0.33 0.42 0.34 0.37 0.36 0.41 0.48 0.31 0.50 0.40 0.42 0.47 0.31 0.31 0.47 0.30 0.45 0.41 0.44 0.37 0.40 0.44 0.36 0.44 0.37 0.50 0.30 0.30 0.49 0.30 0.47 0.38 0.38 0.43 0.41 0.48 0.37 0.33 0.31 0.46 0.40 0.43 0.40 0.43 0.47 0.36 0.39 0.36 0.50 0.48 0.36 0.46 0.48 0.47 0.44 0.31 0.30 0.30 0.47 0.49 0.38 0.48 0.37 0.40 0.46 0.39 0.38 0.45 0.32 0.43 0.40 0.43 0.44 0.39 0.32 0.48 0.30 0.33 0.32 0.43 0.35 0.31 0.36 0.40 0.35 0.38 0.37 0.34 0.36 0.40 0.48 0.42 0.48 0.43 0.30 0.33 0.37 0.37 0.46 0.48 0.47 0.42 0.35 0.36 0.42 0.46 0.31 0.40 0.46 0.36 0.35 0.45 0.39 0.39 0.45 0.32 0.40 0.33 0.39 0.37 0.30 0.45 0.39 0.35 0.49 0.33 0.37 0.44 0.40 0.43 0.44 0.42 0.37 0.34 0.42 0.43 0.34 0.45 0.48 0.39 0.48 0.37 0.34 0.36 0.46 0.35 0.31 0.46 0.31 0.31 0.48 0.33 0.48 0.36 0.41 0.43 0.34 0.35 0.39 0.48 0.33 0.38 0.48 0.42 0.43 0.48 0.47 0.49 -9999 -9999 -9999 -9999 -9999 -9999 -9999 -9999 -9999 -9999 -9999 -9999 -9999 -9999 -9999 -9999 -9999 -9999 -9999 -9999 -9999 -9999 -9999
0.47 0.39 0.31 0.31 0.47 0.43 0.43 0.37 0.34 0.49 0.37 0.37 0.42 0.46 0.35 0.48 0.43 0.30 0.48 0.37 0.46 0.44 0.48 0.45 0.32 0.49 0.33 0.32 0.38 0.38 0.36 0.48 0.48 0.47 0.38 0.47 0.41 0.37 0.31 0.37 0.38 0.49 0.48 0.45 0.47 0.47 0.36 0.47 0.48 0.43 0.30 0.30 0.46 0.37 0.39 0.50 0.47 0.46 0.34 0.50 0.41 0.36 0.47 0.45 0.50 0.47 0.43 0.36 0.34 0.44 0.46 0.38 0.40 0.31 0.42 0.47 0.34 0.36 0.49 0.37 0.36 0.41 0.31 0.36 0.46 0.49 0.39 0.47 0.34 0.32 0.36 0.48 0.39 0.40 0.45 0.49 0.33 0.48 0.35 0.45 0.34 0.47 0.48 0.41 0.39 0.33 0.38 0.34 0.33 0.31 0.33 0.34 0.46 0.49 0.38 0.45 0.43 0.46 0.49 0.39 0.47 0.33 0.40 0.46 0.40 0.30 0.48 0.43 0.48 0.30 0.41 0.38 0.41 0.30 0.34 0.46 0.46 0.37 0.43 0.40 0.35 0.46 0.46 0.50 0.44 0.37 0.38 0.37 0.44 0.47 0.34 0.36 0.32 0.39 0.31 0.46 0.41 0.50 0.39 0.36 0.43 0.44 0.45 0.33 0.43 0.47 0.37 0.43 0.48 0.34 0.42 0.43 0.32 0.34 0.48 0.31 0.34 0.44 0.47 0.38 0.32 0.47 0.38 0.44 0.46 0.31 0.33 0.37 0.46 0.32 0.41 0.38 -9999 -9999 -9999 -9999 -9999 -9999 -9999 -9999 -9999 -9999 -9999 -9999 -9999 -9999 -9999 -9999 -9999 -9999 -9999 -9999 -9999 -9999 -9999
0.41 0.50 0.49 0.45 0.46 0.41 0.40 0.49 0.47 0.34 0.39 0.48 0.35 0.42 0.50 0.35 0.35 0.31 0.36 0.33 0.41 0.35 0.32 0.37 0.36 0.37 0.46 0.47 0.49 0.35 0.42 0.33 0.32 0.41 0.34 0.39 0.31 0.49 0.42 0.30 0.31 0.32 0.39 0.40 0.38 0.43 0.44 0.31 0.30 0.44 0.45 0.35 0.45 0.35 0.37 0.38 0.38 0.47 0.31 0.42 0.43 0.49 0.50 0.43 0.39 0.42 0.45 0.32 0.43 0.36 0.37 0.37 0.43 0.43 0.35 0.36 0.32 0.34 0.48 0.44 0.31 0.31 0.44 0.49 0.50 0.49 0.35 0.49 0.33 0.41 0.31 0.32 0.42 0.30 0.36 0.36 0.47 0.32 0.36 0.44 0.49 0.45 0.36 0.38 0.43 0.32 0.36 0.40 0.50 0.49 0.36 0.41 0.33 0.35 0.32 0.35 0.45 0.37 0.45 0.49 0.47 0.34 0.44 0.49 0.42 0.46 0.32 0.42 0.43 0.33 0.37 0.49 0.40 0.42 0.39 0.48 0.43 0.45 0.46 0.31 0.34 0.34 0.46 0.43 0.36 0.33 0.39 0.38 0.49 0.37 0.39 0.36 0.44 0.37 0.50 0.39 0.37 0.41 0.32 0.46 0.48 0.43 0.49 0.49 0.31 0.48 0.40 0.37 0.47 0.46 0.44 0.31 0.40 0.35 0.39 0.36 0.37 0.37 0.34 0.46 0.42 0.36 0.42 0.46 0.36 0.33 0.38 0.42 0.42 0.50 0.44 0.39 -9999 -9999 -9999 -9999 -9999 -9999 -9999 -9999 -9999 -9999 -9999 -9999 -9999 -9999 -9999 -9999 -9999 -9999 -9999 -9999 -9999 -9999 -9999
0.31 0.34 0.48 0.46 0.33 0.40 0.46 0.39 0.42 0.39 0.43 0.44 0.37 0.34 0.49 0.49 0.41 0.37 0.47 0.32 0.38 0.34 0.50 0.31 0.32 0.37 0.38 0.40 0.40 0.36 0.44 0.49 0.50 0.48 0.46 0.39 0.34 0.44 0.46 0.42 0.42 0.49 0.48 0.44 0.32 0.43 0.32 0.47 0.49 0.44 0.47 0.49 0.43 0.48 0.47 0.43 0.45 0.35 0.44 0.50 0.38 0.45 0.40 0.43 0.46 0.46 0.49 0.43 0.45 0.49 0.41 0.48 0.43 0.50 0.49 0.44 0.39 0.49 0.34 0.48 0.42 0.46 0.43 0.40 0.45 0.38 0.49 0.45 0.42 0.34 0.36 0.41 0.46 0.49 0.39 0.34 0.31 0.45 0.45 0.39 0.46 0.48 0.43 0.33 0.34 0.38 0.42 0.32 0.34 0.38 0.42 0.31 0.37 0.32 0.37 0.49 0.49 0.48 0.43 0.46 0.47 0.39 0.49 0.41 0.40 0.45 0.31 0.46 0.34 0.38 0.46 0.34 0.45 0.36 0.36 0.42 0.39 0.35 0.33 0.36 0.35 0.44 0.46 0.42 0.42 0.46 0.44 0.37 0.47 0.38 0.36 0.37 0.44 0.31 0.39 0.49 0.48 0.45 0.41 0.44 0.41 0.48 0.49 0.37 0.48 0.47 0.32 0.45 0.41 0.42 0.34 0.36 0.40 0.43 0.38 0.37 0.34 0.46 0.40 0.37 0.39 0.47 0.35 0.43 0.43 0.36 0.48 0.33 0.40 0.41 0.44 0.36 0.37 -9999 -9999 -9999 -9999 -9999 -9999 -9999 -9999 -9999 -9999 -9999 -9999 -9999 -9999 -9999 -9999 -9999 -9999 -9999 -9999 -9999 -9999
0.42 0.35 0.49 0.36 0.35 0.30 0.33 0.49 0.31 0.38 0.45 0.33 0.49 0.40 0.48 0.35 0.48 0.35 0.33 0.49 0.46 0.33 0.30 0.33 0.46 0.39 0.30 0.32 0.38 0.40 0.50 0.49 0.30 0.42 0.40 0.49 0.42 0.40 0.35 0.50 0.48 0.47 0.36 0.49 0.45 0.45 0.48 0.38 0.31 0.38 0.41 0.47 0.43 0.46 0.35 0.36 0.47 0.36 0.37 0.36 0.46 0.35 0.37 0.38 0.37 0.32 0.37 0.43 0.33 0.48 0.34 0.33 0.34 0.36 0.40 0.34 0.49 0.39 0.41 0.31 0.48 0.35 0.49 0.42 0.38 0.42 0.49 0.35 0.32 0.31 0.49 0.32 0.50 0.39 0.31 0.33 0.38 0.42 0.38 0.33 0.46 0.34 0.35 0.36 0.50 0.47 0.47 0.43 0.48 0.46 0.44 0.39 0.36 0.32 0.37 0.37 0.34 0.48 0.38 0.42 0.30 0.40 0.31 0.45 0.33 0.46 0.43 0.33 0.46 0.33 0.44 0.36 0.49 0.41 0.36 0.46 0.39 0.35 0.35 0.31 0.42 0.43 0.31 0.33 0.44 0.32 0.49 0.31 0.39 0.33 0.49 0.44 0.42 0.30 0.37 0.32 0.38 0.35 0.36 0.40 0.48 0.36 0.49 0.33 0.48 0.42 0.45 0.32 0.43 0.43 0.33 0.30 0.45 0.31 0.35 0.33 0.40 0.46 0.37 0.33 0.31 0.49 0.38 0.30 0.33 0.48 0.41 0.41 0.43 0.49 0.39 0.42 0.46 -9999 -9999 -9999 -9999 -9999 -9999 -9999 -9999 -9999 -9999 -9999 -9999 -9999 -9999 -9999 -9999 -9999 -9999 -9999 -9999 -9999 -9999
0.38 0.30 0.49 0.32 0.40 0.42 0.44 0.34 0.45 0.45 0.35 0.42 0.44 0.42 0.40 0.39 0.48 0.37 0.48 0.41 0.48 0.34 0.49 0.31 0.41 0.33 0.40 0.43 0.40 0.32 0.43 0.45 0.38 0.34 0.35 0.34 0.38 0.45 0.32 0.35 0.50 0.46 0.30 0.44 0.38 0.47 0.33 0.44 0.36 0.40 0.46 0.34 0.32 0.31 0.32 0.34 0.33 0.38 0.36 0.44 0.35 0.39 0.38 0.30 0.40 0.44 0.50 0.34 0.40 0.43 0.48 0.44 0.46 0.33 0.40 0.36 0.43 0.42 0.38 0.42 0.37 0.38 0.31 0.40 0.42 0.46 0.47 0.33 0.44 0.37 0.47 0.33 0.37 0.49 0.31 0.44 0.37 0.30 0.48 0.35 0.34 0.35 0.45 0.46 0.39 0.49 0.45 0.31 0.48 0.44 0.48 0.47 0.31 0.42 0.43 0.30 0.38 0.32 0.33 0.30 0.48 0.35 0.46 0.32 0.40 0.42 0.40 0.47 0.41 0.45 0.35 0.34 0.39 0.45 0.46 0.47 0.41 0.32 0.48 0.30 0.42 0.39 0.37 0.37 0.50 0.33 0.46 0.30 0.46 0.33 0.44 0.42 0.38 0.34 0.40 0.49 0.36 0.35 0.45 0.48 0.30 0.48 0.31 0.37 0.34 0.41 0.49 0.45 0.34 0.36 0.46 0.43 0.48 0.37 0.45 0.46 0.43 0.32 0.31 0.34 0.35 0.31 0.34 0.41 0.42 0.42 0.33 0.38 0.37 0.32 0.47 0.44 0.41 -9999 -9999 -9999 -9999 -9999 -9999 -9999 -9999 -9999 -9999 -9999 -9999 -9999 -9999 -9999 -9999 -9999 -9999 -9999 -9999 -9999 -9999
0.35 0.48 0.49 0.35 0.50 0.46 0.48 0.48 0.43 0.39 0.37 0.31 0.43 0.46 0.36 0.35 0.32 0.47 0.33 0.45 0.44 0.41 0.33 0.38 0.43 0.31 0.42 0.37 0.32 0.47 0.45 0.34 0.31 0.41 0.38 0.36 0.31 0.38 0.44 0.40 0.42 0.48 0.44 0.40 0.32 0.43 0.34 0.33 0.49 0.39 0.39 0.41 0.39 0.44 0.45 0.40 0.45 0.39 0.32 0.42 0.49 0.43 0.39 0.47 0.45 0.35 0.40 0.43 0.35 0.49 0.37 0.40 0.41 0.39 0.41 0.32 0.42 0.44 0.44 0.43 0.46 0.44 0.40 0.45 0.32 0.38 0.46 0.43 0.41 0.49 0.32 0.33 0.48 0.46 0.38 0.47 0.44 0.33 0.38 0.38 0.43 0.32 0.49 0.34 0.48 0.47 0.42 0.48 0.36 0.41 0.46 0.42 0.33 0.48 0.42 0.50 0.31 0.44 0.47 0.42 0.38 0.34 0.34 0.43 0.31 0.37 0.46 0.44 0.47 0.38 0.40 0.44 0.31 0.34 0.31 0.40 0.45 0.39 0.32 0.38 0.46 0.39 0.30 0.38 0.45 0.32 0.49 0.44 0.32 0.40 0.38 0.33 0.49 0.42 0.48 0.37 0.38 0.49 0.34 0.35 0.37 0.38 0.30 0.48 0.45 0.31 0.32 0.39 0.41 0.38 0.45 0.43 0.40 0.36 0.42 0.43 0.43 0.41 0.50 0.33 0.32 0.49 0.43 0.31 0.35 0.36 0.41 0.41 0.38 0.47 0.43 0.50 0.38 -9999 -9999 -9999 -9999 -9999 -9999 -9999 -9999 -9999 -9999 -9999 -9999 -9999 -9999 -9999 -9999 -9999 -9999 -9999 -9999 -9999 -9999
0.39 0.35 0.38 0.50 0.49 0.41 0.43 0.40 0.43 0.49 0.35 0.35 0.33 0.36 0.44 0.50 0.49 0.37 0.46 0.47 0.32 0.31 0.44 0.37 0.31 0.43 0.39 0.41 0.42 0.48 0.48 0.33 0.36 0.35 0.37 0.35 0.32 0.50 0.32 0.40 0.31 0.32 0.45 0.36 0.32 0.48 0.37 0.48 0.33 0.33 0.42 0.41 0.32 0.42 0.44 0.33 0.43 0.31 0.50 0.47 0.37 0.41 0.47 0.40 0.31 0.48 0.32 0.37 0.33 0.31 0.41 0.40 0.40 0.35 0.36 0.36 0.40 0.33 0.31 0.38 0.49 0.49 0.45 0.30 0.47 0.39 0.50 0.46 0.39 0.43 0.30 0.44 0.38 0.40 0.50 0.46 0.42 0.36 0.37 0.38 0.33 0.44 0.44 0.47 0.35 0.41 0.42 0.42 0.33 0.40 0.40 0.47 0.46 0.31 0.31 0.31 0.36 0.39 0.47 0.41 0.38 0.45 0.49 0.45 0.47 0.31 0.46 0.38 0.37 0.39 0.33 0.44 0.38 0.33 0.42 0.48 0.34 0.32 0.39 0.45 0.45 0.35 0.43 0.45 0.35 0.45 0.41 0.32 0.39 0.35 0.33 0.34 0.46 0.37 0.31 0.46 0.39 0.37 0.45 0.40 0.32 0.36 0.43 0.42 0.45 0.33 0.42 0.31 0.46 0.41 0.38 0.31 0.38 0.47 0.33 0.43 0.31 0.32 0.32 0.49 0.47 0.40 0.42 0.39 0.48 0.50 0.39 0.42 0.47 0.36 0.39 0.47 0.49 -9999 -9999 -9999 -9999 -9999 -9999 -9999 -9999 -9999 -9999 -9999 -9999 -9999 -9999 -9999 -9999 -9999 -9999 -9999 -9999 -9999 -9999
0.44 0.34 0.38 0.40 0.46 0.36 0.33 0.48 0.49 0.42 0.48 0.45 0.46 0.50 0.35 0.46 0.50 0.38 0.45 0.48 0.32 0.41 0.45 0.37 0.32 0.31 0.38 0.40 0.43 0.37 0.36 0.38 0.46 0.31 0.46 0.33 0.46 0.35 0.33 0.48 0.36 0.32 0.32 0.36 0.36 0.41 0.33 0.30 0.33 0.44 0.31 0.39 0.42 0.37 0.42 0.41 0.46 0.38 0.38 0.36 0.47 0.41 0.46 0.30 0.40 0.40 0.42 0.47 0.31 0.50 0.35 0.36 0.39 0.32 0.38 0.47 0.41 0.37 0.31 0.43 0.35 0.35 0.31 0.50 0.42 0.39 0.48 0.34 0.35 0.45 0.32 0.45 0.39 0.42 0.33 0.42 0.33 0.32 0.33 0.44 0.40 0.32 0.36 0.32 0.44 0.34 0.36 0.31 0.33 0.35 0.49 0.45 0.49 0.50 0.36 0.50 0.49 0.44 0.46 0.45 0.43 0.39 0.47 0.44 0.45 0.43 0.43 0.37 0.49 0.45 0.33 0.39 0.47 0.30 0.44 0.49 0.44 0.48 0.40 0.40 0.32 0.42 0.42 0.44 0.35 0.32 0.49 0.47 0.39 0.42 0.35 0.39 0.49 0.43 0.49 0.42 0.35 0.41 0.48 0.50 0.47 0.50 0.47 0.33 0.49 0.37 0.35 0.49 0.40 0.32 0.30 0.48 0.47 0.46 0.43 0.42 0.49 0.47 0.45 0.50 0.33 0.46 0.33 0.39 0.30 0.35 0.49 0.33 0.49 0.34 0.47 0.30 0.47 -9999 -9999 -9999 -9999 -9999 -9999 -9999 -9999 -9999 -9999 -9999 -9999 -9999 -9999 -9999 -9999 -9999 -9999 -9999 -9999 -9999 -9999
0.45 0.41 0.40 0.34 0.49 0.37 0.47 0.48 0.50 0.35 0.48 0.41 0.44 0.45 0.48 0.46 0.48 0.34 0.48 0.35 0.46 0.38 0.40 0.47 0.35 0.36 0.43 0.40 0.43 0.43 0.42 0.44 0.33 0.33 0.44 0.31 0.44 0.45 0.44 0.43 0.50 0.31 0.45 0.37 0.50 0.47 0.35 0.34 0.39 0.35 0.42 0.41 0.37 0.50 0.34 0.46 0.44 0.33 0.41 0.40 0.40 0.40 0.31 0.38 0.34 0.42 0.42 0.48 0.34 0.36 0.40 0.48 0.35 0.36 0.42 0.32 0.32 0.37 0.43 0.42 0.42 0.30 0.43 0.44 0.40 0.42 0.41 0.43 0.42 0.32 0.35 0.40 0.38 0.35 0.33 0.48 0.31 0.37 0.33 0.37 0.35 0.49 0.31 0.36 0.43 0.45 0.44 0.41 0.40 0.33 0.38 0.41 0.32 0.37 0.35 0.44 0.36 0.35 0.50 0.30 0.38 0.47 0.34 0.37 0.32 0.44 0.46 0.44 0.49 0.49 0.37 0.34 0.38 0.41 0.46 0.37 0.38 0.41 0.48 0.39 0.42 0.40 0.41 0.42 0.31 0.44 0.37 0.31 0.32 0.31 0.48 0.33 0.35 0.34 0.36 0.33 0.49 0.49 0.34 0.33 0.38 0.42 0.47 0.45 0.46 0.37 0.36 0.43 0.42 0.38 0.33 0.42 0.31 0.38 0.41 0.48 0.31 0.32 0.43 0.30 0.45 0.44 0.34 0.49 0.41 0.47 0.45 0.42 0.49 0.36 0.34 0.43 0.32 0.47 -9999 -9999 -9999 -9999 -9999 -9999 -9999 -9999 -9999 -9999 -9999 -9999 -9999 -9999 -9999 -9999 -9999 -9999 -9999 -9999 -9999
0.49 0.32 0.41 0.47 0.49 0.44 0.31 0.30 0.34 0.44 0.31 0.43 0.33 0.34 0.39 0.37 0.45 0.47 0.30 0.42 0.32 0.47 0.38 0.41 0.38 0.50 0.49 0.42 0.32 0.39 0.32 0.48 0.48 0.47 0.42 0.48 0.38 0.33 0.31 0.30 0.39 0.39 0.42 0.33 0.44 0.38 0.30 0.42 0.40 0.31 0.33 0.31 0.36 0.39 0.37 0.38 0.33 0.44 0.34 0.46 0.32 0.45 0.46 0.49 0.33 0.42 0.38 0.34 0.49 0.36 0.44 0.47 0.46 0.49 0.41 0.38 0.46 0.40 0.41 0.43 0.46 0.46 0.33 0.33 0.33 0.40 0.43 0.42 0.42 0.36 0.43 0.33 0.45 0.46 0.43 0.48 0.43 0.42 0.41 0.49 0.32 0.38 0.50 0.49 0.33 0.47 0.47 0.48 0.47 0.42 0.42 0.40 0.49 0.37 0.34 0.37 0.45 0.46 0.50 0.45 0.39 0.42 0.48 0.46 0.40 0.32 0.41 0.46 0.32 0.45 0.37 0.37 0.38 0.31 0.45 0.40 0.49 0.30 0.45 0.43 0.36 0.46 0.31 0.44 0.35 0.38 0.44 0.44 0.30 0.42 0.45 0.50 0.32 0.33 0.36 0.38 0.42 0.48 0.47 0.32 0.45 0.46 0.35 0.46 0.37 0.46 0.39 0.33 0.47 0.48 0.44 0.41 0.43 0.44 0.45 0.44 0.45 0.48 0.43 0.47 0.30 0.41 0.43 0.35 0.38 0.48 0.32 0.31 0.34 0.34 0.46 0.37 0.43 0.39 -9999 -9999 -9999 -9999 -9999 -9999 -9999 -9999 -9999 -9999 -9999 -9999 -9999 -9999 -9999 -9999 -9999 -9999 -9999 -9999 -9999
0.38 0.35 0.39 0.46 0.34 0.42 0.41 0.49 0.36 0.47 0.40 0.31 0.37 0.42 0.43 0.41 0.32 0.47 0.50 0.39 0.45 0.48 0.47 0.34 0.49 0.32 0.48 0.37 0.44 0.47 0.47 0.42 0.38 0.47 0.34 0.36 0.44 0.43 0.34 0.33 0.40 0.32 0.48 0.49 0.39 0.45 0.46 0.42 0.49 0.48 0.49 0.35 0.35 0.48 0.46 0.39 0.33 0.40 0.40 0.37 0.32 0.32 0.33 0.43 0.32 0.43 0.42 0.39 0.38 0.47 0.40 0.48 0.32 0.44 0.48 0.44 0.37 0.40 0.36 0.42 0.48 0.48 0.43 0.48 0.45 0.46 0.36 0.42 0.46 0.44 0.49 0.34 0.37 0.32 0.43 0.33 0.36 0.37 0.49 0.37 0.32 0.44 0.32 0.39 0.37 0.38 0.35 0.33 0.37 0.47 0.37 0.40 0.47 0.36 0.47 0.49 0.47 0.44 0.42 0.44 0.46 0.33 0.42 0.33 0.40 0.44 0.31 0.33 0.43 0.34 0.49 0.40 0.44 0.49 0.46 0.46 0.42 0.39 0.33 0.42 0.43 0.39 0.47 0.40 0.50 0.33 0.32 0.45 0.48 0.45 0.43 0.43 0.43 0.48 0.50 0.43 0.39 0.34 0.38 0.46 0.45 0.49 0.32 0.44 0.32 0.44 0.50 0.36 0.48 0.32 0.32 0.39 0.32 0.44 0.32 0.34 0.50 0.32 0.35 0.44 0.31 0.38 0.33 0.40 0.45 0.46 0.31 0.31 0.48 0.41 0.38 0.37 0.37 0.40 -9999 -9999 -9999 -9999 -9999 -9999 -9999 -9999 -9999 -9999 -9999 -9999 -9999 -9999 -9999 -9999 -9999 -9999 -9999 -9999 -9999
0.48 0.41 0.40 0.36 0.45 0.37 0.34 0.45 0.44 0.38 0.38 0.41 0.42 0.44 0.43 0.41 0.36 0.43 0.40 0.48 0.32 0.31 0.43 0.49 0.38 0.47 0.36 0.47 0.32 0.41 0.47 0.39 0.30 0.39 0.47 0.40 0.47 0.42 0.49 0.43 0.43 0.33 0.50 0.36 0.31 0.39 0.39 0.48 0.42 0.36 0.48 0.30 0.40 0.46 0.30 0.50 0.37 0.34 0.41 0.35 0.47 0.30 0.34 0.34 0.38 0.41 0.37 0.38 0.37 0.47 0.44 0.36 0.48 0.37 0.40 0.40 0.36 0.32 0.36 0.47 0.47 0.48 0.36 0.49 0.43 0.30 0.44 0.32 0.42 0.44 0.48 0.46 0.44 0.30 0.33 0.38 0.33 0.41 0.37 0.43 0.48 0.49 0.46 0.39 0.40 0.49 0.33 0.39 0.36 0.30 0.31 0.42 0.42 0.34 0.35 0.38 0.44 0.47 0.32 0.41 0.40 0.48 0.42 0.34 0.50 0.47 0.41 0.49 0.46 0.37 0.35 0.39 0.44 0.45 0.33 0.34 0.32 0.41 0.31 0.31 0.50 0.46 0.43 0.38 0.49 0.31 0.40 0.33 0.42 0.38 0.46 0.48 0.40 0.45 0.33 0.42 0.33 0.41 0.38 0.42 0.39 0.46 0.46 0.38 0.38 0.32 0.40 0.31 0.44 0.34 0.33 0.30 0.44 0.35 0.37 0.30 0.40 0.31 0.31 0.46 0.41 0.36 0.45 0.32 0.43 0.44 0.40 0.45 0.47 0.43 0.38 0.36 0.49 0.36 -9999 -9999 -9999 -9999 -9999 -9999 -9999 -9999 -9999 -9999 -9999 -9999 -9999 -9999 -9999 -9999 -9999 -9999 -9999 -9999 -9999
0.47 0.43 0.44 0.33 0.43 0.49 0.42 0.41 0.32 0.46 0.33 0.40 0.39 0.43 0.43 0.47 0.36 0.38 0.35 0.38 0.44 0.32 0.46 0.43 0.41 0.35 0.39 0.31 0.44 0.35 0.45 0.36 0.44 0.34 0.32 0.35 0.33 0.41 0.43 0.35 0.40 0.44 0.42 0.45 0.38 0.41 0.39 0.46 0.49 0.44 0.35 0.41 0.35 0.33 0.31 0.48 0.47 0.36 0.32 0.34 0.31 0.31 0.38 0.31 0.43 0.44 0.48 0.40 0.37 0.40 0.37 0.31 0.48 0.34 0.41 0.42 0.33 0.31 0.37 0.39 0.46 0.35 0.30 0.34 0.48 0.46 0.44 0.34 0.34 0.49 0.49 0.40 0.44 0.48 0.49 0.48 0.37 0.47 0.40 0.47 0.40 0.45 0.32 0.34 0.41 0.47 0.45 0.46 0.40 0.45 0.42 0.36 0.48 0.32 0.33 0.34 0.37 0.49 0.44 0.48 0.37 0.45 0.48 0.44 0.47 0.45 0.50 0.42 0.30 0.40 0.37 0.50 0.39 0.48 0.47 0.43 0.38 0.42 0.38 0.31 0.32 0.36 0.47 0.47 0.44 0.47 0.43 0.39 0.49 0.32 0.39 0.49 0.39 0.31 0.42 0.31 0.38 0.40 0.43 0.31 0.50 0.32 0.45 0.46 0.38 0.41 0.31 0.46 0.35 0.41 0.44 0.37 0.48 0.30 0.31 0.48 0.36 0.49 0.39 0.44 0.35 0.47 0.31 0.30 0.49 0.47 0.43 0.49 0.31 0.32 0.48 0.45 0.40 0.31 -9999 -9999 -9999 -9999 -9999 -9999 -9999 -9999 -9999 -9999 -9999 -9999 -9999 -9999 -9999 -9999 -9999 -9999 -9999 -9999 -9999
0.39 0.37 0.46 0.45 0.47 0.50 0.36 0.46 0.32 0.38 0.49 0.45 0.34 0.50 0.48 0.44 0.33 0.32 0.46 0.49 0.39 0.44 0.37 0.31 0.50 0.37 0.31 0.32 0.30 0.36 0.39 0.32 0.34 0.39 0.38 0.46 0.32 0.44 0.30 0.31 0.48 0.45 0.44 0.39 0.34 0.33 0.30 0.44 0.35 0.50 0.39 0.43 0.38 0.47 0.42 0.34 0.35 0.41 0.34 0.49 0.34 0.31 0.36 0.40 0.46 0.39 0.33 0.42 0.32 0.42 0.45 0.42 0.43 0.41 0.33 0.41 0.34 0.30 0.39 0.40 0.38 0.43 0.36 0.48 0.45 0.42 0.37 0.31 0.48 0.34 0.35 0.36 0.33 0.41 0.34 0.50 0.43 0.42 0.48 0.41 0.44 0.43 0.33 0.32 0.45 0.50 0.38 0.49 0.40 0.31 0.31 0.35 0.46 0.38 0.44 0.34 0.42 0.35 0.38 0.44 0.36 0.46 0.46 0.42 0.36 0.35 0.43 0.31 0.42 0.38 0.40 0.48 0.35 0.30 0.41 0.39 0.39 0.42 0.42 0.31 0.34 0.34 0.43 0.39 0.33 0.48 0.38 0.34 0.42 0.35 0.33 0.32 0.32 0.44 0.32 0.36 0.47 0.47 0.43 0.32 0.31 0.35 0.33 0.43 0.36 0.34 0.30 0.48 0.48 0.48 0.42 0.39 0.41 0.32 0.46 0.36 0.46 0.40 0.48 0.37 0.42 0.36 0.47 0.50 0.31 0.41 0.44 0.44 0.48 0.34 0.43 0.30 0.35 0.34 -9999 -9999 -9999 -9999 -9999 -9999 -9999 -9999 -9999 -9999 -9999 -9999 -9999 -9999 -9999 -9999 -9999 -9999 -9999 -9999 -9999
0.32 0.50 0.43 0.43 0.43 0.46 0.35 0.34 0.31 0.46 0.38 0.40 0.35 0.31 0.44 0.37 0.45 0.40 0.49 0.39 0.38 0.41 0.40 0.35 0.40 0.40 0.41 0.40 0.30 0.48 0.41 0.35 0.45 0.45 0.40 0.44 0.41 0.31 0.40 0.49 0.49 0.37 0.33 0.38 0.50 0.43 0.43 0.41 0.45 0.35 0.36 0.36 0.42 0.32 0.49 0.41 0.30 0.49 0.43 0.38 0.37 0.43 0.31 0.50 0.40 0.34 0.40 0.41 0.33 0.48 0.36 0.32 0.44 0.48 0.43 0.40 0.34 0.38 0.36 0.35 0.44 0.31 0.31 0.39 0.43 0.43 0.35 0.48 0.50 0.45 0.43 0.33 0.49 0.33 0.48 0.36 0.41 0.34 0.34 0.47 0.36 0.46 0.44 0.37 0.43 0.46 0.38 0.47 0.45 0.33 0.30 0.30 0.31 0.45 0.35 0.45 0.31 0.34 0.30 0.47 0.46 0.48 0.44 0.32 0.44 0.46 0.36 0.46 0.39 0.37 0.35 0.37 0.48 0.38 0.49 0.33 0.33 0.45 0.37 0.47 0.40 0.40 0.35 0.46 0.45 0.34 0.46 0.44 0.41 0.35 0.35 0.41 0.32 0.33 0.36 0.43 0.35 0.38 0.42 0.34 0.48 0.43 0.42 0.33 0.45 0.34 0.34 0.34 0.37 0.49 0.47 0.39 0.38 0.43 0.36 0.42 0.46 0.42 0.50 0.41 0.44 0.41 0.45 0.40 0.40 0.42 0.46 0.32 0.40 0.41 0.44 0.45 0.31 0.32 0.34 -9999 -9999 -9999 -9999 -9999 -9999 -9999 -9999 -9999 -9999 -9999 -9999 -9999 -9999 -9999 -9999 -9999 -9999 -9999 -9999
0.48 0.33 0.30 0.41 0.40 0.48 0.47 0.49 0.46 0.32 0.45 0.36 0.36 0.30 0.42 0.45 0.40 0.42 0.48 0.36 0.35 0.34 0.48 0.46 0.45 0.36 0.46 0.35 0.49 0.31 0.46 0.33 0.37 0.33 0.33 0.30 0.45 0.36 0.41 0.41 0.43 0.48 0.37 0.38 0.42 0.42 0.38 0.44 0.38 0.45 0.40 0.38 0.30 0.31 0.44 0.42 0.48 0.45 0.40 0.47 0.42 0.40 0.39 0.45 0.45 0.31 0.30 0.48 0.43 0.45 0.37 0.34 0.46 0.39 0.45 0.45 0.43 0.36 0.37 0.45 0.43 0.32 0.45 0.40 0.48 0.39 0.49 0.49 0.42 0.50 0.30 0.33 0.48 0.34 0.42 0.39 0.47 0.43 0.43 0.43 0.50 0.37 0.41 0.38 0.40 0.39 0.37 0.42 0.39 0.38 0.47 0.34 0.32 0.40 0.37 0.36 0.45 0.30 0.31 0.36 0.42 0.37 0.40 0.45 0.43 0.49 0.43 0.40 0.40 0.49 0.49 0.45 0.39 0.37 0.43 0.46 0.37 0.43 0.49 0.41 0.43 0.33 0.44 0.46 0.37 0.38 0.33 0.43 0.35 0.43 0.36 0.46 0.31 0.34 0.48 0.32 0.46 0.50 0.36 0.39 0.34 0.35 0.45 0.38 0.48 0.32 0.42 0.35 0.40 0.39 0.38 0.49 0.36 0.36 0.50 0.42 0.34 0.50 0.33 0.46 0.38 0.48 0.41 0.48 0.42 0.35 0.36 0.38 0.32 0.42 0.31 0.39 0.48 0.48 0.46 -9999 -9999 -9999 -9999 -9999 -9999 -9999 -9999 -9999 -9999 -9999 -9999 -9999 -9999 -9999 -9999 -9999 -9999 -9999 -9999
0.46 0.31 0.41 0.42 0.45 0.45 0.41 0.40 0.33 0.33 0.43 0.49 0.36 0.31 0.39 0.42 0.34 0.50 0.36 0.45 0.39 0.30 0.36 0.31 0.41 0.33 0.45 0.35 0.32 0.33 0.38 0.38 0.47 0.33 0.35 0.36 0.39 0.38 0.38 0.32 0.38 0.49 0.43 0.48 0.32 0.48 0.38 0.46 0.39 0.44 0.34 0.31 0.38 0.35 0.42 0.41 0.45 0.43 0.33 0.45 0.41 0.30 0.35 0.42 0.37 0.46 0.40 0.45 0.45 0.49 0.33 0.35 0.36 0.46 0.48 0.49 0.33 0.47 0.40 0.43 0.36 0.44 0.40 0.45 0.35 0.32 0.48 0.42 0.41 0.49 0.37 0.32 0.48 0.34 0.45 0.33 0.39 0.33 0.41 0.40 0.40 0.38 0.37 0.46 0.34 0.41 0.41 0.33 0.35 0.32 0.50 0.30 0.48 0.31 0.46 0.42 0.35 0.40 0.41 0.34 0.43 0.50 0.37 0.46 0.43 0.48 0.34 0.48 0.49 0.36 0.45 0.40 0.37 0.49 0.44 0.30 0.30 0.44 0.34 0.32 0.33 0.38 0.37 0.40 0.31 0.44 0.31 0.48 0.48 0.43 0.38 0.48 0.50 0.31 0.40 0.37 0.42 0.43 0.31 0.34 0.34 0.32 0.42 0.30 0.44 0.44 0.41 0.31 0.39 0.43 0.47 0.47 0.43 0.40 0.36 0.32 0.47 0.42 0.39 0.44 0.47 0.47 0.49 0.49 0.39 0.33 0.34 0.43 0.50 0.31 0.35 0.48 0.31 0.47 0.40 -9999 -9999 -9999 -9999 -9999 -9999 -9999 -9999 -9999 -9999 -9999 -9999 -9999 -9999 -9999 -9999 -9999 -9999 -9999 -9999
0.45 0.33 0.36 0.46 0.41 0.44 0.37 0.49 0.41 0.47 0.33 0.47 0.43 0.35 0.45 0.47 0.32 0.50 0.42 0.39 0.38 0.45 0.45 0.30 0.49 0.43 0.39 0.38 0.46 0.35 0.34 0.36 0.31 0.49 0.42 0.40 0.34 0.34 0.41 0.35 0.43 0.32 0.32 0.37 0.45 0.34 0.36 0.45 0.47 0.35 0.46 0.36 0.37 0.50 0.49 0.33 0.48 0.33 0.47 0.31 0.32 0.43 0.35 0.47 0.33 0.33 0.42 0.40 0.37 0.43 0.46 0.42 0.41 0.31 0.35 0.36 0.45 0.44 0.31 0.48 0.48 0.38 0.36 0.33 0.45 0.38 0.38 0.30 0.47 0.41 0.40 0.32 0.36 0.48 0.46 0.32 0.42 0.37 0.30 0.32 0.35 0.34 0.40 0.41 0.35 0.40 0.41 0.47 0.50 0.46 0.42 0.35 0.39 0.45 0.47 0.38 0.32 0.43 0.31 0.35 0.41 0.35 0.44 0.36 0.42 0.32 0.31 0.41 0.33 0.37 0.35 0.34 0.31 0.30 0.46 0.45 0.42 0.44 0.34 0.38 0.38 0.37 0.45 0.33 0.41 0.30 0.31 0.38 0.43 0.40 0.49 0.41 0.48 0.40 0.41 0.34 0.47 0.42 0.38 0.47 0.40 0.34 0.35 0.41 0.40 0.45 0.50 0.44 0.32 0.40 0.41 0.31 0.39 0.45 0.33 0.38 0.46 0.41 0.37 0.45 0.33 0.43 0.31 0.46 0.38 0.35 0.40 0.46 0.38 0.39 0.45 0.47 0.39 0.44 0.33 -9999 -9999 -9999 -9999 -9999 -9999 -9999 -9999 -9999 -9999 -9999 -9999 -9999 -9999 -9999 -9999 -9999 -9999 -9999 -9999
0.50 0.35 0.30 0.41 0.35 0.33 0.40 0.36 0.40 0.40 0.30 0.31 0.31 0.34 0.42 0.40 0.37 0.42 0.42 0.46 0.33 0.39 0.42 0.36 0.35 0.31 0.47 0.39 0.40 0.32 0.35 0.46 0.41 0.48 0.46 0.31 0.46 0.31 0.44 0.34 0.30 0.50 0.46 0.48 0.44 0.47 0.42 0.32 0.36 0.34 0.49 0.37 0.31 0.32 0.46 0.49 0.30 0.42 0.35 0.41 0.32 0.44 0.33 0.32 0.40 0.35 0.44 0.41 0.47 0.50 0.34 0.42 0.47 0.40 0.32 0.48 0.43 0.41 0.47 0.45 0.50 0.36 0.41 0.44 0.44 0.42 0.48 0.43 0.33 0.34 0.38 0.31 0.45 0.48 0.43 0.45 0.31 0.48 0.45 0.35 0.41 0.36 0.33 0.41 0.48 0.38 0.36 0.36 0.33 0.39 0.37 0.48 0.33 0.43 0.45 0.30 0.31 0.45 0.49 0.45 0.46 0.46 0.50 0.32 0.47 0.34 0.38 0.32 0.36 0.32 0.47 0.36 0.32 0.50 0.46 0.46 0.36 0.40 0.32 0.31 0.46 0.43 0.36 0.44 0.44 0.47 0.48 0.36 0.45 0.49 0.47 0.33 0.33 0.47 0.37 0.39 0.43 0.41 0.32 0.39 0.44 0.33 0.41 0.33 0.38 0.43 0.36 0.36 0.40 0.43 0.47 0.31 0.32 0.39 0.43 0.38 0.34 0.31 0.32 0.35 0.43 0.36 0.50 0.48 0.41 0.33 0.43 0.37 0.32 0.35 0.37 0.46 0.47 0.39 0.34 -9999 -9999 -9999 -9999 -9999 -9999 -9999 -9999 -9999 -9999 -9999 -9999 -9999 -9999 -9999 -9999 -9999 -9999 -9999 -9999
0.48 0.34 0.45 0.49 0.31 0.38 0.43 0.44 0.36 0.44 0.48 0.47 0.37 0.44 0.35 0.35 0.37 0.36 0.43 0.39 0.35 0.46 0.40 0.45 0.46 0.39 0.47 0.48 0.47 0.40 0.43 0.36 0.32 0.40 0.48 0.32 0.37 0.32 0.31 0.38 0.36 0.40 0.47 0.39 0.41 0.37 0.49 0.33 0.43 0.42 0.32 0.45 0.37 0.43 0.36 0.39 0.36 0.38 0.48 0.34 0.38 0.37 0.47 0.40 0.38 0.35 0.48 0.32 0.43 0.46 0.44 0.35 0.47 0.48 0.48 0.44 0.32 0.33 0.48 0.47 0.39 0.47 0.47 0.40 0.39 0.35 0.42 0.45 0.44 0.32 0.41 0.42 0.47 0.33 0.46 0.48 0.31 0.37 0.40 0.49 0.49 0.38 0.32 0.47 0.46 0.32 0.45 0.45 0.38 0.34 0.48 0.45 0.43 0.37 0.40 0.43 0.41 0.37 0.46 0.41 0.48 0.43 0.33 0.38 0.47 0.39 0.30 0.49 0.39 0.44 0.37 0.48 0.34 0.40 0.38 0.35 0.43 0.42 0.44 0.35 0.30 0.39 0.44 0.41 0.33 0.44 0.50 0.39 0.48 0.35 0.45 0.43 0.37 0.44 0.49 0.39 0.40 0.30 0.49 0.38 0.35 0.46 0.41 0.40 0.48 0.42 0.47 0.38 0.47 0.41 0.49 0.48 0.41 0.31 0.38 0.42 0.34 0.38 0.44 0.39 0.42 0.34 0.31 0.32 0.45 0.47 0.35 0.32 0.38 0.42 0.38 0.50 0.36 0.43 0.36 -9999 -9999 -9999 -9999 -9999 -9999 -9999 -9999 -9999 -9999 -9999 -9999 -9999 -9999 -9999 -9999 -9999 -9999 -9999 -9999
0.47 0.36 0.43 0.50 0.36 0.34 0.42 0.48 0.43 0.46 0.33 0.43 0.39 0.40 0.32 0.49 0.40 0.41 0.32 0.45 0.35 0.32 0.47 0.34 0.39 0.30 0.31 0.32 0.31 0.47 0.43 0.44 0.39 0.43 0.31 0.33 0.42 0.41 0.44 0.35 0.36 0.47 0.37 0.47 0.47 0.35 0.36 0.35 0.31 0.40 0.48 0.48 0.39 0.36 0.31 0.37 0.42 0.39 0.33 0.36 0.30 0.47 0.49 0.34 0.48 0.40 0.38 0.30 0.47 0.30 0.40 0.30 0.42 0.50 0.33 0.42 0.36 0.40 0.30 0.36 0.46 0.42 0.38 0.45 0.44 0.37 0.48 0.49 0.46 0.33 0.46 0.39 0.35 0.44 0.46 0.37 0.47 0.31 0.39 0.35 0.38 0.40 0.50 0.46 0.43 0.37 0.46 0.37 0.47 0.33 0.45 0.31 0.36 0.32 0.48 0.38 0.38 0.42 0.36 0.49 0.48 0.49 0.49 0.41 0.44 0.48 0.41 0.48 0.46 0.48 0.35 0.33 0.35 0.42 0.42 0.40 0.36 0.37 0.41 0.33 0.44 0.42 0.35 0.49 0.45 0.48 0.45 0.30 0.46 0.46 0.40 0.36 0.46 0.32 0.40 0.48 0.45 0.43 0.45 0.31 0.42 0.38 0.34 0.46 0.36 0.43 0.43 0.34 0.43 0.33 0.38 0.38 0.49 0.33 0.36 0.50 0.40 0.35 0.49 0.45 0.45 0.48 0.46 0.31 0.41 0.39 0.47 0.47 0.32 0.44 0.49 0.38 0.32 0.39 0.35 -9999 -9999 -9999 -9999 -9999 -9999 -9999 -9999 -9999 -9999 -9999 -9999 -9999 -9999 -9999 -9999 -9999 -9999 -9999 -9999
0.37 0.48 0.43 0.40 0.48 0.35 0.36 0.46 0.37 0.38 0.48 0.39 0.41 0.40 0.41 0.31 0.50 0.44 0.49 0.36 0.49 0.36 0.37 0.32 0.42 0.35 0.44 0.40 0.46 0.36 0.37 0.49 0.37 0.48 0.42 0.46 0.40 0.34 0.49 0.45 0.48 0.31 0.40 0.31 0.47 0.39 0.45 0.36 0.49 0.37 0.47 0.38 0.37 0.46 0.44 0.36 0.47 0.34 0.43 0.50 0.43 0.46 0.45 0.31 0.33 0.49 0.42 0.38 0.43 0.38 0.43 0.30 0.44 0.37 0.33 0.45 0.47 0.41 0.33 0.32 0.42 0.39 0.42 0.50 0.36 0.44 0.50 0.46 0.47 0.35 0.38 0.42 0.37 0.32 0.46 0.39 0.34 0.44 0.49 0.39 0.46 0.47 0.36 0.44 0.36 0.32 0.47 0.43 0.32 0.48 0.43 0.37 0.45 0.35 0.47 0.38 0.39 0.48 0.48 0.37 0.49 0.32 0.32 0.35 0.43 0.48 0.45 0.44 0.33 0.48 0.34 0.30 0.40 0.47 0.38 0.44 0.42 0.35 0.31 0.30 0.32 0.41 0.32 0.31 0.47 0.36 0.40 0.42 0.48 0.42 0.49 0.37 0.40 0.45 0.36 0.46 0.40 0.41 0.46 0.45 0.42 0.48 0.38 0.30 0.39 0.48 0.42 0.48 0.43 0.39 0.32 0.41 0.38 0.50 0.46 0.42 0.42 0.49 0.50 0.40 0.45 0.42 0.39 0.50 0.37 0.37 0.50 0.46 0.47 0.31 0.41 0.31 0.48 0.44 0.33 0.48 -9999 -9999 -9999 -9999 -9999 -9999 -9999 -9999 -9999 -9999 -9999 -9999 -9999 -9999 -9999 -9999 -9999 -9999 -9999
0.50 0.46 0.35 0.47 0.31 0.42 0.49 0.46 0.39 0.36 0.32 0.46 0.49 0.44 0.31 0.45 0.50 0.46 0.36 0.49 0.45 0.41 0.30 0.44 0.36 0.46 0.33 0.46 0.34 0.38 0.41 0.43 0.34 0.37 0.35 0.36 0.36 0.47 0.39 0.49 0.43 0.44 0.42 0.39 0.44 0.35 0.48 0.49 0.37 0.35 0.46 0.37 0.43 0.45 0.39 0.39 0.30 0.36 0.48 0.32 0.41 0.33 0.44 0.50 0.34 0.45 0.39 0.39 0.39 0.32 0.44 0.31 0.49 0.37 0.45 0.39 0.45 0.32 0.44 0.43 0.44 0.48 0.35 0.49 0.31 0.38 0.42 0.39 0.43 0.46 0.36 0.47 0.37 0.41 0.44 0.47 0.44 0.41 0.43 0.35 0.31 0.32 0.42 0.37 0.38 0.36 0.38 0.46 0.39 0.42 0.44 0.39 0.31 0.30 0.32 0.37 0.34 0.35 0.47 0.42 0.37 0.35 0.39 0.44 0.30 0.47 0.45 0.48 0.47 0.48 0.46 0.40 0.38 0.41 0.37 0.42 0.33 0.36 0.34 0.49 0.38 0.34 0.33 0.50 0.44 0.43 0.42 0.42 0.45 0.44 0.35 0.49 0.47 0.46 0.45 0.49 0.45 0.42 0.30 0.30 0.42 0.31 0.50 0.34 0.41 0.49 0.32 0.43 0.40 0.36 0.38 0.48 0.40 0.41 0.38 0.45 0.40 0.49 0.39 0.32 0.35 0.33 0.46 0.33 0.31 0.36 0.42 0.40 0.45 0.36 0.37 0.36 0.46 0.48 0.40 0.45 -9999 -9999 -9999 -9999 -9999 -9999 -9999 -9999 -9999 -9999 -9999 -9999 -9999 -9999 -9999 -9999 -9999 -9999 -9999
0.32 0.42 0.48 0.33 0.44 0.42 0.48 0.41 0.32 0.41 0.44 0.31 0.36 0.34 0.31 0.31 0.31 0.42 0.46 0.46 0.32 0.36 0.41 0.40 0.37 0.33 0.38 0.33 0.33 0.45 0.36 0.40 0.32 0.31 0.44 0.39 0.47 0.44 0.41 0.35 0.42 0.49 0.42 0.41 0.49 0.43 0.49 0.32 0.38 0.35 0.43 0.40 0.47 0.30 0.31 0.43 0.40 0.49 0.35 0.47 0.31 0.34 0.36 0.35 0.35 0.35 0.30 0.36 0.45 0.47 0.36 0.37 0.46 0.35 0.38 0.32 0.38 0.47 0.39 0.39 0.36 0.30 0.33 0.45 0.47 0.43 0.49 0.39 0.47 0.37 0.47 0.31 0.48 0.45 0.37 0.43 0.32 0.47 0.40 0.32 0.44 0.46 0.49 0.38 0.48 0.38 0.46 0.45 0.42 0.45 0.49 0.45 0.50 0.32 0.40 0.34 0.35 0.48 0.40 0.47 0.35 0.36 0.49 0.47 0.48 0.43 0.48 0.44 0.36 0.33 0.45 0.34 0.31 0.49 0.49 0.36 0.44 0.49 0.47 0.47 0.46 0.44 0.36 0.44 0.47 0.40 0.45 0.38 0.47 0.50 0.48 0.39 0.44 0.49 0.32 0.49 0.43 0.40 0.43 0.47 0.47 0.41 0.37 0.49 0.35 0.48 0.46 0.34 0.37 0.46 0.34 0.45 0.36 0.42 0.49 0.35 0.33 0.35 0.39 0.44 0.43 0.36 0.38 0.45 0.44 0.48 0.37 0.42 0.33 0.40 0.48 0.46 0.39 0.49 0.32 0.43 -9999 -9999 -9999 -9999 -9999 -9999 -9999 -9999 -9999 -9999 -9999 -9999 -9999 -9999 -9999 -9999 -9999 -9999 -9999
0.44 0.43 0.47 0.44 0.38 0.47 0.43 0.33 0.32 0.41 0.31 0.41 0.31 0.39 0.31 0.39 0.49 0.42 0.31 0.35 0.42 0.33 0.39 0.47 0.46 0.42 0.39 0.35 0.42 0.44 0.40 0.49 0.48 0.37 0.42 0.35 0.45 0.39 0.33 0.35 0.31 0.47 0.48 0.46 0.45 0.46 0.47 0.46 0.30 0.37 0.33 0.39 0.37 0.41 0.32 0.40 0.45 0.45 0.36 0.50 0.42 0.32 0.36 0.43 0.49 0.49 0.35 0.49 0.44 0.50 0.35 0.36 0.41 0.42 0.37 0.48 0.47 0.40 0.35 0.30 0.40 0.38 0.40 0.35 0.49 0.43 0.36 0.35 0.32 0.35 0.39 0.47 0.37 0.47 0.41 0.33 0.42 0.34 0.42 0.43 0.47 0.45 0.46 0.43 0.47 0.42 0.33 0.43 0.42 0.46 0.30 0.42 0.49 0.45 0.31 0.41 0.38 0.33 0.38 0.46 0.41 0.36 0.49 0.40 0.45 0.35 0.39 0.43 0.38 0.46 0.41 0.49 0.38 0.48 0.44 0.44 0.45 0.31 0.40 0.33 0.41 0.46 0.36 0.30 0.50 0.31 0.46 0.47 0.41 0.37 0.47 0.35 0.46 0.43 0.46 0.38 0.48 0.48 0.43 0.43 0.44 0.39 0.44 0.42 0.40 0.30 0.39 0.35 0.50 0.34 0.40 0.44 0.43 0.35 0.46 0.35 0.44 0.34 0.48 0.35 0.32 0.31 0.47 0.32 0.35 0.35 0.30 0.35 0.34 0.36 0.37 0.46 0.43 0.37 0.45 0.34 -9999 -9999 -9999 -9999 -9999 -9999 -9999 -9999 -9999 -9999 -9999 -9999 -9999 -9999 -9999 -9999 -9999 -9999 -9999
0.37 0.47 0.37 0.38 0.42 0.48 0.35 0.39 0.35 0.46 0.44 0.50 0.33 0.42 0.40 0.47 0.36 0.37 0.40 0.45 0.40 0.33 0.39 0.41 0.44 0.33 0.31 0.33 0.45 0.35 0.31 0.47 0.31 0.37 0.48 0.37 0.36 0.36 0.47 0.36 0.49 0.40 0.35 0.48 0.42 0.48 0.41 0.43 0.49 0.30 0.47 0.35 0.40 0.33 0.40 0.40 0.40 0.34 0.36 0.33 0.34 0.32 0.37 0.42 0.34 0.44 0.36 0.35 0.46 0.34 0.37 0.34 0.40 0.39 0.40 0.42 0.42 0.40 0.42 0.32 0.48 0.38 0.38 0.37 0.45 0.35 0.42 0.45 0.46 0.33 0.34 0.42 0.34 0.49 0.38 0.44 0.47 0.34 0.33 0.48 0.34 0.46 0.42 0.47 0.36 0.47 0.30 0.32 0.42 0.42 0.39 0.41 0.44 0.38 0.39 0.37 0.31 0.43 0.46 0.42 0.45 0.46 0.36 0.36 0.47 0.33 0.49 0.46 0.34 0.40 0.36 0.37 0.47 0.38 0.32 0.32 0.36 0.36 0.48 0.31 0.32 0.40 0.46 0.33 0.44 0.48 0.46 0.38 0.38 0.44 0.36 0.35 0.30 0.35 0.36 0.40 0.39 0.49 0.46 0.45 0.33 0.33 0.34 0.37 0.41 0.36 0.35 0.45 0.44 0.33 0.44 0.47 0.50 0.46 0.42 0.36 0.34 0.33 0.38 0.34 0.46 0.43 0.46 0.42 0.34 0.32 0.37 0.32 0.34 0.47 0.42 0.39 0.44 0.31 0.44 0.31 -9999 -9999 -9999 -9999 -9999 -9999 -9999 -9999 -9999 -9999 -9999 -9999 -9999 -9999 -9999 -9999 -9999 -9999 -9999
0.33 0.36 0.37 0.32 0.41 0.45 0.39 0.43 0.40 0.47 0.35 0.32 0.37 0.39 0.31 0.42 0.35 0.44 0.43 0.50 0.49 0.42 0.44 0.48 0.47 0.33 0.46 0.42 0.49 0.39 0.34 0.35 0.41 0.31 0.31 0.32 0.40 0.40 0.33 0.47 0.45 0.39 0.47 0.42 0.49 0.49 0.37 0.45 0.48 0.46 0.31 0.47 0.36 0.41 0.44 0.45 0.34 0.42 0.37 0.49 0.40 0.32 0.46 0.30 0.38 0.30 0.50 0.49 0.45 0.48 0.48 0.34 0.39 0.46 0.44 0.48 0.35 0.46 0.32 0.43 0.41 0.42 0.47 0.48 0.32 0.42 0.43 0.36 0.42 0.34 0.31 0.45 0.49 0.33 0.48 0.43 0.37 0.31 0.33 0.42 0.32 0.38 0.42 0.34 0.40 0.43 0.48 0.49 0.40 0.40 0.45 0.37 0.32 0.48 0.49 0.35 0.45 0.33 0.49 0.36 0.50 0.50 0.45 0.49 0.38 0.32 0.36 0.44 0.34 0.32 0.38 0.47 0.46 0.34 0.40 0.30 0.33 0.41 0.35 0.32 0.31 0.35 0.42 0.38 0.34 0.48 0.46 0.44 0.31 0.31 0.48 0.35 0.32 0.31 0.41 0.43 0.37 0.40 0.42 0.32 0.42 0.47 0.41 0.41 0.48 0.42 0.36 0.37 0.43 0.46 0.41 0.35 0.40 0.46 0.47 0.32 0.34 0.37 0.35 0.38 0.43 0.34 0.39 0.40 0.46 0.34 0.33 0.34 0.36 0.33 0.42 0.33 0.42 0.37 0.44 0.45 -9999 -9999 -9999 -9999 -9999 -9999 -9999 -9999 -9999 -9999 -9999 -9999 -9999 -9999 -9999 -9999 -9999 -9999 -9999
0.49 0.46 0.30 0.30 0.30 0.49 0.45 0.47 0.47 0.44 0.46 0.42 0.46 0.37 0.44 0.32 0.31 0.30 0.44 0.35 0.49 0.35 0.46 0.36 0.42 0.46 0.44 0.41 0.40 0.50 0.30 0.37 0.47 0.38 0.41 0.38 0.47 0.37 0.45 0.36 0.39 0.44 0.40 0.40 0.38 0.43 0.42 0.37 0.32 0.41 0.41 0.40 0.40 0.38 0.38 0.44 0.44 0.34 0.32 0.46 0.49 0.35 0.44 0.40 0.33 0.41 0.31 0.35 0.32 0.33 0.37 0.42 0.43 0.49 0.32 0.34 0.34 0.43 0.40 0.45 0.42 0.40 0.47 0.32 0.37 0.37 0.37 0.37 0.45 0.41 0.37 0.41 0.32 0.35 0.41 0.45 0.46 0.46 0.48 0.36 0.42 0.45 0.33 0.45 0.37 0.34 0.40 0.43 0.40 0.37 0.46 0.50 0.48 0.35 0.43 0.44 0.49 0.48 0.35 0.35 0.32 0.42 0.31 0.35 0.34 0.35 0.47 0.43 0.33 0.31 0.48 0.44 0.41 0.33 0.42 0.32 0.37 0.48 0.37 0.48 0.39 0.39 0.41 0.43 0.34 0.30 0.31 0.36 0.36 0.44 0.39 0.47 0.43 0.35 0.30 0.47 0.32 0.33 0.38 0.39 0.32 0.31 0.46 0.39 0.45 0.45 0.34 0.43 0.34 0.47 0.42 0.31 0.45 0.42 0.33 0.33 0.38 0.42 0.35 0.40 0.46 0.50 0.34 0.40 0.34 0.49 0.39 0.31 0.39 0.35 0.45 0.41 0.35 0.35 0.45 0.47 0.33 -9999 -9999 -9999 -9999 -9999 -9999 -9999 -9999 -9999 -9999 -9999 -9999 -9999 -9999 -9999 -9999 -9999 -9999
0.50 0.31 0.44 0.40 0.48 0.33 0.33 0.33 0.41 0.33 0.43 0.48 0.44 0.31 0.34 0.34 0.34 0.40 0.40 0.33 0.44 0.48 0.33 0.43 0.40 0.39 0.38 0.32 0.42 0.39 0.39 0.45 0.36 0.48 0.35 0.42 0.33 0.35 0.39 0.33 0.34 0.46 0.40 0.45 0.36 0.49 0.46 0.45 0.50 0.46 0.35 0.39 0.32 0.41 0.41 0.32 0.46 0.47 0.48 0.46 0.37 0.45 0.47 0.30 0.45 0.38 0.39 0.43 0.44 0.33 0.41 0.43 0.45 0.40 0.42 0.43 0.41 0.37 0.48 0.41 0.36 0.46 0.36 0.39 0.38 0.38 0.50 0.47 0.37 0.39 0.31 0.31 0.30 0.43 0.36 0.43 0.34 0.35 0.31 0.39 0.44 0.49 0.44 0.47 0.43 0.48 0.46 0.43 0.33 0.33 0.43 0.36 0.42 0.45 0.43 0.32 0.48 0.46 0.35 0.47 0.46 0.36 0.38 0.33 0.36 0.45 0.33 0.42 0.44 0.40 0.36 0.41 0.32 0.47 0.38 0.41 0.39 0.47 0.45 0.31 0.32 0.41 0.35 0.38 0.47 0.40 0.35 0.50 0.41 0.37 0.32 0.46 0.35 0.50 0.40 0.43 0.44 0.43 0.38 0.34 0.43 0.39 0.49 0.47 0.45 0.43 0.40 0.36 0.36 0.36 0.48 0.33 0.40 0.41 0.40 0.47 0.34 0.36 0.33 0.40 0.41 0.45 0.42 0.36 0.49 0.34 0.42 0.36 0.33 0.42 0.37 0.38 0.44 0.46 0.41 0.49 0.49 -9999 -9999 -9999 -9999 -9999 -9999 -9999 -9999 -9999 -9999 -9999 -9999 -9999 -9999 -9999 -9999 -9999 -9999
0.41 0.32 0.45 0.35 0.47 0.33 0.44 0.35 0.32 0.40 0.49 0.45 0.46 0.43 0.43 0.33 0.44 0.31 0.46 0.37 0.34 0.46 0.38 0.36 0.47 0.49 0.45 0.37 0.45 0.33 0.46 0.35 0.45 0.48 0.47 0.40 0.36 0.40 0.48 0.38 0.44 0.49 0.38 0.40 0.37 0.32 0.45 0.35 0.38 0.34 0.48 0.31 0.31 0.33 0.44 0.35 0.31 0.43 0.43 0.37 0.44 0.35 0.31 0.49 0.40 0.42 0.34 0.31 0.45 0.38 0.40 0.30 0.41 0.42 0.41 0.47 0.33 0.47 0.48 0.34 0.37 0.50 0.39 0.46 0.49 0.44 0.36 0.38 0.33 0.48 0.40 0.32 0.44 0.38 0.37 0.49 0.50 0.47 0.37 0.47 0.44 0.43 0.47 0.30 0.34 0.39 0.49 0.31 0.48 0.43 0.47 0.39 0.35 0.39 0.33 0.38 0.46 0.33 0.44 0.42 0.34 0.33 0.46 0.33 0.36 0.32 0.49 0.37 0.41 0.38 0.45 0.31 0.42 0.31 0.33 0.34 0.36 0.34 0.42 0.36 0.49 0.34 0.37 0.33 0.48 0.37 0.50 0.47 0.42 0.39 0.41 0.47 0.49 0.43 0.32 0.43 0.31 0.37 0.36 0.35 0.38 0.43 0.45 0.42 0.45 0.32 0.38 0.47 0.35 0.47 0.31 0.39 0.38 0.33 0.45 0.45 0.42 0.36 0.49 0.31 0.44 0.43 0.49 0.44 0.47 0.34 0.43 0.45 0.48 0.38 0.40 0.43 0.44 0.38 0.34 0.33 0.37 -9999 -9999 -9999 -9999 -9999 -9999 -9999 -9999 -9999 -9999 -9999 -9999 -9999 -9999 -9999 -9999 -9999 -9999
0.39 0.48 0.41 0.44 0.33 0.48 0.33 0.34 0.32 0.41 0.41 0.31 0.42 0.39 0.32 0.50 0.47 0.43 0.33 0.43 0.35 0.41 0.43 0.49 0.46 0.38 0.41 0.47 0.32 0.49 0.36 0.31 0.33 0.31 0.42 0.40 0.33 0.30 0.31 0.33 0.47 0.42 0.31 0.48 0.39 0.44 0.32 0.45 0.45 0.31 0.46 0.33 0.43 0.34 0.38 0.47 0.44 0.46 0.38 0.40 0.35 0.36 0.48 0.37 0.45 0.32 0.32 0.36 0.32 0.30 0.41 0.42 0.45 0.41 0.34 0.47 0.35 0.33 0.39 0.36 0.35 0.42 0.47 0.41 0.40 0.39 0.34 0.34 0.33 0.35 0.49 0.37 0.34 0.39 0.32 0.46 0.48 0.46 0.42 0.47 0.40 0.46 0.44 0.33 0.32 0.30 0.33 0.36 0.37 0.45 0.41 0.47 0.36 0.41 0.49 0.39 0.34 0.45 0.35 0.32 0.46 0.36 0.40 0.40 0.47 0.44 0.44 0.44 0.41 0.48 0.40 0.37 0.33 0.47 0.48 0.35 0.49 0.50 0.34 0.50 0.43 0.41 0.34 0.30 0.35 0.49 0.46 0.34 0.33 0.46 0.40 0.49 0.50 0.44 0.45 0.36 0.33 0.41 0.34 0.35 0.34 0.50 0.32 0.35 0.30 0.35 0.32 0.40 0.37 0.38 0.40 0.43 0.40 0.45 0.44 0.48 0.32 0.31 0.30 0.39 0.44 0.48 0.37 0.30 0.47 0.48 0.33 0.34 0.32 0.34 0.33 0.38 0.48 0.43 0.44 0.44 0.41 -9999 -9999 -9999 -9999 -9999 -9999 -9999 -9999 -9999 -9999 -9999 -9999 -9999 -9999 -9999 -9999 -9999 -9999
0.32 0.46 0.41 0.39 0.50 0.33 0.32 0.36 0.47 0.44 0.41 0.31 0.46 0.43 0.39 0.44 0.41 0.48 0.46 0.32 0.45 0.50 0.34 0.31 0.35 0.47 0.39 0.36 0.47 0.43 0.48 0.42 0.34 0.41 0.31 0.36 0.40 0.31 0.50 0.37 0.37 0.47 0.44 0.36 0.39 0.48 0.32 0.34 0.40 0.48 0.34 0.45 0.49 0.40 0.30 0.38 0.39 0.49 0.30 0.47 0.40 0.46 0.49 0.42 0.43 0.39 0.43 0.38 0.48 0.49 0.40 0.32 0.33 0.45 0.40 0.45 0.49 0.32 0.38 0.43 0.48 0.32 0.38 0.45 0.35 0.42 0.47 0.35 0.32 0.41 0.42 0.48 0.49 0.50 0.47 0.37 0.32 0.41 0.49 0.35 0.45 0.46 0.32 0.44 0.37 0.47 0.38 0.45 0.47 0.35 0.42 0.35 0.37 0.48 0.32 0.42 0.48 0.44 0.49 0.36 0.43 0.45 0.48 0.42 0.47 0.32 0.46 0.44 0.38 0.35 0.33 0.36 0.47 0.50 0.43 0.48 0.49 0.43 0.41 0.30 0.47 0.32 0.38 0.40 0.48 0.41 0.48 0.36 0.48 0.49 0.38 0.37 0.36 0.44 0.43 0.38 0.47 0.49 0.34 0.45 0.32 0.34 0.41 0.32 0.36 0.37 0.41 0.31 0.46 0.44 0.47 0.34 0.34 0.40 0.33 0.41 0.38 0.40 0.31 0.33 0.37 0.36 0.42 0.43 0.44 0.48 0.42 0.45 0.41 0.43 -9999 -9999 -9999 -9999 -9999 -9999 -9999 -9999 -9999 -9999 -9999 -9999 -9999 -9999 -9999 -9999 -9999 -9999 -9999 -9999 -9999 -9999 -9999 -9999 -9999
0.40 0.49 0.36 0.44 0.31 0.47 0.38 0.30 0.48 0.30 0.39 0.38 0.37 0.38 0.43 0.48 0.35 0.46 0.46 0.39 0.47 0.30 0.36 0.41 0.49 0.36 0.39 0.46 0.47 0.37 0.38 0.38 0.41 0.39 0.40 0.39 0.39 0.38 0.47 0.44 0.36 0.35 0.46 0.48 0.48 0.38 0.44 0.36 0.38 0.36 0.34 0.36 0.41 0.35 0.42 0.41 0.33 0.36 0.34 0.49 0.43 0.39 0.33 0.32 0.38 0.50 0.45 0.30 0.31 0.37 0.49 0.37 0.47 0.34 0.50 0.39 0.36 0.35 0.32 0.38 0.34 0.30 0.34 0.31 0.47 0.46 0.46 0.49 0.42 0.45 0.46 0.46 0.42 0.32 0.33 0.36 0.30 0.37 0.49 0.32 0.46 0.32 0.37 0.34 0.41 0.42 0.31 0.40 0.34 0.33 0.45 0.34 0.33 0.42 0.47 0.31 0.37 0.33 0.38 0.31 0.31 0.46 0.39 0.44 0.36 0.33 0.45 0.45 0.30 0.43 0.31 0.39 0.38 0.35 0.37 0.46 0.46 0.46 0.32 0.31 0.33 0.41 0.31 0.46 0.40 0.34 0.32 0.40 0.49 0.37 0.46 0.49 0.39 0.47 0.39 0.45 0.39 0.31 0.38 0.39 0.41 0.36 0.38 0.42 0.42 0.35 0.36 0.36 0.50 0.33 0.39 0.32 0.31 0.37 0.40 0.40 0.44 0.48 0.36 0.39 0.46 0.37 0.44 0.44 0.48 0.43 0.41 0.49 -9999 -9999 -9999 -9999 -9999 -9999 -9999 -9999 -9999 -9999 -9999 -9999 -9999 -9999 -9999 -9999 -9999 -9999 -9999 -9999 -9999 -9999 -9999 -9999 -9999 -9999 -9999
0.30 0.31 0.31 0.41 0.42 0.36 0.46 0.36 0.39 0.37 0.32 0.36 0.32 0.34 0.39 0.37 0.34 0.44 0.37 0.37 0.49 0.39 0.41 0.34 0.50 0.35 0.39 0.38 0.46 0.48 0.43 0.40 0.32 0.35 0.37 0.45 0.50 0.46 0.40 0.39 0.41 0.31 0.31 0.40 0.38 0.45 0.47 0.45 0.41 0.48 0.50 0.36 0.36 0.32 0.44 0.38 0.39 0.38 0.32 0.40 0.50 0.35 0.43 0.46 0.43 0.44 0.32 0.33 0.42 0.44 0.46 0.30 0.43 0.31 0.43 0.33 0.39 0.44 0.43 0.32 0.34 0.45 0.46 0.39 0.33 0.34 0.45 0.49 0.32 0.39 0.43 0.47 0.48 0.31 0.32 0.45 0.39 0.39 0.46 0.33 0.39 0.34 0.46 0.30 0.44 0.46 0.32 0.31 0.40 0.36 0.49 0.36 0.40 0.44 0.39 0.35 0.44 0.42 0.41 0.40 0.34 0.44 0.43 0.37 0.34 0.36 0.47 0.39 0.32 0.50 0.34 0.40 0.48 0.33 0.48 0.31 0.40 0.37 0.35 0.48 0.50 0.41 0.40 0.47 0.34 0.40 0.47 0.33 0.47 0.47 0.31 0.37 0.48 0.43 0.33 0.40 0.37 0.33 0.40 0.46 0.46 0.34 0.39 0.34 0.32 0.39 0.39 0.34 0.48 0.32 0.36 0.34 0.32 0.38 0.32 0.50 0.32 0.48 0.32 0.45 0.47 0.46 0.47 0.43 0.47 0.34 0.47 0.47 -9999 -9999 -9999 -9999 -9999 -9999 -9999 -9999 -9999 -9999 -9999 -9999 -9999 -9999 -9999 -9999 -9999 -9999 -9999 -9999 -9999 -9999 -9999 -9999 -9999 -9999 -9999
0.43 0.42 0.37 0.44 0.37 0.42 0.30 0.47 0.47 0.37 0.33 0.45 0.45 0.47 0.43 0.31 0.31 0.44 0.38 0.47 0.34 0.45 0.34 0.44 0.46 0.45 0.41 0.46 0.35 0.39 0.36 0.40 0.30 0.43 0.45 0.45 0.33 0.47 0.35 0.36 0.37 0.50 0.35 0.47 0.32 0.44 0.34 0.32 0.35 0.47 0.33 0.43 0.33 0.40 0.39 0.43 0.31 0.33 0.50 0.48 0.37 0.38 0.45 0.45 0.35 0.50 0.35 0.38 0.39 0.49 0.42 0.41 0.37 0.39 0.39 0.33 0.36 0.37 0.41 0.34 0.38 0.41 0.35 0.38 0.37 0.34 0.39 0.49 0.41 0.43 0.35 0.31 0.49 0.43 0.33 0.31 0.46 0.40 0.34 0.50 0.38 0.30 0.49 0.48 0.47 0.36 0.49 0.47 0.48 0.34 0.44 0.34 0.41 0.40 0.48 0.44 0.43 0.43 0.37 0.40 0.39 0.39 0.49 0.34 0.33 0.45 0.45 0.49 0.32 0.48 0.47 0.33 0.49 0.35 0.44 0.38 0.45 0.45 0.46 0.48 0.34 0.36 0.47 0.43 0.44 0.44 0.47 0.39 0.39 0.40 0.42 0.39 0.32 0.45 0.47 0.42 0.33 0.49 0.49 0.42 0.40 0.44 0.32 0.44 0.42 0.32 0.42 0.32 0.40 0.43 0.36 0.44 0.45 0.37 0.46 0.40 0.37 0.42 0.47 0.34 0.41 0.31 0.36 0.40 0.46 0.32 0.47 0.42 -9999 -9999 -9999 -9999 -9999 -9999 -9999 -9999 -9999 -9999 -9999 -9999 -9999 -9999 -9999 -9999 -9999 -9999 -9999 -9999 -9999 -9999 -9999 -9999 -9999 -9999 -9999
0.33 0.45 0.33 0.36 0.44 0.39 0.34 0.46 0.40 0.49 0.34 0.31 0.49 0.33 0.39 0.39 0.41 0.37 0.31 0.43 0.38 0.48 0.42 0.48 0.49 0.37 0.35 0.44 0.31 0.46 0.35 0.43 0.34 0.31 0.32 0.48 0.47 0.33 0.42 0.43 0.30 0.46 0.42 0.47 0.38 0.47 0.42 0.43 0.35 0.46 0.34 0.44 0.36 0.37 0.34 0.46 0.47 0.49 0.31 0.36 0.40 0.48 0.42 0.45 0.45 0.35 0.41 0.34 0.47 0.44 0.47 0.48 0.41 0.48 0.37 0.44 0.43 0.40 0.50 0.35 0.43 0.41 0.43 0.34 0.31 0.32 0.39 0.45 0.42 0.38 0.33 0.31 0.36 0.49 0.44 0.32 0.42 0.41 0.41 0.47 0.39 0.36 0.34 0.35 0.42 0.42 0.41 0.42 0.43 0.42 0.32 0.48 0.42 0.49 0.50 0.43 0.44 0.42 0.30 0.40 0.47 0.35 0.44 0.32 0.35 0.37 0.41 0.44 0.49 0.45 0.48 0.44 0.34 0.36 0.48 0.43 0.42 0.47 0.32 0.34 0.32 0.43 0.39 0.45 0.38 0.34 0.39 0.44 0.31 0.42 0.42 0.45 0.40 0.34 0.31 0.33 0.34 0.44 0.42 0.35 0.41 0.35 0.36 0.40 0.34 0.47 0.41 0.39 0.32 0.38 0.31 0.50 0.41 0.49 0.40 0.42 0.34 0.36 0.46 0.49 0.48 0.50 0.35 0.46 0.37 0.31 0.30 0.47 -9999 -9999 -9999 -9999 -9999 -9999 -9999 -9999 -9999 -9999 -9999 -9999 -9999 -9999 -9999 -9999 -9999 -9999 -9999 -9999 -9999 -9999 -9999 -9999 -9999 -9999 -9999
0.42 0.31 0.31 0.40 0.48 0.45 0.35 0.38 0.40 0.40 0.50 0.30 0.34 0.33 0.49 0.46 0.46 0.33 0.46 0.34 0.39 0.36 0.35 0.32 0.48 0.37 0.38 0.34 0.36 0.30 0.30 0.38 0.48 0.38 0.37 0.44 0.44 0.50 0.37 0.48 0.31 0.44 0.44 0.31 0.42 0.32 0.43 0.41 0.48 0.41 0.40 0.46 0.32 0.34 0.41 0.32 0.31 0.32 0.44 0.46 0.39 0.44 0.42 0.30 0.46 0.47 0.43 0.36 0.41 0.34 0.34 0.41 0.37 0.32 0.33 0.45 0.46 0.40 0.38 0.45 0.49 0.44 0.49 0.33 0.48 0.34 0.38 0.35 0.31 0.33 0.31 0.44 0.32 0.33 0.39 0.37 0.37 0.34 0.46 0.30 0.37 0.34 0.34 0.46 0.34 0.32 0.49 0.34 0.47 0.46 0.33 0.38 0.34 0.47 0.41 0.38 0.38 0.36 0.42 0.48 0.34 0.43 0.32 0.41 0.40 0.38 0.35 0.46 0.33 0.47 0.50 0.40 0.49 0.34 0.31 0.39 0.33 0.32 0.32 0.43 0.49 0.42 0.36 0.37 0.37 0.43 0.45 0.50 0.31 0.31 0.34 0.33 0.44 0.48 0.40 0.30 0.30 0.32 0.31 0.33 0.33 0.43 0.45 0.36 0.43 0.32 0.42 0.34 0.38 0.30 0.41 0.44 0.34 0.48 0.45 0.45 0.49 0.45 0.34 0.43 0.32 0.47 0.48 0.38 0.49 0.37 0.47 0.41 0.39 -9999 -9999 -9999 -9999 -9999 -9999 -9999 -9999 -9999 -9999 -9999 -9999 -9999 -9999 -9999 -9999 -9999 -9999 -9999 -9999 -9999 -9999 -9999 -9999 -9999 -9999
0.45 0.33 0.35 0.50 0.35 0.31 0.45 0.34 0.43 0.40 0.42 0.49 0.36 0.45 0.33 0.34 0.46 0.43 0.50 0.42 0.30 0.35 0.31 0.38 0.31 0.45 0.37 0.41 0.47 0.50 0.32 0.42 0.38 0.49 0.43 0.49 0.31 0.41 0.48 0.39 0.40 0.41 0.33 0.50 0.37 0.46 0.47 0.36 0.31 0.36 0.33 0.49 0.47 0.41 0.35 0.47 0.35 0.39 0.30 0.42 0.43 0.33 0.45 0.31 0.48 0.41 0.45 0.50 0.33 0.49 0.48 0.44 0.42 0.36 0.45 0.48 0.47 0.48 0.34 0.33 0.49 0.49 0.38 0.33 0.48 0.37 0.40 0.43 0.50 0.31 0.31 0.32 0.31 0.49 0.49 0.47 0.48 0.37 0.50 0.42 0.34 0.49 0.49 0.43 0.38 0.42 0.48 0.41 0.44 0.30 0.49 0.33 0.41 0.48 0.33 0.35 0.35 0.37 0.33 0.48 0.33 0.37 0.33 0.31 0.34 0.31 0.45 0.49 0.31 0.42 0.43 0.49 0.32 0.39 0.39 0.49 0.41 0.31 0.30 0.33 0.38 0.45 0.40 0.36 0.40 0.41 0.41 0.38 0.34 0.30 0.34 0.49 0.47 0.47 0.48 0.47 0.40 0.34 0.33 0.48 0.32 0.50 0.38 0.32 0.43 0.37 0.46 0.34 0.47 0.49 0.33 0.41 0.31 0.43 0.47 0.34 0.35 0.31 0.49 0.47 0.36 0.31 0.44 0.31 0.32 0.37 0.37 0.31 0.42 -9999 -9999 -9999 -9999 -9999 -9999 -9999 -9999 -9999 -9999 -9999 -9999 -9999 -9999 -9999 -9999 -9999 -9999 -9999 -9999 -9999 -9999 -9999 -9999 -9999 -9999
0.44 0.33 0.44 0.48 0.46 0.30 0.40 0.38 0.44 0.40 0.48 0.33 0.49 0.48 0.42 0.44 0.35 0.48 0.46 0.33 0.44 0.47 0.41 0.49 0.46 0.35 0.48 0.31 0.46 0.39 0.42 0.38 0.42 0.38 0.42 0.38 0.45 0.37 0.31 0.36 0.39 0.31 0.31 0.42 0.31 0.34 0.40 0.43 0.46 0.49 0.45 0.46 0.36 0.31 0.32 0.41 0.33 0.36 0.41 0.46 0.47 0.41 0.42 0.44 0.49 0.49 0.37 0.30 0.46 0.38 0.38 0.48 0.42 0.45 0.31 0.40 0.44 0.47 0.41 0.49 0.43 0.35 0.49 0.46 0.44 0.38 0.49 0.39 0.48 0.35 0.33 0.49 0.42 0.34 0.38 0.45 0.31 0.46 0.31 0.36 0.50 0.49 0.49 0.35 0.38 0.35 0.45 0.44 0.37 0.47 0.47 0.31 0.40 0.43 0.48 0.37 0.48 0.42 0.49 0.50 0.37 0.45 0.45 0.50 0.43 0.38 0.44 0.35 0.39 0.35 0.42 0.49 0.47 0.42 0.50 0.42 0.38 0.45 0.33 0.46 0.45 0.48 0.50 0.33 0.35 0.44 0.33 0.47 0.42 0.41 0.43 0.44 0.35 0.32 0.35 0.44 0.46 0.43 0.47 0.47 0.44 0.36 0.31 0.39 0.50 0.47 0.37 0.37 0.37 0.46 0.37 0.50 0.44 0.39 0.38 0.42 0.45 0.32 0.31 0.38 0.49 0.45 0.45 0.37 0.39 0.34 0.50 0.39 0.38 -9999 -9999 -9999 -9999 -9999 -9999 -9999 -9999 -9999 -9999 -9999 -9999 -9999 -9999 -9999 -9999 -9999 -9999 -9999 -9999 -9999 -9999 -9999 -9999 -9999 -9999
0.36 0.39 0.48 0.38 0.33 0.39 0.39 0.44 0.36 0.32 0.38 0.41 0.39 0.32 0.42 0.38 0.31 0.44 0.49 0.41 0.31 0.40 0.49 0.43 0.40 0.44 0.31 0.43 0.43 0.47 0.42 0.31 0.41 0.42 0.45 0.35 0.39 0.48 0.43 0.47 0.35 0.46 0.49 0.43 0.35 0.47 0.41 0.49 0.31 0.45 0.49 0.36 0.41 0.31 0.49 0.49 0.46 0.38 0.37 0.47 0.46 0.47 0.32 0.41 0.48 0.39 0.45 0.35 0.37 0.50 0.32 0.35 0.35 0.31 0.49 0.44 0.38 0.40 0.36 0.40 0.32 0.44 0.38 0.42 0.47 0.42 0.34 0.33 0.35 0.41 0.41 0.46 0.44 0.31 0.42 0.42 0.46 0.38 0.38 0.41 0.32 0.42 0.31 0.46 0.33 0.42 0.50 0.33 0.39 0.37 0.34 0.47 0.49 0.36 0.32 0.31 0.44 0.38 0.48 0.49 0.33 0.32 0.35 0.47 0.44 0.30 0.31 0.38 0.35 0.46 0.31 0.31 0.37 0.49 0.47 0.40 0.42 0.37 0.45 0.44 0.38 0.37 0.32 0.38 0.42 0.30 0.43 0.45 0.47 0.49 0.44 0.45 0.41 0.38 0.35 0.45 0.47 0.42 0.48 0.50 0.37 0.44 0.43 0.38 0.47 0.35 0.31 0.48 0.41 0.46 0.43 0.39 0.44 0.35 0.34 0.47 0.36 0.38 0.48 0.37 0.35 0.39 0.38 0.47 0.34 0.42 0.49 0.38 0.30 -9999 -9999 -9999 -9999 -9999 -9999 -9999 -9999 -9999 -9999 -9999 -9999 -9999 -9999 -9999 -9999 -9999 -9999 -9999 -9999 -9999 -9999 -9999 -9999 -9999 -9999
0.39 0.34 0.38 0.35 0.38 0.35 0.43 0.38 0.36 0.43 0.35 0.34 0.40 0.43 0.34 0.33 0.40 0.47 0.48 0.45 0.39 0.39 0.43 0.44 0.36 0.42 0.47 0.33 0.47 0.41 0.44 0.43 0.48 0.39 0.40 0.45 0.41 0.46 0.32 0.39 0.42 0.33 0.42 0.39 0.34 0.37 0.38 0.36 0.49 0.50 0.32 0.47 0.34 0.46 0.37 0.36 0.31 0.37 0.32 0.47 0.46 0.34 0.45 0.50 0.33 0.32 0.44 0.32 0.39 0.34 0.45 0.31 0.49 0.44 0.36 0.44 0.42 0.40 0.33 0.31 0.34 0.35 0.41 0.39 0.32 0.39 0.37 0.32 0.45 0.37 0.48 0.46 0.47 0.40 0.34 0.32 0.39 0.34 0.34 0.35 0.49 0.34 0.44 0.46 0.31 0.43 0.35 0.42 0.47 0.47 0.42 0.34 0.42 0.33 0.45 0.44 0.38 0.31 0.45 0.31 0.33 0.40 0.48 0.40 0.49 0.34 0.33 0.31 0.37 0.37 0.50 0.46 0.46 0.49 0.36 0.40 0.47 0.42 0.47 0.40 0.31 0.48 0.33 0.30 0.30 0.33 0.37 0.38 0.44 0.48 0.33 0.38 0.45 0.49 0.42 0.38 0.33 0.44 0.35 0.32 0.33 0.50 0.48 0.33 0.31 0.48 0.48 0.39 0.38 0.36 0.39 0.40 0.50 0.48 0.43 0.42 0.38 0.48 0.36 0.45 0.34 0.34 0.39 0.48 0.43 0.37 0.50 0.44 0.49 -9999 -9999 -9999 -9999 -9999 -9999 -9999 -9999 -9999 -9999 -9999 -9999 -9999 -9999 -9999 -9999 -9999 -9999 -9999 -9999 -9999 -9999 -9999 -9999 -9999 -9999
0.34 0.42 0.48 0.48 0.36 0.48 0.30 0.40 0.33 0.40 0.46 0.34 0.30 0.37 0.32 0.36 0.38 0.30 0.34 0.32 0.45 0.45 0.49 0.33 0.41 0.38 0.38 0.35 0.46 0.50 0.48 0.46 0.44 0.40 0.31 0.32 0.40 0.47 0.33 0.35 0.36 0.45 0.30 0.38 0.38 0.36 0.45 0.46 0.42 0.38 0.33 0.35 0.44 0.37 0.34 0.38 0.37 0.49 0.48 0.49 0.48 0.32 0.37 0.45 0.43 0.32 0.35 0.43 0.47 0.36 0.39 0.40 0.45 0.38 0.32 0.40 0.47 0.43 0.42 0.33 0.36 0.46 0.44 0.48 0.45 0.36 0.31 0.42 0.37 0.46 0.44 0.38 0.50 0.50 0.50 0.47 0.46 0.43 0.49 0.38 0.34 0.42 0.35 0.34 0.36 0.46 0.32 0.50 0.41 0.39 0.41 0.34 0.30 0.47 0.43 0.50 0.50 0.48 0.49 0.37 0.42 0.46 0.43 0.42 0.43 0.50 0.47 0.36 0.47 0.37 0.33 0.42 0.35 0.35 0.48 0.31 0.34 0.45 0.35 0.47 0.47 0.49 0.48 0.48 0.45 0.39 0.40 0.41 0.35 0.35 0.34 0.31 0.48 0.49 0.43 0.30 0.31 0.41 0.47 0.36 0.36 0.46 0.40 0.46 0.46 0.46 0.35 0.35 0.33 0.42 0.38 0.45 0.35 0.32 0.41 0.47 0.50 0.39 0.30 0.35 0.44 0.49 0.36 0.42 0.38 0.49 0.37 0.49 0.48 -9999 -9999 -9999 -9999 -9999 -9999 -9999 -9999 -9999 -9999 -9999 -9999 -9999 -9999 -9999 -9999 -9999 -9999 -9999 -9999 -9999 -9999 -9999 -9999 -9999 -9999
0.47 0.50 0.41 0.36 0.47 0.40 0.47 0.31 0.35 0.49 0.45 0.38 0.46 0.49 0.34 0.37 0.45 0.35 0.42 0.48 0.32 0.50 0.40 0.49 0.43 0.36 0.38 0.38 0.39 0.36 0.48 0.32 0.40 0.46 0.46 0.49 0.44 0.39 0.40 0.46 0.45 0.46 0.47 0.43 0.41 0.35 0.35 0.42 0.45 0.36 0.45 0.48 0.37 0.36 0.49 0.48 0.37 0.37 0.32 0.39 0.39 0.44 0.45 0.49 0.46 0.49 0.42 0.37 0.48 0.35 0.34 0.42 0.35 0.35 0.31 0.35 0.32 0.36 0.45 0.41 0.46 0.46 0.30 0.43 0.40 0.38 0.43 0.32 0.45 0.41 0.35 0.41 0.35 0.38 0.49 0.30 0.47 0.36 0.35 0.33 0.46 0.47 0.49 0.41 0.35 0.42 0.39 0.43 0.43 0.40 0.46 0.31 0.41 0.35 0.46 0.48 0.32 0.33 0.47 0.35 0.35 0.33 0.39 0.49 0.35 0.39 0.40 0.45 0.33 0.38 0.46 0.50 0.39 0.32 0.33 0.49 0.47 0.44 0.31 0.47 0.36 0.41 0.42 0.39 0.48 0.37 0.37 0.45 0.37 0.42 0.44 0.38 0.47 0.43 0.42 0.47 0.40 0.32 0.40 0.32 0.49 0.45 0.50 0.35 0.38 0.37 0.45 0.43 0.31 0.36 0.47 0.45 0.31 0.38 0.43 0.34 0.42 0.34 0.36 0.41 0.34 0.41 0.34 0.34 0.45 0.33 0.35 0.44 0.44 -9999 -9999 -9999 -9999 -9999 -9999 -9999 -9999 -9999 -9999 -9999 -9999 -9999 -9999 -9999 -9999 -9999 -9999 -9999 -9999 -9999 -9999 -9999 -9999 -9999 -9999
0.48 0.43 0.39 0.44 0.50 0.42 0.42 0.37 0.38 0.31 0.47 0.43 0.38 0.49 0.39 0.46 0.45 0.43 0.39 0.41 0.50 0.43 0.37 0.44 0.37 0.30 0.40 0.46 0.34 0.35 0.38 0.48 0.43 0.33 0.31 0.35 0.33 0.46 0.42 0.31 0.41 0.49 0.33 0.40 0.33 0.41 0.39 0.36 0.35 0.36 0.41 0.44 0.44 0.41 0.46 0.32 0.38 0.37 0.45 0.34 0.37 0.34 0.39 0.44 0.36 0.46 0.39 0.43 0.49 0.45 0.39 0.41 0.43 0.30 0.43 0.42 0.50 0.48 0.34 0.47 0.47 0.37 0.46 0.34 0.47 0.43 0.49 0.45 0.44 0.46 0.49 0.38 0.41 0.44 0.36 0.30 0.33 0.34 0.48 0.31 0.43 0.45 0.32 0.35 0.36 0.48 0.48 0.42 0.41 0.42 0.33 0.44 0.37 0.42 0.45 0.47 0.48 0.45 0.45 0.37 0.46 0.35 0.32 0.50 0.35 0.45 0.37 0.37 0.36 0.49 0.35 0.46 0.36 0.41 0.30 0.48 0.39 0.41 0.38 0.46 0.30 0.40 0.41 0.32 0.43 0.49 0.39 0.40 0.44 0.34 0.46 0.33 0.38 0.41 0.49 0.36 0.45 0.41 0.36 0.34 0.41 0.36 0.43 0.31 0.39 0.43 0.45 0.39 0.44 0.32 0.36 0.50 0.38 0.31 0.33 0.30 0.33 0.34 0.32 0.32 0.49 0.49 0.37 0.37 0.40 0.30 0.49 0.44 0.33 0.36 -9999 -9999 -9999 -9999 -9999 -9999 -9999 -9999 -9999 -9999 -9999 -9999 -9999 -9999 -9999 -9999 -9999 -9999 -9999 -9999 -9999 -9999 -9999 -9999 -9999
0.34 0.36 0.43 0.49 0.35 0.48 0.38 0.47 0.35 0.46 0.39 0.30 0.45 0.49 0.43 0.42 0.44 0.46 0.34 0.37 0.43 0.35 0.34 0.32 0.38 0.38 0.41 0.44 0.31 0.32 0.31 0.34 0.50 0.35 0.38 0.46 0.48 0.42 0.41 0.42 0.48 0.36 0.41 0.35 0.41 0.45 0.41 0.38 0.34 0.34 0.45 0.31 0.34 0.48 0.39 0.33 0.36 0.38 0.35 0.36 0.33 0.45 0.49 0.37 0.42 0.43 0.39 0.42 0.47 0.42 0.44 0.48 0.35 0.43 0.43 0.41 0.30 0.42 0.47 0.50 0.40 0.40 0.50 0.36 0.41 0.40 0.50 0.43 0.44 0.46 0.33 0.33 0.45 0.43 0.48 0.37 0.40 0.44 0.44 0.34 0.45 0.50 0.30 0.45 0.48 0.32 0.39 0.47 0.41 0.43 0.32 0.45 0.32 0.32 0.46 0.39 0.43 0.49 0.37 0.42 0.47 0.45 0.42 0.35 0.33 0.46 0.43 0.44 0.48 0.34 0.44 0.43 0.43 0.31 0.48 0.30 0.37 0.41 0.48 0.41 0.41 0.33 0.33 0.41 0.46 0.44 0.35 0.37 0.41 0.46 0.36 0.49 0.43 0.41 0.35 0.38 0.39 0.39 0.34 0.44 0.32 0.36 0.47 0.38 0.47 0.35 0.37 0.36 0.32 0.43 0.39 0.40 0.38 0.35 0.43 0.43 0.31 0.41 0.37 0.31 0.33 0.38 0.49 0.37 0.44 0.45 0.33 0.40 0.31 0.48 -9999 -9999 -9999 -9999 -9999 -9999 -9999 -9999 -9999 -9999 -9999 -9999 -9999 -9999 -9999 -9999 -9999 -9999 -9999 -9999 -9999 -9999 -9999 -9999 -9999
0.38 0.34 0.49 0.38 0.44 0.48 0.41 0.31 0.50 0.47 0.45 0.43 0.39 0.44 0.42 0.34 0.46 0.47 0.43 0.37 0.48 0.48 0.41 0.41 0.49 0.49 0.45 0.40 0.30 0.49 0.48 0.50 0.39 0.32 0.34 0.47 0.47 0.35 0.35 0.36 0.49 0.45 0.33 0.31 0.45 0.48 0.41 0.46 0.41 0.33 0.35 0.32 0.44 0.39 0.37 0.44 0.33 0.33 0.37 0.41 0.50 0.40 0.50 0.44 0.48 0.39 0.47 0.38 0.42 0.40 0.41 0.45 0.34 0.36 0.45 0.47 0.39 0.46 0.48 0.44 0.35 0.37 0.42 0.43 0.43 0.37 0.31 0.41 0.38 0.42 0.30 0.33 0.33 0.39 0.40 0.32 0.49 0.46 0.39 0.43 0.42 0.40 0.41 0.34 0.33 0.39 0.32 0.42 0.35 0.49 0.47 0.40 0.34 0.47 0.39 0.36 0.33 0.38 0.31 0.33 0.37 0.46 0.39 0.36 0.35 0.33 0.44 0.34 0.35 0.40 0.50 0.39 0.50 0.39 0.40 0.33 0.46 0.36 0.46 0.44 0.36 0.34 0.48 0.36 0.34 0.47 0.45 0.31 0.38 0.36 0.33 0.47 0.31 0.49 0.36 0.37 0.42 0.48 0.44 0.32 0.37 0.35 0.46 0.40 0.35 0.47 0.47 0.36 0.43 0.32 0.32 0.34 0.42 0.46 0.36 0.33 0.45 0.31 0.37 0.30 0.38 0.37 0.41 0.48 0.44 0.42 0.40 0.39 0.32 0.45 -9999 -9999 -9999 -9999 -9999 -9999 -9999 -9999 -9999 -9999 -9999 -9999 -9999 -9999 -9999 -9999 -9999 -9999 -9999 -9999 -9999 -9999 -9999 -9999 -9999
0.32 0.36 0.32 0.46 0.42 0.46 0.42 0.49 0.34 0.42 0.32 0.32 0.46 0.50 0.33 0.32 0.44 0.43 0.45 0.37 0.42 0.40 0.50 0.32 0.48 0.32 0.33 0.48 0.38 0.40 0.35 0.48 0.45 0.45 0.37 0.44 0.42 0.48 0.39 0.36 0.38 0.35 0.47 0.44 0.49 0.46 0.48 0.45 0.35 0.43 0.35 0.34 0.44 0.49 0.36 0.37 0.30 0.49 0.41 0.37 0.34 0.47 0.39 0.44 0.32 0.38 0.38 0.47 0.43 0.48 0.47 0.46 0.49 0.43 0.33 0.40 0.32 0.32 0.47 0.32 0.33 0.49 0.34 0.48 0.33 0.48 0.31 0.42 0.38 0.43 0.36 0.41 0.47 0.44 0.35 0.43 0.36 0.43 0.30 0.47 0.43 0.38 0.44 0.47 0.42 0.36 0.49 0.33 0.50 0.32 0.34 0.42 0.34 0.44 0.45 0.36 0.44 0.45 0.32 0.45 0.44 0.49 0.50 0.37 0.41 0.43 0.34 0.31 0.44 0.42 0.39 0.41 0.48 0.46 0.30 0.41 0.42 0.46 0.31 0.40 0.36 0.36 0.49 0.36 0.45 0.43 0.33 0.35 0.43 0.43 0.41 0.46 0.35 0.42 0.43 0.49 0.45 0.44 0.45 0.41 0.48 0.41 0.33 0.38 0.39 0.40 0.34 0.44 0.50 0.39 0.48 0.37 0.43 0.49 0.31 0.41 0.38 0.49 0.41 0.40 0.46 0.47 0.32 0.35 0.48 0.30 0.47 0.46 0.33 0.41 -9999 -9999 -9999 -9999 -9999 -9999 -9999 -9999 -9999 -9999 -9999 -9999 -9999 -9999 -9999 -9999 -9999 -9999 -9999 -9999 -9999 -9999 -9999 -9999 -9999
0.49 0.37 0.37 0.44 0.31 0.35 0.36 0.37 0.43 0.45 0.46 0.41 0.38 0.33 0.44 0.41 0.45 0.33 0.49 0.48 0.34 0.44 0.42 0.38 0.41 0.41 0.40 0.37 0.42 0.31 0.41 0.34 0.36 0.36 0.49 0.34 0.36 0.39 0.31 0.40 0.48 0.31 0.33 0.38 0.42 0.42 0.43 0.33 0.33 0.36 0.31 0.35 0.44 0.35 0.33 0.36 0.39 0.46 0.33 0.44 0.49 0.46 0.49 0.33 0.49 0.49 0.41 0.37 0.34 0.47 0.32 0.46 0.37 0.43 0.31 0.50 0.37 0.49 0.45 0.46 0.46 0.33 0.34 0.46 0.46 0.45 0.37 0.35 0.33 0.35 0.49 0.46 0.43 0.43 0.45 0.47 0.37 0.33 0.49 0.30 0.46 0.31 0.46 0.47 0.34 0.46 0.47 0.46 0.37 0.31 0.37 0.42 0.34 0.42 0.35 0.38 0.49 0.35 0.44 0.31 0.33 0.38 0.47 0.49 0.36 0.35 0.34 0.49 0.47 0.31 0.47 0.31 0.47 0.43 0.38 0.38 0.43 0.31 0.47 0.39 0.39 0.49 0.49 0.38 0.40 0.32 0.46 0.45 0.40 0.47 0.46 0.47 0.37 0.37 0.31 0.42 0.44 0.30 0.43 0.30 0.33 0.32 0.40 0.45 0.49 0.32 0.42 0.42 0.46 0.47 0.41 0.40 0.45 0.44 0.46 0.33 0.36 0.40 0.36 0.38 0.44 0.44 0.36 0.34 0.44 0.36 0.30 0.33 0.37 0.49 -9999 -9999 -9999 -9999 -9999 -9999 -9999 -9999 -9999 -9999 -9999 -9999 -9999 -9999 -9999 -9999 -9999 -9999 -9999 -9999 -9999 -9999 -9999 -9999 -9999
0.32 0.39 0.31 0.44 0.47 0.49 0.44 0.32 0.43 0.38 0.40 0.47 0.36 0.31 0.42 0.48 0.33 0.50 0.40 0.41 0.32 0.42 0.32 0.37 0.43 0.49 0.37 0.34 0.37 0.49 0.41 0.37 0.42 0.48 0.49 0.35 0.48 0.31 0.45 0.45 0.47 0.33 0.50 0.43 0.42 0.32 0.30 0.41 0.31 0.44 0.46 0.47 0.43 0.33 0.30 0.44 0.47 0.38 0.37 0.33 0.49 0.33 0.39 0.50 0.49 0.39 0.41 0.33 0.49 0.38 0.44 0.32 0.48 0.32 0.43 0.48 0.43 0.34 0.32 0.33 0.40 0.31 0.48 0.38 0.35 0.49 0.45 0.36 0.35 0.46 0.49 0.35 0.38 0.46 0.40 0.39 0.41 0.34 0.47 0.38 0.39 0.32 0.34 0.38 0.31 0.41 0.42 0.43 0.34 0.50 0.33 0.45 0.47 0.37 0.40 0.35 0.42 0.35 0.43 0.50 0.44 0.41 0.33 0.43 0.37 0.42 0.49 0.46 0.32 0.47 0.40 0.43 0.33 0.36 0.39 0.47 0.47 0.43 0.40 0.32 0.35 0.42 0.42 0.30 0.32 0.42 0.50 0.31 0.36 0.40 0.41 0.46 0.36 0.34 0.35 0.33 0.31 0.50 0.31 0.50 0.46 0.35 0.33 0.48 0.45 0.50 0.48 0.35 0.49 0.45 0.40 0.43 0.34 0.38 0.45 0.30 0.35 0.33 0.42 0.34 0.39 0.40 0.42 0.47 0.44 0.35 0.45 0.36 0.48 0.43 -9999 -9999 -9999 -9999 -9999 -9999 -9999 -9999 -9999 -9999 -9999 -9999 -9999 -9999 -9999 -9999 -9999 -9999 -9999 -9999 -9999 -9999 -9999 -9999 -9999
0.49 0.33 0.38 0.38 0.46 0.39 0.32 0.32 0.45 0.48 0.43 0.45 0.49 0.33 0.35 0.38 0.48 0.35 0.45 0.43 0.43 0.37 0.34 0.46 0.34 0.43 0.46 0.49 0.35 0.40 0.50 0.35 0.38 0.40 0.31 0.46 0.45 0.43 0.44 0.45 0.39 0.40 0.39 0.34 0.42 0.31 0.39 0.36 0.47 0.48 0.42 0.46 0.47 0.47 0.38 0.44 0.47 0.44 0.38 0.48 0.32 0.33 0.34 0.31 0.35 0.39 0.42 0.46 0.31 0.44 0.38 0.33 0.50 0.30 0.47 0.31 0.31 0.37 0.47 0.36 0.45 0.31 0.38 0.31 0.40 0.38 0.44 0.48 0.47 0.33 0.42 0.41 0.47 0.48 0.32 0.37 0.48 0.45 0.44 0.44 0.49 0.48 0.43 0.37 0.38 0.33 0.38 0.39 0.41 0.45 0.34 0.39 0.42 0.49 0.41 0.34 0.47 0.49 0.36 0.50 0.42 0.50 0.47 0.45 0.47 0.44 0.50 0.49 0.32 0.37 0.32 0.34 0.36 0.43 0.40 0.34 0.49 0.49 0.33 0.34 0.38 0.35 0.43 0.37 0.35 0.31 0.31 0.49 0.42 0.41 0.31 0.46 0.41 0.50 0.39 0.30 0.47 0.34 0.33 0.39 0.42 0.49 0.49 0.41 0.49 0.35 0.41 0.43 0.48 0.33 0.46 0.41 0.43 0.37 0.31 0.35 0.38 0.31 0.31 0.38 0.40 0.50 0.40 0.47 0.36 0.40 0.37 0.48 0.41 0.46 0.37 -9999 -9999 -9999 -9999 -9999 -9999 -9999 -9999 -9999 -9999 -9999 -9999 -9999 -9999 -9999 -9999 -9999 -9999 -9999 -9999 -9999 -9999 -9999 -9999
0.41 0.46 0.42 0.46 0.36 0.36 0.33 0.46 0.31 0.43 0.36 0.46 0.38 0.38 0.44 0.33 0.48 0.31 0.46 0.41 0.30 0.48 0.41 0.31 0.31 0.40 0.37 0.41 0.35 0.37 0.34 0.40 0.49 0.33 0.47 0.34 0.45 0.49 0.39 0.50 0.38 0.37 0.45 0.35 0.32 0.32 0.37 0.47 0.32 0.41 0.48 0.35 0.46 0.47 0.44 0.49 0.46 0.34 0.47 0.32 0.42 0.43 0.37 0.45 0.49 0.30 0.48 0.50 0.36 0.30 0.31 0.47 0.37 0.49 0.37 0.35 0.44 0.36 0.31 0.33 0.39 0.44 0.32 0.47 0.43 0.33 0.39 0.49 0.46 0.39 0.46 0.38 0.45 0.47 0.31 0.41 0.47 0.40 0.39 0.38 0.38 0.43 0.38 0.44 0.47 0.34 0.33 0.44 0.43 0.44 0.49 0.43 0.34 0.32 0.40 0.43 0.45 0.32 0.35 0.35 0.47 0.41 0.38 0.38 0.49 0.50 0.33 0.31 0.34 0.39 0.42 0.35 0.42 0.35 0.36 0.34 0.32 0.48 0.36 0.33 0.37 0.40 0.50 0.39 0.42 0.49 0.37 0.35 0.47 0.43 0.42 0.48 0.48 0.33 0.43 0.50 0.38 0.34 0.45 0.43 0.44 0.46 0.46 0.36 0.37 0.31 0.47 0.48 0.41 0.37 0.47 0.33 0.44 0.39 0.41 0.32 0.30 0.50 0.50 0.46 0.34 0.35 0.50 0.42 0.39 0.33 0.41 0.45 0.38 0.43 0.43 -9999 -9999 -9999 -9999 -9999 -9999 -9999 -9999 -9999 -9999 -9999 -9999 -9999 -9999 -9999 -9999 -9999 -9999 -9999 -9999 -9999 -9999 -9999 -9999
0.31 0.33 0.45 0.42 0.32 0.44 0.39 0.45 0.47 0.39 0.42 0.45 0.47 0.33 0.39 0.49 0.47 0.48 0.36 0.38 0.42 0.31 0.34 0.33 0.31 0.41 0.36 0.45 0.36 0.42 0.45 0.42 0.32 0.42 0.41 0.37 0.32 0.43 0.49 0.37 0.50 0.34 0.44 0.40 0.38 0.45 0.35 0.36 0.43 0.32 0.42 0.49 0.50 0.42 0.47 0.34 0.44 0.49 0.33 0.50 0.43 0.47 0.40 0.39 0.34 0.37 0.48 0.40 0.39 0.41 0.34 0.35 0.43 0.41 0.46 0.43 0.44 0.42 0.47 0.42 0.38 0.46 0.36 0.37 0.49 0.34 0.44 0.45 0.36 0.44 0.37 0.45 0.31 0.34 0.40 0.44 0.41 0.36 0.39 0.40 0.36 0.36 0.44 0.46 0.41 0.42 0.35 0.36 0.48 0.35 0.33 0.49 0.44 0.40 0.46 0.34 0.47 0.38 0.41 0.46 0.39 0.32 0.39 0.36 0.49 0.50 0.43 0.31 0.31 0.48 0.40 0.42 0.31 0.39 0.45 0.48 0.50 0.31 0.41 0.49 0.36 0.37 0.42 0.47 0.48 0.49 0.33 0.41 0.37 0.46 0.43 0.39 0.48 0.45 0.44 0.48 0.47 0.32 0.31 0.34 0.37 0.39 0.33 0.47 0.35 0.47 0.43 0.35 0.44 0.41 0.33 0.48 0.44 0.44 0.39 0.33 0.37 0.43 0.31 0.36 0.45 0.40 0.38 0.35 0.38 0.39 0.31 0.34 0.33 0.31 0.45 -9999 -9999 -9999 -9999 -9999 -9999 -9999 -9999 -9999 -9999 -9999 -9999 -9999 -9999 -9999 -9999 -9999 -9999 -9999 -9999 -9999 -9999 -9999 -9999
0.40 0.45 0.37 0.32 0.39 0.45 0.36 0.46 0.33 0.48 0.38 0.32 0.48 0.34 0.36 0.46 0.33 0.43 0.49 0.31 0.34 0.49 0.34 0.32 0.37 0.43 0.37 0.37 0.40 0.46 0.47 0.41 0.40 0.48 0.35 0.32 0.40 0.39 0.39 0.35 0.44 0.46 0.45 0.46 0.34 0.31 0.42 0.36 0.46 0.42 0.44 0.41 0.49 0.38 0.34 0.49 0.31 0.37 0.44 0.39 0.48 0.48 0.49 0.38 0.46 0.45 0.34 0.36 0.34 0.31 0.31 0.33 0.33 0.38 0.49 0.38 0.37 0.40 0.45 0.45 0.49 0.45 0.43 0.47 0.46 0.48 0.47 0.48 0.50 0.33 0.48 0.31 0.33 0.35 0.33 0.33 0.31 0.33 0.33 0.48 0.32 0.30 0.44 0.39 0.39 0.46 0.41 0.33 0.47 0.43 0.39 0.38 0.49 0.33 0.47 0.43 0.43 0.48 0.46 0.47 0.34 0.43 0.31 0.45 0.44 0.35 0.47 0.44 0.45 0.47 0.45 0.45 0.39 0.50 0.44 0.47 0.36 0.41 0.38 0.47 0.47 0.40 0.45 0.45 0.37 0.32 0.46 0.35 0.32 0.36 0.41 0.43 0.35 0.49 0.44 0.49 0.42 0.40 0.32 0.43 0.49 0.41 0.42 0.44 0.39 0.49 0.48 0.36 0.41 0.37 0.48 0.46 0.46 0.42 0.32 0.39 0.46 0.39 0.31 0.31 0.48 0.39 0.31 0.46 0.34 0.41 0.36 0.44 0.50 0.33 0.45 -9999 -9999 -9999 -9999 -9999 -9999 -9999 -9999 -9999 -9999 -9999 -9999 -9999 -9999 -9999 -9999 -9999 -9999 -9999 -9999 -9999 -9999 -9999 -9999
0.49 0.34 0.47 0.49 0.48 0.42 0.36 0.47 0.43 0.40 0.42 0.36 0.33 0.34 0.44 0.34 0.41 0.43 0.34 0.46 0.48 0.32 0.41 0.31 0.39 0.32 0.30 0.37 0.48 0.48 0.46 0.37 0.43 0.42 0.35 0.32 0.37 0.30 0.46 0.38 0.47 0.35 0.32 0.39 0.37 0.39 0.44 0.33 0.41 0.46 0.33 0.32 0.35 0.32 0.48 0.42 0.49 0.43 0.45 0.49 0.33 0.38 0.32 0.41 0.33 0.37 0.31 0.32 0.49 0.45 0.37 0.47 0.47 0.31 0.37 0.44 0.38 0.31 0.33 0.38 0.49 0.33 0.45 0.38 0.32 0.44 0.32 0.33 0.36 0.33 0.40 0.42 0.43 0.38 0.46 0.49 0.38 0.42 0.32 0.40 0.42 0.40 0.50 0.31 0.37 0.48 0.42 0.40 0.41 0.44 0.49 0.49 0.49 0.37 0.45 0.35 0.39 0.39 0.45 0.46 0.42 0.33 0.44 0.46 0.32 0.41 0.36 0.38 0.37 0.33 0.36 0.42 0.30 0.37 0.42 0.32 0.43 0.31 0.31 0.30 0.49 0.36 0.32 0.34 0.33 0.36 0.44 0.34 0.39 0.39 0.31 0.44 0.46 0.46 0.38 0.48 0.46 0.49 0.45 0.48 0.43 0.40 0.31 0.42 0.37 0.37 0.47 0.43 0.31 0.47 0.33 0.40 0.31 0.33 0.32 0.38 0.49 0.35 0.37 0.35 0.30 0.32 0.40 0.42 0.30 0.33 0.47 0.30 0.48 0.33 0.35 -9999 -9999 -9999 -9999 -9999 -9999 -9999 -9999 -9999 -9999 -9999 -9999 -9999 -9999 -9999 -9999 -9999 -9999 -9999 -9999 -9999 -9999 -9999 -9999
0.38 0.48 0.50 0.50 0.47 0.43 0.48 0.37 0.45 0.31 0.31 0.42 0.37 0.41 0.41 0.46 0.41 0.41 0.35 0.48 0.43 0.47 0.43 0.36 0.40 0.42 0.35 0.49 0.47 0.40 0.48 0.35 0.35 0.49 0.44 0.49 0.50 0.46 0.34 0.46 0.48 0.50 0.42 0.32 0.48 0.40 0.46 0.36 0.33 0.42 0.41 0.47 0.41 0.50 0.36 0.42 0.41 0.39 0.35 0.49 0.42 0.46 0.33 0.46 0.37 0.36 0.44 0.35 0.31 0.49 0.41 0.45 0.39 0.43 0.45 0.36 0.30 0.31 0.47 0.48 0.48 0.41 0.44 0.37 0.40 0.42 0.35 0.42 0.31 0.32 0.37 0.43 0.34 0.47 0.42 0.37 0.43 0.46 0.40 0.36 0.48 0.39 0.41 0.38 0.40 0.44 0.40 0.37 0.36 0.43 0.33 0.49 0.47 0.41 0.47 0.45 0.42 0.43 0.30 0.42 0.36 0.38 0.43 0.38 0.47 0.40 0.40 0.39 0.30 0.35 0.49 0.35 0.35 0.41 0.30 0.31 0.39 0.34 0.37 0.44 0.36 0.48 0.34 0.33 0.31 0.38 0.48 0.46 0.41 0.30 0.44 0.47 0.32 0.34 0.30 0.39 0.42 0.40 0.39 0.39 0.30 0.30 0.33 0.33 0.42 0.35 0.49 0.36 0.48 0.44 0.50 0.40 0.32 0.31 0.49 0.39 0.45 0.43 0.38 0.30 0.40 0.47 0.47 0.34 0.49 0.45 0.38 0.40 0.49 0.31 0.34 -9999 -9999 -9999 -9999 -9999 -9999 -9999 -9999 -9999 -9999 -9999 -9999 -9999 -9999 -9999 -9999 -9999 -9999 -9999 -9999 -9999 -9999 -9999 -9999
0.32 0.47 0.40 0.37 0.35 0.34 0.30 0.37 0.37 0.43 0.42 0.49 0.41 0.38 0.30 0.50 0.48 0.49 0.49 0.48 0.44 0.33 0.41 0.37 0.38 0.38 0.49 0.46 0.31 0.50 0.31 0.33 0.31 0.44 0.34 0.39 0.32 0.31 0.47 0.44 0.47 0.45 0.34 0.44 0.30 0.49 0.41 0.47 0.45 0.38 0.34 0.37 0.46 0.44 0.33 0.47 0.41 0.50 0.32 0.40 0.31 0.33 0.37 0.36 0.46 0.43 0.44 0.37 0.40 0.45 0.30 0.40 0.44 0.44 0.50 0.50 0.33 0.45 0.36 0.42 0.30 0.45 0.34 0.47 0.43 0.47 0.47 0.41 0.32 0.39 0.44 0.37 0.50 0.43 0.38 0.46 0.46 0.46 0.36 0.46 0.46 0.37 0.31 0.40 0.38 0.30 0.50 0.34 0.38 0.40 0.35 0.47 0.33 0.30 0.49 0.42 0.31 0.34 0.38 0.41 0.46 0.31 0.38 0.49 0.40 0.50 0.36 0.40 0.37 0.36 0.39 0.46 0.37 0.42 0.38 0.40 0.47 0.39 0.37 0.42 0.42 0.38 0.39 0.40 0.50 0.40 0.39 0.41 0.36 0.36 0.36 0.40 0.34 0.50 0.43 0.32 0.44 0.37 0.31 0.41 0.44 0.46 0.35 0.34 0.41 0.41 0.43 0.39 0.31 0.39 0.47 0.43 0.37 0.40 0.36 0.39 0.34 0.38 0.36 0.44 0.50 0.45 0.40 0.47 0.36 0.35 0.49 0.44 0.41 0.41 0.34 -9999 -9999 -9999 -9999 -9999 -9999 -9999 -9999 -9999 -9999 -9999 -9999 -9999 -9999 -9999 -9999 -9999 -9999 -9999 -9999 -9999 -9999 -9999 -9999
0.30 0.50 0.42 0.42 0.48 0.31 0.44 0.39 0.49 0.38 0.47 0.42 0.44 0.40 0.37 0.48 0.36 0.36 0.30 0.41 0.44 0.32 0.40 0.43 0.36 0.36 0.36 0.33 0.50 0.39 0.45 0.42 0.42 0.32 0.42 0.32 0.36 0.43 0.47 0.40 0.40 0.43 0.46 0.39 0.46 0.43 0.42 0.35 0.42 0.36 0.42 0.43 0.35 0.40 0.43 0.47 0.32 0.36 0.37 0.48 0.44 0.42 0.38 0.31 0.32 0.49 0.48 0.35 0.47 0.31 0.43 0.44 0.35 0.43 0.48 0.44 0.38 0.35 0.45 0.47 0.50 0.37 0.41 0.46 0.45 0.49 0.41 0.43 0.46 0.40 0.45 0.43 0.48 0.49 0.45 0.50 0.44 0.33 0.35 0.42 0.45 0.39 0.44 0.35 0.38 0.36 0.41 0.37 0.42 0.44 0.37 0.45 0.33 0.40 0.33 0.46 0.35 0.50 0.47 0.34 0.49 0.46 0.31 0.41 0.45 0.43 0.41 0.34 0.32 0.30 0.34 0.43 0.33 0.30 0.39 0.36 0.43 0.36 0.49 0.44 0.39 0.40 0.40 0.31 0.47 0.38 0.38 0.35 0.38 0.34 0.45 0.41 0.42 0.37 0.49 0.33 0.48 0.38 0.35 0.30 0.36 0.39 0.46 0.47 0.42 0.35 0.42 0.34 0.32 0.32 0.49 0.35 0.43 0.30 0.32 0.49 0.41 0.37 0.46 0.41 0.35 0.38 0.39 0.47 0.31 0.36 0.35 0.37 0.49 0.34 0.48 0.38 -9999 -9999 -9999 -9999 -9999 -9999 -9999 -9999 -9999 -9999 -9999 -9999 -9999 -9999 -9999 -9999 -9999 -9999 -9999 -9999 -9999 -9999 -9999
0.31 0.35 0.41 0.40 0.36 0.32 0.31 0.47 0.45 0.31 0.49 0.36 0.39 0.39 0.33 0.35 0.32 0.31 0.41 0.46 0.40 0.45 0.41 0.47 0.48 0.44 0.35 0.34 0.43 0.39 0.45 0.34 0.32 0.33 0.33 0.37 0.45 0.47 0.41 0.47 0.30 0.32 0.50 0.39 0.31 0.40 0.45 0.40 0.33 0.43 0.42 0.36 0.36 0.41 0.33 0.36 0.32 0.46 0.47 0.33 0.43 0.34 0.50 0.35 0.38 0.39 0.31 0.34 0.46 0.48 0.50 0.32 0.31 0.45 0.45 0.50 0.38 0.48 0.30 0.35 0.47 0.45 0.46 0.31 0.37 0.37 0.31 0.39 0.34 0.39 0.39 0.30 0.36 0.34 0.44 0.36 0.44 0.37 0.48 0.38 0.30 0.42 0.48 0.31 0.40 0.47 0.47 0.33 0.40 0.38 0.32 0.35 0.34 0.44 0.31 0.34 0.37 0.36 0.40 0.38 0.45 0.39 0.43 0.36 0.38 0.45 0.38 0.37 0.31 0.36 0.38 0.49 0.37 0.45 0.30 0.35 0.34 0.34 0.32 0.39 0.45 0.41 0.41 0.44 0.34 0.47 0.38 0.44 0.41 0.37 0.47 0.40 0.38 0.49 0.41 0.32 0.48 0.39 0.48 0.48 0.37 0.49 0.37 0.43 0.46 0.35 0.36 0.30 0.42 0.42 0.35 0.48 0.36 0.49 0.40 0.41 0.46 0.37 0.39 0.34 0.34 0.36 0.33 0.50 0.39 0.43 0.46 0.41 0.43 0.47 0.44 0.40 -9999 -9999 -9999 -9999 -9999 -9999 -9999 -9999 -9999 -9999 -9999 -9999 -9999 -9999 -9999 -9999 -9999 -9999 -9999 -9999 -9999 -9999 -9999
0.32 0.48 0.47 0.49 0.50 0.41 0.40 0.41 0.31 0.36 0.36 0.33 0.38 0.31 0.48 0.46 0.35 0.44 0.35 0.35 0.34 0.46 0.47 0.41 0.33 0.45 0.42 0.44 0.33 0.33 0.41 0.49 0.36 0.36 0.45 0.32 0.45 0.36 0.48 0.37 0.36 0.48 0.49 0.49 0.31 0.46 0.33 0.31 0.43 0.38 0.40 0.38 0.40 0.47 0.39 0.38 0.47 0.46 0.44 0.44 0.44 0.45 0.35 0.42 0.38 0.30 0.32 0.30 0.39 0.32 0.31 0.48 0.39 0.43 0.30 0.41 0.35 0.43 0.40 0.46 0.39 0.44 0.49 0.43 0.30 0.43 0.32 0.32 0.50 0.48 0.34 0.42 0.47 0.41 0.35 0.35 0.50 0.50 0.37 0.46 0.47 0.36 0.48 0.42 0.42 0.45 0.34 0.38 0.43 0.46 0.47 0.48 0.34 0.31 0.48 0.44 0.31 0.41 0.48 0.43 0.37 0.37 0.32 0.31 0.48 0.37 0.45 0.43 0.32 0.41 0.31 0.40 0.36 0.44 0.43 0.50 0.46 0.31 0.46 0.33 0.32 0.41 0.40 0.38 0.46 0.43 0.47 0.31 0.32 0.33 0.45 0.38 0.40 0.40 0.41 0.47 0.36 0.49 0.40 0.35 0.45 0.32 0.42 0.30 0.39 0.41 0.34 0.41 0.41 0.49 0.45 0.42 0.38 0.39 0.44 0.35 0.31 0.33 0.33 0.39 0.41 0.34 0.50 0.46 0.44 0.31 0.43 0.38 0.31 0.47 0.39 0.32 -9999 -9999 -9999 -9999 -9999 -9999 -9999 -9999 -9999 -9999 -9999 -9999 -9999 -9999 -9999 -9999 -9999 -9999 -9999 -9999 -9999 -9999 -9999
0.50 0.37 0.33 0.49 0.39 0.43 0.32 0.34 0.42 0.40 0.47 0.43 0.50 0.39 0.42 0.46 0.48 0.37 0.36 0.35 0.46 0.45 0.45 0.42 0.48 0.41 0.49 0.33 0.46 0.31 0.41 0.41 0.48 0.43 0.49 0.33 0.35 0.47 0.42 0.34 0.43 0.34 0.45 0.49 0.46 0.48 0.44 0.41 0.30 0.32 0.37 0.43 0.32 0.40 0.44 0.47 0.49 0.47 0.43 0.36 0.47 0.38 0.42 0.41 0.30 0.31 0.50 0.36 0.47 0.39 0.49 0.37 0.41 0.35 0.32 0.49 0.41 0.46 0.44 0.38 0.48 0.40 0.30 0.34 0.46 0.42 0.37 0.33 0.32 0.48 0.44 0.48 0.36 0.32 0.37 0.41 0.45 0.49 0.31 0.47 0.50 0.46 0.41 0.30 0.41 0.46 0.30 0.31 0.48 0.37 0.41 0.39 0.42 0.30 0.39 0.37 0.48 0.31 0.39 0.49 0.38 0.48 0.37 0.46 0.38 0.48 0.48 0.39 0.40 0.49 0.46 0.42 0.49 0.34 0.33 0.44 0.49 0.41 0.33 0.38 0.36 0.47 0.30 0.30 0.48 0.45 0.37 0.30 0.34 0.45 0.40 0.38 0.43 0.39 0.46 0.36 0.39 0.34 0.44 0.36 0.36 0.43 0.35 0.39 0.39 0.42 0.36 0.40 0.38 0.45 0.40 0.32 0.45 0.34 0.50 0.41 0.36 0.35 0.31 0.43 0.42 0.35 0.36 0.40 0.32 0.38 0.43 0.35 0.48 0.37 0.32 0.40 -9999 -9999 -9999 -9999 -9999 -9999 -9999 -9999 -9999 -9999 -9999 -9999 -9999 -9999 -9999 -9999 -9999 -9999 -9999 -9999 -9999 -9999 -9999
0.37 0.47 0.42 0.35 0.47 0.31 0.46 0.39 0.37 0.39 0.43 0.36 0.37 0.41 0.40 0.35 0.40 0.40 0.42 0.43 0.35 0.47 0.48 0.33 0.43 0.46 0.47 0.45 0.36 0.34 0.44 0.35 0.31 0.31 0.32 0.42 0.30 0.32 0.48 0.38 0.33 0.34 0.31 0.31 0.44 0.39 0.45 0.49 0.45 0.33 0.44 0.31 0.40 0.47 0.50 0.45 0.48 0.43 0.50 0.45 0.39 0.38 0.39 0.38 0.32 0.49 0.48 0.39 0.31 0.48 0.48 0.45 0.40 0.49 0.41 0.43 0.34 0.45 0.41 0.47 0.36 0.44 0.33 0.31 0.45 0.49 0.44 0.45 0.37 0.36 0.43 0.44 0.43 0.39 0.49 0.45 0.35 0.46 0.48 0.38 0.50 0.40 0.43 0.31 0.33 0.46 0.48 0.40 0.36 0.37 0.40 0.44 0.40 0.32 0.30 0.44 0.47 0.31 0.30 0.42 0.43 0.40 0.41 0.47 0.49 0.35 0.40 0.35 0.33 0.43 0.37 0.30 0.41 0.38 0.37 0.33 0.45 0.31 0.48 0.41 0.35 0.49 0.31 0.40 0.36 0.30 0.35 0.48 0.37 0.43 0.35 0.35 0.32 0.49 0.49 0.36 0.50 0.33 0.46 0.37 0.35 0.40 0.45 0.46 0.50 0.31 0.45 0.48 0.40 0.40 0.43 0.35 0.39 0.37 0.31 0.49 0.46 0.38 0.44 0.34 0.40 0.36 0.37 0.49 0.49 0.49 0.33 0.44 0.41 0.42 0.46 0.37 -9999 -9999 -9999 -9999 -9999 -9999 -9999 -9999 -9999 -9999 -9999 -9999 -9999 -9999 -9999 -9999 -9999 -9999 -9999 -9999 -9999 -9999 -9999
0.38 0.44 0.47 0.35 0.36 0.32 0.32 0.33 0.43 0.47 0.33 0.45 0.37 0.47 0.33 0.47 0.49 0.31 0.47 0.35 0.32 0.36 0.35 0.40 0.35 0.42 0.40 0.50 0.43 0.37 0.40 0.37 0.46 0.30 0.47 0.44 0.35 0.33 0.42 0.44 0.47 0.47 0.46 0.48 0.50 0.34 0.36 0.48 0.33 0.39 0.46 0.49 0.32 0.49 0.30 0.38 0.48 0.48 0.48 0.39 0.43 0.43 0.37 0.42 0.47 0.47 0.38 0.37 0.37 0.43 0.38 0.39 0.34 0.50 0.45 0.50 0.32 0.47 0.45 0.30 0.37 0.41 0.36 0.45 0.40 0.32 0.44 0.43 0.48 0.33 0.39 0.32 0.42 0.32 0.48 0.30 0.33 0.45 0.37 0.34 0.31 0.47 0.44 0.31 0.41 0.38 0.42 0.36 0.36 0.33 0.46 0.48 0.49 0.32 0.31 0.49 0.30 0.46 0.39 0.39 0.36 0.39 0.41 0.37 0.48 0.44 0.42 0.48 0.34 0.38 0.34 0.48 0.48 0.38 0.47 0.31 0.35 0.33 0.45 0.31 0.37 0.31 0.47 0.31 0.50 0.39 0.33 0.37 0.36 0.39 0.45 0.45 0.39 0.39 0.36 0.36 0.49 0.43 0.48 0.50 0.47 0.34 0.33 0.36 0.32 0.35 0.31 0.39 0.48 0.49 0.36 0.47 0.43 0.49 0.30 0.36 0.35 0.34 0.34 0.31 0.37 0.40 0.35 0.32 0.39 0.37 0.47 0.43 0.43 0.42 0.40 0.32 -9999 -9999 -9999 -9999 -9999 -9999 -9999 -9999 -9999 -9999 -9999 -9999 -9999 -9999 -9999 -9999 -9999 -9999 -9999 -9999 -9999 -9999 -9999
0.47 0.48 0.47 0.35 0.50 0.45 0.38 0.49 0.39 0.41 0.40 0.46 0.49 0.50 0.31 0.36 0.31 0.47 0.49 0.40 0.34 0.44 0.43 0.41 0.48 0.33 0.33 0.47 0.32 0.41 0.48 0.48 0.44 0.40 0.34 0.34 0.32 0.41 0.41 0.35 0.31 0.31 0.41 0.39 0.40 0.43 0.37 0.46 0.31 0.36 0.42 0.48 0.43 0.33 0.37 0.44 0.46 0.44 0.36 0.37 0.39 0.35 0.43 0.43 0.40 0.32 0.31 0.40 0.34 0.48 0.41 0.39 0.41 0.42 0.46 0.44 0.34 0.38 0.41 0.47 0.35 0.44 0.34 0.40 0.36 0.37 0.41 0.44 0.46 0.42 0.42 0.36 0.48 0.30 0.47 0.33 0.47 0.30 0.47 0.38 0.41 0.48 0.44 0.43 0.31 0.31 0.33 0.33 0.33 0.37 0.35 0.34 0.45 0.38 0.47 0.48 0.35 0.50 0.31 0.42 0.39 0.32 0.34 0.34 0.48 0.36 0.49 0.44 0.32 0.37 0.34 0.45 0.33 0.30 0.37 0.34 0.38 0.42 0.42 0.49 0.50 0.40 0.48 0.38 0.42 0.40 0.32 0.30 0.40 0.45 0.47 0.38 0.46 0.31 0.45 0.46 0.37 0.31 0.39 0.39 0.45 0.43 0.49 0.45 0.46 0.34 0.48 0.37 0.45 0.49 0.31 0.46 0.31 0.41 0.34 0.34 0.33 0.41 0.38 0.44 0.31 0.47 0.33 0.37 0.42 0.38 0.36 0.48 0.33 0.50 0.46 0.48 0.43 -9999 -9999 -9999 -9999 -9999 -9999 -9999 -9999 -9999 -9999 -9999 -9999 -9999 -9999 -9999 -9999 -9999 -9999 -9999 -9999 -9999 -9999
0.41 0.41 0.47 0.33 0.35 0.50 0.46 0.47 0.41 0.39 0.32 0.47 0.39 0.34 0.39 0.42 0.42 0.37 0.40 0.45 0.42 0.47 0.47 0.39 0.43 0.47 0.31 0.38 0.37 0.35 0.33 0.40 0.50 0.45 0.49 0.46 0.43 0.35 0.37 0.44 0.32 0.44 0.47 0.44 0.50 0.44 0.49 0.46 0.40 0.32 0.46 0.36 0.49 0.33 0.48 0.49 0.38 0.31 0.38 0.49 0.38 0.32 0.47 0.47 0.47 0.35 0.48 0.41 0.42 0.48 0.49 0.31 0.41 0.33 0.45 0.49 0.47 0.48 0.36 0.40 0.32 0.35 0.33 0.39 0.48 0.40 0.37 0.44 0.34 0.33 0.37 0.47 0.48 0.49 0.41 0.44 0.44 0.32 0.42 0.43 0.44 0.38 0.38 0.40 0.32 0.50 0.41 0.38 0.33 0.45 0.45 0.47 0.40 0.43 0.38 0.47 0.46 0.39 0.47 0.42 0.31 0.46 0.47 0.39 0.50 0.45 0.44 0.31 0.42 0.33 0.50 0.31 0.35 0.45 0.33 0.42 0.34 0.33 0.40 0.47 0.40 0.43 0.39 0.40 0.46 0.46 0.44 0.43 0.49 0.41 0.33 0.30 0.35 0.42 0.37 0.32 0.39 0.41 0.34 0.34 0.49 0.34 0.43 0.40 0.32 0.36 0.36 0.33 0.41 0.41 0.32 0.36 0.43 0.35 0.34 0.40 0.47 0.50 0.47 0.37 0.45 0.43 0.32 0.45 0.44 0.38 0.32 0.49 0.37 0.32 0.30 0.46 0.37 -9999 -9999 -9999 -9999 -9999 -9999 -9999 -9999 -9999 -9999 -9999 -9999 -9999 -9999 -9999 -9999 -9999 -9999 -9999 -9999 -9999 -9999
0.45 0.40 0.49 0.33 0.48 0.32 0.38 0.43 0.50 0.46 0.43 0.39 0.35 0.36 0.34 0.45 0.31 0.48 0.38 0.37 0.47 0.39 0.36 0.39 0.48 0.39 0.45 0.43 0.40 0.38 0.45 0.39 0.35 0.35 0.46 0.46 0.44 0.30 0.44 0.39 0.32 0.38 0.40 0.50 0.32 0.36 0.42 0.35 0.48 0.36 0.45 0.34 0.49 0.32 0.32 0.30 0.38 0.41 0.43 0.46 0.44 0.38 0.34 0.48 0.44 0.43 0.32 0.44 0.36 0.33 0.46 0.35 0.41 0.38 0.37 0.42 0.40 0.48 0.32 0.48 0.30 0.42 0.36 0.42 0.35 0.42 0.47 0.48 0.33 0.40 0.32 0.46 0.46 0.31 0.40 0.39 0.43 0.35 0.32 0.32 0.35 0.47 0.41 0.31 0.47 0.43 0.47 0.43 0.50 0.34 0.35 0.45 0.48 0.36 0.45 0.36 0.34 0.34 0.33 0.38 0.38 0.44 0.48 0.30 0.50 0.30 0.44 0.30 0.32 0.37 0.43 0.43 0.46 0.50 0.33 0.50 0.39 0.37 0.43 0.31 0.32 0.42 0.34 0.48 0.39 0.46 0.47 0.40 0.35 0.37 0.33 0.39 0.47 0.38 0.45 0.49 0.49 0.39 0.42 0.44 0.39 0.35 0.36 0.34 0.43 0.31 0.41 0.43 0.48 0.47 0.38 0.36 0.30 0.40 0.49 0.44 0.43 0.38 0.44 0.41 0.40 0.48 0.37 0.47 0.36 0.44 0.35 0.44 0.37 0.37 0.35 0.32 0.44 -9999 -9999 -9999 -9999 -9999 -9999 -9999 -9999 -9999 -9999 -9999 -9999 -9999 -9999 -9999 -9999 -9999 -9999 -9999 -9999 -9999 -9999
0.31 0.42 0.37 0.30 0.48 0.31 0.33 0.44 0.43 0.35 0.37 0.36 0.37 0.38 0.42 0.41 0.39 0.31 0.48 0.42 0.47 0.42 0.43 0.37 0.48 0.50 0.36 0.30 0.34 0.37 0.37 0.47 0.35 0.46 0.39 0.39 0.40 0.44 0.47 0.46 0.42 0.44 0.48 0.49 0.50 0.45 0.44 0.34 0.34 0.40 0.30 0.45 0.33 0.40 0.37 0.38 0.48 0.43 0.42 0.44 0.33 0.46 0.42 0.42 0.49 0.42 0.47 0.31 0.37 0.35 0.44 0.42 0.42 0.49 0.36 0.31 0.32 0.40 0.45 0.34 0.47 0.35 0.39 0.33 0.39 0.49 0.38 0.39 0.44 0.38 0.49 0.36 0.31 0.35 0.32 0.39 0.35 0.33 0.42 0.42 0.41 0.42 0.45 0.33 0.31 0.46 0.40 0.48 0.39 0.40 0.38 0.39 0.43 0.30 0.35 0.41 0.37 0.32 0.43 0.36 0.40 0.41 0.33 0.44 0.32 0.44 0.40 0.42 0.36 0.38 0.49 0.49 0.35 0.34 0.36 0.33 0.46 0.43 0.33 0.32 0.39 0.49 0.50 0.35 0.50 0.34 0.36 0.39 0.36 0.37 0.47 0.49 0.50 0.38 0.42 0.31 0.37 0.46 0.41 0.45 0.34 0.34 0.44 0.31 0.47 0.38 0.49 0.45 0.44 0.33 0.31 0.42 0.37 0.45 0.47 0.40 0.45 0.40 0.32 0.47 0.48 0.45 0.41 0.39 0.37 0.42 0.35 0.49 0.47 0.31 0.45 0.36 0.38 -9999 -9999 -9999 -9999 -9999 -9999 -9999 -9999 -9999 -9999 -9999 -9999 -9999 -9999 -9999 -9999 -9999 -9999 -9999 -9999 -9999 -9999
0.31 0.49 0.41 0.42 0.33 0.44 0.45 0.34 0.34 0.47 0.43 0.31 0.45 0.38 0.39 0.47 0.46 0.43 0.45 0.44 0.45 0.31 0.42 0.39 0.45 0.32 0.31 0.32 0.31 0.39 0.37 0.33 0.44 0.49 0.44 0.42 0.35 0.46 0.43 0.39 0.45 0.49 0.33 0.36 0.30 0.48 0.41 0.48 0.39 0.50 0.48 0.36 0.34 0.40 0.38 0.38 0.49 0.37 0.35 0.48 0.39 0.44 0.43 0.36 0.48 0.34 0.49 0.32 0.42 0.34 0.36 0.35 0.30 0.41 0.35 0.35 0.31 0.43 0.36 0.38 0.38 0.41 0.45 0.39 0.49 0.35 0.39 0.33 0.36 0.33 0.37 0.41 0.46 0.36 0.49 0.48 0.46 0.38 0.32 0.41 0.33 0.34 0.45 0.48 0.32 0.47 0.46 0.43 0.35 0.40 0.36 0.48 0.34 0.35 0.46 0.30 0.35 0.49 0.42 0.46 0.34 0.47 0.44 0.35 0.45 0.45 0.44 0.34 0.42 0.46 0.45 0.37 0.37 0.31 0.39 0.32 0.32 0.38 0.43 0.49 0.46 0.41 0.45 0.47 0.36 0.44 0.36 0.30 0.46 0.31 0.49 0.49 0.39 0.30 0.45 0.47 0.38 0.41 0.37 0.40 0.41 0.35 0.41 0.40 0.49 0.31 0.38 0.36 0.41 0.31 0.38 0.43 0.49 0.35 0.33 0.40 0.42 0.47 0.40 0.38 0.43 0.40 0.39 0.35 0.35 0.48 0.36 0.42 0.39 0.37 0.42 0.37 0.42 -9999 -9999 -9999 -9999 -9999 -9999 -9999 -9999 -9999 -9999 -9999 -9999 -9999 -9999 -9999 -9999 -9999 -9999 -9999 -9999 -9999 -9999
0.33 0.40 0.42 0.49 0.44 0.49 0.39 0.44 0.46 0.50 0.43 0.49 0.45 0.33 0.41 0.44 0.50 0.45 0.48 0.31 0.35 0.38 0.47 0.43 0.47 0.44 0.34 0.48 0.38 0.48 0.38 0.46 0.48 0.38 0.38 0.35 0.45 0.45 0.45 0.31 0.30 0.41 0.31 0.44 0.35 0.43 0.44 0.32 0.47 0.30 0.39 0.33 0.47 0.31 0.46 0.49 0.32 0.32 0.35 0.47 0.44 0.38 0.47 0.43 0.49 0.38 0.45 0.39 0.34 0.45 0.41 0.32 0.41 0.44 0.35 0.35 0.41 0.37 0.49 0.32 0.46 0.49 0.33 0.38 0.44 0.41 0.46 0.47 0.50 0.47 0.44 0.47 0.42 0.37 0.35 0.31 0.33 0.37 0.40 0.42 0.45 0.50 0.48 0.47 0.48 0.42 0.40 0.37 0.46 0.45 0.31 0.37 0.37 0.32 0.49 0.48 0.37 0.35 0.34 0.46 0.47 0.42 0.38 0.49 0.38 0.36 0.32 0.47 0.31 0.40 0.36 0.37 0.43 0.32 0.30 0.43 0.42 0.45 0.38 0.39 0.32 0.35 0.41 0.42 0.43 0.40 0.42 0.40 0.47 0.35 0.50 0.44 0.35 0.46 0.42 0.40 0.50 0.32 0.37 0.37 0.50 0.48 0.47 0.39 0.33 0.44 0.42 0.43 0.38 0.41 0.50 0.44 0.43 0.45 0.37 0.45 0.39 0.42 0.47 0.43 0.45 0.43 0.49 0.44 0.48 0.34 0.34 0.48 0.38 0.34 0.34 0.46 0.50 -9999 -9999 -9999 -9999 -9999 -9999 -9999 -9999 -9999 -9999 -9999 -9999 -9999 -9999 -9999 -9999 -9999 -9999 -9999 -9999 -9999 -9999
0.40 0.34 0.48 0.42 0.45 0.47 0.34 0.39 0.43 0.36 0.42 0.37 0.42 0.34 0.30 0.32 0.35 0.36 0.31 0.35 0.44 0.47 0.49 0.37 0.37 0.41 0.46 0.42 0.45 0.48 0.38 0.34 0.34 0.32 0.39 0.38 0.35 0.35 0.37 0.33 0.42 0.31 0.39 0.35 0.30 0.40 0.46 0.46 0.49 0.39 0.42 0.40 0.47 0.35 0.33 0.42 0.44 0.38 0.41 0.45 0.44 0.36 0.45 0.47 0.36 0.40 0.31 0.40 0.37 0.50 0.40 0.35 0.41 0.36 0.49 0.48 0.32 0.31 0.40 0.46 0.34 0.49 0.46 0.37 0.46 0.42 0.36 0.34 0.42 0.31 0.33 0.45 0.45 0.36 0.47 0.47 0.43 0.47 0.31 0.49 0.30 0.38 0.32 0.44 0.47 0.47 0.39 0.44 0.45 0.31 0.44 0.46 0.38 0.50 0.38 0.42 0.41 0.32 0.35 0.31 0.39 0.40 0.36 0.32 0.41 0.35 0.43 0.40 0.36 0.43 0.48 0.43 0.36 0.38 0.49 0.48 0.31 0.44 0.35 0.35 0.44 0.37 0.43 0.31 0.46 0.41 0.41 0.46 0.47 0.35 0.44 0.49 0.35 0.49 0.49 0.30 0.31 0.43 0.31 0.46 0.45 0.35 0.45 0.46 0.35 0.42 0.34 0.31 0.48 0.42 0.47 0.48 0.33 0.48 0.34 0.41 0.33 0.35 0.38 0.39 0.42 0.50 0.38 0.39 0.40 0.49 0.40 0.42 0.31 0.45 0.45 0.33 0.30 0.43 -9999 -9999 -9999 -9999 -9999 -9999 -9999 -9999 -9999 -9999 -9999 -9999 -9999 -9999 -9999 -9999 -9999 -9999 -9999 -9999 -9999
0.47 0.44 0.41 0.48 0.31 0.45 0.31 0.30 0.39 0.39 0.34 0.40 0.46 0.31 0.33 0.40 0.37 0.50 0.34 0.48 0.36 0.36 0.48 0.48 0.40 0.45 0.42 0.33 0.38 0.31 0.46 0.33 0.49 0.49 0.45 0.31 0.49 0.41 0.42 0.35 0.42 0.45 0.49 0.47 0.38 0.42 0.46 0.46 0.33 0.47 0.45 0.43 0.36 0.48 0.35 0.40 0.48 0.36 0.39 0.46 0.33 0.39 0.30 0.43 0.35 0.41 0.40 0.47 0.43 0.44 0.39 0.46 0.43 0.50 0.39 0.33 0.33 0.38 0.48 0.38 0.47 0.34 0.47 0.36 0.33 0.48 0.39 0.45 0.42 0.38 0.40 0.33 0.36 0.48 0.48 0.46 0.47 0.47 0.32 0.35 0.36 0.36 0.36 0.41 0.30 0.45 0.36 0.49 0.37 0.32 0.47 0.40 0.42 0.40 0.45 0.45 0.40 0.34 0.37 0.32 0.32 0.34 0.42 0.43 0.44 0.50 0.43 0.45 0.42 0.36 0.46 0.41 0.37 0.33 0.36 0.41 0.32 0.34 0.33 0.36 0.48 0.46 0.37 0.38 0.48 0.32 0.49 0.49 0.39 0.37 0.39 0.47 0.43 0.41 0.38 0.39 0.38 0.36 0.37 0.46 0.44 0.31 0.44 0.37 0.30 0.37 0.35 0.45 0.33 0.40 0.36 0.47 0.42 0.49 0.32 0.36 0.38 0.35 0.44 0.39 0.42 0.46 0.41 0.39 0.47 0.31 0.31 0.39 0.46 0.38 0.31 0.45 0.41 0.40 -9999 -9999 -9999 -9999 -9999 -9999 -9999 -9999 -9999 -9999 -9999 -9999 -9999 -9999 -9999 -9999 -9999 -9999 -9999 -9999 -9999
0.35 0.33 0.34 0.41 0.37 0.42 0.30 0.33 0.31 0.49 0.40 0.49 0.38 0.49 0.42 0.32 0.42 0.34 0.49 0.49 0.37 0.36 0.44 0.47 0.50 0.39 0.39 0.43 0.43 0.45 0.31 0.37 0.41 0.46 0.46 0.40 0.48 0.45 0.34 0.34 0.33 0.39 0.46 0.42 0.38 0.43 0.50 0.48 0.38 0.32 0.45 0.31 0.49 0.43 0.48 0.46 0.39 0.33 0.38 0.35 0.49 0.40 0.49 0.36 0.44 0.35 0.49 0.39 0.38 0.35 0.39 0.48 0.35 0.45 0.40 0.46 0.38 0.39 0.37 0.35 0.32 0.46 0.44 0.46 0.39 0.46 0.34 0.42 0.40 0.31 0.38 0.41 0.44 0.36 0.46 0.45 0.42 0.33 0.47 0.47 0.44 0.39 0.42 0.31 0.47 0.32 0.50 0.46 0.42 0.47 0.42 0.47 0.47 0.46 0.34 0.45 0.48 0.35 0.32 0.37 0.39 0.48 0.39 0.43 0.43 0.46 0.32 0.47 0.37 0.48 0.36 0.36 0.39 0.30 0.49 0.42 0.43 0.32 0.32 0.44 0.49 0.50 0.50 0.31 0.50 0.35 0.44 0.33 0.42 0.31 0.34 0.39 0.36 0.33 0.38 0.42 0.33 0.34 0.41 0.43 0.37 0.40 0.33 0.38 0.36 0.36 0.36 0.41 0.46 0.45 0.43 0.41 0.33 0.35 0.43 0.40 0.42 0.30 0.46 0.37 0.46 0.30 0.50 0.48 0.48 0.44 0.34 0.46 0.37 0.36 0.35 0.38 0.39 0.34 -9999 -9999 -9999 -9999 -9999 -9999 -9999 -9999 -9999 -9999 -9999 -9999 -9999 -9999 -9999 -9999 -9999 -9999 -9999 -9999 -9999
0.32 0.34 0.47 0.47 0.40 0.50 0.37 0.36 0.32 0.36 0.31 0.30 0.31 0.33 0.44 0.38 0.40 0.49 0.35 0.42 0.42 0.46 0.47 0.36 0.30 0.45 0.41 0.32 0.36 0.41 0.40 0.43 0.47 0.41 0.42 0.50 0.44 0.37 0.36 0.42 0.42 0.49 0.35 0.43 0.34 0.46 0.32 0.34 0.34 0.42 0.46 0.38 0.30 0.49 0.44 0.40 0.48 0.33 0.44 0.33 0.30 0.46 0.41 0.32 0.43 0.32 0.44 0.46 0.44 0.49 0.31 0.33 0.47 0.45 0.32 0.42 0.46 0.47 0.48 0.44 0.32 0.37 0.45 0.36 0.30 0.30 0.31 0.41 0.42 0.49 0.41 0.33 0.30 0.34 0.40 0.47 0.30 0.43 0.46 0.32 0.34 0.36 0.42 0.46 0.39 0.46 0.40 0.35 0.43 0.38 0.42 0.31 0.35 0.33 0.35 0.41 0.42 0.30 0.31 0.47 0.49 0.36 0.35 0.37 0.36 0.45 0.46 0.41 0.31 0.37 0.36 0.40 0.41 0.49 0.37 0.31 0.46 0.46 0.45 0.37 0.46 0.37 0.32 0.32 0.39 0.34 0.42 0.34 0.48 0.39 0.48 0.43 0.35 0.41 0.44 0.36 0.34 0.33 0.46 0.49 0.32 0.43 0.33 0.32 0.43 0.39 0.40 0.38 0.39 0.35 0.43 0.49 0.37 0.46 0.32 0.48 0.48 0.35 0.40 0.46 0.48 0.35 0.41 0.50 0.44 0.30 0.40 0.40 0.49 0.38 0.41 0.46 0.30 0.32 -9999 -9999 -9999 -9999 -9999 -9999 -9999 -9999 -9999 -9999 -9999 -9999 -9999 -9999 -9999 -9999 -9999 -9999 -9999 -9999 -9999
0.42 0.36 0.44 0.30 0.44 0.30 0.37 0.44 0.40 0.49 0.47 0.33 0.45 0.48 0.45 0.45 0.35 0.32 0.34 0.33 0.42 0.37 0.41 0.48 0.37 0.48 0.39 0.42 0.43 0.50 0.38 0.47 0.39 0.39 0.38 0.36 0.44 0.44 0.37 0.33 0.48 0.39 0.41 0.49 0.36 0.37 0.35 0.33 0.49 0.42 0.30 0.33 0.35 0.42 0.41 0.34 0.44 0.46 0.46 0.33 0.32 0.46 0.33 0.47 0.42 0.34 0.42 0.46 0.32 0.49 0.50 0.48 0.37 0.34 0.31 0.35 0.35 0.36 0.37 0.36 0.34 0.36 0.31 0.44 0.33 0.36 0.36 0.38 0.36 0.32 0.43 0.45 0.32 0.41 0.45 0.49 0.35 0.46 0.41 0.37 0.31 0.47 0.33 0.43 0.32 0.33 0.36 0.36 0.44 0.33 0.34 0.42 0.35 0.41 0.43 0.32 0.43 0.47 0.34 0.32 0.46 0.42 0.42 0.43 0.45 0.40 0.36 0.47 0.38 0.50 0.49 0.37 0.35 0.38 0.49 0.38 0.36 0.38 0.41 0.45 0.42 0.32 0.34 0.36 0.44 0.35 0.47 0.38 0.45 0.31 0.48 0.45 0.47 0.48 0.38 0.31 0.40 0.38 0.46 0.46 0.33 0.45 0.33 0.30 0.47 0.49 0.30 0.40 0.31 0.40 0.46 0.42 0.39 0.39 0.36 0.33 0.37 0.32 0.31 0.42 0.45 0.44 0.34 0.46 0.36 0.36 0.44 0.44 0.35 0.46 0.37 0.42 0.33 0.33 -9999 -9999 -9999 -9999 -9999 -9999 -9999 -9999 -9999 -9999 -9999 -9999 -9999 -9999 -9999 -9999 -9999 -9999 -9999 -9999 -9999
0.44 0.31 0.49 0.32 0.38 0.34 0.44 0.36 0.40 0.30 0.38 0.46 0.40 0.42 0.44 0.40 0.40 0.39 0.38 0.31 0.36 0.48 0.31 0.34 0.33 0.41 0.47 0.48 0.31 0.34 0.43 0.32 0.45 0.44 0.49 0.36 0.48 0.30 0.41 0.45 0.36 0.45 0.30 0.44 0.30 0.48 0.49 0.32 0.31 0.48 0.33 0.48 0.31 0.44 0.43 0.45 0.36 0.46 0.38 0.39 0.39 0.34 0.47 0.34 0.46 0.47 0.43 0.35 0.36 0.37 0.33 0.31 0.30 0.36 0.44 0.40 0.49 0.49 0.45 0.38 0.46 0.43 0.37 0.34 0.42 0.33 0.50 0.34 0.36 0.44 0.48 0.39 0.38 0.48 0.40 0.40 0.32 0.46 0.47 0.34 0.42 0.32 0.38 0.43 0.36 0.35 0.38 0.36 0.40 0.40 0.44 0.42 0.36 0.31 0.34 0.34 0.48 0.47 0.50 0.49 0.36 0.37 0.40 0.34 0.39 0.44 0.39 0.47 0.40 0.35 0.49 0.30 0.45 0.33 0.41 0.48 0.36 0.34 0.34 0.38 0.37 0.47 0.46 0.32 0.44 0.39 0.35 0.30 0.39 0.47 0.49 0.31 0.36 0.49 0.37 0.34 0.43 0.40 0.35 0.50 0.46 0.42 0.38 0.33 0.38 0.47 0.36 0.48 0.38 0.45 0.47 0.47 0.39 0.33 0.48 0.45 0.33 0.38 0.36 0.46 0.38 0.48 0.36 0.46 0.48 0.44 0.32 0.32 0.33 0.33 0.38 0.40 0.37 0.50 -9999 -9999 -9999 -9999 -9999 -9999 -9999 -9999 -9999 -9999 -9999 -9999 -9999 -9999 -9999 -9999 -9999 -9999 -9999 -9999 -9999
0.36 0.48 0.43 0.42 0.40 0.48 0.39 0.48 0.33 0.39 0.39 0.36 0.37 0.48 0.42 0.41 0.39 0.41 0.36 0.32 0.49 0.39 0.31 0.37 0.39 0.49 0.38 0.38 0.30 0.38 0.47 0.34 0.33 0.36 0.47 0.44 0.31 0.34 0.39 0.31 0.35 0.36 0.44 0.44 0.47 0.45 0.38 0.32 0.41 0.48 0.46 0.32 0.43 0.34 0.35 0.32 0.46 0.43 0.42 0.35 0.36 0.32 0.33 0.49 0.44 0.43 0.41 0.39 0.43 0.46 0.38 0.32 0.37 0.49 0.32 0.48 0.38 0.40 0.42 0.37 0.49 0.31 0.33 0.31 0.40 0.50 0.38 0.32 0.42 0.40 0.41 0.48 0.30 0.39 0.42 0.46 0.46 0.36 0.37 0.33 0.38 0.33 0.44 0.41 0.50 0.31 0.46 0.49 0.45 0.41 0.40 0.39 0.39 0.41 0.35 0.37 0.35 0.50 0.50 0.48 0.33 0.42 0.38 0.46 0.35 0.44 0.47 0.49 0.37 0.39 0.40 0.38 0.30 0.43 0.43 0.43 0.49 0.42 0.38 0.37 0.40 0.34 0.35 0.44 0.46 0.42 0.39 0.42 0.48 0.33 0.37 0.48 0.38 0.41 0.49 0.39 0.43 0.47 0.35 0.46 0.38 0.48 0.35 0.41 0.42 0.40 0.45 0.35 0.32 0.31 0.49 0.31 0.44 0.35 0.33 0.45 0.43 0.35 0.36 0.32 0.35 0.39 0.46 0.48 0.46 0.36 0.45 0.44 0.30 0.46 0.50 0.46 0.33 0.35 -9999 -9999 -9999 -9999 -9999 -9999 -9999 -9999 -9999 -9999 -9999 -9999 -9999 -9999 -9999 -9999 -9999 -9999 -9999 -9999 -9999
0.32 0.38 0.32 0.46 0.41 0.40 0.35 0.38 0.39 0.41 0.40 0.50 0.47 0.37 0.46 0.32 0.50 0.33 0.44 0.49 0.35 0.33 0.41 0.37 0.50 0.41 0.49 0.46 0.33 0.39 0.39 0.42 0.32 0.35 0.34 0.50 0.31 0.45 0.47 0.40 0.37 0.46 0.39 0.34 0.43 0.42 0.48 0.33 0.46 0.49 0.46 0.44 0.47 0.40 0.31 0.34 0.35 0.38 0.32 0.35 0.41 0.49 0.31 0.35 0.47 0.45 0.43 0.48 0.32 0.43 0.42 0.35 0.41 0.45 0.37 0.35 0.30 0.36 0.32 0.33 0.35 0.47 0.41 0.45 0.40 0.31 0.36 0.38 0.37 0.46 0.31 0.40 0.48 0.43 0.31 0.30 0.37 0.49 0.33 0.31 0.42 0.33 0.44 0.42 0.33 0.44 0.38 0.35 0.34 0.44 0.38 0.35 0.40 0.48 0.38 0.49 0.45 0.38 0.31 0.40 0.34 0.36 0.49 0.46 0.41 0.32 0.38 0.48 0.38 0.50 0.44 0.35 0.44 0.39 0.37 0.30 0.42 0.46 0.38 0.34 0.34 0.33 0.46 0.44 0.40 0.43 0.44 0.35 0.48 0.36 0.47 0.41 0.36 0.43 0.42 0.36 0.35 0.45 0.35 0.41 0.46 0.33 0.38 0.41 0.36 0.39 0.44 0.30 0.42 0.40 0.42 0.44 0.44 0.50 0.36 0.34 0.35 0.31 0.35 0.46 0.32 0.41 0.41 0.47 0.44 0.31 0.48 0.39 0.36 0.43 0.46 0.35 0.44 0.41 0.32 -9999 -9999 -9999 -9999 -9999 -9999 -9999 -9999 -9999 -9999 -9999 -9999 -9999 -9999 -9999 -9999 -9999 -9999 -9999 -9999
0.45 0.35 0.32 0.48 0.44 0.36 0.40 0.45 0.35 0.40 0.34 0.48 0.49 0.34 0.49 0.41 0.45 0.44 0.42 0.43 0.41 0.38 0.38 0.32 0.39 0.47 0.30 0.33 0.42 0.31 0.50 0.47 0.35 0.40 0.44 0.45 0.45 0.39 0.40 0.34 0.50 0.43 0.43 0.40 0.50 0.41 0.49 0.43 0.36 0.46 0.39 0.35 0.38 0.50 0.43 0.46 0.34 0.37 0.45 0.38 0.42 0.43 0.31 0.50 0.43 0.40 0.42 0.35 0.48 0.35 0.48 0.31 0.38 0.48 0.45 0.33 0.37 0.45 0.34 0.43 0.41 0.35 0.37 0.39 0.41 0.38 0.34 0.42 0.48 0.47 0.33 0.35 0.37 0.32 0.45 0.44 0.47 0.38 0.34 0.43 0.37 0.36 0.46 0.47 0.36 0.42 0.34 0.34 0.33 0.42 0.48 0.39 0.47 0.33 0.43 0.37 0.41 0.30 0.49 0.49 0.37 0.32 0.35 0.44 0.47 0.47 0.43 0.45 0.48 0.49 0.42 0.45 0.33 0.45 0.47 0.43 0.47 0.31 0.50 0.36 0.38 0.43 0.34 0.42 0.36 0.48 0.32 0.42 0.40 0.38 0.46 0.45 0.50 0.45 0.42 0.34 0.38 0.32 0.48 0.48 0.46 0.37 0.37 0.43 0.49 0.41 0.35 0.33 0.46 0.47 0.39 0.32 0.32 0.38 0.31 0.44 0.35 0.43 0.46 0.32 0.50 0.36 0.46 0.46 0.45 0.31 0.35 0.43 0.33 0.40 0.44 0.49 0.42 0.30 0.50 -9999 -9999 -9999 -9999 -9999 -9999 -9999 -9999 -9999 -9999 -9999 -9999 -9999 -9999 -9999 -9999 -9999 -9999 -9999 -9999
0.39 0.42 0.41 0.39 0.45 0.35 0.43 0.35 0.38 0.46 0.32 0.45 0.46 0.49 0.44 0.39 0.41 0.32 0.31 0.32 0.37 0.49 0.44 0.40 0.36 0.44 0.44 0.41 0.43 0.42 0.31 0.41 0.35 0.39 0.48 0.39 0.36 0.37 0.42 0.46 0.49 0.33 0.34 0.34 0.43 0.49 0.48 0.33 0.39 0.47 0.32 0.43 0.37 0.32 0.47 0.48 0.32 0.48 0.47 0.40 0.49 0.31 0.45 0.44 0.36 0.46 0.50 0.49 0.31 0.50 0.33 0.45 0.32 0.36 0.36 0.39 0.32 0.32 0.36 0.47 0.43 0.46 0.31 0.31 0.47 0.47 0.31 0.50 0.43 0.48 0.30 0.41 0.46 0.43 0.31 0.43 0.46 0.41 0.40 0.31 0.42 0.31 0.35 0.40 0.42 0.38 0.44 0.35 0.36 0.45 0.34 0.42 0.39 0.34 0.38 0.47 0.35 0.46 0.47 0.43 0.31 0.49 0.41 0.47 0.45 0.42 0.36 0.48 0.40 0.46 0.32 0.35 0.44 0.32 0.35 0.31 0.38 0.31 0.36 0.40 0.50 0.34 0.35 0.45 0.42 0.50 0.37 0.45 0.44 0.32 0.44 0.46 0.37 0.41 0.49 0.31 0.36 0.43 0.47 0.38 0.46 0.35 0.37 0.50 0.43 0.48 0.38 0.35 0.49 0.41 0.33 0.38 0.33 0.40 0.50 0.30 0.48 0.44 0.39 0.49 0.36 0.40 0.38 0.38 0.35 0.39 0.41 0.48 0.49 0.32 0.36 0.33 0.45 0.41 0.30 -9999 -9999 -9999 -9999 -9999 -9999 -9999 -9999 -9999 -9999 -9999 -9999 -9999 -9999 -9999 -9999 -9999 -9999 -9999 -9999
0.48 0.41 0.44 0.41 0.34 0.45 0.35 0.50 0.40 0.46 0.42 0.37 0.34 0.43 0.39 0.34 0.31 0.49 0.36 0.37 0.44 0.34 0.49 0.44 0.42 0.49 0.49 0.42 0.30 0.36 0.37 0.32 0.31 0.38 0.46 0.48 0.31 0.31 0.39 0.41 0.33 0.40 0.42 0.41 0.44 0.37 0.32 0.33 0.30 0.41 0.45 0.35 0.39 0.32 0.40 0.36 0.49 0.44 0.32 0.34 0.34 0.40 0.41 0.49 0.37 0.34 0.46 0.40 0.50 0.32 0.37 0.38 0.33 0.42 0.38 0.41 0.40 0.48 0.33 0.41 0.40 0.32 0.38 0.36 0.42 0.45 0.43 0.50 0.47 0.45 0.35 0.49 0.50 0.43 0.48 0.49 0.46 0.42 0.32 0.47 0.45 0.43 0.42 0.48 0.46 0.31 0.47 0.40 0.37 0.47 0.32 0.43 0.33 0.38 0.33 0.35 0.33 0.31 0.42 0.47 0.30 0.39 0.50 0.38 0.36 0.36 0.49 0.33 0.34 0.33 0.48 0.41 0.32 0.49 0.35 0.32 0.46 0.44 0.43 0.41 0.41 0.47 0.32 0.45 0.36 0.46 0.35 0.46 0.33 0.38 0.43 0.49 0.49 0.40 0.36 0.49 0.45 0.30 0.43 0.33 0.43 0.33 0.31 0.42 0.43 0.39 0.32 0.46 0.38 0.43 0.35 0.39 0.38 0.35 0.49 0.37 0.32 0.33 0.33 0.36 0.32 0.33 0.31 0.48 0.31 0.36 0.34 0.46 0.31 0.46 0.46 0.50 0.39 0.45 0.33 -9999 -9999 -9999 -9999 -9999 -9999 -9999 -9999 -9999 -9999 -9999 -9999 -9999 -9999 -9999 -9999 -9999 -9999 -9999 -9999
0.41 0.36 0.35 0.37 0.30 0.43 0.45 0.33 0.39 0.35 0.41 0.49 0.39 0.48 0.46 0.50 0.38 0.32 0.43 0.48 0.33 0.44 0.34 0.46 0.46 0.49 0.32 0.40 0.36 0.48 0.48 0.40 0.30 0.49 0.36 0.32 0.48 0.49 0.43 0.34 0.46 0.46 0.33 0.44 0.40 0.49 0.35 0.46 0.43 0.43 0.32 0.48 0.38 0.46 0.50 0.36 0.33 0.35 0.49 0.49 0.32 0.43 0.42 0.38 0.38 0.30 0.36 0.46 0.48 0.30 0.42 0.44 0.43 0.47 0.48 0.39 0.34 0.48 0.46 0.46 0.45 0.46 0.36 0.43 0.30 0.47 0.34 0.36 0.44 0.48 0.49 0.37 0.39 0.45 0.46 0.38 0.38 0.33 0.44 0.49 0.39 0.31 0.48 0.34 0.36 0.40 0.40 0.31 0.44 0.42 0.36 0.45 0.42 0.37 0.50 0.33 0.31 0.37 0.40 0.35 0.34 0.33 0.39 0.36 0.32 0.48 0.38 0.49 0.44 0.45 0.30 0.33 0.49 0.30 0.47 0.40 0.44 0.39 0.44 0.35 0.45 0.45 0.43 0.35 0.40 0.32 0.44 0.37 0.48 0.43 0.30 0.45 0.37 0.42 0.39 0.39 0.32 0.45 0.31 0.42 0.49 0.32 0.39 0.40 0.33 0.33 0.42 0.40 0.37 0.31 0.45 0.32 0.37 0.34 0.35 0.47 0.38 0.43 0.35 0.32 0.42 0.32 0.32 0.47 0.39 0.42 0.37 0.40 0.49 0.45 0.37 0.39 0.30 0.31 0.48 -9999 -9999 -9999 -9999 -9999 -9999 -9999 -9999 -9999 -9999 -9999 -9999 -9999 -9999 -9999 -9999 -9999 -9999 -9999 -9999
0.49 0.49 0.32 0.44 0.35 0.38 0.34 0.41 0.38 0.36 0.35 0.31 0.47 0.49 0.40 0.35 0.32 0.43 0.50 0.45 0.36 0.32 0.45 0.49 0.44 0.39 0.40 0.46 0.45 0.47 0.30 0.30 0.41 0.43 0.32 0.37 0.41 0.49 0.35 0.49 0.46 0.37 0.31 0.46 0.40 0.44 0.43 0.32 0.30 0.44 0.32 0.31 0.33 0.46 0.47 0.31 0.42 0.46 0.42 0.35 0.31 0.49 0.39 0.33 0.32 0.40 0.31 0.31 0.42 0.49 0.38 0.46 0.39 0.46 0.31 0.47 0.31 0.43 0.37 0.38 0.35 0.45 0.32 0.39 0.39 0.41 0.37 0.33 0.46 0.33 0.44 0.31 0.37 0.33 0.37 0.35 0.44 0.34 0.43 0.35 0.33 0.31 0.44 0.47 0.39 0.36 0.49 0.34 0.39 0.48 0.41 0.49 0.42 0.34 0.43 0.43 0.33 0.37 0.45 0.33 0.46 0.40 0.33 0.44 0.43 0.45 0.47 0.34 0.45 0.36 0.38 0.39 0.33 0.44 0.37 0.42 0.35 0.30 0.35 0.37 0.34 0.45 0.48 0.41 0.46 0.37 0.34 0.32 0.43 0.49 0.49 0.36 0.46 0.34 0.49 0.36 0.40 0.48 0.41 0.31 0.33 0.41 0.40 0.49 0.39 0.40 0.31 0.39 0.42 0.45 0.49 0.48 0.33 0.48 0.47 0.40 0.46 0.34 0.36 0.43 0.34 0.31 0.39 0.34 0.45 0.46 0.48 0.32 0.43 0.33 0.46 0.37 0.46 0.49 0.40 -9999 -9999 -9999 -9999 -9999 -9999 -9999 -9999 -9999 -9999 -9999 -9999 -9999 -9999 -9999 -9999 -9999 -9999 -9999 -9999
0.47 0.48 0.42 0.48 0.36 0.37 0.43 0.45 0.36 0.32 0.42 0.44 0.43 0.41 0.34 0.49 0.39 0.42 0.36 0.33 0.31 0.45 0.47 0.31 0.47 0.47 0.36 0.33 0.43 0.33 0.30 0.36 0.37 0.49 0.39 0.33 0.40 0.38 0.38 0.41 0.32 0.43 0.38 0.42 0.35 0.36 0.44 0.45 0.39 0.48 0.36 0.48 0.46 0.44 0.47 0.42 0.50 0.40 0.39 0.41 0.47 0.40 0.45 0.34 0.38 0.44 0.35 0.48 0.40 0.34 0.43 0.43 0.49 0.43 0.35 0.46 0.43 0.36 0.48 0.46 0.32 0.47 0.46 0.49 0.41 0.50 0.46 0.43 0.43 0.37 0.35 0.34 0.47 0.38 0.49 0.33 0.44 0.34 0.40 0.35 0.39 0.38 0.38 0.33 0.46 0.38 0.37 0.43 0.45 0.45 0.41 0.46 0.38 0.45 0.44 0.41 0.37 0.42 0.45 0.48 0.34 0.38 0.38 0.32 0.42 0.41 0.33 0.48 0.49 0.46 0.42 0.39 0.46 0.38 0.46 0.43 0.49 0.49 0.49 0.40 0.30 0.32 0.46 0.38 0.43 0.44 0.31 0.45 0.46 0.44 0.46 0.35 0.33 0.37 0.46 0.47 0.41 0.32 0.34 0.31 0.37 0.49 0.37 0.49 0.43 0.40 0.36 0.31 0.37 0.41 0.47 0.31 0.35 0.32 0.31 0.42 0.39 0.37 0.39 0.35 0.46 0.47 0.37 0.48 0.35 0.32 0.34 0.41 0.38 0.44 0.45 0.43 0.44 0.49 0.45 0.38 -9999 -9999 -9999 -9999 -9999 -9999 -9999 -9999 -9999 -9999 -9999 -9999 -9999 -9999 -9999 -9999 -9999 -9999 -9999
0.42 0.39 0.32 0.33 0.39 0.50 0.49 0.38 0.49 0.32 0.35 0.33 0.48 0.42 0.38 0.39 0.33 0.39 0.32 0.50 0.39 0.31 0.44 0.40 0.38 0.50 0.36 0.39 0.41 0.35 0.50 0.38 0.48 0.39 0.41 0.37 0.33 0.42 0.33 0.43 0.46 0.39 0.46 0.37 0.41 0.45 0.42 0.50 0.40 0.34 0.32 0.48 0.47 0.43 0.45 0.46 0.49 0.38 0.34 0.39 0.43 0.44 0.41 0.47 0.37 0.36 0.47 0.46 0.34 0.42 0.36 0.48 0.38 0.40 0.49 0.41 0.35 0.33 0.38 0.34 0.44 0.40 0.41 0.49 0.44 0.32 0.47 0.44 0.34 0.42 0.46 0.45 0.36 0.50 0.34 0.38 0.33 0.40 0.36 0.32 0.49 0.34 0.32 0.50 0.32 0.49 0.36 0.44 0.37 0.44 0.42 0.34 0.33 0.34 0.44 0.39 0.45 0.38 0.34 0.47 0.43 0.48 0.33 0.36 0.32 0.43 0.41 0.31 0.38 0.31 0.48 0.41 0.39 0.42 0.38 0.47 0.33 0.46 0.39 0.33 0.41 0.32 0.34 0.42 0.36 0.31 0.45 0.33 0.34 0.35 0.45 0.44 0.31 0.50 0.40 0.36 0.32 0.38 0.32 0.43 0.45 0.37 0.31 0.46 0.47 0.49 0.45 0.41 0.37 0.48 0.39 0.36 0.49 0.49 0.32 0.40 0.32 0.39 0.42 0.37 0.44 0.48 0.33 0.46 0.44 0.31 0.47 0.46 0.48 0.38 0.40 0.42 0.35 0.43 0.31 0.47 -9999 -9999 -9999 -9999 -9999 -9999 -9999 -9999 -9999 -9999 -9999 -9999 -9999 -9999 -9999 -9999 -9999 -9999 -9999
0.46 0.38 0.32 0.42 0.47 0.35 0.41 0.50 0.39 0.44 0.43 0.32 0.33 0.42 0.35 0.37 0.32 0.42 0.30 0.42 0.48 0.49 0.33 0.35 0.40 0.50 0.48 0.45 0.31 0.40 0.32 0.46 0.35 0.44 0.35 0.45 0.44 0.49 0.32 0.38 0.45 0.31 0.46 0.50 0.30 0.49 0.40 0.42 0.32 0.50 0.34 0.49 0.44 0.35 0.50 0.47 0.46 0.33 0.45 0.47 0.40 0.38 0.37 0.32 0.42 0.50 0.34 0.37 0.46 0.40 0.37 0.41 0.35 0.35 0.32 0.39 0.38 0.30 0.35 0.31 0.33 0.41 0.40 0.36 0.32 0.33 0.50 0.49 0.33 0.34 0.48 0.39 0.41 0.38 0.43 0.47 0.46 0.35 0.42 0.44 0.45 0.47 0.43 0.43 0.50 0.37 0.47 0.44 0.33 0.36 0.30 0.45 0.31 0.43 0.45 0.38 0.45 0.46 0.39 0.35 0.34 0.33 0.49 0.33 0.38 0.43 0.41 0.38 0.32 0.45 0.34 0.32 0.46 0.42 0.44 0.33 0.42 0.46 0.40 0.39 0.33 0.49 0.43 0.31 0.43 0.35 0.44 0.31 0.34 0.38 0.41 0.41 0.35 0.47 0.42 0.46 0.39 0.35 0.35 0.38 0.42 0.47 0.49 0.42 0.37 0.41 0.35 0.36 0.41 0.37 0.49 0.40 0.41 0.31 0.45 0.30 0.40 0.40 0.39 0.40 0.46 0.45 0.48 0.47 0.34 0.41 0.41 0.38 0.37 0.43 0.43 0.37 0.33 0.49 0.46 0.36 -9999 -9999 -9999 -9999 -9999 -9999 -9999 -9999 -9999 -9999 -9999 -9999 -9999 -9999 -9999 -9999 -9999 -9999 -9999
0.48 0.49 0.39 0.37 0.46 0.49 0.36 0.30 0.48 0.49 0.43 0.44 0.45 0.44 0.42 0.41 0.41 0.46 0.36 0.48 0.44 0.31 0.32 0.44 0.37 0.41 0.46 0.49 0.34 0.45 0.39 0.33 0.41 0.45 0.32 0.31 0.46 0.45 0.48 0.41 0.41 0.45 0.41 0.49 0.33 0.34 0.41 0.42 0.43 0.44 0.50 0.44 0.45 0.36 0.32 0.37 0.37 0.40 0.33 0.41 0.32 0.31 0.35 0.34 0.45 0.32 0.38 0.47 0.42 0.45 0.45 0.34 0.35 0.38 0.40 0.48 0.44 0.32 0.46 0.31 0.35 0.31 0.32 0.36 0.40 0.43 0.45 0.47 0.42 0.44 0.39 0.37 0.47 0.34 0.33 0.44 0.45 0.33 0.33 0.38 0.41 0.42 0.48 0.36 0.33 0.32 0.47 0.42 0.40 0.40 0.44 0.33 0.38 0.47 0.37 0.47 0.41 0.45 0.35 0.32 0.32 0.42 0.42 0.48 0.48 0.48 0.34 0.49 0.35 0.34 0.35 0.38 0.33 0.37 0.42 0.38 0.32 0.47 0.38 0.31 0.35 0.40 0.36 0.49 0.48 0.47 0.34 0.42 0.33 0.47 0.41 0.39 0.45 0.34 0.46 0.35 0.39 0.48 0.30 0.36 0.33 0.43 0.36 0.46 0.39 0.50 0.37 0.44 0.38 0.48 0.31 0.31 0.40 0.40 0.33 0.42 0.33 0.50 0.30 0.47 0.41 0.42 0.45 0.39 0.35 0.33 0.34 0.48 0.31 0.31 0.49 0.34 0.49 0.45 0.46 0.48 -9999 -9999 -9999 -9999 -9999 -9999 -9999 -9999 -9999 -9999 -9999 -9999 -9999 -9999 -9999 -9999 -9999 -9999 -9999
0.33 0.37 0.41 0.41 0.31 0.41 0.46 0.39 0.40 0.37 0.31 0.48 0.49 0.45 0.32 0.44 0.42 0.34 0.38 0.30 0.44 0.42 0.50 0.43 0.32 0.44 0.37 0.35 0.37 0.46 0.32 0.46 0.44 0.45 0.37 0.49 0.37 0.44 0.50 0.40 0.41 0.39 0.37 0.33 0.42 0.48 0.37 0.33 0.48 0.40 0.43 0.33 0.43 0.40 0.32 0.31 0.49 0.39 0.47 0.45 0.36 0.40 0.45 0.44 0.47 0.43 0.38 0.43 0.32 0.34 0.50 0.40 0.49 0.35 0.39 0.39 0.32 0.39 0.46 0.34 0.45 0.34 0.38 0.32 0.42 0.35 0.47 0.44 0.48 0.39 0.41 0.39 0.37 0.32 0.32 0.48 0.39 0.42 0.39 0.44 0.49 0.48 0.48 0.34 0.46 0.36 0.46 0.37 0.42 0.30 0.44 0.38 0.40 0.35 0.39 0.41 0.49 0.43 0.42 0.37 0.42 0.33 0.32 0.30 0.40 0.40 0.37 0.41 0.34 0.34 0.45 0.50 0.44 0.32 0.38 0.44 0.31 0.49 0.36 0.47 0.31 0.45 0.48 0.40 0.35 0.34 0.38 0.39 0.48 0.41 0.46 0.34 0.40 0.43 0.38 0.34 0.33 0.44 0.48 0.38 0.48 0.47 0.42 0.38 0.49 0.44 0.47 0.40 0.32 0.42 0.48 0.39 0.41 0.48 0.38 0.36 0.45 0.47 0.40 0.35 0.48 0.47 0.32 0.47 0.32 0.44 0.30 0.42 0.44 0.35 0.49 0.34 0.43 0.47 0.48 0.40 -9999 -9999 -9999 -9999 -9999 -9999 -9999 -9999 -9999 -9999 -9999 -9999 -9999 -9999 -9999 -9999 -9999 -9999 -9999
0.39 0.42 0.30 0.41 0.47 0.36 0.40 0.30 0.43 0.42 0.43 0.49 0.34 0.40 0.43 0.41 0.48 0.38 0.47 0.45 0.47 0.48 0.45 0.31 0.43 0.30 0.39 0.46 0.48 0.32 0.44 0.38 0.39 0.44 0.30 0.33 0.32 0.42 0.34 0.47 0.37 0.34 0.49 0.39 0.35 0.33 0.47 0.41 0.46 0.32 0.37 0.42 0.47 0.31 0.50 0.43 0.47 0.36 0.35 0.40 0.38 0.44 0.41 0.33 0.50 0.45 0.37 0.36 0.37 0.50 0.37 0.47 0.41 0.34 0.38 0.32 0.35 0.33 0.33 0.45 0.48 0.45 0.34 0.45 0.40 0.44 0.40 0.48 0.49 0.50 0.46 0.33 0.50 0.44 0.35 0.41 0.35 0.50 0.46 0.48 0.38 0.34 0.31 0.30 0.45 0.39 0.31 0.36 0.46 0.43 0.47 0.44 0.49 0.32 0.49 0.49 0.44 0.30 0.50 0.44 0.42 0.39 0.47 0.41 0.36 0.46 0.37 0.49 0.38 0.31 0.31 0.45 0.35 0.48 0.33 0.31 0.36 0.38 0.38 0.42 0.36 0.44 0.35 0.42 0.35 0.35 0.35 0.38 0.38 0.36 0.35 0.40 0.33 0.36 0.40 0.38 0.37 0.47 0.48 0.49 0.40 0.39 0.35 0.47 0.32 0.43 0.45 0.48 0.43 0.41 0.44 0.34 0.47 0.40 0.47 0.31 0.50 0.32 0.41 0.48 0.35 0.32 0.40 0.43 0.46 0.49 0.39 0.38 0.49 0.44 0.35 0.41 0.32 0.31 0.36 0.43 -9999 -9999 -9999 -9999 -9999 -9999 -9999 -9999 -9999 -9999 -9999 -9999 -9999 -9999 -9999 -9999 -9999 -9999 -9999
0.43 0.46 0.48 0.47 0.31 0.49 0.48 0.32 0.34 0.45 0.50 0.47 0.41 0.46 0.44 0.50 0.42 0.32 0.44 0.47 0.43 0.39 0.40 0.48 0.36 0.34 0.37 0.45 0.49 0.40 0.35 0.48 0.34 0.34 0.34 0.46 0.30 0.35 0.46 0.34 0.48 0.43 0.44 0.33 0.36 0.45 0.38 0.41 0.33 0.46 0.41 0.32 0.36 0.34 0.31 0.35 0.36 0.35 0.42 0.46 0.36 0.39 0.37 0.38 0.42 0.40 0.48 0.42 0.40 0.43 0.36 0.50 0.37 0.43 0.41 0.43 0.38 0.33 0.32 0.45 0.40 0.40 0.35 0.36 0.30 0.31 0.33 0.31 0.35 0.35 0.40 0.42 0.44 0.31 0.34 0.40 0.34 0.42 0.48 0.32 0.35 0.35 0.31 0.32 0.37 0.32 0.32 0.33 0.36 0.34 0.41 0.47 0.47 0.49 0.47 0.47 0.49 0.44 0.48 0.42 0.38 0.32 0.46 0.31 0.47 0.33 0.49 0.44 0.40 0.34 0.31 0.31 0.40 0.38 0.48 0.33 0.39 0.44 0.34 0.49 0.41 0.31 0.49 0.47 0.31 0.47 0.44 0.39 0.37 0.45 0.38 0.30 0.37 0.40 0.40 0.47 0.34 0.47 0.49 0.42 0.36 0.34 0.37 0.36 0.37 0.39 0.48 0.37 0.33 0.37 0.41 0.33 0.49 0.45 0.39 0.31 0.35 0.31 0.46 0.43 0.41 0.36 0.44 0.45 0.42 0.33 0.49 0.43 0.33 0.45 0.39 0.37 0.31 0.47 0.40 0.50 -9999 -9999 -9999 -9999 -9999 -9999 -9999 -9999 -9999 -9999 -9999 -9999 -9999 -9999 -9999 -9999 -9999 -9999 -9999
0.45 0.43 0.44 0.46 0.46 0.35 0.42 0.38 0.46 0.33 0.47 0.49 0.42 0.44 0.42 0.46 0.39 0.40 0.45 0.36 0.49 0.47 0.44 0.48 0.35 0.32 0.34 0.33 0.36 0.37 0.39 0.48 0.35 0.48 0.47 0.37 0.46 0.39 0.46 0.31 0.50 0.38 0.42 0.43 0.40 0.49 0.49 0.43 0.38 0.46 0.43 0.40 0.46 0.41 0.33 0.47 0.44 0.42 0.42 0.32 0.46 0.35 0.45 0.42 0.42 0.48 0.31 0.42 0.40 0.41 0.46 0.43 0.49 0.35 0.49 0.30 0.33 0.42 0.49 0.38 0.37 0.34 0.48 0.50 0.32 0.39 0.43 0.47 0.40 0.32 0.49 0.44 0.48 0.31 0.37 0.42 0.33 0.45 0.35 0.43 0.35 0.44 0.30 0.35 0.33 0.36 0.47 0.34 0.47 0.34 0.41 0.43 0.40 0.40 0.34 0.36 0.49 0.46 0.30 0.45 0.30 0.50 0.39 0.44 0.41 0.47 0.42 0.37 0.38 0.46 0.49 0.43 0.49 0.50 0.49 0.37 0.37 0.32 0.36 0.41 0.44 0.37 0.37 0.38 0.35 0.39 0.41 0.43 0.46 0.37 0.33 0.38 0.39 0.49 0.35 0.43 0.44 0.48 0.34 0.42 0.50 0.37 0.37 0.32 0.40 0.45 0.38 0.33 0.43 0.48 0.47 0.30 0.46 0.39 0.41 0.42 0.31 0.49 0.48 0.46 0.32 0.37 0.40 0.41 0.44 0.49 0.42 0.35 0.33 0.39 0.30 0.32 0.34 0.47 0.42 0.42 0.32 -9999 -9999 -9999 -9999 -9999 -9999 -9999 -9999 -9999 -9999 -9999 -9999 -9999 -9999 -9999 -9999 -9999 -9999
0.35 0.37 0.41 0.47 0.45 0.48 0.44 0.35 0.41 0.37 0.47 0.40 0.42 0.41 0.49 0.38 0.38 0.44 0.42 0.34 0.45 0.34 0.34 0.46 0.41 0.43 0.45 0.47 0.45 0.35 0.42 0.32 0.46 0.39 0.48 0.45 0.47 0.40 0.46 0.45 0.38 0.34 0.49 0.49 0.47 0.44 0.32 0.46 0.39 0.47 0.49 0.43 0.36 0.38 0.31 0.43 0.33 0.47 0.44 0.48 0.37 0.39 0.41 0.41 0.49 0.45 0.48 0.33 0.36 0.45 0.37 0.40 0.35 0.38 0.37 0.37 0.44 0.33 0.47 0.31 0.49 0.42 0.44 0.35 0.30 0.43 0.47 0.35 0.31 0.42 0.49 0.38 0.45 0.46 0.45 0.45 0.34 0.37 0.37 0.41 0.47 0.46 0.45 0.49 0.30 0.35 0.33 0.45 0.37 0.42 0.30 0.49 0.44 0.43 0.38 0.36 0.38 0.49 0.48 0.43 0.49 0.49 0.36 0.34 0.41 0.30 0.42 0.31 0.45 0.39 0.41 0.44 0.31 0.38 0.41 0.37 0.41 0.47 0.47 0.37 0.48 0.34 0.49 0.38 0.48 0.32 0.38 0.34 0.39 0.37 0.42 0.42 0.37 0.44 0.32 0.50 0.34 0.43 0.35 0.48 0.35 0.39 0.47 0.44 0.48 0.31 0.36 0.43 0.40 0.49 0.43 0.44 0.30 0.30 0.45 0.45 0.35 0.48 0.43 0.50 0.38 0.32 0.39 0.44 0.37 0.39 0.46 0.31 0.33 0.41 0.31 0.50 0.42 0.40 0.40 0.40 0.35 -9999 -9999 -9999 -9999 -9999 -9999 -9999 -9999 -9999 -9999 -9999 -9999 -9999 -9999 -9999 -9999 -9999 -9999
0.50 0.47 0.32 0.39 0.31 0.37 0.43 0.48 0.44 0.48 0.39 0.34 0.31 0.37 0.46 0.33 0.46 0.49 0.33 0.31 0.39 0.33 0.33 0.36 0.47 0.38 0.44 0.41 0.50 0.40 0.35 0.38 0.41 0.48 0.39 0.40 0.40 0.31 0.47 0.32 0.34 0.47 0.36 0.40 0.38 0.41 0.47 0.41 0.37 0.37 0.38 0.47 0.31 0.36 0.38 0.34 0.42 0.35 0.34 0.45 0.39 0.40 0.43 0.40 0.48 0.31 0.49 0.43 0.47 0.47 0.39 0.38 0.48 0.36 0.48 0.34 0.50 0.47 0.48 0.35 0.30 0.36 0.39 0.40 0.48 0.33 0.41 0.42 0.44 0.48 0.48 0.30 0.38 0.44 0.39 0.48 0.43 0.48 0.45 0.38 0.48 0.37 0.46 0.38 0.32 0.32 0.30 0.36 0.31 0.41 0.36 0.32 0.50 0.30 0.42 0.43 0.44 0.42 0.32 0.46 0.38 0.35 0.44 0.49 0.45 0.35 0.33 0.42 0.37 0.38 0.35 0.40 0.32 0.40 0.41 0.35 0.41 0.32 0.35 0.30 0.32 0.39 0.48 0.32 0.31 0.32 0.30 0.35 0.30 0.41 0.40 0.50 0.47 0.36 0.42 0.41 0.32 0.48 0.44 0.47 0.48 0.44 0.38 0.37 0.50 0.44 0.32 0.30 0.30 0.45 0.34 0.46 0.48 0.32 0.39 0.36 0.41 0.41 0.39 0.31 0.35 0.43 0.45 0.45 0.35 0.41 0.30 0.36 0.39 0.30 0.48 0.47 0.39 0.35 0.46 0.45 0.48 -9999 -9999 -9999 -9999 -9999 -9999 -9999 -9999 -9999 -9999 -9999 -9999 -9999 -9999 -9999 -9999 -9999 -9999
0.48 0.35 0.47 0.40 0.42 0.47 0.47 0.50 0.34 0.49 0.31 0.42 0.35 0.32 0.50 0.42 0.43 0.31 0.35 0.37 0.48 0.44 0.32 0.36 0.49 0.48 0.50 0.48 0.30 0.34 0.42 0.48 0.37 0.49 0.44 0.40 0.44 0.49 0.44 0.31 0.36 0.40 0.42 0.48 0.39 0.32 0.46 0.45 0.47 0.38 0.41 0.44 0.34 0.36 0.31 0.45 0.35 0.49 0.30 0.43 0.43 0.38 0.39 0.36 0.43 0.48 0.48 0.34 0.42 0.37 0.35 0.32 0.47 0.34 0.44 0.31 0.39 0.30 0.42 0.34 0.35 0.47 0.32 0.40 0.37 0.39 0.46 0.50 0.50 0.43 0.47 0.38 0.34 0.47 0.31 0.35 0.46 0.39 0.45 0.39 0.42 0.47 0.32 0.40 0.33 0.39 0.46 0.35 0.50 0.42 0.37 0.31 0.40 0.44 0.36 0.45 0.44 0.45 0.45 0.44 0.32 0.33 0.41 0.36 0.45 0.41 0.45 0.39 0.40 0.50 0.40 0.35 0.49 0.36 0.45 0.39 0.43 0.50 0.49 0.34 0.36 0.43 0.34 0.36 0.38 0.41 0.48 0.38 0.43 0.50 0.38 0.31 0.34 0.35 0.49 0.43 0.37 0.42 0.34 0.37 0.48 0.38 0.34 0.44 0.35 0.40 0.39 0.34 0.47 0.47 0.32 0.50 0.43 0.30 0.47 0.38 0.45 0.44 0.43 0.37 0.47 0.48 0.33 0.32 0.33 0.38 0.37 0.34 0.37 0.46 0.38 0.31 0.44 0.42 0.38 0.36 0.35 -9999 -9999 -9999 -9999 -9999 -9999 -9999 -9999 -9999 -9999 -9999 -9999 -9999 -9999 -9999 -9999 -9999 -9999
0.41 0.47 0.49 0.49 0.36 0.42 0.45 0.30 0.47 0.30 0.50 0.35 0.33 0.43 0.33 0.37 0.47 0.47 0.49 0.45 0.40 0.36 0.39 0.38 0.37 0.40 0.41 0.43 0.37 0.47 0.39 0.35 0.38 0.45 0.43 0.38 0.46 0.32 0.35 0.33 0.38 0.32 0.36 0.33 0.41 0.36 0.42 0.31 0.42 0.36 0.44 0.32 0.32 0.35 0.44 0.45 0.30 0.38 0.33 0.41 0.35 0.30 0.44 0.39 0.30 0.42 0.32 0.44 0.41 0.31 0.42 0.47 0.30 0.45 0.39 0.32 0.40 0.39 0.32 0.40 0.40 0.38 0.50 0.49 0.30 0.43 0.47 0.44 0.41 0.35 0.39 0.47 0.45 0.35 0.35 0.36 0.44 0.44 0.33 0.36 0.46 0.43 0.48 0.32 0.41 0.45 0.43 0.33 0.45 0.32 0.41 0.46 0.39 0.35 0.40 0.48 0.35 0.45 0.47 0.39 0.45 0.50 0.38 0.48 0.45 0.48 0.36 0.33 0.30 0.44 0.33 0.40 0.43 0.32 0.45 0.45 0.37 0.32 0.49 0.34 0.42 0.33 0.38 0.37 0.35 0.37 0.50 0.37 0.38 0.46 0.35 0.37 0.49 0.45 0.41 0.49 0.33 0.46 0.36 0.32 0.38 0.49 0.33 0.38 0.39 0.43 0.42 0.50 0.38 0.37 0.38 0.44 0.46 0.47 0.49 0.36 0.35 0.45 0.32 0.41 0.32 0.34 0.30 0.33 0.48 0.42 0.37 0.44 0.48 0.46 0.42 0.37 0.47 0.38 0.40 0.44 0.39 -9999 -9999 -9999 -9999 -9999 -9999 -9999 -9999 -9999 -9999 -9999 -9999 -9999 -9999 -9999 -9999 -9999 -9999
0.38 0.33 0.44 0.48 0.47 0.34 0.31 0.38 0.49 0.36 0.36 0.43 0.43 0.48 0.32 0.50 0.45 0.47 0.45 0.41 0.32 0.34 0.36 0.48 0.48 0.38 0.41 0.41 0.40 0.38 0.32 0.44 0.44 0.41 0.37 0.45 0.38 0.33 0.40 0.32 0.37 0.43 0.32 0.41 0.43 0.38 0.50 0.43 0.40 0.35 0.38 0.45 0.30 0.47 0.31 0.31 0.31 0.43 0.38 0.47 0.49 0.38 0.44 0.35 0.31 0.36 0.38 0.50 0.38 0.36 0.47 0.46 0.41 0.46 0.32 0.33 0.46 0.49 0.42 0.32 0.44 0.40 0.33 0.31 0.37 0.40 0.31 0.50 0.45 0.36 0.50 0.47 0.41 0.39 0.43 0.46 0.45 0.45 0.32 0.47 0.49 0.45 0.41 0.40 0.48 0.46 0.46 0.47 0.39 0.34 0.33 0.44 0.40 0.50 0.36 0.49 0.50 0.43 0.43 0.40 0.43 0.41 0.36 0.48 0.42 0.43 0.33 0.49 0.45 0.41 0.39 0.50 0.40 0.44 0.35 0.42 0.36 0.35 0.36 0.44 0.45 0.40 0.36 0.33 0.37 0.50 0.41 0.43 0.42 0.40 0.48 0.46 0.48 0.41 0.49 0.42 0.34 0.46 0.35 0.45 0.45 0.40 0.41 0.43 0.36 0.31 0.43 0.37 0.36 0.43 0.47 0.44 0.37 0.40 0.32 0.32 0.34 0.39 0.39 0.41 0.34 0.39 0.38 0.32 0.36 0.46 0.47 0.39 0.42 0.40 0.35 0.40 0.42 0.38 0.32 0.44 0.49 -9999 -9999 -9999 -9999 -9999 -9999 -9999 -9999 -9999 -9999 -9999 -9999 -9999 -9999 -9999 -9999 -9999 -9999
0.48 0.49 0.38 0.44 0.40 0.48 0.36 0.38 0.44 0.38 0.40 0.45 0.35 0.32 0.38 0.32 0.46 0.46 0.46 0.38 0.42 0.35 0.48 0.34 0.47 0.32 0.48 0.35 0.33 0.38 0.32 0.43 0.39 0.46 0.43 0.36 0.46 0.39 0.40 0.37 0.48 0.48 0.42 0.38 0.40 0.46 0.46 0.46 0.35 0.32 0.43 0.39 0.43 0.38 0.42 0.42 0.44 0.33 0.39 0.30 0.49 0.43 0.38 0.44 0.36 0.31 0.41 0.39 0.38 0.41 0.36 0.48 0.38 0.37 0.42 0.45 0.38 0.48 0.50 0.45 0.49 0.33 0.43 0.47 0.36 0.45 0.39 0.40 0.41 0.39 0.49 0.47 0.34 0.49 0.33 0.41 0.46 0.31 0.49 0.31 0.37 0.34 0.32 0.46 0.32 0.39 0.34 0.33 0.33 0.31 0.44 0.48 0.44 0.37 0.34 0.47 0.32 0.40 0.32 0.34 0.41 0.35 0.45 0.39 0.39 0.49 0.35 0.47 0.45 0.44 0.43 0.48 0.31 0.47 0.49 0.36 0.49 0.40 0.49 0.47 0.39 0.40 0.41 0.45 0.50 0.37 0.43 0.47 0.43 0.35 0.47 0.31 0.43 0.45 0.47 0.45 0.45 0.50 0.44 0.32 0.40 0.35 0.32 0.45 0.40 0.43 0.39 0.44 0.46 0.47 0.40 0.34 0.44 0.41 0.41 0.30 0.36 0.44 0.49 0.34 0.34 0.37 0.38 0.39 0.44 0.37 0.30 0.31 0.36 0.33 0.40 0.33 0.38 0.38 0.49 0.38 0.40 0.33 -9999 -9999 -9999 -9999 -9999 -9999 -9999 -9999 -9999 -9999 -9999 -9999 -9999 -9999 -9999 -9999 -9999
0.48 0.49 0.44 0.42 0.35 0.40 0.39 0.35 0.46 0.34 0.49 0.32 0.30 0.39 0.33 0.38 0.34 0.34 0.48 0.40 0.42 0.46 0.46 0.43 0.48 0.37 0.39 0.40 0.31 0.37 0.38 0.35 0.38 0.33 0.31 0.34 0.43 0.33 0.47 0.47 0.32 0.32 0.44 0.35 0.48 0.42 0.46 0.34 0.32 0.44 0.41 0.31 0.32 0.39 0.47 0.39 0.48 0.32 0.47 0.40 0.43 0.44 0.38 0.44 0.42 0.43 0.34 0.36 0.40 0.30 0.41 0.46 0.31 0.43 0.47 0.40 0.42 0.48 0.39 0.46 0.41 0.36 0.39 0.34 0.36 0.45 0.31 0.36 0.45 0.30 0.37 0.42 0.44 0.34 0.47 0.43 0.45 0.47 0.47 0.46 0.36 0.40 0.30 0.48 0.33 0.49 0.43 0.41 0.38 0.37 0.45 0.44 0.45 0.34 0.43 0.31 0.48 0.45 0.42 0.43 0.41 0.49 0.42 0.38 0.47 0.40 0.49 0.37 0.41 0.46 0.33 0.38 0.32 0.43 0.44 0.42 0.31 0.31 0.49 0.31 0.49 0.49 0.39 0.40 0.42 0.34 0.35 0.38 0.41 0.43 0.46 0.44 0.37 0.43 0.49 0.42 0.47 0.41 0.37 0.47 0.34 0.41 0.43 0.48 0.30 0.36 0.39 0.37 0.46 0.32 0.38 0.46 0.48 0.43 0.37 0.43 0.49 0.48 0.47 0.49 0.49 0.35 0.46 0.38 0.37 0.42 0.42 0.47 0.32 0.32 0.34 0.46 0.48 0.38 0.43 0.37 0.44 0.32 -9999 -9999 -9999 -9999 -9999 -9999 -9999 -9999 -9999 -9999 -9999 -9999 -9999 -9999 -9999 -9999 -9999
0.47 0.46 0.42 0.36 0.37 0.31 0.33 0.39 0.37 0.31 0.31 0.37 0.42 0.47 0.42 0.37 0.40 0.43 0.35 0.35 0.34 0.30 0.37 0.43 0.39 0.47 0.44 0.32 0.39 0.48 0.34 0.35 0.34 0.30 0.35 0.33 0.50 0.37 0.30 0.33 0.37 0.33 0.39 0.48 0.43 0.33 0.32 0.48 0.37 0.41 0.50 0.42 0.37 0.46 0.49 0.35 0.32 0.37 0.44 0.47 0.40 0.38 0.43 0.45 0.48 0.31 0.36 0.35 0.36 0.35 0.33 0.45 0.37 0.35 0.34 0.47 0.33 0.32 0.47 0.46 0.31 0.34 0.32 0.30 0.42 0.45 0.32 0.36 0.32 0.49 0.49 0.46 0.47 0.38 0.33 0.33 0.39 0.44 0.43 0.38 0.38 0.48 0.44 0.47 0.38 0.34 0.34 0.32 0.39 0.36 0.34 0.44 0.45 0.34 0.48 0.42 0.35 0.46 0.45 0.37 0.43 0.40 0.35 0.33 0.30 0.43 0.50 0.37 0.41 0.41 0.47 0.47 0.45 0.42 0.42 0.44 0.50 0.48 0.39 0.48 0.45 0.30 0.47 0.38 0.44 0.44 0.32 0.40 0.35 0.31 0.36 0.42 0.48 0.48 0.42 0.42 0.38 0.43 0.32 0.37 0.48 0.50 0.50 0.47 0.43 0.45 0.47 0.35 0.39 0.35 0.42 0.35 0.49 0.42 0.39 0.37 0.40 0.42 0.48 0.38 0.46 0.50 0.33 0.38 0.38 0.44 0.47 0.49 0.47 0.47 0.47 0.46 0.42 0.37 0.37 0.35 0.43 0.47 -9999 -9999 -9999 -9999 -9999 -9999 -9999 -9999 -9999 -9999 -9999 -9999 -9999 -9999 -9999 -9999 -9999
0.37 0.47 0.45 0.44 0.34 0.49 0.47 0.46 0.39 0.46 0.43 0.44 0.30 0.34 0.43 0.30 0.32 0.50 0.35 0.33 0.48 0.41 0.33 0.50 0.43 0.48 0.33 0.31 0.40 0.42 0.32 0.33 0.40 0.38 0.44 0.39 0.47 0.33 0.35 0.46 0.31 0.31 0.32 0.49 0.39 0.46 0.46 0.30 0.49 0.41 0.35 0.35 0.48 0.43 0.36 0.32 0.36 0.49 0.46 0.37 0.32 0.34 0.49 0.46 0.37 0.30 0.40 0.34 0.49 0.38 0.38 0.49 0.49 0.31 0.37 0.35 0.31 0.44 0.35 0.35 0.37 0.41 0.40 0.42 0.49 0.41 0.39 0.31 0.32 0.39 0.41 0.33 0.43 0.32 0.48 0.48 0.41 0.30 0.39 0.42 0.37 0.34 0.49 0.46 0.37 0.32 0.40 0.37 0.42 0.31 0.47 0.39 0.48 0.44 0.47 0.31 0.30 0.47 0.44 0.35 0.35 0.48 0.40 0.31 0.41 0.44 0.36 0.45 0.47 0.44 0.40 0.32 0.42 0.44 0.32 0.30 0.35 0.33 0.44 0.31 0.46 0.46 0.37 0.39 0.31 0.42 0.42 0.40 0.49 0.30 0.43 0.46 0.44 0.33 0.47 0.40 0.46 0.30 0.35 0.37 0.32 0.39 0.34 0.46 0.37 0.41 0.37 0.34 0.34 0.42 0.42 0.39 0.37 0.41 0.32 0.39 0.30 0.31 0.40 0.42 0.35 0.36 0.47 0.36 0.35 0.33 0.50 0.35 0.45 0.37 0.46 0.44 0.30 0.45 0.43 0.31 0.40 0.35 -9999 -9999 -9999 -9999 -9999 -9999 -9999 -9999 -9999 -9999 -9999 -9999 -9999 -9999 -9999 -9999 -9999
0.32 0.39 0.32 0.40 0.35 0.40 0.38 0.35 0.36 0.44 0.36 0.49 0.32 0.41 0.37 0.32 0.46 0.47 0.50 0.48 0.32 0.34 0.44 0.45 0.37 0.39 0.32 0.35 0.38 0.44 0.38 0.47 0.42 0.46 0.35 0.46 0.49 0.34 0.31 0.39 0.33 0.41 0.30 0.42 0.48 0.31 0.45 0.40 0.30 0.40 0.45 0.44 0.40 0.37 0.41 0.41 0.38 0.39 0.42 0.39 0.39 0.40 0.36 0.46 0.36 0.41 0.49 0.32 0.49 0.37 0.45 0.50 0.33 0.32 0.36 0.46 0.34 0.41 0.44 0.48 0.33 0.41 0.38 0.40 0.38 0.49 0.41 0.35 0.34 0.34 0.31 0.36 0.36 0.45 0.31 0.41 0.43 0.38 0.43 0.35 0.42 0.42 0.37 0.45 0.31 0.32 0.43 0.31 0.39 0.31 0.44 0.37 0.47 0.32 0.49 0.36 0.32 0.44 0.45 0.42 0.43 0.48 0.37 0.41 0.40 0.41 0.44 0.35 0.30 0.42 0.41 0.39 0.47 0.31 0.43 0.32 0.47 0.46 0.41 0.31 0.45 0.39 0.34 0.48 0.48 0.39 0.38 0.49 0.37 0.47 0.35 0.49 0.34 0.37 0.37 0.44 0.49 0.42 0.43 0.46 0.35 0.40 0.41 0.36 0.39 0.36 0.43 0.43 0.41 0.35 0.41 0.35 0.46 0.46 0.32 0.36 0.35 0.36 0.30 0.48 0.40 0.42 0.38 0.32 0.35 0.43 0.35 0.45 0.47 0.38 0.44 0.38 0.40 0.40 0.33 0.49 0.31 0.34 -9999 -9999 -9999 -9999 -9999 -9999 -9999 -9999 -9999 -9999 -9999 -9999 -9999 -9999 -9999 -9999 -9999
0.41 0.47 0.32 0.43 0.36 0.32 0.46 0.45 0.46 0.43 0.47 0.42 0.50 0.37 0.31 0.45 0.43 0.44 0.35 0.33 0.48 0.38 0.32 0.49 0.39 0.43 0.41 0.35 0.38 0.48 0.45 0.35 0.50 0.46 0.36 0.36 0.48 0.46 0.44 0.50 0.33 0.35 0.38 0.39 0.46 0.32 0.41 0.38 0.37 0.36 0.33 0.41 0.34 0.46 0.48 0.33 0.43 0.48 0.31 0.48 0.34 0.45 0.38 0.48 0.38 0.50 0.33 0.37 0.50 0.32 0.30 0.49 0.36 0.37 0.35 0.38 0.46 0.46 0.47 0.40 0.46 0.41 0.50 0.35 0.41 0.40 0.38 0.48 0.49 0.38 0.39 0.47 0.48 0.47 0.32 0.48 0.44 0.40 0.38 0.49 0.30 0.42 0.41 0.44 0.45 0.30 0.42 0.44 0.49 0.32 0.31 0.33 0.45 0.42 0.38 0.50 0.35 0.31 0.45 0.37 0.45 0.30 0.49 0.45 0.35 0.32 0.30 0.31 0.45 0.34 0.42 0.32 0.44 0.37 0.41 0.34 0.31 0.34 0.45 0.48 0.33 0.40 0.41 0.44 0.43 0.40 0.42 0.36 0.49 0.45 0.32 0.39 0.31 0.34 0.31 0.47 0.41 0.37 0.30 0.37 0.41 0.44 0.44 0.37 0.31 0.42 0.37 0.48 0.50 0.32 0.49 0.48 0.43 0.47 0.42 0.40 0.31 0.38 0.36 0.41 0.37 0.33 0.30 0.46 0.47 0.40 0.42 0.47 0.41 0.43 0.32 0.44 0.49 0.31 0.40 0.41 0.41 0.44 -9999 -9999 -9999 -9999 -9999 -9999 -9999 -9999 -9999 -9999 -9999 -9999 -9999 -9999 -9999 -9999 -9999
0.43 0.36 0.48 0.42 0.33 0.35 0.38 0.35 0.31 0.38 0.48 0.42 0.50 0.42 0.38 0.41 0.49 0.43 0.50 0.35 0.33 0.47 0.35 0.39 0.32 0.39 0.38 0.38 0.41 0.42 0.36 0.36 0.40 0.41 0.49 0.33 0.36 0.50 0.35 0.31 0.41 0.46 0.48 0.47 0.30 0.35 0.40 0.43 0.32 0.46 0.43 0.39 0.50 0.40 0.32 0.34 0.41 0.31 0.33 0.32 0.36 0.47 0.37 0.44 0.42 0.45 0.43 0.33 0.37 0.50 0.50 0.39 0.31 0.31 0.48 0.38 0.48 0.48 0.38 0.39 0.41 0.43 0.37 0.32 0.50 0.36 0.31 0.34 0.49 0.48 0.34 0.47 0.43 0.38 0.38 0.34 0.37 0.37 0.45 0.32 0.30 0.43 0.46 0.39 0.33 0.33 0.47 0.36 0.43 0.46 0.40 0.43 0.39 0.35 0.32 0.34 0.42 0.48 0.43 0.31 0.47 0.32 0.40 0.33 0.36 0.43 0.45 0.33 0.33 0.37 0.43 0.33 0.47 0.33 0.31 0.34 0.44 0.35 0.46 0.36 0.36 0.46 0.45 0.49 0.32 0.34 0.49 0.33 0.33 0.30 0.43 0.40 0.45 0.47 0.34 0.32 0.43 0.38 0.49 0.42 0.39 0.45 0.50 0.32 0.41 0.34 0.42 0.47 0.38 0.38 0.43 0.31 0.39 0.49 0.37 0.50 0.44 0.42 0.47 0.40 0.35 0.43 0.43 0.34 0.44 0.47 0.37 0.47 0.44 0.46 0.47 0.47 0.39 0.46 0.30 0.41 0.38 0.49 -9999 -9999 -9999 -9999 -9999 -9999 -9999 -9999 -9999 -9999 -9999 -9999 -9999 -9999 -9999 -9999 -9999
0.43 0.37 0.42 0.34 0.43 0.37 0.43 0.46 0.30 0.31 0.43 0.44 0.36 0.45 0.50 0.37 0.38 0.49 0.31 0.36 0.44 0.50 0.37 0.38 0.46 0.44 0.49 0.40 0.41 0.47 0.31 0.44 0.32 0.46 0.31 0.33 0.45 0.32 0.49 0.46 0.43 0.45 0.43 0.30 0.49 0.35 0.43 0.45 0.49 0.34 0.42 0.35 0.33 0.44 0.48 0.44 0.40 0.32 0.41 0.32 0.44 0.44 0.46 0.48 0.46 0.43 0.34 0.42 0.48 0.38 0.40 0.39 0.45 0.42 0.47 0.48 0.47 0.35 0.43 0.39 0.49 0.48 0.41 0.35 0.37 0.46 0.33 0.31 0.31 0.37 0.31 0.32 0.47 0.38 0.32 0.43 0.36 0.36 0.31 0.34 0.43 0.36 0.30 0.36 0.47 0.49 0.48 0.33 0.42 0.38 0.36 0.46 0.32 0.44 0.40 0.49 0.47 0.35 0.43 0.39 0.46 0.32 0.40 0.38 0.39 0.47 0.35 0.39 0.37 0.32 0.38 0.40 0.33 0.40 0.31 0.42 0.33 0.48 0.35 0.40 0.38 0.36 0.35 0.50 0.43 0.46 0.39 0.38 0.37 0.49 0.46 0.34 0.35 0.36 0.37 0.45 0.44 0.32 0.50 0.42 0.31 0.39 0.37 0.47 0.36 0.40 0.35 0.43 0.49 0.31 0.35 0.31 0.45 0.33 0.49 0.35 0.33 0.40 0.49 0.32 0.44 0.38 0.30 0.43 0.35 0.32 0.49 0.33 0.30 0.37 0.31 0.48 0.40 0.45 0.34 0.48 0.41 0.38 0.35 -9999 -9999 -9999 -9999 -9999 -9999 -9999 -9999 -9999 -9999 -9999 -9999 -9999 -9999 -9999 -9999
0.45 0.40 0.49 0.41 0.40 0.41 0.39 0.48 0.35 0.40 0.49 0.47 0.41 0.40 0.32 0.39 0.32 0.42 0.34 0.43 0.38 0.33 0.35 0.49 0.40 0.42 0.39 0.42 0.33 0.34 0.36 0.33 0.42 0.35 0.49 0.44 0.44 0.41 0.38 0.37 0.45 0.45 0.35 0.41 0.48 0.48 0.50 0.31 0.31 0.42 0.49 0.49 0.48 0.34 0.33 0.31 0.40 0.39 0.48 0.44 0.31 0.39 0.43 0.36 0.33 0.37 0.42 0.45 0.37 0.47 0.50 0.40 0.37 0.32 0.50 0.43 0.35 0.41 0.46 0.37 0.45 0.41 0.40 0.34 0.33 0.47 0.42 0.50 0.33 0.44 0.43 0.47 0.44 0.43 0.42 0.44 0.42 0.50 0.41 0.38 0.43 0.40 0.31 0.38 0.32 0.34 0.40 0.32 0.34 0.50 0.40 0.44 0.50 0.46 0.33 0.30 0.41 0.35 0.40 0.45 0.33 0.42 0.33 0.41 0.39 0.35 0.40 0.36 0.34 0.41 0.37 0.34 0.49 0.46 0.37 0.43 0.45 0.41 0.38 0.43 0.31 0.41 0.43 0.46 0.45 0.31 0.43 0.38 0.48 0.31 0.30 0.30 0.37 0.41 0.39 0.34 0.30 0.45 0.41 0.47 0.31 0.36 0.37 0.33 0.37 0.37 0.45 0.40 0.41 0.45 0.36 0.48 0.46 0.49 0.44 0.35 0.44 0.40 0.47 0.33 0.47 0.42 0.38 0.38 0.36 0.46 0.37 0.49 0.48 0.34 0.33 0.43 0.45 0.43 0.34 0.41 0.45 0.37 0.44 -9999 -9999 -9999 -9999 -9999 -9999 -9999 -9999 -9999 -9999 -9999 -9999 -9999 -9999 -9999 -9999
0.34 0.34 0.43 0.34 0.50 0.48 0.45 0.43 0.37 0.41 0.39 0.44 0.45 0.38 0.50 0.35 0.45 0.32 0.50 0.38 0.42 0.39 0.39 0.38 0.33 0.43 0.36 0.40 0.35 0.45 0.34 0.40 0.38 0.41 0.40 0.46 0.42 0.34 0.41 0.40 0.46 0.49 0.45 0.42 0.43 0.39 0.36 0.46 0.32 0.30 0.47 0.41 0.49 0.30 0.49 0.46 0.46 0.46 0.33 0.36 0.34 0.49 0.35 0.44 0.50 0.38 0.44 0.41 0.49 0.42 0.33 0.49 0.49 0.44 0.31 0.48 0.44 0.30 0.42 0.44 0.44 0.41 0.41 0.50 0.30 0.32 0.30 0.35 0.38 0.50 0.40 0.37 0.50 0.34 0.39 0.44 0.39 0.46 0.39 0.31 0.47 0.33 0.37 0.34 0.41 0.45 0.37 0.43 0.33 0.36 0.42 0.42 0.42 0.49 0.36 0.30 0.41 0.48 0.42 0.50 0.43 0.33 0.46 0.41 0.41 0.36 0.36 0.46 0.33 0.45 0.42 0.50 0.42 0.40 0.44 0.38 0.31 0.31 0.50 0.34 0.40 0.31 0.47 0.34 0.34 0.35 0.45 0.37 0.46 0.50 0.35 0.36 0.43 0.49 0.35 0.40 0.43 0.35 0.33 0.40 0.31 0.34 0.37 0.50 0.35 0.38 0.43 0.39 0.35 0.40 0.34 0.33 0.46 0.38 0.43 0.33 0.40 0.43 0.35 0.46 0.39 0.38 0.33 0.42 0.45 0.45 0.45 0.50 0.37 0.46 0.36 0.41 0.45 0.47 0.32 0.50 0.41 0.30 0.37 -9999 -9999 -9999 -9999 -9999 -9999 -9999 -9999 -9999 -9999 -9999 -9999 -9999 -9999 -9999 -9999
0.36 0.41 0.35 0.41 0.35 0.34 0.33 0.40 0.31 0.33 0.40 0.45 0.44 0.49 0.31 0.38 0.49 0.47 0.32 0.47 0.37 0.37 0.49 0.33 0.47 0.42 0.31 0.39 0.41 0.38 0.35 0.31 0.38 0.42 0.47 0.37 0.33 0.36 0.47 0.43 0.34 0.32 0.46 0.47 0.48 0.48 0.34 0.44 0.47 0.47 0.37 0.33 0.47 0.40 0.47 0.50 0.41 0.40 0.36 0.49 0.47 0.33 0.35 0.44 0.44 0.47 0.34 0.35 0.34 0.30 0.41 0.31 0.46 0.32 0.40 0.49 0.42 0.44 0.31 0.45 0.40 0.46 0.47 0.39 0.42 0.36 0.49 0.44 0.36 0.47 0.32 0.38 0.49 0.48 0.46 0.48 0.30 0.38 0.37 0.49 0.46 0.39 0.36 0.50 0.38 0.36 0.44 0.45 0.41 0.45 0.49 0.50 0.31 0.40 0.33 0.45 0.39 0.41 0.44 0.37 0.35 0.44 0.31 0.46 0.48 0.40 0.36 0.48 0.38 0.46 0.41 0.34 0.36 0.36 0.36 0.48 0.45 0.48 0.46 0.40 0.32 0.34 0.48 0.40 0.40 0.46 0.36 0.41 0.40 0.34 0.36 0.45 0.32 0.38 0.33 0.43 0.42 0.50 0.42 0.43 0.43 0.37 0.45 0.36 0.44 0.50 0.30 0.48 0.46 0.31 0.43 0.37 0.36 0.45 0.43 0.38 0.36 0.35 0.42 0.42 0.46 0.48 0.38 0.35 0.44 0.46 0.33 0.48 0.44 0.32 0.34 0.36 0.49 0.48 0.43 0.46 0.42 0.37 0.49 -9999 -9999 -9999 -9999 -9999 -9999 -9999 -9999 -9999 -9999 -9999 -9999 -9999 -9999 -9999 -9999
0.48 0.39 0.46 0.43 0.46 0.44 0.36 0.36 0.47 0.49 0.32 0.39 0.44 0.47 0.34 0.36 0.46 0.39 0.44 0.47 0.46 0.46 0.39 0.47 0.48 0.36 0.37 0.46 0.46 0.49 0.40 0.38 0.38 0.37 0.37 0.42 0.43 0.33 0.44 0.46 0.48 0.39 0.32 0.35 0.35 0.42 0.43 0.36 0.46 0.44 0.41 0.35 0.43 0.39 0.41 0.48 0.32 0.34 0.43 0.42 0.34 0.41 0.39 0.45 0.39 0.41 0.34 0.41 0.50 0.47 0.42 0.30 0.42 0.30 0.34 0.33 0.47 0.39 0.49 0.37 0.33 0.40 0.45 0.34 0.50 0.42 0.42 0.50 0.34 0.42 0.43 0.34 0.40 0.38 0.37 0.39 0.43 0.43 0.48 0.39 0.37 0.33 0.32 0.47 0.35 0.47 0.35 0.39 0.39 0.36 0.37 0.33 0.49 0.50 0.30 0.48 0.41 0.32 0.40 0.33 0.33 0.34 0.41 0.32 0.41 0.41 0.33 0.40 0.38 0.36 0.31 0.43 0.38 0.45 0.44 0.31 0.35 0.45 0.31 0.39 0.34 0.36 0.45 0.38 0.48 0.37 0.46 0.39 0.39 0.38 0.33 0.31 0.41 0.36 0.32 0.35 0.50 0.46 0.49 0.49 0.48 0.36 0.31 0.47 0.43 0.35 0.47 0.42 0.34 0.39 0.32 0.40 0.45 0.40 0.47 0.31 0.33 0.32 0.41 0.45 0.32 0.35 0.36 0.32 0.45 0.35 0.33 0.49 0.39 0.37 0.45 0.42 0.40 0.50 0.41 0.40 0.33 0.42 0.33 -9999 -9999 -9999 -9999 -9999 -9999 -9999 -9999 -9999 -9999 -9999 -9999 -9999 -9999 -9999 -9999
0.34 0.46 0.36 0.40 0.47 0.43 0.49 0.42 0.36 0.47 0.42 0.42 0.31 0.48 0.48 0.38 0.42 0.39 0.49 0.47 0.38 0.35 0.36 0.34 0.38 0.39 0.47 0.30 0.37 0.50 0.37 0.43 0.47 0.47 0.49 0.39 0.33 0.33 0.33 0.32 0.40 0.35 0.34 0.31 0.42 0.37 0.48 0.48 0.37 0.33 0.39 0.41 0.47 0.41 0.33 0.30 0.45 0.46 0.34 0.40 0.31 0.43 0.32 0.48 0.50 0.38 0.41 0.41 0.37 0.39 0.43 0.50 0.32 0.50 0.41 0.43 0.42 0.42 0.32 0.32 0.50 0.41 0.41 0.32 0.40 0.39 0.41 0.31 0.48 0.43 0.36 0.47 0.32 0.34 0.32 0.41 0.45 0.40 0.34 0.50 0.48 0.35 0.30 0.34 0.38 0.37 0.43 0.34 0.43 0.35 0.35 0.42 0.45 0.43 0.50 0.38 0.31 0.50 0.40 0.41 0.36 0.37 0.49 0.42 0.37 0.42 0.40 0.42 0.44 0.46 0.49 0.37 0.43 0.41 0.40 0.40 0.50 0.41 0.42 0.40 0.44 0.32 0.44 0.46 0.36 0.31 0.35 0.39 0.48 0.44 0.45 0.38 0.38 0.40 0.50 0.32 0.33 0.50 0.46 0.47 0.48 0.32 0.49 0.31 0.47 0.37 0.36 0.46 0.35 0.38 0.32 0.36 0.40 0.41 0.46 0.44 0.35 0.50 0.32 0.47 0.47 0.34 0.38 0.48 0.33 0.41 0.46 0.43 0.33 0.39 0.31 0.38 0.39 0.39 0.45 0.38 0.43 0.41 0.40 -9999 -9999 -9999 -9999 -9999 -9999 -9999 -9999 -9999 -9999 -9999 -9999 -9999 -9999 -9999 -9999
0.36 0.50 0.36 0.33 0.36 0.39 0.31 0.39 0.30 0.39 0.42 0.47 0.38 0.44 0.50 0.43 0.39 0.46 0.49 0.36 0.34 0.48 0.40 0.39 0.31 0.37 0.31 0.36 0.34 0.39 0.47 0.31 0.47 0.50 0.38 0.39 0.46 0.48 0.35 0.31 0.41 0.48 0.33 0.38 0.30 0.35 0.33 0.46 0.37 0.34 0.34 0.37 0.39 0.33 0.48 0.41 0.34 0.37 0.37 0.38 0.48 0.43 0.33 0.36 0.48 0.45 0.32 0.49 0.48 0.33 0.35 0.49 0.38 0.43 0.41 0.34 0.46 0.41 0.48 0.41 0.30 0.35 0.36 0.31 0.34 0.42 0.41 0.50 0.44 0.37 0.47 0.46 0.48 0.42 0.44 0.36 0.36 0.49 0.45 0.45 0.34 0.42 0.40 0.45 0.45 0.41 0.46 0.47 0.44 0.36 0.46 0.35 0.34 0.31 0.47 0.44 0.32 0.45 0.39 0.43 0.33 0.32 0.37 0.43 0.36 0.40 0.43 0.40 0.39 0.46 0.44 0.49 0.39 0.38 0.32 0.39 0.35 0.38 0.43 0.31 0.35 0.46 0.49 0.48 0.38 0.40 0.40 0.34 0.40 0.37 0.33 0.42 0.34 0.33 0.39 0.46 0.43 0.39 0.39 0.49 0.35 0.48 0.36 0.47 0.35 0.35 0.40 0.31 0.39 0.30 0.44 0.32 0.45 0.43 0.47 0.37 0.30 0.34 0.41 0.44 0.34 0.42 0.50 0.42 0.40 0.37 0.32 0.34 0.38 0.44 0.34 0.41 0.39 0.47 0.39 0.42 0.35 0.47 0.32 0.44 -9999 -9999 -9999 -9999 -9999 -9999 -9999 -9999 -9999 -9999 -9999 -9999 -9999 -9999 -9999
0.46 0.44 0.39 0.46 0.40 0.32 0.44 0.48 0.42 0.39 0.48 0.45 0.34 0.38 0.47 0.37 0.40 0.37 0.32 0.37 0.38 0.42 0.45 0.41 0.34 0.32 0.37 0.49 0.40 0.41 0.35 0.48 0.42 0.30 0.34 0.38 0.44 0.41 0.30 0.43 0.42 0.48 0.44 0.46 0.43 0.46 0.30 0.32 0.38 0.44 0.44 0.42 0.36 0.31 0.39 0.44 0.45 0.41 0.34 0.40 0.49 0.44 0.31 0.35 0.42 0.42 0.30 0.45 0.45 0.49 0.48 0.42 0.34 0.38 0.39 0.33 0.41 0.49 0.38 0.42 0.34 0.32 0.41 0.37 0.36 0.38 0.45 0.36 0.47 0.37 0.47 0.37 0.37 0.40 0.39 0.39 0.45 0.32 0.35 0.45 0.41 0.46 0.41 0.48 0.31 0.48 0.38 0.42 0.40 0.49 0.30 0.48 0.40 0.49 0.34 0.35 0.41 0.50 0.49 0.46 0.43 0.42 0.37 0.47 0.39 0.40 0.40 0.32 0.47 0.31 0.34 0.35 0.44 0.33 0.36 0.38 0.41 0.36 0.46 0.41 0.47 0.49 0.40 0.34 0.44 0.38 0.39 0.46 0.39 0.39 0.34 0.34 0.41 0.43 0.31 0.49 0.38 0.45 0.34 0.50 0.41 0.35 0.45 0.47 0.31 0.34 0.39 0.40 0.48 0.44 0.47 0.44 0.44 0.45 0.45 0.39 0.41 0.45 0.41 0.31 0.31 0.48 0.44 0.33 0.35 0.33 0.32 0.40 0.36 0.41 0.38 0.49 0.44 0.39 0.35 0.42 0.39 0.37 0.32 0.33 -9999 -9999 -9999 0.49 0.38 0.48 0.46 0.37 0.33 -9999 -9999 -9999 -9999 -9999 -9999
0.45 0.45 0.44 0.49 0.42 0.41 0.49 0.32 0.36 0.32 0.41 0.44 0.46 0.37 0.40 0.41 0.38 0.44 0.31 0.41 0.33 0.37 0.37 0.45 0.31 0.38 0.37 0.32 0.31 0.30 0.45 0.34 0.37 0.35 0.42 0.34 0.49 0.42 0.37 0.37 0.48 0.34 0.35 0.39 0.47 0.48 0.43 0.37 0.41 0.45 0.37 0.49 0.30 0.48 0.48 0.33 0.32 0.39 0.32 0.47 0.38 0.38 0.35 0.47 0.33 0.39 0.31 0.33 0.43 0.44 0.31 0.32 0.49 0.39 0.32 0.48 0.45 0.38 0.31 0.42 0.45 0.30 0.50 0.36 0.45 0.32 0.36 0.43 0.33 0.38 0.45 0.37 0.31 0.42 0.48 0.36 0.43 0.47 0.40 0.34 0.32 0.33 0.39 0.44 0.30 0.48 0.40 0.40 0.46 0.41 0.37 0.33 0.36 0.35 0.45 0.49 0.37 0.40 0.45 0.45 0.41 0.33 0.35 0.42 0.45 0.41 0.48 0.39 0.36 0.47 0.41 0.49 0.48 0.48 0.49 0.37 0.37 0.37 0.36 0.50 0.35 0.44 0.34 0.30 0.47 0.31 0.35 0.41 0.35 0.31 0.49 0.40 0.47 0.45 0.37 0.32 0.48 0.33 0.47 0.45 0.38 0.44 0.38 0.33 0.38 0.42 0.39 0.44 0.50 0.49 0.50 0.41 0.38 0.43 0.47 0.43 0.30 0.44 0.37 0.38 0.33 0.30 0.32 0.41 0.37 0.41 0.40 0.38 0.44 0.36 0.47 0.45 0.40 0.42 0.32 0.49 0.34 0.46 0.42 0.36 0.41 0.42 0.36 0.33 0.40 0.37 0.47 0.34 0.41 0.44 -9999 -9999 -9999 -9999 -9999
0.47 0.33 0.30 0.47 0.47 0.45 0.46 0.46 0.32 0.34 0.32 0.30 0.47 0.37 0.41 0.32 0.39 0.41 0.31 0.47 0.32 0.48 0.46 0.32 0.41 0.49 0.40 0.38 0.37 0.42 0.37 0.50 0.40 0.32 0.49 0.41 0.33 0.33 0.47 0.47 0.39 0.33 0.42 0.48 0.36 0.46 0.35 0.38 0.47 0.47 0.47 0.35 0.39 0.49 0.46 0.43 0.46 0.32 0.46 0.37 0.35 0.31 0.40 0.42 0.39 0.43 0.46 0.41 0.47 0.34 0.35 0.32 0.39 0.38 0.45 0.34 0.37 0.46 0.44 0.35 0.45 0.34 0.50 0.44 0.32 0.36 0.36 0.36 0.49 0.34 0.30 0.39 0.34 0.37 0.36 0.43 0.41 0.34 0.45 0.37 0.33 0.33 0.41 0.40 0.48 0.45 0.35 0.49 0.46 0.31 0.37 0.46 0.33 0.47 0.36 0.44 0.43 0.35 0.36 0.32 0.40 0.38 0.34 0.40 0.41 0.43 0.45 0.44 0.48 0.41 0.39 0.43 0.37 0.38 0.39 0.49 0.48 0.37 0.36 0.50 0.41 0.38 0.34 0.48 0.36 0.49 0.37 0.35 0.37 0.43 0.40 0.35 0.33 0.31 0.37 0.47 0.43 0.44 0.40 0.44 0.31 0.35 0.33 0.46 0.37 0.46 0.47 0.31 0.44 0.32 0.46 0.45 0.34 0.33 0.37 0.38 0.35 0.40 0.30 0.43 0.41 0.41 0.46 0.48 0.31 0.38 0.33 0.41 0.42 0.36 0.46 0.45 0.47 0.33 0.33 0.45 0.38 0.45 0.33 0.42 0.37 0.36 0.39 0.34 0.39 0.46 0.46 0.47 0.46 0.38 -9999 -9999 -9999 -9999 -9999
0.41 0.31 0.50 0.40 0.40 0.45 0.46 0.47 0.41 0.41 0.33 0.33 0.43 0.37 0.41 0.40 0.30 0.31 0.33 0.42 0.40 0.37 0.49 0.34 0.42 0.36 0.31 0.47 0.40 0.43 0.31 0.49 0.34 0.41 0.38 0.32 0.47 0.46 0.34 0.50 0.49 0.30 0.36 0.44 0.48 0.39 0.36 0.31 0.32 0.30 0.41 0.39 0.43 0.49 0.34 0.34 0.32 0.50 0.41 0.33 0.37 0.36 0.43 0.42 0.38 0.37 0.41 0.37 0.40 0.49 0.43 0.42 0.37 0.42 0.43 0.48 0.48 0.37 0.43 0.49 0.43 0.42 0.33 0.36 0.33 0.46 0.41 0.37 0.45 0.37 0.35 0.36 0.34 0.32 0.44 0.32 0.49 0.37 0.41 0.37 0.31 0.47 0.48 0.32 0.39 0.33 0.42 0.40 0.39 0.36 0.37 0.31 0.34 0.38 0.36 0.39 0.42 0.41 0.46 0.39 0.40 0.36 0.45 0.36 0.36 0.31 0.39 0.44 0.49 0.40 0.35 0.44 0.50 0.39 0.33 0.45 0.43 0.39 0.33 0.46 0.48 0.40 0.36 0.36 0.41 0.41 0.37 0.42 0.46 0.49 0.33 0.31 0.48 0.34 0.40 0.42 0.41 0.50 0.41 0.31 0.45 0.45 0.37 0.50 0.50 0.36 0.49 0.33 0.46 0.45 0.40 0.40 0.45 0.33 0.36 0.35 0.37 0.33 0.32 0.40 0.32 0.42 0.45 0.47 0.47 0.35 0.35 0.39 0.36 0.31 0.41 0.47 0.36 0.40 0.40 0.38 0.35 0.32 0.42 0.41 0.39 0.43 0.35 0.40 0.50 0.36 0.45 0.31 0.38 0.37 -9999 -9999 -9999 -9999 -9999
0.43 0.37 0.48 0.39 0.45 0.36 0.40 0.33 0.37 0.41 0.34 0.37 0.38 0.47 0.33 0.46 0.42 0.47 0.40 0.32 0.32 0.32 0.40 0.39 0.47 0.44 0.36 0.37 0.47 0.34 0.42 0.38 0.45 0.45 0.42 0.41 0.48 0.40 0.39 0.36 0.45 0.40 0.47 0.37 0.32 0.42 0.30 0.49 0.40 0.48 0.47 0.46 0.46 0.42 0.34 0.39 0.38 0.34 0.42 0.32 0.42 0.41 0.35 0.42 0.44 0.36 0.44 0.30 0.36 0.46 0.48 0.39 0.35 0.45 0.47 0.34 0.48 0.50 0.40 0.32 0.43 0.36 0.31 0.42 0.35 0.48 0.32 0.42 0.46 0.46 0.48 0.31 0.49 0.45 0.40 0.48 0.43 0.30 0.45 0.37 0.40 0.40 0.49 0.30 0.50 0.32 0.41 0.41 0.32 0.44 0.41 0.30 0.42 0.44 0.45 0.42 0.38 0.34 0.34 0.43 0.37 0.31 0.48 0.47 0.39 0.32 0.39 0.46 0.32 0.44 0.34 0.44 0.43 0.36 0.33 0.40 0.44 0.32 0.30 0.31 0.44 0.47 0.46 0.33 0.39 0.32 0.41 0.43 0.38 0.43 0.40 0.35 0.37 0.43 0.39 0.40 0.34 0.43 0.39 0.45 0.45 0.39 0.39 0.45 0.33 0.38 0.37 0.45 0.39 0.36 0.32 0.33 0.32 0.42 0.47 0.37 0.32 0.37 0.41 0.45 0.45 0.45 0.45 0.39 0.44 0.35 0.44 0.46 0.42 0.38 0.36 0.44 0.50 0.37 0.49 0.39 0.40 0.46 0.46 0.41 0.30 0.32 0.37 0.44 0.36 0.50 0.47 0.42 0.38 0.31 -9999 -9999 -9999 -9999 -9999
0.45 0.47 0.36 0.35 0.50 0.38 0.31 0.47 0.36 0.36 0.35 0.37 0.43 0.40 0.38 0.49 0.37 0.40 0.35 0.36 0.39 0.38 0.36 0.42 0.46 0.47 0.32 0.37 0.39 0.35 0.38 0.41 0.45 0.39 0.43 0.41 0.32 0.32 0.42 0.45 0.30 0.30 0.50 0.43 0.50 0.35 0.41 0.38 0.40 0.41 0.38 0.43 0.43 0.36 0.36 0.43 0.49 0.33 0.35 0.40 0.43 0.37 0.34 0.36 0.43 0.44 0.30 0.33 0.34 0.33 0.37 0.44 0.36 0.43 0.38 0.42 0.40 0.45 0.39 0.32 0.49 0.46 0.35 0.31 0.45 0.47 0.30 0.44 0.48 0.38 0.36 0.39 0.38 0.50 0.45 0.40 0.40 0.33 0.35 0.35 0.35 0.34 0.48 0.40 0.37 0.42 0.37 0.39 0.45 0.44 0.38 0.46 0.42 0.46 0.40 0.47 0.49 0.32 0.48 0.49 0.38 0.33 0.32 0.39 0.48 0.43 0.49 0.49 0.36 0.42 0.45 0.42 0.36 0.33 0.32 0.33 0.32 0.40 0.47 0.43 0.46 0.40 0.37 0.32 0.41 0.48 0.46 0.46 0.37 0.36 0.48 0.43 0.40 0.49 0.44 0.35 0.40 0.35 0.36 0.38 0.49 0.39 0.31 0.41 0.45 0.30 0.36 0.43 0.34 0.48 0.45 0.32 0.46 0.44 0.30 0.45 0.40 0.35 0.39 0.33 0.34 0.43 0.41 0.48 0.49 0.49 0.32 0.49 0.46 0.31 0.40 0.41 0.32 0.48 0.42 0.45 0.50 0.49 0.49 0.39 0.44 0.46 0.33 0.39 0.34 0.39 0.45 0.39 0.37 0.39 -9999 -9999 -9999 -9999 -9999
0.43 0.40 0.44 0.31 0.48 0.31 0.49 0.45 0.35 0.49 0.47 0.39 0.32 0.36 0.45 0.42 0.30 0.38 0.32 0.47 0.40 0.37 0.30 0.32 0.33 0.37 0.46 0.48 0.47 0.48 0.48 0.45 0.45 0.50 0.31 0.33 0.41 0.35 0.45 0.35 0.31 0.38 0.48 0.42 0.43 0.46 0.32 0.40 0.47 0.43 0.49 0.44 0.33 0.44 0.40 0.33 0.50 0.33 0.31 0.43 0.39 0.38 0.31 0.40 0.48 0.43 0.32 0.33 0.38 0.34 0.39 0.35 0.43 0.32 0.43 0.30 0.48 0.48 0.44 0.44 0.32 0.48 0.42 0.31 0.46 0.43 0.46 0.34 0.32 0.42 0.46 0.31 0.45 0.33 0.39 0.35 0.36 0.36 0.48 0.49 0.42 0.33 0.45 0.34 0.41 0.47 0.44 0.43 0.31 0.49 0.45 0.45 0.37 0.35 0.43 0.47 0.46 0.49 0.36 0.43 0.39 0.44 0.39 0.30 0.30 0.33 0.38 0.40 0.33 0.33 0.37 0.48 0.38 0.39 0.38 0.38 0.42 0.38 0.41 0.48 0.37 0.35 0.37 0.37 0.50 0.43 0.47 0.39 0.43 0.41 0.34 0.46 0.47 0.50 0.33 0.40 0.42 0.34 0.48 0.37 0.49 0.45 0.48 0.46 0.35 0.47 0.33 0.45 0.32 0.32 0.48 0.43 0.45 0.48 0.33 0.41 0.43 0.37 0.44 0.37 0.36 0.37 0.44 0.33 0.32 0.41 0.36 0.44 0.36 0.30 0.35 0.34 0.39 0.48 0.39 0.48 0.47 0.36 0.46 0.31 0.41 0.46 0.48 0.31 0.43 0.47 0.50 0.35 0.32 0.33 -9999 -9999 -9999 -9999 -9999
0.30 0.37 0.32 0.38 0.42 0.32 0.43 0.34 0.44 0.46 0.47 0.37 0.49 0.37 0.30 0.47 0.48 0.34 0.41 0.49 0.33 0.50 0.40 0.45 0.47 0.40 0.48 0.44 0.41 0.46 0.49 0.35 0.31 0.40 0.48 0.43 0.35 0.40 0.40 0.38 0.35 0.30 0.45 0.44 0.30 0.50 0.40 0.37 0.33 0.48 0.47 0.43 0.46 0.36 0.39 0.41 0.34 0.35 0.43 0.43 0.31 0.39 0.31 0.36 0.47 0.31 0.50 0.44 0.42 0.47 0.49 0.32 0.37 0.43 0.42 0.38 0.39 0.43 0.40 0.46 0.40 0.41 0.40 0.41 0.43 0.38 0.38 0.36 0.46 0.33 0.49 0.33 0.36 0.40 0.39 0.37 0.30 0.37 0.32 0.40 0.43 0.38 0.38 0.36 0.30 0.36 0.34 0.31 0.31 0.41 0.34 0.49 0.37 0.35 0.49 0.47 0.35 0.34 0.46 0.39 0.43 0.49 0.42 0.42 0.30 0.49 0.41 0.30 0.44 0.43 0.45 0.41 0.32 0.42 0.35 0.38 0.32 0.48 0.45 0.34 0.32 0.40 0.35 0.35 0.43 0.36 0.36 0.47 0.48 0.33 0.31 0.39 0.31 0.36 0.39 0.40 0.38 0.32 0.42 0.36 0.42 0.44 0.34 0.40 0.37 0.38 0.31 0.45 0.45 0.35 0.32 0.40 0.44 0.33 0.39 0.48 0.39 0.49 0.48 0.42 0.41 0.39 0.41 0.47 0.31 0.36 0.37 0.41 0.32 0.45 0.42 0.39 0.34 0.47 0.36 0.47 0.40 0.40 0.47 0.47 0.36 0.39 0.42 0.45 0.32 0.40 0.35 0.39 0.30 0.34 -9999 -9999 -9999 -9999 -9999
0.32 0.49 0.45 0.34 0.39 0.33 0.35 0.38 0.34 0.31 0.47 0.48 0.37 0.42 0.31 0.38 0.34 0.38 0.31 0.42 0.44 0.38 0.49 0.40 0.50 0.33 0.39 0.31 0.50 0.33 0.34 0.35 0.35 0.35 0.44 0.31 0.49 0.46 0.49 0.49 0.37 0.40 0.43 0.35 0.35 0.46 0.44 0.31 0.43 0.32 0.43 0.40 0.43 0.49 0.49 0.41 0.35 0.49 0.37 0.45 0.46 0.36 0.48 0.45 0.36 0.45 0.44 0.44 0.48 0.33 0.44 0.35 0.39 0.32 0.39 0.46 0.40 0.36 0.40 0.33 0.42 0.37 0.41 0.43 0.31 0.38 0.39 0.36 0.49 0.32 0.48 0.41 0.48 0.46 0.41 0.48 0.45 0.45 0.41 0.37 0.47 0.47 0.30 0.49 0.42 0.49 0.41 0.44 0.33 0.47 0.33 0.36 0.34 0.32 0.43 0.45 0.37 0.39 0.37 0.45 0.32 0.34 0.49 0.45 0.44 0.31 0.41 0.31 0.45 0.46 0.38 0.38 0.32 0.45 0.31 0.45 0.31 0.38 0.40 0.47 0.36 0.30 0.38 0.36 0.32 0.34 0.41 0.49 0.31 0.41 0.41 0.38 0.41 0.36 0.43 0.47 0.47 0.34 0.37 0.47 0.41 0.36 0.34 0.39 0.47 0.37 0.34 0.45 0.32 0.41 0.40 0.46 0.45 0.37 0.32 0.44 0.38 0.40 0.41 0.39 0.36 0.45 0.44 0.47 0.47 0.31 0.32 0.36 0.40 0.44 0.35 0.34 0.32 0.49 0.33 0.39 0.35 0.31 0.46 0.34 0.46 0.36 0.47 0.30 0.43 0.45 0.44 0.40 0.39 0.34 0.44 -9999 -9999 -9999 -9999
0.34 0.31 0.45 0.38 0.49 0.33 0.40 0.43 0.35 0.48 0.37 0.40 0.37 0.31 0.32 0.45 0.50 0.33 0.30 0.35 0.37 0.37 0.44 0.38 0.44 0.30 0.35 0.34 0.48 0.48 0.39 0.39 0.49 0.43 0.30 0.50 0.46 0.49 0.39 0.32 0.39 0.32 0.48 0.36 0.36 0.48 0.43 0.45 0.32 0.32 0.36 0.37 0.39 0.48 0.33 0.34 0.34 0.49 0.35 0.45 0.40 0.46 0.38 0.50 0.36 0.44 0.44 0.36 0.42 0.32 0.31 0.32 0.49 0.44 0.31 0.47 0.34 0.34 0.32 0.43 0.50 0.39 0.39 0.31 0.39 0.36 0.36 0.30 0.44 0.46 0.41 0.37 0.42 0.44 0.32 0.50 0.33 0.50 0.48 0.43 0.50 0.38 0.43 0.37 0.36 0.36 0.45 0.40 0.49 0.45 0.32 0.37 0.43 0.40 0.38 0.38 0.42 0.41 0.43 0.46 0.30 0.42 0.47 0.33 0.40 0.43 0.35 0.39 0.47 0.39 0.43 0.39 0.38 0.45 0.39 0.42 0.32 0.33 0.33 0.37 0.34 0.47 0.40 0.40 0.49 0.34 0.44 0.37 0.44 0.42 0.45 0.31 0.40 0.34 0.46 0.37 0.34 0.44 0.38 0.31 0.42 0.39 0.41 0.46 0.40 0.43 0.30 0.47 0.47 0.43 0.40 0.32 0.31 0.43 0.44 0.47 0.38 0.48 0.37 0.36 0.39 0.45 0.48 0.35 0.32 0.48 0.35 0.37 0.37 0.36 0.40 0.38 0.38 0.45 0.49 0.30 0.46 0.37 0.34 0.44 0.37 0.33 0.36 0.45 0.43 0.44 0.38 0.31 0.44 0.45 0.41 -9999 -9999 -9999 -9999
0.34 0.49 0.36 0.30 0.45 0.36 0.41 0.34 0.37 0.38 0.48 0.46 0.38 0.39 0.41 0.49 0.42 0.34 0.33 0.35 0.39 0.39 0.34 0.48 0.49 0.46 0.49 0.47 0.46 0.41 0.44 0.33 0.35 0.39 0.31 0.35 0.37 0.48 0.38 0.35 0.41 0.31 0.38 0.36 0.43 0.44 0.50 0.43 0.50 0.46 0.32 0.48 0.31 0.31 0.34 0.47 0.40 0.37 0.40 0.47 0.43 0.31 0.40 0.42 0.49 0.36 0.40 0.31 0.32 0.30 0.35 0.47 0.47 0.37 0.42 0.33 0.37 0.36 0.36 0.39 0.32 0.30 0.34 0.33 0.30 0.43 0.40 0.36 0.34 0.41 0.43 0.35 0.49 0.48 0.48 0.46 0.31 0.30 0.37 0.47 0.45 0.43 0.34 0.38 0.44 0.41 0.37 0.47 0.35 0.33 0.47 0.35 0.40 0.42 0.42 0.35 0.49 0.46 0.43 0.31 0.32 0.45 0.30 0.47 0.37 0.34 0.38 0.43 0.43 0.35 0.45 0.42 0.48 0.35 0.39 0.42 0.32 0.42 0.49 0.31 0.33 0.43 0.44 0.37 0.37 0.37 0.34 0.44 0.34 0.45 0.41 0.40 0.47 0.38 0.41 0.31 0.41 0.33 0.43 0.46 0.37 0.36 0.33 0.39 0.40 0.42 0.32 0.34 0.36 0.48 0.49 0.37 0.36 0.40 0.40 0.45 0.35 0.35 0.44 0.36 0.48 0.41 0.38 0.42 0.34 0.35 0.43 0.33 0.46 0.37 0.32 0.42 0.39 0.46 0.37 0.47 0.42 0.40 0.33 0.37 0.49 0.41 0.32 0.48 0.46 0.31 0.44 0.40 0.32 0.50 0.49 -9999 -9999 -9999 -9999
0.38 0.38 0.32 0.32 0.39 0.35 0.30 0.48 0.49 0.45 0.47 0.49 0.40 0.48 0.47 0.41 0.44 0.36 0.41 0.45 0.38 0.41 0.40 0.48 0.42 0.40 0.36 0.48 0.36 0.45 0.41 0.31 0.37 0.46 0.50 0.36 0.36 0.40 0.39 0.31 0.44 0.41 0.38 0.45 0.39 0.46 0.35 0.48 0.37 0.42 0.40 0.39 0.40 0.33 0.38 0.31 0.36 0.36 0.32 0.49 0.32 0.46 0.42 0.45 0.47 0.44 0.31 0.41 0.49 0.34 0.31 0.42 0.50 0.39 0.33 0.48 0.33 0.47 0.37 0.49 0.45 0.47 0.30 0.47 0.48 0.43 0.37 0.40 0.49 0.43 0.31 0.31 0.37 0.33 0.32 0.30 0.49 0.34 0.33 0.43 0.44 0.38 0.49 0.44 0.47 0.38 0.34 0.43 0.38 0.32 0.42 0.48 0.50 0.42 0.30 0.37 0.49 0.45 0.34 0.43 0.41 0.49 0.48 0.34 0.31 0.43 0.33 0.45 0.34 0.37 0.31 0.44 0.39 0.46 0.33 0.32 0.37 0.31 0.45 0.44 0.32 0.45 0.40 0.31 0.37 0.39 0.44 0.43 0.42 0.40 0.45 0.48 0.43 0.43 0.40 0.49 0.39 0.32 0.37 0.39 0.44 0.35 0.43 0.32 0.50 0.40 0.48 0.43 0.39 0.36 0.43 0.49 0.39 0.33 0.50 0.39 0.33 0.42 0.42 0.47 0.31 0.38 0.38 0.43 0.37 0.42 0.43 0.34 0.49 0.31 0.41 0.33 0.48 0.34 0.35 0.36 0.32 0.46 0.38 0.46 0.42 0.49 0.43 0.37 0.41 0.37 0.41 0.30 0.35 0.45 0.40 -9999 -9999 -9999 -9999
0.48 0.44 0.39 0.35 0.37 0.36 0.43 0.42 0.33 0.40 0.36 0.31 0.36 0.42 0.42 0.40 0.44 0.48 0.48 0.50 0.49 0.37 0.32 0.35 0.31 0.34 0.40 0.42 0.35 0.43 0.33 0.45 0.38 0.42 0.30 0.50 0.50 0.32 0.33 0.42 0.47 0.44 0.31 0.42 0.38 0.45 0.42 0.32 0.37 0.48 0.42 0.35 0.33 0.40 0.48 0.44 0.34 0.44 0.46 0.31 0.44 0.36 0.46 0.31 0.46 0.32 0.39 0.31 0.45 0.38 0.43 0.31 0.45 0.47 0.44 0.45 0.38 0.42 0.33 0.45 0.43 0.35 0.48 0.32 0.45 0.32 0.32 0.45 0.49 0.34 0.42 0.37 0.43 0.37 0.39 0.36 0.39 0.49 0.43 0.36 0.48 0.33 0.31 0.37 0.42 0.43 0.33 0.50 0.34 0.48 0.39 0.44 0.44 0.38 0.48 0.37 0.45 0.48 0.31 0.35 0.40 0.44 0.42 0.37 0.44 0.37 0.36 0.33 0.36 0.46 0.47 0.31 0.36 0.42 0.36 0.30 0.47 0.37 0.39 0.33 0.42 0.45 0.35 0.45 0.45 0.31 0.38 0.31 0.44 0.48 0.35 0.35 0.31 0.40 0.46 0.38 0.33 0.37 0.34 0.50 0.33 0.46 0.49 0.45 0.42 0.33 0.45 0.39 0.42 0.38 0.43 0.33 0.34 0.33 0.32 0.45 0.33 0.39 0.34 0.37 0.35 0.35 0.31 0.40 0.43 0.44 0.31 0.32 0.41 0.33 0.46 0.49 0.32 0.44 0.50 0.36 0.48 0.38 0.34 0.31 0.43 0.32 0.39 0.43 0.32 0.41 0.41 0.34 0.44 0.50 0.40 -9999 -9999 -9999 -9999
0.45 0.31 0.49 0.41 0.38 0.39 0.32 0.40 0.31 0.47 0.34 0.49 0.49 0.44 0.34 0.38 0.30 0.37 0.42 0.39 0.38 0.36 0.33 0.45 0.48 0.37 0.43 0.45 0.48 0.33 0.37 0.50 0.38 0.35 0.45 0.45 0.36 0.43 0.38 0.37 0.39 0.40 0.38 0.43 0.42 0.44 0.40 0.34 0.40 0.37 0.35 0.48 0.35 0.41 0.40 0.34 0.44 0.46 0.40 0.48 0.34 0.32 0.32 0.31 0.38 0.48 0.38 0.45 0.35 0.35 0.46 0.48 0.41 0.38 0.49 0.34 0.40 0.43 0.37 0.40 0.31 0.31 0.39 0.37 0.36 0.39 0.47 0.47 0.46 0.31 0.43 0.35 0.44 0.31 0.45 0.32 0.31 0.32 0.37 0.49 0.38 0.38 0.36 0.38 0.50 0.32 0.41 0.38 0.31 0.36 0.31 0.33 0.43 0.46 0.33 0.40 0.48 0.37 0.39 0.31 0.43 0.37 0.45 0.38 0.34 0.49 0.34 0.34 0.35 0.47 0.35 0.44 0.39 0.38 0.41 0.42 0.32 0.45 0.42 0.32 0.49 0.48 0.40 0.49 0.37 0.44 0.30 0.48 0.50 0.38 0.40 0.49 0.32 0.34 0.44 0.41 0.40 0.31 0.49 0.48 0.35 0.44 0.35 0.33 0.43 0.39 0.42 0.30 0.50 0.34 0.49 0.43 0.33 0.48 0.40 0.50 0.30 0.42 0.50 0.49 0.31 0.48 0.34 0.46 0.32 0.38 0.31 0.46 0.36 0.32 0.39 0.47 0.31 0.42 0.44 0.42 0.34 0.50 0.48 0.33 0.40 0.48 0.31 0.49 0.31 0.30 0.42 0.45 0.48 0.40 0.42 -9999 -9999 -9999 -9999
0.37 0.44 0.43 0.39 0.33 0.49 0.36 0.45 0.45 0.48 0.38 0.38 0.49 0.36 0.41 0.47 0.45 0.31 0.45 0.41 0.31 0.32 0.37 0.34 0.42 0.35 0.45 0.47 0.38 0.43 0.39 0.37 0.44 0.34 0.47 0.35 0.47 0.33 0.36 0.46 0.32 0.40 0.50 0.49 0.33 0.30 0.47 0.32 0.42 0.44 0.41 0.42 0.47 0.48 0.32 0.43 0.50 0.48 0.30 0.40 0.33 0.32 0.35 0.37 0.42 0.36 0.40 0.39 0.41 0.38 0.31 0.41 0.41 0.33 0.40 0.35 0.34 0.43 0.33 0.49 0.35 0.44 0.40 0.38 0.33 0.33 0.47 0.40 0.37 0.43 0.38 0.39 0.36 0.39 0.36 0.43 0.44 0.44 0.48 0.41 0.38 0.48 0.34 0.33 0.47 0.37 0.44 0.37 0.33 0.37 0.34 0.46 0.46 0.32 0.45 0.39 0.35 0.45 0.39 0.45 0.33 0.44 0.44 0.43 0.33 0.49 0.41 0.33 0.33 0.40 0.32 0.42 0.49 0.32 0.41 0.46 0.32 0.41 0.36 0.45 0.43 0.40 0.35 0.48 0.31 0.41 0.41 0.37 0.48 0.44 0.36 0.49 0.47 0.42 0.50 0.44 0.36 0.39 0.47 0.32 0.49 0.37 0.35 0.49 0.33 0.42 0.47 0.36 0.39 0.32 0.47 0.39 0.42 0.49 0.46 0.36 0.38 0.43 0.40 0.40 0.37 0.36 0.44 0.30 0.36 0.45 0.32 0.47 0.48 0.45 0.34 0.34 0.42 0.41 0.37 0.35 0.47 0.44 0.47 0.41 0.44 0.33 0.31 0.40 0.45 0.33 0.36 0.45 0.34 0.40 0.41 0.49 -9999 -9999 -9999
0.32 0.49 0.45 0.47 0.39 0.49 0.50 0.32 0.47 0.40 0.44 0.35 0.31 0.37 0.46 0.48 0.32 0.39 0.37 0.35 0.48 0.38 0.38 0.44 0.46 0.34 0.36 0.42 0.42 0.49 0.41 0.49 0.48 0.32 0.34 0.35 0.40 0.34 0.40 0.38 0.47 0.32 0.39 0.46 0.45 0.46 0.41 0.46 0.31 0.31 0.44 0.38 0.42 0.44 0.41 0.40 0.35 0.40 0.42 0.32 0.40 0.48 0.40 0.41 0.31 0.43 0.31 0.40 0.47 0.42 0.33 0.30 0.39 0.50 0.41 0.41 0.44 0.34 0.43 0.48 0.39 0.44 0.41 0.44 0.44 0.39 0.46 0.31 0.35 0.49 0.31 0.45 0.32 0.40 0.49 0.49 0.44 0.40 0.45 0.44 0.48 0.40 0.34 0.47 0.31 0.38 0.35 0.47 0.46 0.41 0.34 0.36 0.50 0.42 0.49 0.44 0.32 0.34 0.44 0.39 0.48 0.46 0.31 0.48 0.32 0.33 0.44 0.41 0.47 0.40 0.49 0.46 0.42 0.37 0.36 0.47 0.44 0.34 0.37 0.40 0.33 0.38 0.32 0.33 0.34 0.35 0.39 0.34 0.35 0.46 0.50 0.45 0.39 0.39 0.46 0.48 0.38 0.36 0.44 0.38 0.34 0.43 0.41 0.37 0.47 0.37 0.43 0.38 0.30 0.31 0.34 0.33 0.48 0.33 0.43 0.46 0.41 0.44 0.37 0.45 0.36 0.44 0.45 0.34 0.37 0.41 0.31 0.44 0.42 0.45 0.34 0.42 0.48 0.47 0.50 0.31 0.44 0.32 0.50 0.48 0.40 0.50 0.35 0.36 0.36 0.47 0.32 0.35 0.39 0.49 0.41 0.48 -9999 -9999 -9999
0.34 0.47 0.31 0.47 0.48 0.42 0.34 0.39 0.37 0.42 0.34 0.44 0.33 0.42 0.47 0.44 0.48 0.49 0.34 0.44 0.40 0.43 0.49 0.40 0.38 0.33 0.46 0.37 0.42 0.36 0.40 0.37 0.31 0.41 0.45 0.49 0.42 0.36 0.35 0.44 0.41 0.40 0.32 0.35 0.32 0.48 0.46 0.42 0.43 0.38 0.32 0.36 0.46 0.40 0.45 0.34 0.30 0.40 0.44 0.50 0.44 0.38 0.41 0.48 0.43 0.36 0.45 0.36 0.41 0.45 0.31 0.38 0.34 0.43 0.31 0.38 0.42 0.37 0.48 0.36 0.42 0.44 0.39 0.48 0.35 0.46 0.39 0.36 0.37 0.49 0.41 0.38 0.38 0.40 0.33 0.46 0.39 0.49 0.48 0.44 0.50 0.31 0.33 0.32 0.36 0.48 0.33 0.31 0.49 0.45 0.34 0.40 0.32 0.30 0.42 0.50 0.48 0.40 0.38 0.36 0.33 0.34 0.49 0.44 0.43 0.34 0.35 0.30 0.45 0.46 0.48 0.44 0.48 0.37 0.42 0.49 0.38 0.49 0.38 0.47 0.32 0.43 0.47 0.43 0.41 0.45 0.43 0.48 0.48 0.30 0.40 0.36 0.36 0.38 0.44 0.34 0.40 0.35 0.46 0.43 0.42 0.38 0.45 0.47 0.46 0.44 0.34 0.44 0.37 0.40 0.33 0.39 0.49 0.30 0.49 0.40 0.37 0.44 0.36 0.45 0.45 0.43 0.50 0.44 0.48 0.47 0.42 0.43 0.43 0.39 0.38 0.31 0.40 0.45 0.49 0.34 0.37 0.31 0.33 0.38 0.48 0.32 0.37 0.30 0.47 0.46 0.34 0.38 0.37 0.38 0.41 0.47 -9999 -9999 -9999
0.37 0.42 0.45 0.42 0.33 0.34 0.37 0.34 0.39 0.43 0.34 0.48 0.46 0.36 0.35 0.35 0.38 0.44 0.47 0.39 0.32 0.36 0.44 0.37 0.46 0.34 0.44 0.45 0.34 0.40 0.31 0.49 0.35 0.36 0.31 0.46 0.32 0.43 0.41 0.31 0.35 0.32 0.46 0.40 0.36 0.33 0.43 0.30 0.45 0.45 0.43 0.35 0.41 0.38 0.31 0.43 0.45 0.30 0.35 0.50 0.49 0.32 0.49 0.34 0.48 0.40 0.35 0.48 0.39 0.38 0.33 0.35 0.34 0.47 0.33 0.46 0.32 0.35 0.43 0.50 0.42 0.43 0.42 0.39 0.39 0.45 0.36 0.32 0.41 0.49 0.47 0.40 0.35 0.47 0.41 0.31 0.31 0.48 0.43 0.45 0.42 0.38 0.42 0.35 0.35 0.39 0.37 0.40 0.45 0.41 0.33 0.35 0.32 0.44 0.34 0.42 0.31 0.32 0.48 0.41 0.40 0.42 0.43 0.48 0.42 0.40 0.45 0.48 0.44 0.40 0.31 0.37 0.41 0.30 0.32 0.40 0.49 0.48 0.40 0.45 0.38 0.34 0.30 0.44 0.36 0.41 0.32 0.40 0.35 0.42 0.49 0.39 0.41 0.41 0.49 0.39 0.48 0.47 0.33 0.44 0.45 0.43 0.34 0.32 0.37 0.44 0.34 0.47 0.45 0.30 0.31 0.38 0.45 0.46 0.39 0.41 0.37 0.33 0.38 0.43 0.32 0.37 0.46 0.31 0.40 0.47 0.36 0.46 0.49 0.33 0.36 0.46 0.50 0.36 0.49 0.30 0.31 0.49 0.36 0.43 0.42 0.33 0.37 0.32 0.43 0.49 0.38 0.40 0.32 0.39 0.36 0.35 -9999 -9999 -9999
0.35 0.45 0.47 0.40 0.35 0.45 0.48 0.36 0.34 0.47 0.49 0.44 0.46 0.30 0.36 0.34 0.41 0.49 0.34 0.41 0.35 0.43 0.49 0.49 0.45 0.42 0.45 0.37 0.37 0.31 0.48 0.42 0.35 0.35 0.32 0.39 0.37 0.39 0.41 0.39 0.45 0.43 0.36 0.35 0.33 0.34 0.46 0.39 0.30 0.42 0.34 0.49 0.38 0.45 0.33 0.42 0.48 0.50 0.44 0.37 0.33 0.36 0.41 0.45 0.48 0.45 0.35 0.37 0.32 0.44 0.41 0.48 0.37 0.43 0.48 0.49 0.39 0.49 0.32 0.47 0.42 0.49 0.37 0.37 0.35 0.33 0.40 0.41 0.31 0.47 0.31 0.39 0.33 0.47 0.41 0.50 0.44 0.38 0.45 0.35 0.50 0.41 0.45 0.44 0.36 0.48 0.47 0.48 0.49 0.36 0.31 0.31 0.33 0.43 0.34 0.45 0.34 0.46 0.41 0.43 0.42 0.35 0.30 0.50 0.44 0.34 0.45 0.34 0.49 0.31 0.37 0.45 0.33 0.48 0.48 0.32 0.46 0.42 0.35 0.32 0.36 0.46 0.32 0.44 0.41 0.41 0.31 0.42 0.49 0.48 0.32 0.31 0.43 0.50 0.42 0.47 0.36 0.38 0.32 0.38 0.42 0.47 0.39 0.48 0.46 0.41 0.33 0.34 0.38 0.48 0.35 0.44 0.37 0.36 0.43 0.40 0.42 0.49 0.36 0.32 0.47 0.31 0.45 0.31 0.46 0.35 0.31 0.32 0.39 0.50 0.42 0.44 0.47 0.38 0.31 0.40 0.43 0.37 0.47 0.31 0.38 0.40 0.38 0.40 0.47 0.44 0.32 0.45 0.30 0.36 0.35 0.36 -9999 -9999 -9999
0.35 0.36 0.37 0.42 0.43 0.37 0.42 0.45 0.37 0.49 0.49 0.35 0.48 0.42 0.39 0.45 0.37 0.44 0.31 0.33 0.32 0.43 0.35 0.32 0.44 0.40 0.33 0.42 0.40 0.48 0.37 0.33 0.44 0.50 0.35 0.35 0.48 0.37 0.42 0.32 0.49 0.43 0.48 0.38 0.36 0.46 0.38 0.33 0.32 0.40 0.37 0.42 0.50 0.43 0.30 0.42 0.47 0.48 0.35 0.43 0.31 0.31 0.41 0.44 0.42 0.32 0.42 0.32 0.49 0.47 0.49 0.33 0.36 0.40 0.44 0.37 0.45 0.42 0.35 0.48 0.45 0.43 0.41 0.47 0.43 0.31 0.32 0.41 0.36 0.48 0.33 0.41 0.34 0.33 0.36 0.41 0.33 0.50 0.34 0.47 0.45 0.44 0.36 0.45 0.31 0.36 0.47 0.37 0.47 0.36 0.45 0.46 0.33 0.41 0.42 0.37 0.46 0.36 0.37 0.36 0.35 0.39 0.48 0.34 0.34 0.48 0.38 0.30 0.37 0.30 0.46 0.41 0.43 0.48 0.37 0.39 0.49 0.39 0.41 0.45 0.42 0.41 0.33 0.36 0.40 0.35 0.31 0.31 0.34 0.31 0.38 0.45 0.38 0.40 0.35 0.42 0.48 0.47 0.42 0.41 0.33 0.33 0.38 0.42 0.33 0.43 0.34 0.33 0.49 0.31 0.31 0.45 0.45 0.44 0.38 0.34 0.46 0.47 0.43 0.49 0.43 0.46 0.43 0.41 0.38 0.49 0.34 0.36 0.36 0.30 0.32 0.44 0.48 0.48 0.49 0.35 0.35 0.35 0.43 0.37 0.40 0.48 0.48 0.32 0.35 0.32 0.37 0.31 0.42 0.32 0.38 0.49 -9999 -9999 -9999
0.45 0.43 0.36 0.39 0.33 0.39 0.31 0.47 0.46 0.33 0.48 0.36 0.36 0.39 0.33 0.42 0.31 0.36 0.38 0.33 0.34 0.41 0.40 0.34 0.44 0.47 0.42 0.43 0.48 0.44 0.39 0.31 0.41 0.36 0.39 0.41 0.30 0.30 0.36 0.47 0.40 0.31 0.43 0.50 0.36 0.47 0.41 0.36 0.32 0.42 0.40 0.41 0.48 0.44 0.48 0.41 0.43 0.40 0.38 0.38 0.35 0.42 0.36 0.41 0.48 0.36 0.49 0.30 0.50 0.38 0.44 0.39 0.34 0.44 0.49 0.37 0.31 0.31 0.33 0.49 0.30 0.32 0.45 0.46 0.46 0.48 0.32 0.35 0.39 0.44 0.30 0.30 0.40 0.39 0.43 0.43 0.35 0.48 0.49 0.46 0.34 0.33 0.48 0.36 0.44 0.32 0.39 0.42 0.30 0.46 0.43 0.41 0.49 0.38 0.49 0.31 0.38 0.49 0.48 0.36 0.46 0.50 0.43 0.37 0.41 0.35 0.32 0.30 0.49 0.45 0.42 0.40 0.45 0.49 0.48 0.31 0.34 0.45 0.33 0.47 0.38 0.49 0.45 0.44 0.38 0.31 0.45 0.45 0.42 0.31 0.40 0.43 0.45 0.43 0.44 0.46 0.37 0.45 0.43 0.49 0.50 0.34 0.42 0.40 0.39 0.40 0.50 0.45 0.39 0.40 0.35 0.31 0.45 0.41 0.32 0.31 0.47 0.36 0.34 0.35 0.32 0.39 0.42 0.33 0.45 0.36 0.34 0.31 0.41 0.47 0.31 0.41 0.34 0.47 0.49 0.38 0.46 0.34 0.34 0.30 0.38 0.50 0.33 0.39 0.33 0.35 0.40 0.32 0.48 0.40 0.35 0.36 0.43 -9999 -9999
0.33 0.41 0.32 0.40 0.34 0.34 0.31 0.46 0.41 0.34 0.41 0.42 0.49 0.37 0.31 0.48 0.37 0.44 0.39 0.34 0.46 0.36 0.36 0.38 0.33 0.47 0.47 0.31 0.49 0.48 0.34 0.47 0.30 0.39 0.40 0.31 0.36 0.47 0.30 0.32 0.47 0.33 0.34 0.43 0.42 0.45 0.46 0.49 0.44 0.30 0.35 0.46 0.44 0.35 0.42 0.50 0.46 0.35 0.37 0.47 0.47 0.49 0.50 0.31 0.47 0.45 0.47 0.33 0.47 0.41 0.39 0.45 0.46 0.37 0.49 0.44 0.40 0.39 0.43 0.42 0.43 0.46 0.43 0.34 0.42 0.32 0.34 0.46 0.32 0.41 0.30 0.44 0.44 0.33 0.33 0.42 0.30 0.35 0.38 0.33 0.45 0.35 0.41 0.37 0.30 0.48 0.46 0.44 0.41 0.46 0.39 0.30 0.49 0.43 0.46 0.50 0.43 0.30 0.48 0.45 0.43 0.42 0.32 0.36 0.31 0.41 0.49 0.34 0.32 0.44 0.46 0.35 0.33 0.37 0.46 0.43 0.49 0.49 0.31 0.32 0.46 0.39 0.48 0.41 0.31 0.33 0.30 0.39 0.43 0.34 0.31 0.44 0.40 0.39 0.46 0.37 0.36 0.34 0.42 0.37 0.41 0.49 0.47 0.34 0.36 0.45 0.30 0.32 0.44 0.38 0.46 0.36 0.48 0.43 0.41 0.47 0.33 0.39 0.46 0.38 0.50 0.32 0.44 0.34 0.48 0.30 0.43 0.47 0.48 0.36 0.38 0.46 0.30 0.33 0.32 0.47 0.44 0.48 0.32 0.39 0.50 0.49 0.46 0.48 0.49 0.32 0.39 0.48 0.47 0.43 0.36 0.36 0.40 -9999 -9999
0.46 0.42 0.35 0.48 0.31 0.41 0.38 0.37 0.42 0.37 0.44 0.44 0.46 0.39 0.45 0.39 0.50 0.42 0.43 0.48 0.38 0.40 0.44 0.38 0.36 0.34 0.38 0.32 0.38 0.48 0.36 0.49 0.44 0.30 0.41 0.45 0.35 0.47 0.42 0.49 0.49 0.36 0.30 0.43 0.47 0.38 0.37 0.31 0.44 0.46 0.35 0.41 0.36 0.48 0.41 0.40 0.38 0.40 0.46 0.43 0.49 0.30 0.35 0.36 0.47 0.49 0.43 0.34 0.45 0.34 0.48 0.33 0.48 0.43 0.40 0.48 0.41 0.48 0.40 0.40 0.47 0.34 0.44 0.44 0.39 0.31 0.43 0.31 0.46 0.35 0.49 0.42 0.33 0.48 0.36 0.37 0.48 0.37 0.46 0.38 0.44 0.36 0.43 0.45 0.37 0.49 0.43 0.39 0.34 0.31 0.49 0.33 0.48 0.41 0.38 0.41 0.32 0.39 0.40 0.42 0.33 0.48 0.46 0.30 0.37 0.44 0.48 0.33 0.40 0.42 0.33 0.37 0.43 0.42 0.38 0.43 0.45 0.49 0.36 0.44 0.45 0.38 0.34 0.42 0.34 0.43 0.32 0.31 0.32 0.44 0.35 0.42 0.34 0.48 0.43 0.43 0.46 0.33 0.40 0.46 0.45 0.34 0.50 0.42 0.34 0.47 0.43 0.46 0.43 0.40 0.40 0.46 0.50 0.32 0.39 0.46 0.40 0.43 0.33 0.41 0.40 0.30 0.32 0.50 0.44 0.47 0.33 0.39 0.35 0.47 0.47 0.38 0.47 0.44 0.48 0.37 0.43 0.46 0.43 0.30 0.42 0.32 0.45 0.35 0.49 0.34 0.44 0.39 0.44 0.30 0.47 0.40 0.49 -9999 -9999
0.48 0.33 0.34 0.46 0.47 0.36 0.41 0.49 0.37 0.32 0.46 0.38 0.37 0.46 0.33 0.33 0.34 0.44 0.47 0.35 0.37 0.32 0.49 0.32 0.38 0.37 0.33 0.42 0.32 0.46 0.49 0.31 0.49 0.39 0.48 0.36 0.45 0.42 0.46 0.45 0.49 0.39 0.45 0.31 0.35 0.37 0.34 0.30 0.49 0.44 0.39 0.38 0.41 0.36 0.36 0.41 0.42 0.35 0.31 0.38 0.39 0.41 0.40 0.42 0.37 0.37 0.38 0.48 0.33 0.38 0.39 0.43 0.46 0.42 0.40 0.49 0.40 0.37 0.38 0.39 0.48 0.43 0.32 0.47 0.41 0.45 0.39 0.34 0.32 0.40 0.36 0.41 0.42 0.38 0.32 0.42 0.47 0.40 0.44 0.49 0.31 0.44 0.34 0.37 0.47 0.41 0.32 0.47 0.49 0.40 0.36 0.45 0.34 0.35 0.45 0.45 0.38 0.40 0.40 0.41 0.37 0.30 0.48 0.38 0.35 0.33 0.37 0.46 0.32 0.38 0.47 0.49 0.32 0.39 0.44 0.33 0.45 0.39 0.37 0.41 0.44 0.44 0.40 0.47 0.49 0.37 0.38 0.49 0.41 0.37 0.39 0.35 0.49 0.37 0.38 0.35 0.44 0.45 0.48 0.46 0.41 0.34 0.35 0.34 0.41 0.34 0.33 0.46 0.34 0.45 0.48 0.45 0.45 0.38 0.37 0.37 0.40 0.44 0.34 0.36 0.34 0.42 0.36 0.31 0.35 0.42 0.34 0.43 0.48 0.34 0.37 0.49 0.41 0.40 0.47 0.31 0.43 0.46 0.47 0.34 0.43 0.42 0.45 0.31 0.39 0.48 0.48 0.38 0.35 0.50 0.32 0.31 0.39 -9999 -9999
0.44 0.43 0.36 0.35 0.42 0.32 0.46 0.49 0.31 0.48 0.42 0.32 0.42 0.33 0.43 0.47 0.44 0.39 0.42 0.41 0.41 0.38 0.50 0.46 0.37 0.33 0.45 0.44 0.38 0.43 0.33 0.45 0.36 0.38 0.30 0.39 0.32 0.45 0.47 0.45 0.32 0.44 0.39 0.33 0.44 0.37 0.46 0.41 0.35 0.38 0.36 0.33 0.44 0.37 0.32 0.32 0.37 0.42 0.42 0.41 0.36 0.31 0.41 0.38 0.32 0.36 0.38 0.41 0.48 0.37 0.45 0.36 0.30 0.39 0.48 0.37 0.35 0.32 0.40 0.35 0.35 0.44 0.34 0.34 0.48 0.43 0.39 0.31 0.44 0.32 0.38 0.45 0.49 0.44 0.37 0.38 0.34 0.45 0.33 0.36 0.31 0.34 0.48 0.37 0.31 0.31 0.37 0.43 0.32 0.46 0.32 0.41 0.37 0.45 0.44 0.34 0.49 0.35 0.47 0.39 0.33 0.37 0.36 0.44 0.40 0.32 0.47 0.48 0.42 0.44 0.39 0.49 0.49 0.44 0.41 0.32 0.36 0.48 0.36 0.33 0.39 0.32 0.49 0.41 0.37 0.32 0.48 0.47 0.39 0.40 0.34 0.46 0.45 0.33 0.47 0.44 0.45 0.49 0.42 0.48 0.33 0.48 0.48 0.37 0.39 0.42 0.47 0.32 0.44 0.46 0.48 0.39 0.40 0.39 0.44 0.40 0.32 0.43 0.40 0.41 0.46 0.39 0.34 0.39 0.37 0.31 0.39 0.37 0.31 0.45 0.30 0.36 0.37 0.34 0.36 0.33 0.49 0.49 0.30 0.49 0.38 0.42 0.43 0.42 0.32 0.44 0.50 0.47 0.45 0.46 0.38 0.38 0.36 -9999 -9999
0.32 0.34 0.46 0.47 0.34 0.40 0.43 0.43 0.44 0.38 0.38 0.31 0.40 0.33 0.42 0.42 0.30 0.47 0.33 0.45 0.33 0.40 0.43 0.36 0.34 0.36 0.44 0.47 0.38 0.41 0.40 0.46 0.35 0.50 0.50 0.31 0.34 0.30 0.43 0.43 0.48 0.45 0.38 0.32 0.39 0.48 0.34 0.44 0.48 0.30 0.36 0.45 0.43 0.47 0.46 0.46 0.33 0.45 0.44 0.36 0.38 0.48 0.49 0.43 0.44 0.31 0.33 0.40 0.35 0.31 0.42 0.34 0.47 0.35 0.48 0.44 0.38 0.45 0.45 0.35 0.36 0.31 0.37 0.47 0.32 0.42 0.47 0.30 0.46 0.40 0.43 0.35 0.39 0.50 0.46 0.39 0.46 0.47 0.44 0.42 0.32 0.32 0.38 0.35 0.46 0.32 0.47 0.40 0.44 0.39 0.48 0.34 0.44 0.39 0.40 0.41 0.38 0.40 0.35 0.44 0.39 0.39 0.30 0.38 0.36 0.37 0.50 0.40 0.31 0.50 0.48 0.42 0.34 0.49 0.43 0.31 0.43 0.44 0.40 0.33 0.45 0.33 0.34 0.36 0.37 0.32 0.35 0.42 0.45 0.48 0.33 0.46 0.45 0.36 0.39 0.45 0.50 0.48 0.49 0.39 0.36 0.42 0.37 0.35 0.36 0.35 0.49 0.42 0.34 0.36 0.43 0.45 0.42 0.46 0.42 0.45 0.37 0.46 0.40 0.45 0.31 0.42 0.45 0.32 0.40 0.49 0.31 0.36 0.40 0.46 0.33 0.33 0.47 0.37 0.44 0.35 0.38 0.43 0.33 0.33 0.37 0.39 0.45 0.36 0.37 0.38 0.49 0.42 0.39 0.42 0.41 0.46 0.31 -9999 -9999
0.34 0.38 0.43 0.35 0.36 0.49 0.45 0.45 0.37 0.49 0.48 0.43 0.47 0.33 0.38 0.46 0.37 0.50 0.48 0.45 0.38 0.33 0.33 0.33 0.36 0.49 0.38 0.44 0.38 0.36 0.30 0.49 0.44 0.46 0.36 0.48 0.33 0.43 0.42 0.44 0.40 0.46 0.32 0.38 0.34 0.39 0.31 0.34 0.44 0.35 0.33 0.42 0.42 0.47 0.46 0.31 0.36 0.47 0.36 0.37 0.49 0.34 0.43 0.37 0.39 0.44 0.35 0.48 0.40 0.41 0.42 0.49 0.46 0.35 0.32 0.35 0.43 0.32 0.42 0.42 0.44 0.37 0.33 0.41 0.39 0.39 0.45 0.50 0.44 0.44 0.44 0.38 0.32 0.42 0.42 0.40 0.36 0.35 0.42 0.37 0.43 0.48 0.37 0.35 0.45 0.33 0.34 0.31 0.36 0.34 0.34 0.49 0.31 0.45 0.40 0.45 0.44 0.39 0.42 0.34 0.43 0.48 0.46 0.33 0.32 0.48 0.43 0.44 0.34 0.33 0.31 0.45 0.43 0.44 0.34 0.34 0.47 0.32 0.47 0.39 0.42 0.37 0.48 0.42 0.48 0.32 0.30 0.36 0.37 0.45 0.32 0.32 0.34 0.46 0.36 0.41 0.44 0.31 0.44 0.48 0.42 0.31 0.39 0.40 0.32 0.37 0.33 0.33 0.48 0.38 0.50 0.39 0.47 0.47 0.49 0.50 0.38 0.42 0.35 0.32 0.46 0.35 0.36 0.31 0.43 0.43 0.46 0.31 0.30 0.49 0.49 0.41 0.41 0.30 0.43 0.35 0.50 0.47 0.43 0.36 0.46 0.46 0.42 0.36 0.44 0.31 0.48 0.35 0.46 0.43 0.50 0.47 0.47 -9999 -9999
0.48 0.35 0.36 0.34 0.50 0.38 0.40 0.33 0.46 0.33 0.39 0.30 0.42 0.42 0.39 0.38 0.37 0.34 0.38 0.44 0.33 0.41 0.47 0.42 0.30 0.46 0.41 0.43 0.34 0.32 0.44 0.32 0.36 0.41 0.45 0.43 0.46 0.38 0.37 0.45 0.38 0.47 0.42 0.41 0.50 0.48 0.42 0.34 0.31 0.46 0.37 0.49 0.44 0.48 0.42 0.42 0.32 0.44 0.38 0.32 0.48 0.31 0.43 0.39 0.47 0.35 0.31 0.40 0.48 0.41 0.48 0.33 0.46 0.34 0.36 0.32 0.38 0.30 0.32 0.41 0.49 0.35 0.41 0.45 0.42 0.35 0.33 0.40 0.41 0.46 0.30 0.38 0.39 0.48 0.44 0.34 0.44 0.38 0.31 0.38 0.35 0.41 0.32 0.30 0.38 0.49 0.41 0.31 0.36 0.43 0.44 0.35 0.48 0.36 0.47 0.49 0.35 0.49 0.38 0.37 0.34 0.43 0.32 0.48 0.47 0.31 0.39 0.39 0.32 0.31 0.37 0.34 0.31 0.39 0.34 0.30 0.32 0.37 0.34 0.33 0.36 0.31 0.34 0.36 0.32 0.33 0.37 0.33 0.39 0.49 0.33 0.35 0.39 0.31 0.30 0.49 0.32 0.35 0.32 0.42 0.33 0.32 0.31 0.32 0.40 0.47 0.40 0.33 0.34 0.46 0.49 0.43 0.47 0.50 0.47 0.44 0.32 0.36 0.43 0.43 0.41 0.36 0.37 0.36 0.31 0.44 0.34 0.49 0.36 0.41 0.43 0.49 0.43 0.50 0.34 0.39 0.43 0.44 0.34 0.32 0.33 0.45 0.41 0.48 0.50 0.30 0.49 0.43 0.43 0.43 0.50 -9999 -9999 -9999 -9999
0.34 0.48 0.45 0.40 0.48 0.40 0.32 0.30 0.31 0.42 0.47 0.46 0.38 0.31 0.49 0.44 0.32 0.38 0.31 0.39 0.43 0.43 0.32 0.46 0.42 0.38 0.38 0.45 0.30 0.40 0.34 0.46 0.33 0.40 0.44 0.42 0.30 0.49 0.45 0.35 0.44 0.46 0.38 0.39 0.48 0.41 0.47 0.49 0.33 0.48 0.37 0.41 0.44 0.45 0.45 0.33 0.43 0.35 0.44 0.48 0.33 0.44 0.47 0.44 0.49 0.42 0.40 0.45 0.43 0.30 0.40 0.37 0.36 0.45 0.49 0.49 0.41 0.42 0.43 0.31 0.31 0.32 0.30 0.41 0.41 0.39 0.36 0.31 0.41 0.48 0.50 0.39 0.48 0.43 0.34 0.48 0.37 0.41 0.46 0.38 0.44 0.45 0.40 0.35 0.43 0.31 0.42 0.40 0.41 0.38 0.48 0.38 0.46 0.36 0.35 0.31 0.37 0.40 0.42 0.41 0.43 0.34 0.47 0.33 0.39 0.45 0.43 0.31 0.49 0.46 0.32 0.32 0.39 0.50 0.35 0.41 0.41 0.40 0.37 0.48 0.33 0.46 0.36 0.47 0.36 0.32 0.44 0.48 0.32 0.36 0.49 0.43 0.42 0.49 0.44 0.44 0.41 0.32 0.38 0.30 0.43 0.41 0.40 0.43 0.40 0.37 0.33 0.35 0.38 0.46 0.38 0.40 0.49 0.39 0.32 0.49 0.48 0.45 0.47 0.31 0.46 0.31 0.48 0.49 0.47 0.46 0.45 0.47 0.46 0.31 0.30 0.45 0.44 0.30 0.37 0.38 0.40 0.39 0.48 0.31 0.40 0.39 0.39 0.47 -9999 -9999 -9999 -9999 -9999 -9999 -9999 -9999 -9999 -9999 -9999
0.48 0.32 0.46 0.44 0.30 0.36 0.49 0.39 0.44 0.44 0.31 0.41 0.46 0.48 0.46 0.36 0.41 0.45 0.41 0.45 0.46 0.49 0.40 0.45 0.41 0.31 0.38 0.39 0.33 0.36 0.41 0.35 0.50 0.41 0.45 0.45 0.49 0.35 0.37 0.48 0.44 0.30 0.50 0.37 0.47 0.46 0.48 0.32 0.40 0.49 0.31 0.33 0.44 0.36 0.44 0.45 0.46 0.40 0.47 0.42 0.47 0.44 0.48 0.49 0.33 0.32 0.45 0.44 0.45 0.33 0.44 0.48 0.43 0.40 0.32 0.49 0.39 0.32 0.42 0.43 0.39 0.37 0.34 0.32 0.48 0.35 0.47 0.42 0.31 0.40 0.35 0.33 0.35 0.37 0.41 0.43 0.33 0.35 0.43 0.39 0.49 0.33 0.48 0.47 0.43 0.49 0.34 0.43 0.42 0.38 0.31 0.34 0.37 0.45 0.40 0.41 0.35 0.37 0.33 0.43 0.43 0.35 0.35 0.42 0.40 0.42 0.39 0.39 0.41 0.33 0.31 0.48 0.49 0.31 0.31 0.35 0.41 0.47 0.31 0.44 0.38 0.40 0.34 0.48 0.33 0.33 0.43 0.39 0.33 0.30 0.46 0.35 0.37 0.38 0.30 0.49 0.34 0.38 0.31 0.44 0.32 0.34 0.43 0.37 0.40 0.41 0.42 0.35 0.40 0.38 0.31 0.38 0.49 0.36 0.35 0.48 0.44 0.35 0.41 0.36 0.34 0.49 0.38 0.49 0.40 0.43 0.34 0.31 0.36 0.41 0.43 0.31 0.44 0.36 0.45 0.47 0.45 0.34 -9999 -9999 -9999 -9999 -9999 -9999 -9999 -9999 -9999 -9999 -9999 -9999 -9999 -9999 -9999 -9999 -9999
0.33 0.30 0.43 0.50 0.34 0.49 0.43 0.33 0.31 0.40 0.50 0.35 0.40 0.45 0.45 0.40 0.42 0.41 0.39 0.40 0.34 0.44 0.32 0.39 0.46 0.35 0.49 0.35 0.41 0.46 0.38 0.41 0.49 0.46 0.39 0.47 0.30 0.48 0.31 0.42 0.38 0.46 0.47 0.37 0.32 0.33 0.44 0.49 0.35 0.44 0.32 0.45 0.30 0.32 0.41 0.30 0.38 0.37 0.43 0.33 0.44 0.42 0.42 0.40 0.32 0.44 0.38 0.43 0.42 0.42 0.48 0.50 0.47 0.37 0.47 0.37 0.33 0.42 0.45 0.43 0.48 0.40 0.41 0.38 0.40 0.41 0.42 0.38 0.36 0.42 0.46 0.37 0.49 0.41 0.37 0.40 0.40 0.36 0.46 0.37 0.48 0.32 0.36 0.35 0.49 0.39 0.35 0.47 0.43 0.45 0.33 0.46 0.44 0.49 0.31 0.40 0.35 0.39 0.31 0.46 0.48 0.42 0.34 0.50 0.41 0.33 0.31 0.48 0.32 0.45 0.49 0.39 0.34 0.40 0.39 0.37 0.44 0.33 0.41 0.38 0.44 0.44 0.31 0.45 0.49 0.49 0.41 0.38 0.41 0.48 0.45 0.49 0.42 0.35 0.37 0.42 0.37 0.44 0.43 0.48 0.48 0.46 0.50 0.31 0.47 0.31 0.36 0.48 0.46 0.39 0.47 0.49 0.37 0.32 0.45 0.38 0.33 0.36 0.50 0.41 0.40 0.45 0.44 0.33 0.41 0.44 0.46 0.43 0.47 0.31 0.45 -9999 -9999 -9999 -9999 -9999 -9999 -9999 -9999 -9999 -9999 -9999 -9999 -9999 -9999 -9999 -9999 -9999 -9999 -9999 -9999 -9999 -9999 -9999 -9999
0.36 0.47 0.35 0.42 0.41 0.46 0.50 0.43 0.32 0.39 0.31 0.30 0.32 0.43 0.39 0.33 0.33 0.41 0.33 0.32 0.36 0.35 0.39 0.43 0.46 0.32 0.31 0.48 0.41 0.46 0.42 0.42 0.41 0.48 0.49 0.40 0.39 0.36 0.42 0.49 0.39 0.38 0.36 0.47 0.46 0.41 0.45 0.32 0.40 0.47 0.47 0.37 0.37 0.42 0.39 0.41 0.40 0.32 0.43 0.39 0.38 0.40 0.40 0.47 0.33 0.50 0.47 0.30 0.43 0.42 0.36 0.41 0.45 0.45 0.45 0.42 0.30 0.36 0.40 0.38 0.39 0.47 0.41 0.49 0.35 0.37 0.37 0.33 0.35 0.43 0.35 0.34 0.35 0.42 0.45 0.39 0.45 0.43 0.38 0.30 0.50 0.39 0.46 0.47 0.41 0.49 0.48 0.37 0.42 0.30 0.34 0.50 0.35 0.30 0.31 0.38 0.42 0.32 0.37 0.42 0.41 0.35 0.35 0.41 0.41 0.48 0.45 0.32 0.31 0.42 0.48 0.36 0.48 0.39 0.38 0.32 0.34 0.47 0.35 0.32 0.47 0.42 0.38 0.32 0.44 0.48 0.36 0.39 0.32 0.46 0.36 0.34 0.38 0.39 0.48 0.50 0.36 0.40 0.43 0.30 0.46 0.48 0.38 0.49 0.35 0.37 0.40 0.42 0.48 0.46 0.49 0.33 0.34 0.46 0.37 0.36 0.37 0.46 0.40 0.39 0.38 0.43 0.44 0.42 -9999 -9999 -9999 -9999 -9999 -9999 -9999 -9999 -9999 -9999 -9999 -9999 -9999 -9999 -9999 -9999 -9999 -9999 -9999 -9999 -9999 -9999 -9999 -9999 -9999 -9999 -9999 -9999 -9999 -9999 -9999
0.42 0.37 0.47 0.37 0.48 0.41 0.50 0.46 0.33 0.41 0.40 0.49 0.37 0.43 0.38 0.42 0.43 0.47 0.37 0.32 0.34 0.32 0.40 0.47 0.50 0.48 0.47 0.46 0.42 0.36 0.46 0.49 0.43 0.45 0.37 0.43 0.37 0.47 0.49 0.30 0.33 0.49 0.44 0.36 0.49 0.47 0.33 0.44 0.44 0.31 0.31 0.33 0.32 0.31 0.49 0.33 0.31 0.45 0.34 0.41 0.40 0.41 0.49 0.41 0.34 0.49 0.49 0.42 0.36 0.43 0.34 0.50 0.35 0.43 0.47 0.43 0.37 0.46 0.44 0.32 0.42 0.38 0.49 0.38 0.40 0.32 0.36 0.34 0.47 0.48 0.41 0.32 0.39 0.39 0.38 0.50 0.38 0.42 0.48 0.47 0.48 0.35 0.32 0.42 0.41 0.40 0.39 0.40 0.48 0.43 0.37 0.33 0.40 0.34 0.39 0.41 0.37 0.35 0.37 0.40 0.32 0.34 0.35 0.47 0.35 0.42 0.40 0.39 0.41 0.35 0.32 0.48 0.43 0.34 0.36 0.32 0.35 0.43 0.32 0.48 0.41 0.40 0.43 0.34 0.37 0.45 0.44 0.44 0.41 0.41 0.47 0.39 0.37 0.44 0.48 0.32 0.50 0.38 0.47 0.35 0.45 0.47 0.45 0.35 0.48 0.49 0.44 0.31 0.38 0.49 0.42 0.47 0.33 0.47 0.37 0.48 0.36 -9999 -9999 -9999 -9999 -9999 -9999 -9999 -9999 -9999 -9999 -9999 -9999 -9999 -9999 -9999 -9999 -9999 -9999 -9999 -9999 -9999 -9999 -9999 -9999 -9999 -9999 -9999 -9999 -9999 -9999 -9999 -9999 -9999 -9999 -9999 -9999 -9999 -9999
0.32 0.37 0.39 0.37 0.49 0.37 0.40 0.41 0.44 0.36 0.32 0.45 0.36 0.30 0.34 0.43 0.48 0.31 0.48 0.44 0.33 0.35 0.50 0.39 0.38 0.32 0.44 0.39 0.36 0.31 0.30 0.40 0.37 0.40 0.38 0.43 0.36 0.34 0.46 0.44 0.39 0.34 0.43 0.33 0.39 0.42 0.36 0.40 0.36 0.42 0.33 0.48 0.33 0.47 0.46 0.33 0.34 0.35 0.49 0.38 0.44 0.44 0.38 0.37 0.33 0.38 0.44 0.35 0.34 0.35 0.37 0.43 0.33 0.33 0.36 0.35 0.45 0.34 0.46 0.40 0.47 0.39 0.38 0.37 0.31 0.49 0.49 0.48 0.45 0.41 0.44 0.43 0.42 0.46 0.44 0.47 0.39 0.34 0.44 0.43 0.33 0.43 0.45 0.32 0.31 0.45 0.42 0.36 0.32 0.35 0.44 0.46 0.44 0.39 0.31 0.49 0.43 0.30 0.34 0.50 0.34 0.37 0.30 0.31 0.36 0.45 0.35 0.46 0.46 0.38 0.48 0.47 0.44 0.36 0.33 0.38 0.34 0.48 0.36 0.32 0.33 0.45 0.35 0.39 0.33 0.49 0.32 0.41 0.32 0.48 0.32 0.42 0.48 0.37 0.33 0.40 0.39 0.33 0.41 0.31 0.33 0.32 0.41 0.46 0.33 0.30 0.36 0.38 0.36 0.31 -9999 -9999 -9999 -9999 -9999 -9999 -9999 -9999 -9999 -9999 -9999 -9999 -9999 -9999 -9999 -9999 -9999 -9999 -9999 -9999 -9999 -9999 -9999 -9999 -9999 -9999 -9999 -9999 -9999 -9999 -9999 -9999 -9999 -9999 -9999 -9999 -9999 -9999 -9999 -9999 -9999 -9999 -9999 -9999 -9999
0.50 0.48 0.42 0.32 0.46 0.40 0.36 0.49 0.44 0.46 0.45 0.38 0.38 0.49 0.45 0.44 0.44 0.40 0.42 0.41 0.43 0.50 0.50 0.38 0.40 0.38 0.48 0.41 0.46 0.46 0.41 0.31 0.50 0.41 0.49 0.39 0.49 0.32 0.46 0.43 0.40 0.48 0.38 0.34 0.49 0.31 0.40 0.44 0.40 0.37 0.48 0.42 0.33 0.34 0.36 0.40 0.33 0.49 0.43 0.33 0.44 0.47 0.47 0.40 0.46 0.46 0.38 0.44 0.34 0.44 0.42 0.50 0.31 0.46 0.41 0.50 0.46 0.31 0.33 0.49 0.50 0.35 0.35 0.34 0.49 0.30 0.40 0.43 0.46 0.39 0.49 0.44 0.48 0.37 0.47 0.46 0.45 0.35 0.45 0.42 0.40 0.43 0.43 0.37 0.43 0.37 0.39 0.35 0.44 0.50 0.47 0.33 0.41 0.50 0.44 0.36 0.44 0.49 0.37 0.48 0.35 0.33 0.31 0.37 0.48 0.34 0.42 0.50 0.43 0.40 0.41 0.38 0.49 0.39 0.46 0.50 0.49 0.36 0.40 0.36 0.32 0.47 0.35 0.39 0.48 0.39 0.38 0.34 0.38 0.44 0.43 0.45 0.41 0.47 0.43 0.35 0.46 0.44 0.30 0.49 0.48 0.44 0.42 0.43 0.44 0.32 0.38 0.39 0.37 -9999 -9999 -9999 -9999 -9999 -9999 -9999 -9999 -9999 -9999 -9999 -9999 -9999 -9999 -9999 -9999 -9999 -9999 -9999 -9999 -9999 -9999 -9999 -9999 -9999 -9999 -9999 -9999 -9999 -9999 -9999 -9999 -9999 -9999 -9999 -9999 -9999 -9999 -9999 -9999 -9999 -9999 -9999 -9999 -9999 -9999
0.46 0.45 0.37 0.37 0.36 0.33 0.41 0.35 0.48 0.34 0.43 0.45 0.46 0.38 0.42 0.38 0.48 0.41 0.42 0.37 0.42 0.47 0.44 0.34 0.47 0.46 0.46 0.34 0.48 0.33 0.49 0.45 0.39 0.31 0.34 0.32 0.32 0.49 0.40 0.44 0.41 0.31 0.43 0.40 0.43 0.32 0.36 0.35 0.44 0.47 0.45 0.46 0.45 0.33 0.46 0.45 0.46 0.44 0.38 0.45 0.42 0.30 0.32 0.39 0.36 0.32 0.34 0.36 0.44 0.49 0.41 0.35 0.41 0.37 0.46 0.32 0.35 0.31 0.32 0.48 0.32 0.32 0.49 0.45 0.42 0.39 0.41 0.43 0.42 0.50 0.38 0.34 0.44 0.31 0.32 0.41 0.49 0.44 0.50 0.50 0.36 0.45 0.46 0.32 0.39 0.42 0.46 0.34 0.30 0.38 0.33 0.48 0.43 0.33 0.41 0.43 0.41 0.39 0.42 0.45 0.45 0.41 0.49 0.37 0.35 0.47 0.31 0.30 0.38 0.40 0.38 0.32 0.42 0.48 0.43 0.44 0.49 0.32 0.41 0.49 0.34 0.32 0.37 0.46 0.35 0.34 0.37 0.33 0.32 0.50 0.35 0.44 0.36 0.40 0.44 0.46 0.35 0.33 0.33 0.49 0.33 0.33 0.43 0.36 0.30 0.46 0.41 0.37 0.46 0.41 -9999 -9999 -9999 -9999 -9999 -9999 -9999 -9999 -9999 -9999 -9999 -9999 -9999 -9999 -9999 -9999 -9999 -9999 -9999 -9999 -9999 -9999 -9999 -9999 -9999 -9999 -9999 -9999 -9999 -9999 -9999 -9999 -9999 -9999 -9999 -9999 -9999 -9999 -9999 -9999 -9999 -9999 -9999 -9999 -9999
0.34 0.36 0.33 0.44 0.47 0.34 0.40 0.45 0.36 0.47 0.43 0.48 0.37 0.31 0.35 0.41 0.33 0.42 0.37 0.49 0.33 0.48 0.47 0.34 0.49 0.45 0.35 0.48 0.36 0.49 0.36 0.36 0.37 0.49 0.50 0.42 0.43 0.36 0.43 0.33 0.41 0.30 0.42 0.41 0.49 0.38 0.48 0.30 0.31 0.36 0.30 0.36 0.33 0.40 0.44 0.35 0.44 0.36 0.36 0.43 0.39 0.40 0.45 0.41 0.34 0.36 0.48 0.30 0.41 0.38 0.31 0.47 0.36 0.35 0.45 0.46 0.36 0.34 0.36 0.49 0.44 0.44 0.39 0.46 0.31 0.36 0.33 0.47 0.44 0.49 0.35 0.37 0.39 0.31 0.34 0.39 0.48 0.47 0.33 0.39 0.41 0.45 0.49 0.41 0.37 0.41 0.33 0.49 0.33 0.49 0.39 0.50 0.43 0.37 0.45 0.49 0.38 0.43 0.34 0.42 0.36 0.31 0.31 0.32 0.45 0.47 0.35 0.49 0.32 0.42 0.49 0.47 0.37 0.32 0.39 0.48 0.50 0.34 0.32 0.37 0.46 0.49 0.44 0.33 0.30 0.31 0.44 0.43 0.41 0.49 0.36 0.48 0.43 0.33 0.42 0.32 0.44 0.32 0.40 0.45 0.50 0.33 0.48 0.35 0.46 0.49 0.32 0.31 0.45 0.45 -9999 -9999 -9999 -9999 -9999 -9999 -9999 -9999 -9999 -9999 -9999 -9999 -9999 -9999 -9999 -9999 -9999 -9999 -9999 -9999 -9999 -9999 -9999 -9999 -9999 -9999 -9999 -9999 -9999 -9999 -9999 -9999 -9999 -9999 -9999 -9999 -9999 -9999 -9999 -9999 -9999 -9999 -9999 -9999 -9999
0.48 0.35 0.48 0.33 0.32 0.48 0.33 0.48 0.31 0.42 0.33 0.30 0.46 0.34 0.40 0.43 0.47 0.33 0.40 0.46 0.43 0.31 0.44 0.41 0.38 0.33 0.36 0.46 0.49 0.41 0.49 0.46 0.47 0.31 0.34 0.49 0.32 0.34 0.41 0.43 0.47 0.35 0.39 0.45 0.38 0.34 0.35 0.49 0.38 0.44 0.36 0.48 0.39 0.48 0.36 0.30 0.31 0.43 0.36 0.38 0.43 0.38 0.44 0.45 0.42 0.45 0.36 0.44 0.48 0.42 0.43 0.37 0.33 0.36 0.32 0.37 0.32 0.35 0.36 0.43 0.35 0.39 0.31 0.47 0.30 0.44 0.41 0.37 0.30 0.40 0.37 0.43 0.37 0.40 0.40 0.40 0.35 0.39 0.44 0.34 0.31 0.40 0.44 0.44 0.48 0.45 0.42 0.48 0.31 0.48 0.44 0.48 0.44 0.36 0.30 0.31 0.46 0.44 0.43 0.32 0.38 0.31 0.41 0.40 0.38 0.31 0.47 0.32 0.48 0.37 0.48 0.40 0.34 0.30 0.37 0.44 0.50 0.31 0.37 0.47 0.49 0.30 0.47 0.34 0.35 0.40 0.49 0.42 0.46 0.47 0.32 0.48 0.45 0.44 0.36 0.36 0.45 0.34 0.45 0.35 0.38 0.44 0.46 0.43 0.49 0.48 0.36 0.47 0.38 0.40 -9999 -9999 -9999 -9999 -9999 -9999 -9999 -9999 -9999 -9999 -9999 -9999 -9999 -9999 -9999 -9999 -9999 -9999 -9999 -9999 -9999 -9999 -9999 -9999 -9999 -9999 -9999 -9999 -9999 -9999 -9999 -9999 -9999 -9999 -9999 -9999 -9999 -9999 -9999 -9999 -9999 -9999 -9999 -9999 -9999
0.43 0.35 0.32 0.42 0.33 0.41 0.43 0.37 0.39 0.37 0.34 0.48 0.36 0.42 0.43 0.47 0.30 0.38 0.46 0.32 0.33 0.43 0.43 0.32 0.40 0.38 0.45 0.42 0.30 0.34 0.37 0.33 0.39 0.45 0.40 0.46 0.44 0.47 0.49 0.36 0.34 0.34 0.40 0.34 0.48 0.36 0.37 0.47 0.34 0.49 0.46 0.42 0.40 0.49 0.33 0.33 0.46 0.45 0.44 0.34 0.34 0.49 0.41 0.48 0.47 0.34 0.49 0.30 0.49 0.40 0.49 0.39 0.33 0.47 0.38 0.36 0.30 0.43 0.47 0.41 0.32 0.35 0.33 0.32 0.44 0.38 0.45 0.43 0.48 0.47 0.44 0.37 0.46 0.50 0.37 0.46 0.45 0.44 0.40 0.50 0.36 0.34 0.37 0.47 0.39 0.37 0.36 0.39 0.45 0.31 0.31 0.39 0.38 0.42 0.34 0.48 0.46 0.41 0.46 0.34 0.44 0.36 0.46 0.33 0.35 0.47 0.31 0.42 0.36 0.41 0.44 0.42 0.35 0.48 0.36 0.36 0.30 0.45 0.50 0.34 0.43 0.43 0.46 0.36 0.38 0.34 0.34 0.41 0.42 0.43 0.31 0.37 0.43 0.36 0.40 0.38 0.43 0.34 0.46 0.39 0.44 0.44 0.44 0.44 0.49 0.33 0.42 0.33 0.37 0.40 -9999 -9999 -9999 -9999 -9999 -9999 -9999 -9999 -9999 -9999 -9999 -9999 -9999 -9999 -9999 -9999 -9999 -9999 -9999 -9999 -9999 -9999 -9999 -9999 -9999 -9999 -9999 -9999 -9999 -9999 -9999 -9999 -9999 -9999 -9999 -9999 -9999 -9999 -9999 -9999 -9999 -9999 -9999 -9999 -9999
0.31 0.49 0.42 0.37 0.33 0.38 0.41 0.40 0.39 0.45 0.30 0.40 0.41 0.37 0.30 0.32 0.47 0.35 0.31 0.35 0.34 0.38 0.46 0.33 0.33 0.47 0.32 0.35 0.35 0.48 0.44 0.32 0.46 0.41 0.49 0.42 0.37 0.33 0.39 0.41 0.47 0.38 0.35 0.46 0.41 0.35 0.30 0.42 0.35 0.49 0.32 0.32 0.35 0.49 0.48 0.39 0.40 0.39 0.35 0.37 0.45 0.33 0.33 0.47 0.31 0.30 0.44 0.48 0.33 0.50 0.42 0.46 0.42 0.40 0.34 0.33 0.43 0.41 0.43 0.37 0.35 0.33 0.34 0.32 0.39 0.30 0.45 0.32 0.48 0.37 0.31 0.30 0.48 0.41 0.37 0.48 0.38 0.33 0.45 0.35 0.38 0.48 0.42 0.48 0.38 0.35 0.40 0.43 0.41 0.41 0.39 0.31 0.45 0.37 0.34 0.35 0.48 0.50 0.41 0.31 0.34 0.31 0.44 0.41 0.33 0.37 0.33 0.37 0.40 0.44 0.42 0.44 0.31 0.49 0.31 0.38 0.37 0.43 0.43 0.38 0.47 0.37 0.48 0.38 0.46 0.35 0.46 0.46 0.35 0.48 0.42 0.31 0.48 0.37 0.42 0.35 0.42 0.41 0.37 0.43 0.31 0.35 0.43 0.45 0.38 0.48 0.33 0.47 0.31 0.32 -9999 -9999 -9999 -9999 -9999 -9999 -9999 -9999 -9999 -9999 -9999 -9999 -9999 -9999 -9999 -9999 -9999 -9999 -9999 -9999 -9999 -9999 -9999 -9999 -9999 -9999 -9999 -9999 -9999 -9999 -9999 -9999 -9999 -9999 -9999 -9999 -9999 -9999 -9999 -9999 -9999 -9999 -9999 -9999 -9999
0.50 0.39 0.35 0.39 0.50 0.47 0.34 0.39 0.41 0.45 0.33 0.50 0.49 0.46 0.40 0.46 0.48 0.46 0.37 0.49 0.43 0.48 0.34 0.35 0.32 0.43 0.48 0.42 0.32 0.41 0.32 0.37 0.38 0.35 0.35 0.45 0.33 0.36 0.40 0.50 0.36 0.47 0.31 0.39 0.38 0.49 0.34 0.40 0.41 0.34 0.32 0.47 0.35 0.49 0.37 0.47 0.38 0.45 0.39 0.38 0.49 0.42 0.47 0.44 0.46 0.40 0.43 0.49 0.46 0.48 0.47 0.41 0.37 0.34 0.49 0.43 0.39 0.49 0.46 0.44 0.37 0.33 0.39 0.49 0.35 0.35 0.46 0.38 0.42 0.37 0.31 0.47 0.38 0.44 0.43 0.43 0.34 0.44 0.44 0.30 0.48 0.31 0.45 0.46 0.44 0.48 0.41 0.41 0.42 0.45 0.32 0.32 0.44 0.39 0.43 0.37 0.37 0.36 0.40 0.50 0.49 0.38 0.49 0.35 0.41 0.42 0.46 0.49 0.49 0.49 0.43 0.37 0.46 0.31 0.32 0.49 0.30 0.48 0.41 0.37 0.30 0.44 0.39 0.41 0.48 0.38 0.48 0.40 0.45 0.44 0.40 0.41 0.49 0.32 0.42 0.35 0.44 0.39 0.41 0.37 0.41 0.43 0.31 0.47 0.31 0.36 0.49 0.45 0.36 0.37 -9999 -9999 -9999 -9999 -9999 -9999 -9999 -9999 -9999 -9999 -9999 -9999 -9999 -9999 -9999 -9999 -9999 -9999 -9999 -9999 -9999 -9999 -9999 -9999 -9999 -9999 -9999 -9999 -9999 -9999 -9999 -9999 -9999 -9999 -9999 -9999 -9999 -9999 -9999 -9999 -9999 -9999 -9999 -9999 -9999
0.38 0.49 0.44 0.45 0.36 0.34 0.32 0.33 0.31 0.35 0.49 0.30 0.45 0.46 0.38 0.47 0.48 0.39 0.31 0.45 0.47 0.39 0.46 0.45 0.47 0.35 0.32 0.30 0.50 0.31 0.48 0.48 0.31 0.46 0.45 0.36 0.33 0.43 0.45 0.42 0.48 0.42 0.46 0.37 0.34 0.48 0.45 0.49 0.48 0.49 0.31 0.33 0.45 0.44 0.33 0.36 0.34 0.35 0.45 0.36 0.32 0.37 0.36 0.37 0.46 0.41 0.42 0.43 0.44 0.48 0.42 0.38 0.39 0.34 0.40 0.43 0.49 0.48 0.48 0.43 0.37 0.31 0.31 0.42 0.32 0.44 0.30 0.45 0.44 0.33 0.49 0.45 0.46 0.47 0.39 0.33 0.43 0.34 0.49 0.42 0.45 0.33 0.33 0.38 0.44 0.45 0.30 0.46 0.38 0.45 0.49 0.42 0.43 0.48 0.49 0.48 0.45 0.48 0.46 0.36 0.40 0.35 0.47 0.48 0.47 0.32 0.37 0.43 0.39 0.46 0.43 0.39 0.41 0.47 0.48 0.38 0.44 0.41 0.34 0.38 0.31 0.48 0.37 0.38 0.32 0.38 0.46 0.38 0.40 0.46 0.43 0.39 0.44 0.31 0.32 0.43 0.44 0.38 0.43 0.44 0.43 0.41 0.47 0.43 0.43 0.42 0.46 0.36 0.39 0.36 -9999 -9999 -9999 -9999 -9999 -9999 -9999 -9999 -9999 -9999 -9999 -9999 -9999 -9999 -9999 -9999 -9999 -9999 -9999 -9999 -9999 -9999 -9999 -9999 -9999 -9999 -9999 -9999 -9999 -9999 -9999 -9999 -9999 -9999 -9999 -9999 -9999 -9999 -9999 -9999 -9999 -9999 -9999 -9999 -9999
0.44 0.41 0.39 0.30 0.48 0.47 0.40 0.48 0.37 0.45 0.50 0.46 0.38 0.30 0.44 0.34 0.36 0.38 0.36 0.40 0.34 0.36 0.33 0.43 0.43 0.33 0.40 0.33 0.32 0.38 0.36 0.35 0.43 0.30 0.43 0.34 0.34 0.47 0.36 0.45 0.36 0.35 0.37 0.41 0.43 0.36 0.40 0.32 0.42 0.37 0.50 0.45 0.44 0.38 0.48 0.40 0.48 0.47 0.36 0.31 0.41 0.32 0.31 0.33 0.40 0.33 0.34 0.37 0.47 0.38 0.32 0.34 0.48 0.48 0.36 0.41 0.32 0.34 0.36 0.47 0.48 0.34 0.36 0.33 0.43 0.43 0.30 0.34 0.33 0.41 0.48 0.32 0.45 0.50 0.30 0.40 0.34 0.41 0.47 0.49 0.31 0.43 0.48 0.31 0.40 0.34 0.35 0.42 0.41 0.35 0.41 0.46 0.44 0.46 0.44 0.31 0.49 0.43 0.42 0.46 0.47 0.44 0.47 0.31 0.41 0.34 0.48 0.48 0.32 0.34 0.40 0.36 0.36 0.43 0.31 0.34 0.34 0.47 0.44 0.32 0.31 0.40 0.37 0.43 0.48 0.38 0.38 0.35 0.47 0.44 0.45 0.48 0.39 0.36 0.43 0.34 0.49 0.44 0.33 0.32 0.34 0.31 0.34 0.35 0.46 0.30 0.34 0.33 0.49 0.42 0.32 -9999 -9999 -9999 -9999 -9999 -9999 -9999 -9999 -9999 -9999 -9999 -9999 -9999 -9999 -9999 -9999 -9999 -9999 -9999 -9999 -9999 -9999 -9999 -9999 -9999 -9999 -9999 -9999 -9999 -9999 -9999 -9999 -9999 -9999 -9999 -9999 -9999 -9999 -9999 -9999 -9999 -9999 -9999 -9999
0.36 0.44 0.39 0.39 0.41 0.49 0.35 0.50 0.47 0.49 0.50 0.41 0.50 0.32 0.31 0.32 0.37 0.43 0.40 0.39 0.38 0.45 0.30 0.39 0.43 0.50 0.37 0.42 0.41 0.44 0.44 0.40 0.38 0.31 0.38 0.45 0.50 0.50 0.34 0.44 0.49 0.33 0.41 0.46 0.48 0.47 0.43 0.41 0.41 0.47 0.46 0.38 0.38 0.40 0.31 0.48 0.30 0.33 0.39 0.39 0.38 0.49 0.34 0.44 0.36 0.32 0.30 0.31 0.40 0.36 0.40 0.44 0.31 0.38 0.41 0.48 0.41 0.40 0.44 0.48 0.47 0.46 0.32 0.31 0.38 0.33 0.46 0.33 0.41 0.47 0.35 0.45 0.50 0.49 0.42 0.45 0.39 0.40 0.43 0.48 0.32 0.49 0.46 0.43 0.44 0.47 0.37 0.46 0.47 0.47 0.44 0.32 0.49 0.39 0.41 0.31 0.41 0.33 0.37 0.47 0.50 0.38 0.48 0.47 0.49 0.40 0.48 0.42 0.32 0.43 0.47 0.45 0.49 0.40 0.47 0.37 0.30 0.44 0.41 0.46 0.41 0.42 0.41 0.37 0.33 0.38 0.45 0.40 0.43 0.39 0.48 0.43 0.50 0.38 0.49 0.37 0.33 0.35 0.43 0.48 0.50 0.49 0.49 0.44 0.34 0.38 0.50 0.39 0.49 0.34 0.32 -9999 -9999 -9999 -9999 -9999 -9999 -9999 -9999 -9999 -9999 -9999 -9999 -9999 -9999 -9999 -9999 -9999 -9999 -9999 -9999 -9999 -9999 -9999 -9999 -9999 -9999 -9999 -9999 -9999 -9999 -9999 -9999 -9999 -9999 -9999 -9999 -9999 -9999 -9999 -9999 -9999 -9999 -9999 -9999
0.46 0.46 0.49 0.43 0.49 0.34 0.31 0.35 0.34 0.31 0.48 0.35 0.48 0.45 0.42 0.45 0.33 0.38 0.44 0.40 0.30 0.45 0.48 0.32 0.37 0.49 0.38 0.47 0.37 0.45 0.37 0.46 0.42 0.49 0.50 0.47 0.34 0.47 0.40 0.39 0.41 0.39 0.36 0.34 0.38 0.47 0.40 0.38 0.37 0.37 0.41 0.44 0.41 0.41 0.35 0.37 0.36 0.49 0.48 0.38 0.45 0.33 0.34 0.36 0.34 0.37 0.33 0.48 0.34 0.33 0.38 0.31 0.31 0.38 0.42 0.43 0.31 0.40 0.41 0.36 0.48 0.34 0.45 0.39 0.46 0.44 0.45 0.39 0.44 0.44 0.35 0.39 0.46 0.38 0.32 0.31 0.50 0.40 0.41 0.40 0.48 0.36 0.36 0.44 0.42 0.31 0.39 0.43 0.42 0.49 0.38 0.49 0.47 0.36 0.35 0.45 0.49 0.30 0.33 0.33 0.48 0.35 0.38 0.39 0.46 0.37 0.43 0.37 0.34 0.34 0.37 0.45 0.39 0.46 0.38 0.32 0.35 0.50 0.37 0.49 0.50 0.44 0.42 0.38 0.37 0.35 0.32 0.35 0.41 0.44 0.49 0.46 0.42 0.48 0.44 0.45 0.39 0.33 0.42 0.48 0.32 0.42 0.33 0.46 0.45 0.46 0.39 0.39 0.37 0.42 0.31 -9999 -9999 -9999 -9999 -9999 -9999 -9999 -9999 -9999 -9999 -9999 -9999 -9999 -9999 -9999 -9999 -9999 -9999 -9999 -9999 -9999 -9999 -9999 -9999 -9999 -9999 -9999 -9999 -9999 -9999 -9999 -9999 -9999 -9999 -9999 -9999 -9999 -9999 -9999 -9999 -9999 -9999 -9999 -9999
0.34 0.41 0.43 0.43 0.48 0.37 0.47 0.36 0.39 0.49 0.31 0.49 0.45 0.32 0.46 0.38 0.31 0.43 0.37 0.47 0.43 0.34 0.45 0.32 0.36 0.33 0.37 0.42 0.35 0.45 0.37 0.47 0.34 0.38 0.48 0.46 0.31 0.32 0.48 0.47 0.45 0.37 0.35 0.39 0.47 0.36 0.45 0.42 0.39 0.43 0.37 0.32 0.45 0.35 0.35 0.50 0.37 0.33 0.43 0.35 0.40 0.43 0.34 0.34 0.47 0.42 0.34 0.50 0.48 0.48 0.46 0.35 0.35 0.41 0.44 0.41 0.41 0.47 0.37 0.35 0.43 0.32 0.49 0.49 0.41 0.31 0.42 0.42 0.30 0.39 0.45 0.43 0.31 0.33 0.34 0.34 0.46 0.34 0.43 0.49 0.49 0.44 0.37 0.50 0.39 0.31 0.41 0.39 0.47 0.47 0.44 0.42 0.40 0.44 0.45 0.44 0.41 0.34 0.44 0.47 0.39 0.48 0.50 0.48 0.43 0.41 0.39 0.31 0.47 0.38 0.45 0.44 0.41 0.38 0.36 0.32 0.36 0.45 0.33 0.42 0.38 0.38 0.49 0.47 0.43 0.37 0.46 0.44 0.34 0.38 0.40 0.37 0.30 0.34 0.47 0.40 0.42 0.32 0.35 0.42 0.37 0.32 0.31 0.49 0.40 0.38 0.36 0.49 0.34 0.33 0.40 -9999 -9999 -9999 -9999 -9999 -9999 -9999 -9999 -9999 -9999 -9999 -9999 -9999 -9999 -9999 -9999 -9999 -9999 -9999 -9999 -9999 -9999 -9999 -9999 -9999 -9999 -9999 -9999 -9999 -9999 -9999 -9999 -9999 -9999 -9999 -9999 -9999 -9999 -9999 -9999 -9999 -9999 -9999 -9999
0.35 0.37 0.46 0.37 0.32 0.31 0.45 0.50 0.44 0.48 0.43 0.35 0.31 0.41 0.31 0.35 0.31 0.40 0.34 0.42 0.47 0.50 0.50 0.36 0.38 0.36 0.35 0.46 0.46 0.40 0.31 0.48 0.31 0.33 0.43 0.45 0.44 0.37 0.45 0.40 0.34 0.34 0.46 0.48 0.48 0.39 0.45 0.39 0.46 0.49 0.44 0.45 0.32 0.48 0.32 0.43 0.42 0.38 0.30 0.33 0.38 0.42 0.37 0.39 0.38 0.43 0.38 0.46 0.37 0.42 0.42 0.46 0.40 0.37 0.33 0.43 0.32 0.46 0.37 0.39 0.39 0.44 0.49 0.43 0.39 0.43 0.45 0.31 0.33 0.37 0.43 0.46 0.42 0.32 0.47 0.45 0.49 0.48 0.34 0.48 0.32 0.36 0.46 0.31 0.46 0.46 0.35 0.40 0.45 0.50 0.40 0.31 0.49 0.45 0.50 0.48 0.33 0.37 0.46 0.31 0.33 0.48 0.43 0.36 0.31 0.47 0.39 0.47 0.35 0.41 0.49 0.47 0.34 0.41 0.48 0.39 0.43 0.48 0.30 0.44 0.38 0.41 0.45 0.40 0.40 0.41 0.50 0.40 0.49 0.31 0.50 0.40 0.49 0.41 0.41 0.48 0.38 0.32 0.46 0.38 0.47 0.31 0.31 0.50 0.32 0.35 0.32 0.39 0.39 0.38 0.32 -9999 -9999 -9999 -9999 -9999 -9999 -9999 -9999 -9999 -9999 -9999 -9999 -9999 -9999 -9999 -9999 -9999 -9999 -9999 -9999 -9999 -9999 -9999 -9999 -9999 -9999 -9999 -9999 -9999 -9999 -9999 -9999 -9999 -9999 -9999 -9999 -9999 -9999 -9999 -9999 -9999 -9999 -9999 -9999
0.42 0.48 0.42 0.49 0.38 0.33 0.33 0.30 0.40 0.33 0.44 0.44 0.50 0.48 0.40 0.42 0.37 0.46 0.31 0.33 0.40 0.33 0.42 0.30 0.44 0.33 0.40 0.42 0.40 0.47 0.31 0.34 0.50 0.48 0.49 0.45 0.31 0.34 0.41 0.35 0.40 0.42 0.42 0.37 0.34 0.43 0.31 0.30 0.41 0.37 0.46 0.41 0.49 0.46 0.31 0.34 0.34 0.47 0.37 0.44 0.50 0.39 0.31 0.44 0.47 0.40 0.42 0.37 0.44 0.39 0.41 0.36 0.35 0.37 0.48 0.40 0.43 0.42 0.47 0.45 0.37 0.30 0.38 0.30 0.48 0.32 0.36 0.36 0.42 0.36 0.34 0.41 0.42 0.50 0.47 0.33 0.46 0.40 0.40 0.48 0.48 0.47 0.33 0.39 0.31 0.31 0.35 0.33 0.36 0.37 0.31 0.43 0.48 0.42 0.44 0.45 0.38 0.40 0.37 0.44 0.32 0.32 0.30 0.37 0.39 0.32 0.47 0.47 0.46 0.39 0.40 0.33 0.45 0.42 0.40 0.47 0.31 0.31 0.36 0.41 0.43 0.38 0.38 0.41 0.44 0.43 0.46 0.36 0.31 0.41 0.44 0.32 0.36 0.35 0.30 0.48 0.31 0.32 0.39 0.31 0.36 0.49 0.41 0.32 0.43 0.49 0.34 0.31 0.37 0.44 0.37 -9999 -9999 -9999 -9999 -9999 -9999 -9999 -9999 -9999 -9999 -9999 -9999 -9999 -9999 -9999 -9999 -9999 -9999 -9999 -9999 -9999 -9999 -9999 -9999 -9999 -9999 -9999 -9999 -9999 -9999 -9999 -9999 -9999 -9999 -9999 -9999 -9999 -9999 -9999 -9999 -9999 -9999 -9999 -9999
0.40 0.39 0.30 0.48 0.41 0.45 0.41 0.43 0.38 0.48 0.40 0.39 0.42 0.43 0.30 0.38 0.46 0.38 0.36 0.36 0.47 0.30 0.39 0.35 0.42 0.31 0.31 0.35 0.39 0.38 0.35 0.42 0.36 0.49 0.48 0.30 0.33 0.33 0.39 0.45 0.40 0.32 0.42 0.38 0.38 0.32 0.38 0.49 0.34 0.38 0.36 0.33 0.40 0.46 0.31 0.49 0.43 0.46 0.47 0.39 0.46 0.38 0.48 0.36 0.34 0.45 0.33 0.34 0.46 0.48 0.31 0.46 0.40 0.38 0.46 0.46 0.45 0.36 0.38 0.38 0.42 0.44 0.39 0.43 0.38 0.45 0.40 0.31 0.46 0.45 0.49 0.35 0.43 0.32 0.49 0.47 0.46 0.46 0.41 0.45 0.47 0.33 0.32 0.31 0.35 0.34 0.33 0.35 0.37 0.45 0.37 0.31 0.32 0.36 0.35 0.34 0.46 0.46 0.31 0.36 0.42 0.44 0.48 0.36 0.42 0.41 0.38 0.33 0.43 0.46 0.40 0.32 0.34 0.36 0.36 0.44 0.38 0.30 0.46 0.50 0.39 0.41 0.48 0.30 0.38 0.50 0.48 0.32 0.47 0.31 0.45 0.32 0.31 0.32 0.46 0.38 0.30 0.42 0.37 0.33 0.36 0.36 0.41 0.41 0.47 0.48 0.43 0.38 0.34 0.40 0.35 -9999 -9999 -9999 -9999 -9999 -9999 -9999 -9999 -9999 -9999 -9999 -9999 -9999 -9999 -9999 -9999 -9999 -9999 -9999 -9999 -9999 -9999 -9999 -9999 -9999 -9999 -9999 -9999 -9999 -9999 -9999 -9999 -9999 -9999 -9999 -9999 -9999 -9999 -9999 -9999 -9999 -9999 -9999 -9999
0.31 0.31 0.35 0.35 0.37 0.42 0.36 0.34 0.41 0.30 0.48 0.39 0.43 0.39 0.42 0.46 0.47 0.36 0.49 0.31 0.46 0.41 0.32 0.42 0.34 0.46 0.38 0.42 0.45 0.32 0.46 0.35 0.39 0.46 0.35 0.37 0.46 0.40 0.37 0.46 0.47 0.43 0.45 0.33 0.46 0.49 0.36 0.49 0.48 0.38 0.39 0.35 0.41 0.46 0.38 0.31 0.31 0.46 0.47 0.36 0.46 0.38 0.40 0.46 0.49 0.44 0.36 0.43 0.37 0.49 0.40 0.33 0.36 0.36 0.34 0.30 0.31 0.40 0.40 0.39 0.36 0.30 0.46 0.31 0.32 0.35 0.32 0.48 0.40 0.35 0.46 0.39 0.43 0.50 0.47 0.41 0.48 0.46 0.48 0.43 0.49 0.42 0.39 0.34 0.40 0.37 0.39 0.40 0.38 0.37 0.30 0.31 0.48 0.30 0.30 0.37 0.46 0.48 0.43 0.41 0.35 0.47 0.38 0.36 0.34 0.41 0.48 0.49 0.42 0.44 0.37 0.48 0.37 0.43 0.33 0.47 0.38 0.42 0.43 0.43 0.37 0.32 0.46 0.40 0.46 0.48 0.33 0.49 0.33 0.45 0.33 0.48 0.30 0.32 0.38 0.34 0.43 0.43 0.36 0.31 0.37 0.50 0.47 0.39 0.36 0.41 0.42 0.38 0.41 0.45 0.42 0.34 -9999 -9999 -9999 -9999 -9999 -9999 -9999 -9999 -9999 -9999 -9999 -9999 -9999 -9999 -9999 -9999 -9999 -9999 -9999 -9999 -9999 -9999 -9999 -9999 -9999 -9999 -9999 -9999 -9999 -9999 -9999 -9999 -9999 -9999 -9999 -9999 -9999 -9999 -9999 -9999 -9999 -9999 -9999
0.31 0.45 0.41 0.44 0.36 0.37 0.48 0.45 0.44 0.39 0.33 0.49 0.32 0.39 0.47 0.49 0.47 0.44 0.39 0.33 0.44 0.40 0.32 0.47 0.45 0.49 0.41 0.48 0.40 0.32 0.45 0.42 0.37 0.45 0.33 0.32 0.37 0.35 0.31 0.46 0.37 0.35 0.42 0.32 0.35 0.31 0.34 0.39 0.37 0.34 0.46 0.39 0.32 0.38 0.50 0.45 0.39 0.45 0.48 0.33 0.32 0.33 0.37 0.32 0.38 0.40 0.38 0.47 0.49 0.40 0.31 0.32 0.48 0.44 0.45 0.49 0.41 0.43 0.48 0.42 0.47 0.39 0.45 0.39 0.37 0.37 0.40 0.32 0.34 0.44 0.31 0.37 0.41 0.40 0.42 0.45 0.32 0.49 0.43 0.48 0.44 0.36 0.30 0.31 0.36 0.50 0.40 0.39 0.49 0.40 0.38 0.46 0.49 0.31 0.41 0.41 0.32 0.47 0.31 0.41 0.35 0.43 0.42 0.37 0.43 0.44 0.44 0.31 0.39 0.46 0.33 0.32 0.31 0.48 0.36 0.50 0.41 0.32 0.41 0.40 0.35 0.40 0.31 0.34 0.31 0.37 0.37 0.45 0.41 0.32 0.45 0.45 0.38 0.32 0.40 0.37 0.49 0.36 0.31 0.46 0.42 0.46 0.45 0.35 0.39 0.47 0.44 0.41 0.44 0.31 0.33 0.34 -9999 -9999 -9999 -9999 -9999 -9999 -9999 -9999 -9999 -9999 -9999 -9999 -9999 -9999 -9999 -9999 -9999 -9999 -9999 -9999 -9999 -9999 -9999 -9999 -9999 -9999 -9999 -9999 -9999 -9999 -9999 -9999 -9999 -9999 -9999 -9999 -9999 -9999 -9999 -9999 -9999 -9999 -9999
0.39 0.34 0.33 0.37 0.40 0.46 0.42 0.41 0.49 0.31 0.49 0.50 0.44 0.38 0.32 0.38 0.35 0.40 0.39 0.31 0.39 0.49 0.33 0.34 0.30 0.40 0.41 0.32 0.46 0.42 0.36 0.47 0.37 0.46 0.42 0.36 0.42 0.44 0.46 0.46 0.44 0.34 0.39 0.44 0.47 0.34 0.44 0.33 0.47 0.37 0.33 0.48 0.35 0.34 0.40 0.42 0.38 0.44 0.45 0.46 0.40 0.31 0.48 0.45 0.41 0.41 0.37 0.47 0.50 0.35 0.40 0.45 0.48 0.35 0.43 0.33 0.37 0.37 0.39 0.33 0.48 0.38 0.40 0.33 0.41 0.43 0.37 0.33 0.44 0.37 0.41 0.43 0.41 0.37 0.38 0.47 0.48 0.32 0.31 0.38 0.33 0.37 0.33 0.40 0.35 0.42 0.39 0.48 0.33 0.32 0.41 0.32 0.32 0.46 0.41 0.42 0.33 0.46 0.49 0.45 0.35 0.32 0.44 0.36 0.36 0.42 0.35 0.33 0.45 0.46 0.36 0.33 0.36 0.47 0.45 0.33 0.39 0.37 0.35 0.42 0.32 0.35 0.31 0.31 0.38 0.44 0.42 0.41 0.37 0.38 0.42 0.36 0.47 0.44 0.31 0.44 0.33 0.48 0.39 0.39 0.47 0.39 0.31 0.44 0.49 0.42 0.40 0.48 0.49 0.37 0.38 0.47 -9999 -9999 -9999 -9999 -9999 -9999 -9999 -9999 -9999 -9999 -9999 -9999 -9999 -9999 -9999 -9999 -9999 -9999 -9999 -9999 -9999 -9999 -9999 -9999 -9999 -9999 -9999 -9999 -9999 -9999 -9999 -9999 -9999 -9999 -9999 -9999 -9999 -9999 -9999 -9999 -9999 -9999 -9999
0.33 0.47 0.34 0.36 0.38 0.39 0.39 0.32 0.47 0.47 0.45 0.44 0.38 0.38 0.45 0.43 0.37 0.35 0.38 0.43 0.45 0.32 0.37 0.31 0.40 0.46 0.50 0.38 0.31 0.33 0.35 0.43 0.45 0.34 0.48 0.47 0.44 0.50 0.36 0.38 0.45 0.34 0.31 0.42 0.38 0.33 0.35 0.32 0.32 0.37 0.45 0.37 0.42 0.49 0.37 0.31 0.48 0.30 0.49 0.40 0.45 0.46 0.43 0.31 0.36 0.45 0.40 0.37 0.35 0.36 0.44 0.44 0.45 0.46 0.31 0.49 0.46 0.43 0.38 0.48 0.43 0.31 0.47 0.45 0.49 0.41 0.34 0.31 0.34 0.40 0.33 0.48 0.37 0.47 0.31 0.48 0.46 0.41 0.32 0.35 0.31 0.33 0.44 0.43 0.48 0.33 0.36 0.33 0.30 0.43 0.33 0.49 0.38 0.45 0.31 0.40 0.39 0.37 0.42 0.31 0.34 0.49 0.37 0.38 0.46 0.37 0.40 0.45 0.40 0.49 0.31 0.48 0.40 0.31 0.38 0.31 0.37 0.34 0.40 0.38 0.37 0.45 0.48 0.47 0.43 0.39 0.40 0.34 0.30 0.46 0.32 0.48 0.35 0.50 0.47 0.42 0.32 0.34 0.41 0.49 0.44 0.46 0.45 0.33 0.34 0.36 0.44 0.31 0.36 0.38 0.34 0.43 -9999 -9999 -9999 -9999 -9999 -9999 -9999 -9999 -9999 -9999 -9999 -9999 -9999 -9999 -9999 -9999 -9999 -9999 -9999 -9999 -9999 -9999 -9999 -9999 -9999 -9999 -9999 -9999 -9999 -9999 -9999 -9999 -9999 -9999 -9999 -9999 -9999 -9999 -9999 -9999 -9999 -9999 -9999
0.31 0.36 0.32 0.42 0.48 0.44 0.39 0.43 0.36 0.34 0.34 0.40 0.32 0.40 0.40 0.34 0.37 0.48 0.39 0.42 0.49 0.36 0.39 0.38 0.34 0.37 0.33 0.30 0.36 0.43 0.50 0.42 0.32 0.43 0.37 0.32 0.39 0.37 0.39 0.49 0.37 0.37 0.37 0.38 0.33 0.32 0.43 0.43 0.43 0.39 0.48 0.39 0.38 0.37 0.32 0.35 0.41 0.36 0.36 0.42 0.47 0.36 0.40 0.46 0.47 0.40 0.31 0.33 0.38 0.47 0.41 0.36 0.35 0.40 0.35 0.36 0.37 0.34 0.31 0.49 0.49 0.37 0.38 0.46 0.38 0.46 0.45 0.40 0.35 0.31 0.36 0.47 0.46 0.45 0.45 0.45 0.46 0.47 0.40 0.45 0.48 0.44 0.38 0.41 0.34 0.47 0.37 0.31 0.44 0.45 0.41 0.44 0.33 0.45 0.46 0.46 0.38 0.31 0.39 0.42 0.34 0.39 0.48 0.42 0.42 0.31 0.32 0.35 0.36 0.46 0.33 0.47 0.48 0.36 0.41 0.39 0.35 0.35 0.48 0.37 0.47 0.43 0.45 0.33 0.35 0.44 0.48 0.38 0.41 0.45 0.36 0.31 0.35 0.35 0.31 0.41 0.50 0.32 0.33 0.44 0.44 0.31 0.48 0.38 0.49 0.35 0.42 0.36 0.40 0.36 0.48 0.49 -9999 -9999 -9999 -9999 -9999 -9999 -9999 -9999 -9999 -9999 -9999 -9999 -9999 -9999 -9999 -9999 -9999 -9999 -9999 -9999 -9999 -9999 -9999 -9999 -9999 -9999 -9999 -9999 -9999 -9999 -9999 -9999 -9999 -9999 -9999 -9999 -9999 -9999 -9999 -9999 -9999 -9999 -9999
0.42 0.43 0.39 0.42 0.44 0.36 0.31 0.39 0.41 0.46 0.42 0.47 0.31 0.49 0.43 0.45 0.39 0.30 0.32 0.44 0.33 0.31 0.48 0.35 0.30 0.39 0.35 0.38 0.44 0.42 0.42 0.45 0.46 0.46 0.40 0.46 0.33 0.45 0.41 0.45 0.37 0.47 0.39 0.38 0.34 0.32 0.47 0.48 0.39 0.32 0.42 0.42 0.34 0.50 0.40 0.49 0.34 0.46 0.41 0.40 0.40 0.42 0.39 0.49 0.47 0.46 0.50 0.44 0.40 0.45 0.45 0.37 0.30 0.46 0.50 0.31 0.35 0.38 0.39 0.45 0.34 0.45 0.33 0.39 0.48 0.35 0.43 0.41 0.49 0.35 0.44 0.32 0.34 0.32 0.39 0.47 0.30 0.50 0.33 0.46 0.33 0.38 0.39 0.40 0.47 0.30 0.40 0.35 0.42 0.38 0.40 0.40 0.50 0.39 0.32 0.46 0.37 0.49 0.47 0.30 0.39 0.47 0.49 0.47 0.32 0.31 0.34 0.46 0.31 0.35 0.37 0.33 0.41 0.35 0.47 0.48 0.49 0.41 0.33 0.33 0.34 0.36 0.41 0.37 0.47 0.47 0.42 0.35 0.33 0.37 0.32 0.33 0.36 0.42 0.46 0.45 0.31 0.45 0.44 0.41 0.40 0.43 0.40 0.33 0.44 0.34 0.40 0.44 0.45 0.34 0.41 0.31 -9999 -9999 -9999 -9999 -9999 -9999 -9999 -9999 -9999 -9999 -9999 -9999 -9999 -9999 -9999 -9999 -9999 -9999 -9999 -9999 -9999 -9999 -9999 -9999 -9999 -9999 -9999 -9999 -9999 -9999 -9999 -9999 -9999 -9999 -9999 -9999 -9999 -9999 -9999 -9999 -9999 -9999 -9999
0.34 0.31 0.41 0.31 0.32 0.38 0.38 0.42 0.40 0.40 0.40 0.50 0.35 0.47 0.33 0.47 0.35 0.36 0.37 0.32 0.43 0.49 0.36 0.42 0.44 0.46 0.44 0.48 0.30 0.43 0.43 0.42 0.45 0.43 0.46 0.48 0.33 0.48 0.47 0.47 0.42 0.48 0.37 0.43 0.45 0.49 0.44 0.32 0.36 0.35 0.50 0.41 0.50 0.49 0.33 0.36 0.46 0.44 0.42 0.42 0.34 0.48 0.49 0.48 0.43 0.34 0.40 0.41 0.42 0.42 0.37 0.35 0.41 0.44 0.37 0.37 0.37 0.33 0.45 0.33 0.43 0.49 0.46 0.35 0.45 0.37 0.43 0.32 0.44 0.33 0.38 0.46 0.44 0.36 0.37 0.34 0.35 0.42 0.47 0.32 0.45 0.44 0.42 0.31 0.37 0.43 0.41 0.47 0.34 0.49 0.41 0.45 0.44 0.31 0.32 0.43 0.46 0.38 0.35 0.46 0.34 0.34 0.41 0.37 0.34 0.38 0.34 0.30 0.32 0.38 0.42 0.45 0.34 0.39 0.43 0.50 0.38 0.43 0.34 0.37 0.49 0.31 0.37 0.48 0.44 0.38 0.48 0.45 0.32 0.35 0.46 0.45 0.34 0.33 0.40 0.31 0.39 0.49 0.33 0.46 0.39 0.46 0.47 0.42 0.37 0.46 0.39 0.35 0.38 0.48 0.46 0.41 0.32 -9999 -9999 -9999 -9999 -9999 -9999 -9999 -9999 -9999 -9999 -9999 -9999 -9999 -9999 -9999 -9999 -9999 -9999 -9999 -9999 -9999 -9999 -9999 -9999 -9999 -9999 -9999 -9999 -9999 -9999 -9999 -9999 -9999 -9999 -9999 -9999 -9999 -9999 -9999 -9999 -9999 -9999
0.40 0.39 0.32 0.36 0.34 0.45 0.47 0.32 0.43 0.31 0.36 0.38 0.48 0.33 0.49 0.43 0.34 0.41 0.46 0.34 0.48 0.49 0.50 0.37 0.34 0.47 0.40 0.39 0.45 0.49 0.44 0.38 0.42 0.45 0.35 0.32 0.34 0.50 0.32 0.43 0.45 0.42 0.37 0.34 0.31 0.47 0.42 0.46 0.31 0.32 0.46 0.40 0.45 0.38 0.33 0.47 0.31 0.44 0.33 0.33 0.46 0.43 0.50 0.32 0.49 0.40 0.34 0.46 0.33 0.39 0.45 0.45 0.34 0.47 0.49 0.39 0.37 0.34 0.36 0.46 0.32 0.35 0.47 0.32 0.38 0.46 0.42 0.35 0.32 0.44 0.43 0.49 0.35 0.46 0.31 0.49 0.37 0.38 0.43 0.41 0.36 0.35 0.42 0.49 0.31 0.32 0.37 0.37 0.46 0.39 0.50 0.44 0.40 0.33 0.49 0.40 0.33 0.49 0.33 0.49 0.48 0.35 0.38 0.35 0.49 0.38 0.41 0.34 0.43 0.49 0.45 0.43 0.34 0.48 0.35 0.44 0.35 0.49 0.38 0.33 0.40 0.44 0.31 0.40 0.38 0.37 0.31 0.34 0.32 0.46 0.44 0.50 0.30 0.41 0.35 0.41 0.48 0.33 0.40 0.37 0.43 0.38 0.41 0.34 0.45 0.32 0.48 0.40 0.46 0.40 0.32 0.38 0.43 -9999 -9999 -9999 -9999 -9999 -9999 -9999 -9999 -9999 -9999 -9999 -9999 -9999 -9999 -9999 -9999 -9999 -9999 -9999 -9999 -9999 -9999 -9999 -9999 -9999 -9999 -9999 -9999 -9999 -9999 -9999 -9999 -9999 -9999 -9999 -9999 -9999 -9999 -9999 -9999 -9999 -9999
0.46 0.47 0.49 0.37 0.40 0.31 0.40 0.30 0.42 0.40 0.45 0.42 0.34 0.43 0.49 0.46 0.36 0.46 0.36 0.48 0.48 0.34 0.36 0.36 0.41 0.34 0.42 0.34 0.42 0.50 0.42 0.47 0.35 0.37 0.49 0.35 0.31 0.35 0.35 0.34 0.34 0.30 0.36 0.35 0.38 0.48 0.47 0.50 0.38 0.35 0.40 0.44 0.49 0.48 0.32 0.40 0.47 0.46 0.43 0.43 0.49 0.44 0.38 0.46 0.38 0.44 0.47 0.31 0.33 0.47 0.35 0.50 0.32 0.39 0.35 0.46 0.47 0.34 0.37 0.42 0.32 0.46 0.47 0.38 0.31 0.42 0.45 0.32 0.41 0.43 0.48 0.43 0.42 0.35 0.46 0.31 0.46 0.31 0.50 0.38 0.33 0.38 0.43 0.41 0.48 0.50 0.36 0.32 0.45 0.48 0.31 0.35 0.40 0.31 0.33 0.39 0.31 0.43 0.44 0.32 0.43 0.39 0.48 0.35 0.45 0.42 0.43 0.34 0.47 0.36 0.42 0.46 0.35 0.40 0.31 0.44 0.33 0.39 0.50 0.44 0.30 0.32 0.38 0.32 0.41 0.30 0.36 0.38 0.49 0.48 0.37 0.36 0.37 0.38 0.37 0.47 0.44 0.45 0.31 0.47 0.39 0.36 0.34 0.44 0.33 0.35 0.36 0.32 0.37 0.31 0.35 0.37 0.34 -9999 -9999 -9999 -9999 -9999 -9999 -9999 -9999 -9999 -9999 -9999 -9999 -9999 -9999 -9999 -9999 -9999 -9999 -9999 -9999 -9999 -9999 -9999 -9999 -9999 -9999 -9999 -9999 -9999 -9999 -9999 -9999 -9999 -9999 -9999 -9999 -9999 -9999 -9999 -9999 -9999 -9999
0.36 0.36 0.33 0.32 0.47 0.49 0.46 0.49 0.32 0.30 0.43 0.42 0.47 0.34 0.44 0.41 0.45 0.48 0.32 0.46 0.32 0.42 0.35 0.30 0.34 0.49 0.31 0.40 0.36 0.46 0.42 0.50 0.31 0.42 0.49 0.40 0.36 0.46 0.43 0.33 0.35 0.49 0.37 0.35 0.40 0.36 0.47 0.36 0.47 0.38 0.48 0.42 0.36 0.48 0.40 0.46 0.33 0.31 0.31 0.45 0.45 0.43 0.47 0.35 0.34 0.48 0.46 0.39 0.36 0.32 0.43 0.34 0.35 0.45 0.37 0.48 0.49 0.41 0.47 0.36 0.41 0.44 0.35 0.44 0.35 0.38 0.42 0.39 0.38 0.46 0.46 0.32 0.38 0.48 0.39 0.39 0.49 0.44 0.40 0.35 0.39 0.37 0.31 0.49 0.41 0.31 0.47 0.39 0.32 0.37 0.44 0.37 0.49 0.31 0.37 0.36 0.46 0.43 0.40 0.33 0.40 0.46 0.45 0.31 0.33 0.35 0.36 0.46 0.42 0.46 0.44 0.46 0.40 0.33 0.35 0.30 0.40 0.46 0.39 0.48 0.40 0.46 0.47 0.36 0.43 0.44 0.42 0.32 0.44 0.42 0.48 0.50 0.48 0.39 0.47 0.44 0.31 0.40 0.39 0.34 0.31 0.49 0.41 0.48 0.30 0.48 0.42 0.40 0.36 0.47 0.42 0.46 0.40 -9999 -9999 -9999 -9999 -9999 -9999 -9999 -9999 -9999 -9999 -9999 -9999 -9999 -9999 -9999 -9999 -9999 -9999 -9999 -9999 -9999 -9999 -9999 -9999 -9999 -9999 -9999 -9999 -9999 -9999 -9999 -9999 -9999 -9999 -9999 -9999 -9999 -9999 -9999 -9999 -9999 -9999
0.48 0.50 0.42 0.35 0.47 0.43 0.39 0.40 0.34 0.39 0.39 0.41 0.44 0.49 0.42 0.33 0.31 0.32 0.40 0.46 0.44 0.44 0.41 0.38 0.38 0.48 0.30 0.31 0.35 0.34 0.46 0.31 0.32 0.40 0.42 0.44 0.49 0.43 0.37 0.38 0.49 0.46 0.49 0.46 0.35 0.49 0.49 0.38 0.43 0.43 0.43 0.43 0.37 0.44 0.31 0.41 0.36 0.45 0.41 0.34 0.36 0.31 0.44 0.36 0.35 0.40 0.35 0.46 0.38 0.49 0.43 0.49 0.41 0.30 0.37 0.43 0.31 0.44 0.48 0.38 0.38 0.49 0.46 0.34 0.35 0.35 0.47 0.36 0.33 0.47 0.49 0.38 0.33 0.47 0.41 0.45 0.50 0.49 0.40 0.34 0.44 0.41 0.31 0.33 0.47 0.45 0.32 0.40 0.50 0.31 0.49 0.46 0.36 0.32 0.31 0.36 0.49 0.31 0.32 0.41 0.38 0.39 0.32 0.44 0.41 0.44 0.45 0.45 0.32 0.33 0.31 0.38 0.36 0.31 0.33 0.31 0.43 0.47 0.41 0.38 0.30 0.32 0.33 0.36 0.34 0.42 0.35 0.42 0.42 0.32 0.37 0.43 0.32 0.44 0.41 0.44 0.48 0.43 0.31 0.42 0.48 0.42 0.47 0.47 0.48 0.46 0.39 0.43 0.33 0.42 0.30 0.33 0.42 -9999 -9999 -9999 -9999 -9999 -9999 -9999 -9999 -9999 -9999 -9999 -9999 -9999 -9999 -9999 -9999 -9999 -9999 -9999 -9999 -9999 -9999 -9999 -9999 -9999 -9999 -9999 -9999 -9999 -9999 -9999 -9999 -9999 -9999 -9999 -9999 -9999 -9999 -9999 -9999 -9999 -9999
0.45 0.35 0.43 0.38 0.43 0.42 0.39 0.46 0.36 0.42 0.47 0.35 0.32 0.38 0.48 0.31 0.47 0.43 0.32 0.44 0.39 0.45 0.41 0.44 0.45 0.44 0.49 0.44 0.47 0.37 0.39 0.43 0.37 0.49 0.44 0.45 0.37 0.35 0.41 0.46 0.37 0.40 0.37 0.39 0.47 0.49 0.31 0.44 0.39 0.40 0.48 0.38 0.33 0.49 0.43 0.49 0.31 0.36 0.39 0.38 0.37 0.47 0.49 0.46 0.38 0.38 0.36 0.41 0.31 0.47 0.31 0.35 0.39 0.32 0.35 0.30 0.34 0.48 0.41 0.48 0.31 0.32 0.34 0.33 0.42 0.39 0.49 0.42 0.48 0.33 0.39 0.44 0.44 0.30 0.32 0.34 0.42 0.50 0.50 0.50 0.47 0.39 0.44 0.32 0.37 0.44 0.49 0.44 0.31 0.43 0.45 0.33 0.37 0.42 0.43 0.34 0.46 0.42 0.37 0.43 0.32 0.34 0.32 0.48 0.38 0.39 0.31 0.49 0.42 0.31 0.34 0.49 0.37 0.34 0.38 0.32 0.38 0.44 0.47 0.40 0.33 0.45 0.32 0.43 0.31 0.47 0.31 0.35 0.30 0.42 0.37 0.48 0.33 0.34 0.41 0.42 0.32 0.34 0.41 0.47 0.34 0.50 0.35 0.45 0.36 0.35 0.38 0.43 0.43 0.47 0.41 0.33 0.34 -9999 -9999 -9999 -9999 -9999 -9999 -9999 -9999 -9999 -9999 -9999 -9999 -9999 -9999 -9999 -9999 -9999 -9999 -9999 -9999 -9999 -9999 -9999 -9999 -9999 -9999 -9999 -9999 -9999 -9999 -9999 -9999 -9999 -9999 -9999 -9999 -9999 -9999 -9999 -9999 -9999 -9999
0.41 0.40 0.35 0.42 0.42 0.33 0.34 0.32 0.37 0.32 0.37 0.41 0.35 0.30 0.44 0.43 0.47 0.35 0.33 0.39 0.42 0.44 0.30 0.44 0.45 0.40 0.33 0.44 0.45 0.35 0.42 0.35 0.46 0.40 0.47 0.39 0.36 0.39 0.34 0.32 0.47 0.45 0.35 0.50 0.49 0.37 0.45 0.39 0.40 0.47 0.37 0.49 0.46 0.31 0.31 0.42 0.32 0.45 0.39 0.46 0.42 0.48 0.36 0.46 0.46 0.39 0.39 0.47 0.35 0.37 0.31 0.32 0.41 0.40 0.48 0.45 0.41 0.32 0.49 0.45 0.43 0.41 0.31 0.46 0.46 0.49 0.34 0.45 0.38 0.42 0.39 0.36 0.34 0.45 0.42 0.43 0.38 0.38 0.36 0.40 0.40 0.36 0.41 0.44 0.38 0.46 0.45 0.32 0.47 0.37 0.33 0.42 0.44 0.46 0.32 0.47 0.37 0.46 0.44 0.36 0.32 0.34 0.46 0.36 0.36 0.50 0.31 0.35 0.43 0.38 0.32 0.42 0.43 0.35 0.35 0.34 0.49 0.38 0.44 0.48 0.40 0.46 0.33 0.36 0.46 0.35 0.39 0.49 0.38 0.44 0.32 0.44 0.42 0.33 0.33 0.49 0.39 0.49 0.37 0.45 0.32 0.43 0.34 0.36 0.37 0.40 0.45 0.37 0.32 0.38 0.43 0.49 0.37 -9999 -9999 -9999 -9999 -9999 -9999 -9999 -9999 -9999 -9999 -9999 -9999 -9999 -9999 -9999 -9999 -9999 -9999 -9999 -9999 -9999 -9999 -9999 -9999 -9999 -9999 -9999 -9999 -9999 -9999 -9999 -9999 -9999 -9999 -9999 -9999 -9999 -9999 -9999 -9999 -9999 -9999
0.46 0.41 0.43 0.34 0.30 0.47 0.44 0.43 0.48 0.42 0.47 0.30 0.33 0.41 0.30 0.35 0.45 0.41 0.36 0.34 0.40 0.42 0.44 0.31 0.35 0.33 0.47 0.44 0.46 0.35 0.31 0.44 0.47 0.42 0.40 0.32 0.48 0.40 0.35 0.48 0.41 0.41 0.47 0.43 0.39 0.47 0.32 0.41 0.39 0.43 0.48 0.44 0.49 0.49 0.48 0.38 0.35 0.49 0.30 0.49 0.36 0.31 0.50 0.44 0.43 0.40 0.31 0.39 0.42 0.30 0.33 0.34 0.39 0.30 0.40 0.30 0.43 0.33 0.36 0.43 0.50 0.31 0.30 0.50 0.33 0.49 0.30 0.43 0.37 0.42 0.39 0.49 0.38 0.45 0.33 0.34 0.34 0.37 0.50 0.49 0.39 0.49 0.30 0.34 0.38 0.42 0.42 0.36 0.46 0.30 0.37 0.34 0.31 0.44 0.47 0.47 0.35 0.42 0.42 0.32 0.41 0.31 0.43 0.32 0.42 0.30 0.42 0.40 0.38 0.35 0.49 0.35 0.36 0.30 0.31 0.38 0.39 0.39 0.45 0.45 0.32 0.48 0.49 0.37 0.36 0.45 0.42 0.34 0.33 0.33 0.32 0.37 0.31 0.43 0.44 0.47 0.30 0.49 0.31 0.45 0.30 0.39 0.31 0.49 0.37 0.49 0.32 0.33 0.36 0.37 0.33 0.30 0.44 0.42 -9999 -9999 -9999 -9999 -9999 -9999 -9999 -9999 -9999 -9999 -9999 -9999 -9999 -9999 -9999 -9999 -9999 -9999 -9999 -9999 -9999 -9999 -9999 -9999 -9999 -9999 -9999 -9999 -9999 -9999 -9999 -9999 -9999 -9999 -9999 -9999 -9999 -9999 -9999 -9999 -9999
0.38 0.38 0.48 0.42 0.42 0.45 0.47 0.44 0.38 0.39 0.36 0.36 0.36 0.40 0.33 0.41 0.48 0.45 0.47 0.38 0.32 0.44 0.37 0.43 0.34 0.31 0.44 0.35 0.37 0.49 0.41 0.32 0.46 0.36 0.33 0.31 0.45 0.36 0.31 0.45 0.31 0.44 0.48 0.41 0.47 0.37 0.39 0.47 0.49 0.36 0.47 0.45 0.40 0.36 0.31 0.47 0.34 0.33 0.41 0.39 0.36 0.34 0.35 0.48 0.40 0.39 0.46 0.35 0.40 0.43 0.35 0.49 0.43 0.33 0.34 0.30 0.33 0.31 0.36 0.48 0.46 0.35 0.38 0.48 0.42 0.39 0.36 0.40 0.31 0.45 0.39 0.31 0.49 0.37 0.32 0.40 0.34 0.33 0.35 0.44 0.38 0.41 0.48 0.33 0.33 0.41 0.37 0.34 0.31 0.38 0.50 0.38 0.49 0.40 0.32 0.43 0.32 0.35 0.36 0.32 0.32 0.50 0.42 0.45 0.32 0.49 0.41 0.32 0.33 0.30 0.40 0.40 0.30 0.48 0.39 0.42 0.42 0.38 0.32 0.34 0.45 0.47 0.31 0.38 0.39 0.41 0.35 0.40 0.37 0.34 0.34 0.49 0.31 0.46 0.35 0.50 0.47 0.36 0.44 0.45 0.48 0.45 0.39 0.30 0.49 0.43 0.37 0.40 0.50 0.40 0.40 0.43 0.43 0.40 -9999 -9999 -9999 -9999 -9999 -9999 -9999 -9999 -9999 -9999 -9999 -9999 -9999 -9999 -9999 -9999 -9999 -9999 -9999 -9999 -9999 -9999 -9999 -9999 -9999 -9999 -9999 -9999 -9999 -9999 -9999 -9999 -9999 -9999 -9999 -9999 -9999 -9999 -9999 -9999 -9999
0.43 0.40 0.43 0.35 0.48 0.36 0.34 0.43 0.49 0.40 0.45 0.43 0.35 0.49 0.50 0.31 0.48 0.37 0.33 0.44 0.47 0.36 0.42 0.35 0.44 0.37 0.40 0.31 0.47 0.37 0.41 0.40 0.47 0.38 0.35 0.40 0.40 0.48 0.36 0.40 0.31 0.37 0.48 0.40 0.36 0.41 0.44 0.46 0.33 0.35 0.36 0.31 0.38 0.35 0.37 0.40 0.44 0.45 0.38 0.30 0.36 0.48 0.48 0.44 0.40 0.41 0.46 0.39 0.30 0.48 0.39 0.45 0.42 0.30 0.45 0.46 0.49 0.45 0.41 0.47 0.39 0.49 0.35 0.49 0.39 0.43 0.49 0.35 0.35 0.50 0.39 0.39 0.33 0.42 0.42 0.38 0.31 0.32 0.43 0.33 0.42 0.49 0.39 0.46 0.47 0.38 0.40 0.36 0.41 0.40 0.39 0.31 0.31 0.40 0.30 0.41 0.36 0.38 0.42 0.37 0.41 0.39 0.49 0.47 0.38 0.35 0.37 0.44 0.31 0.37 0.48 0.34 0.39 0.41 0.47 0.46 0.34 0.50 0.47 0.31 0.44 0.48 0.40 0.48 0.43 0.32 0.43 0.44 0.43 0.39 0.41 0.36 0.41 0.38 0.36 0.48 0.41 0.43 0.31 0.43 0.39 0.44 0.40 0.47 0.34 0.37 0.49 0.33 0.38 0.49 0.36 0.34 0.49 0.42 -9999 -9999 -9999 -9999 -9999 -9999 -9999 -9999 -9999 -9999 -9999 -9999 -9999 -9999 -9999 -9999 -9999 -9999 -9999 -9999 -9999 -9999 -9999 -9999 -9999 -9999 -9999 -9999 -9999 -9999 -9999 -9999 -9999 -9999 -9999 -9999 -9999 -9999 -9999 -9999 -9999
0.42 0.32 0.37 0.38 0.45 0.47 0.39 0.48 0.43 0.37 0.35 0.36 0.42 0.39 0.31 0.36 0.34 0.44 0.34 0.44 0.50 0.34 0.33 0.43 0.40 0.46 0.47 0.31 0.34 0.42 0.32 0.31 0.31 0.49 0.48 0.33 0.47 0.45 0.46 0.48 0.39 0.36 0.35 0.35 0.46 0.34 0.31 0.35 0.45 0.47 0.50 0.46 0.32 0.50 0.36 0.50 0.41 0.44 0.43 0.36 0.38 0.38 0.41 0.44 0.33 0.37 0.38 0.48 0.37 0.43 0.48 0.32 0.44 0.42 0.46 0.43 0.30 0.37 0.33 0.31 0.50 0.43 0.38 0.42 0.38 0.31 0.47 0.44 0.34 0.34 0.50 0.40 0.47 0.37 0.40 0.49 0.33 0.44 0.31 0.42 0.45 0.40 0.35 0.42 0.47 0.40 0.35 0.38 0.45 0.45 0.35 0.34 0.34 0.42 0.30 0.34 0.41 0.36 0.46 0.49 0.37 0.46 0.35 0.38 0.47 0.35 0.30 0.43 0.37 0.42 0.35 0.37 0.32 0.48 0.36 0.43 0.38 0.33 0.49 0.35 0.42 0.37 0.33 0.46 0.39 0.47 0.31 0.37 0.39 0.39 0.30 0.37 0.35 0.35 0.46 0.31 0.44 0.34 0.35 0.48 0.32 0.42 0.40 0.36 0.43 0.37 0.42 0.34 0.50 0.39 0.42 0.34 0.35 0.31 -9999 -9999 -9999 -9999 -9999 -9999 -9999 -9999 -9999 -9999 -9999 -9999 -9999 -9999 -9999 -9999 -9999 -9999 -9999 -9999 -9999 -9999 -9999 -9999 -9999 -9999 -9999 -9999 -9999 -9999 -9999 -9999 -9999 -9999 -9999 -9999 -9999 -9999 -9999 -9999 -9999
0.31 0.33 0.49 0.32 0.49 0.49 0.50 0.47 0.40 0.32 0.44 0.38 0.35 0.41 0.48 0.34 0.31 0.49 0.41 0.40 0.32 0.30 0.38 0.31 0.34 0.41 0.34 0.47 0.42 0.39 0.49 0.41 0.33 0.46 0.37 0.37 0.43 0.45 0.39 0.31 0.41 0.40 0.39 0.38 0.34 0.40 0.47 0.40 0.34 0.41 0.48 0.43 0.33 0.33 0.37 0.49 0.42 0.38 0.50 0.34 0.42 0.33 0.45 0.47 0.30 0.35 0.36 0.46 0.38 0.30 0.46 0.34 0.34 0.49 0.36 0.39 0.47 0.47 0.36 0.34 0.36 0.43 0.39 0.39 0.46 0.45 0.40 0.39 0.41 0.41 0.39 0.33 0.39 0.34 0.35 0.32 0.37 0.44 0.40 0.41 0.49 0.38 0.34 0.48 0.43 0.39 0.41 0.43 0.47 0.44 0.42 0.48 0.37 0.36 0.34 0.31 0.50 0.48 0.43 0.41 0.39 0.47 0.41 0.49 0.31 0.37 0.48 0.31 0.33 0.46 0.48 0.41 0.37 0.49 0.46 0.34 0.45 0.42 0.42 0.39 0.43 0.46 0.49 0.42 0.32 0.42 0.44 0.48 0.35 0.32 0.34 0.40 0.35 0.32 0.47 0.34 0.34 0.38 0.38 0.42 0.38 0.38 0.31 0.31 0.42 0.47 0.50 0.48 0.34 0.30 0.39 0.37 0.32 0.47 -9999 -9999 -9999 -9999 -9999 -9999 -9999 -9999 -9999 -9999 -9999 -9999 -9999 -9999 -9999 -9999 -9999 -9999 -9999 -9999 -9999 -9999 -9999 -9999 -9999 -9999 -9999 -9999 -9999 -9999 -9999 -9999 -9999 -9999 -9999 -9999 -9999 -9999 -9999 -9999 -9999
0.39 0.33 0.41 0.32 0.33 0.42 0.36 0.41 0.50 0.48 0.33 0.36 0.31 0.42 0.41 0.50 0.40 0.38 0.45 0.34 0.30 0.40 0.37 0.37 0.44 0.47 0.38 0.48 0.46 0.38 0.48 0.41 0.39 0.38 0.39 0.48 0.40 0.33 0.45 0.41 0.35 0.49 0.49 0.34 0.46 0.49 0.35 0.39 0.39 0.45 0.31 0.37 0.41 0.44 0.45 0.49 0.32 0.35 0.37 0.32 0.42 0.31 0.49 0.36 0.39 0.42 0.36 0.34 0.33 0.50 0.42 0.32 0.35 0.36 0.37 0.38 0.43 0.48 0.34 0.40 0.43 0.30 0.39 0.44 0.44 0.34 0.40 0.31 0.36 0.31 0.47 0.46 0.49 0.34 0.35 0.34 0.32 0.39 0.31 0.36 0.46 0.34 0.48 0.44 0.30 0.40 0.46 0.45 0.45 0.47 0.34 0.37 0.40 0.37 0.36 0.31 0.31 0.49 0.40 0.40 0.36 0.49 0.48 0.48 0.46 0.49 0.47 0.43 0.40 0.41 0.40 0.38 0.41 0.36 0.34 0.40 0.43 0.45 0.42 0.34 0.36 0.35 0.41 0.42 0.45 0.41 0.38 0.40 0.33 0.32 0.43 0.35 0.43 0.40 0.32 0.39 0.42 0.31 0.38 0.41 0.34 0.44 0.39 0.35 0.49 0.37 0.31 0.41 0.31 0.35 0.37 0.35 0.47 0.35 -9999 -9999 -9999 -9999 -9999 -9999 -9999 -9999 -9999 -9999 -9999 -9999 -9999 -9999 -9999 -9999 -9999 -9999 -9999 -9999 -9999 -9999 -9999 -9999 -9999 -9999 -9999 -9999 -9999 -9999 -9999 -9999 -9999 -9999 -9999 -9999 -9999 -9999 -9999 -9999 -9999
0.41 0.44 0.40 0.50 0.33 0.48 0.44 0.37 0.32 0.40 0.42 0.49 0.47 0.46 0.45 0.31 0.41 0.38 0.38 0.31 0.49 0.40 0.47 0.43 0.43 0.41 0.41 0.32 0.33 0.37 0.38 0.48 0.44 0.39 0.43 0.48 0.31 0.48 0.44 0.39 0.50 0.47 0.35 0.34 0.44 0.36 0.32 0.47 0.42 0.45 0.44 0.43 0.44 0.49 0.35 0.41 0.33 0.49 0.39 0.32 0.45 0.40 0.33 0.34 0.40 0.35 0.32 0.45 0.49 0.43 0.32 0.33 0.40 0.39 0.31 0.34 0.47 0.31 0.37 0.49 0.36 0.39 0.30 0.43 0.45 0.41 0.41 0.49 0.32 0.39 0.41 0.44 0.46 0.41 0.39 0.46 0.38 0.33 0.41 0.42 0.34 0.49 0.47 0.49 0.49 0.42 0.35 0.36 0.44 0.44 0.50 0.44 0.32 0.31 0.39 0.33 0.30 0.50 0.47 0.37 0.45 0.37 0.31 0.47 0.44 0.32 0.50 0.34 0.38 0.44 0.44 0.35 0.42 0.35 0.46 0.31 0.31 0.40 0.50 0.32 0.49 0.37 0.42 0.43 0.39 0.34 0.35 0.45 0.35 0.45 0.35 0.30 0.35 0.45 0.48 0.32 0.49 0.43 0.45 0.32 0.38 0.42 0.48 0.37 0.47 0.46 0.45 0.50 0.46 0.43 0.44 0.42 0.40 0.32 -9999 -9999 -9999 -9999 -9999 -9999 -9999 -9999 -9999 -9999 -9999 -9999 -9999 -9999 -9999 -9999 -9999 -9999 -9999 -9999 -9999 -9999 -9999 -9999 -9999 -9999 -9999 -9999 -9999 -9999 -9999 -9999 -9999 -9999 -9999 -9999 -9999 -9999 -9999 -9999 -9999
0.45 0.30 0.41 0.47 0.37 0.38 0.48 0.47 0.46 0.39 0.44 0.45 0.34 0.45 0.36 0.40 0.42 0.36 0.39 0.50 0.38 0.49 0.38 0.35 0.44 0.48 0.49 0.40 0.46 0.36 0.34 0.45 0.49 0.46 0.33 0.38 0.43 0.41 0.37 0.42 0.41 0.35 0.47 0.42 0.34 0.31 0.30 0.43 0.35 0.34 0.33 0.37 0.31 0.46 0.31 0.39 0.33 0.45 0.41 0.48 0.37 0.38 0.33 0.48 0.36 0.32 0.45 0.35 0.44 0.32 0.44 0.49 0.32 0.33 0.49 0.45 0.45 0.48 0.30 0.43 0.47 0.44 0.30 0.44 0.48 0.31 0.32 0.36 0.42 0.38 0.37 0.39 0.44 0.48 0.50 0.34 0.48 0.33 0.43 0.32 0.47 0.31 0.36 0.38 0.48 0.33 0.46 0.36 0.40 0.43 0.37 0.42 0.46 0.47 0.34 0.35 0.48 0.35 0.39 0.37 0.47 0.39 0.33 0.35 0.46 0.31 0.46 0.36 0.35 0.37 0.40 0.39 0.49 0.45 0.47 0.35 0.38 0.33 0.38 0.48 0.42 0.42 0.38 0.36 0.36 0.49 0.34 0.40 0.46 0.45 0.40 0.46 0.38 0.41 0.45 0.35 0.38 0.37 0.49 0.30 0.46 0.31 0.32 0.47 0.33 0.47 0.48 0.39 0.48 0.33 0.34 0.48 0.43 0.32 0.47 -9999 -9999 -9999 -9999 -9999 -9999 -9999 -9999 -9999 -9999 -9999 -9999 -9999 -9999 -9999 -9999 -9999 -9999 -9999 -9999 -9999 -9999 -9999 -9999 -9999 -9999 -9999 -9999 -9999 -9999 -9999 -9999 -9999 -9999 -9999 -9999 -9999 -9999 -9999 -9999
0.31 0.33 0.42 0.47 0.41 0.31 0.40 0.46 0.39 0.42 0.35 0.39 0.41 0.32 0.45 0.35 0.32 0.40 0.44 0.42 0.39 0.46 0.42 0.38 0.50 0.43 0.42 0.46 0.32 0.42 0.49 0.35 0.37 0.36 0.34 0.43 0.47 0.32 0.42 0.34 0.50 0.45 0.40 0.42 0.50 0.36 0.39 0.46 0.46 0.45 0.41 0.47 0.32 0.32 0.39 0.48 0.38 0.44 0.36 0.31 0.48 0.36 0.39 0.31 0.38 0.46 0.40 0.40 0.35 0.39 0.39 0.39 0.32 0.32 0.35 0.45 0.41 0.41 0.47 0.47 0.33 0.44 0.45 0.49 0.32 0.31 0.31 0.33 0.32 0.42 0.42 0.32 0.40 0.31 0.50 0.45 0.41 0.47 0.38 0.40 0.41 0.47 0.33 0.40 0.40 0.46 0.38 0.35 0.48 0.37 0.36 0.39 0.39 0.44 0.47 0.44 0.48 0.47 0.40 0.50 0.31 0.30 0.45 0.49 0.34 0.42 0.45 0.38 0.42 0.30 0.45 0.36 0.47 0.42 0.41 0.36 0.37 0.39 0.30 0.35 0.36 0.50 0.45 0.42 0.43 0.34 0.47 0.31 0.34 0.38 0.49 0.46 0.35 0.44 0.46 0.31 0.39 0.42 0.47 0.42 0.46 0.33 0.34 0.39 0.33 0.31 0.48 0.35 0.31 0.31 0.40 0.34 0.47 0.31 0.30 -9999 -9999 -9999 -9999 -9999 -9999 -9999 -9999 -9999 -9999 -9999 -9999 -9999 -9999 -9999 -9999 -9999 -9999 -9999 -9999 -9999 -9999 -9999 -9999 -9999 -9999 -9999 -9999 -9999 -9999 -9999 -9999 -9999 -9999 -9999 -9999 -9999 -9999 -9999 -9999
0.42 0.31 0.43 0.42 0.47 0.46 0.36 0.31 0.50 0.31 0.37 0.35 0.31 0.48 0.47 0.34 0.41 0.38 0.33 0.35 0.35 0.45 0.39 0.43 0.41 0.36 0.35 0.30 0.41 0.36 0.46 0.44 0.44 0.44 0.46 0.43 0.41 0.43 0.43 0.42 0.35 0.39 0.31 0.48 0.48 0.31 0.35 0.40 0.35 0.46 0.47 0.34 0.44 0.45 0.42 0.46 0.38 0.46 0.41 0.48 0.45 0.35 0.42 0.35 0.48 0.34 0.35 0.44 0.49 0.39 0.31 0.41 0.33 0.42 0.43 0.34 0.31 0.43 0.49 0.43 0.35 0.48 0.40 0.35 0.32 0.41 0.43 0.31 0.49 0.33 0.41 0.39 0.32 0.38 0.45 0.37 0.41 0.43 0.43 0.47 0.38 0.34 0.34 0.46 0.31 0.38 0.34 0.34 0.49 0.42 0.36 0.47 0.39 0.41 0.39 0.44 0.35 0.33 0.50 0.38 0.31 0.30 0.49 0.49 0.34 0.49 0.49 0.47 0.34 0.39 0.45 0.31 0.33 0.36 0.38 0.31 0.48 0.31 0.33 0.37 0.41 0.32 0.46 0.39 0.33 0.43 0.46 0.49 0.38 0.35 0.40 0.48 0.31 0.34 0.47 0.32 0.49 0.45 0.41 0.43 0.38 0.32 0.49 0.31 0.40 0.37 0.50 0.39 0.31 0.45 0.36 0.40 0.47 0.40 0.39 -9999 -9999 -9999 -9999 -9999 -9999 -9999 -9999 -9999 -9999 -9999 -9999 -9999 -9999 -9999 -9999 -9999 -9999 -9999 -9999 -9999 -9999 -9999 -9999 -9999 -9999 -9999 -9999 -9999 -9999 -9999 -9999 -9999 -9999 -9999 -9999 -9999 -9999 -9999 -9999
0.34 0.46 0.35 0.45 0.40 0.32 0.42 0.40 0.48 0.46 0.46 0.32 0.36 0.35 0.33 0.41 0.41 0.46 0.38 0.33 0.31 0.36 0.35 0.35 0.43 0.41 0.38 0.34 0.41 0.44 0.48 0.45 0.30 0.40 0.47 0.33 0.50 0.38 0.34 0.43 0.48 0.45 0.40 0.37 0.43 0.39 0.34 0.30 0.38 0.40 0.32 0.43 0.41 0.46 0.43 0.31 0.45 0.50 0.43 0.44 0.48 0.32 0.39 0.44 0.42 0.38 0.47 0.43 0.31 0.36 0.36 0.32 0.44 0.47 0.48 0.31 0.42 0.48 0.42 0.41 0.41 0.47 0.35 0.38 0.50 0.43 0.48 0.31 0.43 0.42 0.45 0.31 0.48 0.36 0.36 0.42 0.45 0.50 0.30 0.31 0.42 0.42 0.49 0.34 0.47 0.43 0.32 0.45 0.43 0.40 0.36 0.36 0.35 0.50 0.39 0.44 0.41 0.50 0.36 0.38 0.38 0.39 0.31 0.48 0.32 0.48 0.43 0.37 0.46 0.48 0.49 0.44 0.43 0.31 0.30 0.48 0.49 0.38 0.48 0.47 0.38 0.48 0.38 0.41 0.37 0.39 0.33 0.35 0.42 0.47 0.31 0.38 0.32 0.48 0.40 0.30 0.31 0.47 0.32 0.32 0.35 0.34 0.49 0.38 0.47 0.35 0.42 0.40 0.39 0.37 0.38 0.35 0.38 0.34 0.33 -9999 -9999 -9999 -9999 -9999 -9999 -9999 -9999 -9999 -9999 -9999 -9999 -9999 -9999 -9999 -9999 -9999 -9999 -9999 -9999 -9999 -9999 -9999 -9999 -9999 -9999 -9999 -9999 -9999 -9999 -9999 -9999 -9999 -9999 -9999 -9999 -9999 -9999 -9999 -9999
0.41 0.30 0.44 0.32 0.31 0.33 0.38 0.36 0.42 0.32 0.37 0.42 0.35 0.48 0.45 0.34 0.32 0.38 0.47 0.42 0.39 0.44 0.47 0.43 0.44 0.42 0.33 0.32 0.45 0.43 0.48 0.43 0.41 0.44 0.34 0.35 0.44 0.38 0.31 0.38 0.31 0.36 0.47 0.39 0.39 0.43 0.46 0.43 0.35 0.50 0.36 0.40 0.35 0.46 0.30 0.47 0.43 0.35 0.33 0.46 0.35 0.45 0.36 0.33 0.42 0.46 0.46 0.31 0.34 0.38 0.49 0.40 0.43 0.47 0.39 0.43 0.31 0.37 0.37 0.40 0.34 0.39 0.39 0.31 0.41 0.40 0.49 0.48 0.36 0.30 0.46 0.50 0.43 0.41 0.41 0.47 0.48 0.38 0.32 0.49 0.37 0.43 0.34 0.39 0.43 0.39 0.47 0.34 0.32 0.36 0.43 0.36 0.39 0.31 0.32 0.42 0.38 0.34 0.46 0.40 0.45 0.33 0.50 0.44 0.48 0.45 0.42 0.40 0.49 0.35 0.38 0.45 0.36 0.37 0.46 0.40 0.40 0.37 0.42 0.38 0.48 0.30 0.41 0.50 0.31 0.33 0.36 0.37 0.50 0.32 0.43 0.43 0.39 0.36 0.49 0.34 0.45 0.49 0.40 0.30 0.42 0.31 0.40 0.37 0.46 0.40 0.46 0.36 0.30 0.31 0.33 0.43 0.44 0.45 0.37 -9999 -9999 -9999 -9999 -9999 -9999 -9999 -9999 -9999 -9999 -9999 -9999 -9999 -9999 -9999 -9999 -9999 -9999 -9999 -9999 -9999 -9999 -9999 -9999 -9999 -9999 -9999 -9999 -9999 -9999 -9999 -9999 -9999 -9999 -9999 -9999 -9999 -9999 -9999 -9999
0.36 0.48 0.31 0.41 0.36 0.42 0.42 0.33 0.42 0.44 0.39 0.33 0.48 0.38 0.41 0.30 0.32 0.31 0.40 0.46 0.39 0.31 0.34 0.42 0.49 0.33 0.33 0.41 0.47 0.35 0.41 0.45 0.37 0.39 0.32 0.49 0.50 0.42 0.35 0.39 0.33 0.43 0.38 0.48 0.36 0.47 0.48 0.41 0.48 0.47 0.40 0.46 0.39 0.38 0.30 0.39 0.30 0.44 0.33 0.40 0.38 0.45 0.33 0.43 0.40 0.31 0.44 0.33 0.49 0.40 0.47 0.48 0.50 0.43 0.32 0.45 0.34 0.44 0.41 0.42 0.46 0.39 0.35 0.37 0.42 0.43 0.48 0.46 0.36 0.30 0.36 0.31 0.45 0.39 0.40 0.39 0.39 0.45 0.40 0.44 0.46 0.44 0.41 0.49 0.45 0.49 0.32 0.31 0.43 0.37 0.49 0.34 0.33 0.48 0.49 0.37 0.46 0.34 0.42 0.40 0.33 0.38 0.37 0.43 0.42 0.47 0.41 0.39 0.35 0.36 0.35 0.32 0.44 0.30 0.39 0.45 0.34 0.32 0.39 0.38 0.45 0.35 0.39 0.38 0.46 0.46 0.40 0.33 0.39 0.46 0.49 0.35 0.39 0.38 0.33 0.36 0.30 0.33 0.45 0.32 0.36 0.42 0.47 0.36 0.48 0.39 0.47 0.48 0.36 0.35 0.41 0.40 0.45 0.36 0.44 -9999 -9999 -9999 -9999 -9999 -9999 -9999 -9999 -9999 -9999 -9999 -9999 -9999 -9999 -9999 -9999 -9999 -9999 -9999 -9999 -9999 -9999 -9999 -9999 -9999 -9999 -9999 -9999 -9999 -9999 -9999 -9999 -9999 -9999 -9999 -9999 -9999 -9999 -9999 -9999
0.31 0.41 0.41 0.49 0.48 0.38 0.44 0.44 0.47 0.42 0.37 0.46 0.44 0.37 0.36 0.41 0.41 0.46 0.44 0.42 0.45 0.49 0.36 0.40 0.37 0.48 0.37 0.45 0.39 0.33 0.39 0.48 0.30 0.42 0.43 0.47 0.34 0.34 0.32 0.43 0.42 0.35 0.35 0.37 0.47 0.41 0.43 0.49 0.44 0.40 0.32 0.32 0.33 0.49 0.40 0.36 0.45 0.41 0.41 0.42 0.36 0.45 0.35 0.33 0.41 0.41 0.40 0.43 0.31 0.44 0.44 0.47 0.38 0.41 0.42 0.36 0.34 0.42 0.49 0.35 0.39 0.38 0.49 0.45 0.30 0.30 0.37 0.34 0.44 0.32 0.35 0.36 0.43 0.48 0.31 0.49 0.44 0.30 0.50 0.42 0.33 0.47 0.50 0.45 0.40 0.45 0.30 0.46 0.46 0.48 0.47 0.33 0.32 0.41 0.49 0.36 0.48 0.38 0.45 0.41 0.39 0.37 0.48 0.32 0.34 0.46 0.39 0.32 0.49 0.38 0.33 0.44 0.48 0.35 0.45 0.32 0.31 0.37 0.35 0.34 0.36 0.38 0.36 0.40 0.36 0.48 0.36 0.47 0.45 0.42 0.43 0.43 0.31 0.44 0.34 0.49 0.43 0.36 0.38 0.42 0.43 0.48 0.44 0.34 0.47 0.36 0.43 0.49 0.45 0.32 0.37 0.31 0.44 0.37 0.43 -9999 -9999 -9999 -9999 -9999 -9999 -9999 -9999 -9999 -9999 -9999 -9999 -9999 -9999 -9999 -9999 -9999 -9999 -9999 -9999 -9999 -9999 -9999 -9999 -9999 -9999 -9999 -9999 -9999 -9999 -9999 -9999 -9999 -9999 -9999 -9999 -9999 -9999 -9999 -9999
0.41 0.39 0.31 0.48 0.49 0.34 0.41 0.32 0.43 0.36 0.34 0.43 0.47 0.30 0.42 0.40 0.41 0.40 0.37 0.41 0.42 0.32 0.40 0.38 0.37 0.40 0.41 0.40 0.45 0.47 0.44 0.47 0.37 0.32 0.41 0.35 0.49 0.39 0.35 0.43 0.46 0.46 0.39 0.37 0.48 0.31 0.40 0.48 0.46 0.39 0.49 0.42 0.46 0.35 0.45 0.46 0.39 0.45 0.37 0.33 0.47 0.39 0.40 0.32 0.44 0.50 0.36 0.42 0.42 0.40 0.40 0.40 0.33 0.30 0.33 0.40 0.38 0.34 0.33 0.34 0.42 0.43 0.45 0.40 0.33 0.39 0.41 0.46 0.38 0.49 0.45 0.36 0.33 0.34 0.34 0.33 0.36 0.49 0.49 0.44 0.34 0.33 0.37 0.35 0.45 0.49 0.30 0.47 0.36 0.35 0.31 0.32 0.35 0.43 0.42 0.44 0.46 0.49 0.35 0.46 0.40 0.41 0.42 0.45 0.44 0.40 0.48 0.37 0.37 0.32 0.31 0.43 0.47 0.42 0.40 0.34 0.43 0.31 0.38 0.45 0.46 0.47 0.38 0.41 0.46 0.49 0.39 0.42 0.39 0.50 0.35 0.36 0.41 0.31 0.30 0.44 0.31 0.34 0.34 0.49 0.49 0.45 0.36 0.43 0.36 0.36 0.40 0.45 0.34 0.48 0.46 0.48 0.39 0.44 0.43 0.36 -9999 -9999 -9999 -9999 -9999 -9999 -9999 -9999 -9999 -9999 -9999 -9999 -9999 -9999 -9999 -9999 -9999 -9999 -9999 -9999 -9999 -9999 -9999 -9999 -9999 -9999 -9999 -9999 -9999 -9999 -9999 -9999 -9999 -9999 -9999 -9999 -9999 -9999 -9999
0.34 0.48 0.42 0.46 0.32 0.42 0.38 0.30 0.47 0.48 0.47 0.36 0.49 0.40 0.40 0.45 0.35 0.43 0.50 0.36 0.49 0.50 0.32 0.43 0.33 0.35 0.49 0.37 0.47 0.49 0.34 0.41 0.36 0.37 0.38 0.31 0.43 0.40 0.42 0.33 0.44 0.42 0.32 0.43 0.42 0.32 0.37 0.39 0.49 0.47 0.35 0.38 0.31 0.37 0.41 0.43 0.35 0.39 0.39 0.37 0.32 0.32 0.33 0.32 0.40 0.33 0.38 0.32 0.37 0.44 0.32 0.40 0.48 0.30 0.38 0.46 0.42 0.35 0.37 0.37 0.30 0.40 0.39 0.40 0.48 0.32 0.33 0.35 0.36 0.46 0.39 0.34 0.39 0.41 0.32 0.40 0.49 0.40 0.31 0.47 0.31 0.40 0.41 0.46 0.46 0.49 0.49 0.40 0.31 0.49 0.42 0.40 0.34 0.45 0.36 0.37 0.42 0.49 0.36 0.32 0.49 0.35 0.45 0.41 0.30 0.43 0.34 0.45 0.35 0.48 0.47 0.30 0.32 0.50 0.48 0.39 0.44 0.46 0.32 0.37 0.36 0.35 0.35 0.40 0.41 0.38 0.48 0.45 0.44 0.49 0.37 0.49 0.34 0.31 0.35 0.35 0.41 0.37 0.49 0.50 0.44 0.50 0.41 0.37 0.36 0.33 0.36 0.46 0.44 0.31 0.33 0.42 0.46 0.47 0.30 0.34 -9999 -9999 -9999 -9999 -9999 -9999 -9999 -9999 -9999 -9999 -9999 -9999 -9999 -9999 -9999 -9999 -9999 -9999 -9999 -9999 -9999 -9999 -9999 -9999 -9999 -9999 -9999 -9999 -9999 -9999 -9999 -9999 -9999 -9999 -9999 -9999 -9999 -9999 -9999
0.38 0.39 0.32 0.42 0.40 0.42 0.40 0.47 0.38 0.49 0.35 0.35 0.45 0.40 0.32 0.32 0.47 0.39 0.45 0.41 0.45 0.44 0.34 0.47 0.34 0.38 0.46 0.44 0.45 0.41 0.39 0.35 0.34 0.38 0.46 0.33 0.36 0.49 0.45 0.32 0.49 0.47 0.31 0.43 0.39 0.43 0.41 0.32 0.33 0.42 0.36 0.39 0.44 0.33 0.33 0.33 0.45 0.40 0.41 0.48 0.37 0.33 0.41 0.41 0.41 0.45 0.32 0.35 0.36 0.47 0.36 0.45 0.44 0.35 0.31 0.32 0.31 0.43 0.43 0.42 0.30 0.39 0.35 0.37 0.43 0.42 0.47 0.33 0.48 0.41 0.47 0.34 0.35 0.47 0.41 0.41 0.42 0.40 0.42 0.43 0.43 0.32 0.50 0.39 0.32 0.43 0.33 0.47 0.36 0.38 0.41 0.41 0.40 0.45 0.43 0.43 0.32 0.30 0.42 0.42 0.48 0.47 0.44 0.31 0.49 0.33 0.42 0.44 0.37 0.36 0.30 0.45 0.35 0.47 0.49 0.41 0.46 0.31 0.35 0.45 0.45 0.44 0.38 0.37 0.35 0.38 0.50 0.46 0.41 0.36 0.42 0.40 0.32 0.42 0.46 0.40 0.34 0.46 0.44 0.42 0.44 0.43 0.44 0.41 0.47 0.33 0.49 0.46 0.34 0.40 0.32 -9999 -9999 -9999 -9999 -9999 -9999 -9999 -9999 -9999 -9999 -9999 -9999 -9999 -9999 -9999 -9999 -9999 -9999 -9999 -9999 -9999 -9999 -9999 -9999 -9999 -9999 -9999 -9999 -9999 -9999 -9999 -9999 -9999 -9999 -9999 -9999 -9999 -9999 -9999 -9999 -9999 -9999 -9999 -9999
0.39 0.37 0.47 0.34 0.45 0.43 0.36 0.39 0.39 0.33 0.45 0.39 0.37 0.30 0.43 0.33 0.31 0.35 0.44 0.42 0.41 0.45 0.49 0.33 0.46 0.47 0.47 0.44 0.41 0.40 0.37 0.50 0.32 0.45 0.50 0.36 0.30 0.47 0.43 0.36 0.37 0.37 0.41 0.38 0.39 0.40 0.32 0.48 0.47 0.48 0.49 0.36 0.32 0.42 0.33 0.40 0.49 0.47 0.42 0.33 0.39 0.48 0.32 0.34 0.35 0.33 0.38 0.49 0.35 0.31 0.31 0.35 0.48 0.45 0.39 0.39 0.41 0.48 0.41 0.42 0.31 0.36 0.42 0.47 0.32 0.33 0.49 0.45 0.42 0.38 0.44 0.36 0.45 0.38 0.42 0.39 0.43 0.38 0.40 0.42 0.49 0.31 0.49 0.49 0.49 0.42 0.49 0.50 0.37 0.33 0.30 0.41 0.45 0.43 0.47 0.45 0.45 0.37 0.46 0.35 0.47 0.34 0.46 0.49 0.49 0.50 0.32 0.50 0.42 0.38 0.36 0.36 0.50 0.34 0.44 0.39 0.47 0.37 0.49 0.34 0.37 0.43 0.46 0.48 0.42 0.32 0.41 0.30 0.34 0.48 0.39 0.40 0.43 0.45 0.40 0.43 0.31 0.41 0.32 0.40 0.32 0.42 0.42 0.38 -9999 -9999 -9999 -9999 -9999 -9999 -9999 -9999 -9999 -9999 -9999 -9999 -9999 -9999 -9999 -9999 -9999 -9999 -9999 -9999 -9999 -9999 -9999 -9999 -9999 -9999 -9999 -9999 -9999 -9999 -9999 -9999 -9999 -9999 -9999 -9999 -9999 -9999 -9999 -9999 -9999 -9999 -9999 -9999 -9999 -9999 -9999 -9999 -9999 -9999 -9999
0.46 0.38 0.44 0.42 0.36 0.35 0.48 0.41 0.31 0.40 0.40 0.39 0.34 0.32 0.36 0.43 0.44 0.41 0.33 0.48 0.47 0.46 0.49 0.48 0.43 0.44 0.47 0.50 0.41 0.46 0.46 0.39 0.39 0.44 0.37 0.47 0.35 0.44 0.39 0.34 0.48 0.37 0.43 0.44 0.40 0.40 0.32 0.30 0.38 0.36 0.45 0.37 0.33 0.37 0.33 0.47 0.31 0.48 0.48 0.40 0.33 0.41 0.31 0.41 0.47 0.43 0.49 0.43 0.40 0.46 0.35 0.49 0.34 0.45 0.34 0.34 0.35 0.36 0.39 0.38 0.36 0.35 0.47 0.42 0.38 0.50 0.39 0.45 0.40 0.48 0.40 0.38 0.43 0.32 0.43 0.32 0.45 0.46 0.32 0.46 0.39 0.40 0.32 0.32 0.38 0.44 0.31 0.40 0.48 0.31 0.30 0.32 0.31 0.48 0.34 0.47 0.39 0.49 0.32 0.36 0.46 0.41 0.47 0.46 0.36 0.31 0.38 0.35 0.39 0.50 0.43 0.42 0.43 0.33 0.36 0.33 0.39 0.32 0.31 0.35 0.33 0.31 0.47 0.47 0.33 0.38 0.32 0.40 0.40 0.44 0.48 0.39 0.37 0.32 0.45 0.38 -9999 -9999 -9999 -9999 -9999 -9999 -9999 -9999 -9999 -9999 -9999 -9999 -9999 -9999 -9999 -9999 -9999 -9999 -9999 -9999 -9999 -9999 -9999 -9999 -9999 -9999 -9999 -9999 -9999 -9999 -9999 -9999 -9999 -9999 -9999 -9999 -9999 -9999 -9999 -9999 -9999 -9999 -9999 -9999 -9999 -9999 -9999 -9999 -9999 -9999 -9999 -9999 -9999 -9999 -9999 -9999 -9999 -9999 -9999
0.31 0.36 0.35 0.37 0.36 0.31 0.34 0.38 0.48 0.44 0.42 0.37 0.42 0.49 0.41 0.42 0.45 0.41 0.41 0.48 0.49 0.46 0.44 0.50 0.38 0.42 0.33 0.33 0.37 0.41 0.50 0.42 0.33 0.49 0.48 0.48 0.42 0.30 0.36 0.44 0.48 0.37 0.43 0.33 0.44 0.39 0.33 0.35 0.40 0.31 0.49 0.45 0.31 0.41 0.46 0.37 0.42 0.37 0.44 0.33 0.36 0.45 0.44 0.38 0.34 0.34 0.41 0.39 0.37 0.48 0.49 0.36 0.34 0.40 0.31 0.42 0.34 0.34 0.43 0.41 0.42 0.35 0.48 0.38 0.42 0.38 0.43 0.35 0.30 0.32 0.39 0.48 0.43 0.31 0.34 0.40 0.46 0.50 0.48 0.39 0.49 0.48 0.48 0.46 0.48 0.47 0.43 0.34 0.43 0.34 0.38 0.50 0.49 0.35 0.34 0.44 0.47 0.47 0.45 0.48 0.46 0.30 0.32 0.45 0.44 0.47 0.38 0.46 0.44 0.44 0.35 0.47 0.44 0.39 0.45 0.44 0.41 0.46 0.31 0.47 0.48 0.35 0.30 0.35 0.47 0.50 0.34 0.47 0.35 -9999 -9999 -9999 -9999 -9999 -9999 -9999 -9999 -9999 -9999 -9999 -9999 -9999 -9999 -9999 -9999 -9999 -9999 -9999 -9999 -9999 -9999 -9999 -9999 -9999 -9999 -9999 -9999 -9999 -9999 -9999 -9999 -9999 -9999 -9999 -9999 -9999 -9999 -9999 -9999 -9999 -9999 -9999 -9999 -9999 -9999 -9999 -9999 -9999 -9999 -9999 -9999 -9999 -9999 -9999 -9999 -9999 -9999 -9999 -9999 -9999 -9999 -9999 -9999 -9999 -9999
0.47 0.44 0.49 0.45 0.39 0.33 0.31 0.40 0.45 0.44 0.43 0.47 0.32 0.36 0.46 0.49 0.33 0.46 0.48 0.46 0.43 0.35 0.38 0.49 0.32 0.46 0.32 0.35 0.42 0.46 0.44 0.36 0.40 0.42 0.40 0.37 0.40 0.37 0.49 0.48 0.45 0.33 0.47 0.47 0.37 0.49 0.42 0.50 0.32 0.37 0.45 0.46 0.33 0.45 0.37 0.45 0.47 0.42 0.37 0.38 0.43 0.42 0.43 0.46 0.44 0.48 0.45 0.49 0.47 0.50 0.31 0.45 0.39 0.33 0.36 0.31 0.41 0.41 0.40 0.41 0.36 0.40 0.38 0.33 0.31 0.37 0.45 0.40 0.34 0.44 0.39 0.48 0.41 0.32 0.43 0.37 0.35 0.47 0.43 0.41 0.35 0.31 0.38 0.31 0.33 0.40 0.38 0.36 0.37 0.37 0.50 0.35 0.30 0.49 0.38 0.46 0.45 0.30 0.49 0.34 0.39 0.39 0.43 0.40 0.47 0.43 0.31 0.35 0.39 0.38 0.34 0.44 0.48 0.34 0.38 0.39 0.43 0.44 0.35 0.43 0.34 0.45 0.32 0.47 -9999 -9999 -9999 -9999 -9999 -9999 -9999 -9999 -9999 -9999 -9999 -9999 -9999 -9999 -9999 -9999 -9999 -9999 -9999 -9999 -9999 -9999 -9999 -9999 -9999 -9999 -9999 -9999 -9999 -9999 -9999 -9999 -9999 -9999 -9999 -9999 -9999 -9999 -9999 -9999 -9999 -9999 -9999 -9999 -9999 -9999 -9999 -9999 -9999 -9999 -9999 -9999 -9999 -9999 -9999 -9999 -9999 -9999 -9999 -9999 -9999 -9999 -9999 -9999 -9999 -9999 -9999 -9999 -9999 -9999 -9999
0.31 0.42 0.33 0.47 0.48 0.32 0.50 0.47 0.34 0.39 0.44 0.35 0.45 0.32 0.49 0.31 0.44 0.50 0.41 0.49 0.42 0.38 0.38 0.45 0.36 0.30 0.47 0.49 0.30 0.31 0.49 0.49 0.41 0.43 0.44 0.48 0.33 0.32 0.42 0.35 0.42 0.37 0.50 0.48 0.38 0.37 0.34 0.38 0.46 0.42 0.33 0.48 0.30 0.43 0.36 0.41 0.49 0.42 0.45 0.46 0.38 0.43 0.37 0.31 0.49 0.41 0.45 0.45 0.47 0.34 0.33 0.38 0.39 0.32 0.39 0.44 0.30 0.40 0.42 0.41 0.34 0.32 0.46 0.44 0.43 0.32 0.33 0.49 0.37 0.49 0.33 0.44 0.49 0.47 0.42 0.34 0.37 0.47 0.37 0.43 0.37 0.36 0.31 0.35 0.34 0.49 0.41 0.39 0.36 0.35 0.40 0.37 0.31 0.37 0.49 0.32 0.46 0.49 0.33 0.33 0.49 0.35 0.35 0.46 0.46 0.47 0.39 0.38 0.44 0.45 0.39 0.49 0.45 0.41 0.39 0.46 0.31 0.43 0.34 0.42 0.41 0.34 0.33 0.40 -9999 -9999 -9999 -9999 -9999 -9999 -9999 -9999 -9999 -9999 -9999 -9999 -9999 -9999 -9999 -9999 -9999 -9999 -9999 -9999 -9999 -9999 -9999 -9999 -9999 -9999 -9999 -9999 -9999 -9999 -9999 -9999 -9999 -9999 -9999 -9999 -9999 -9999 -9999 -9999 -9999 -9999 -9999 -9999 -9999 -9999 -9999 -9999 -9999 -9999 -9999 -9999 -9999 -9999 -9999 -9999 -9999 -9999 -9999 -9999 -9999 -9999 -9999 -9999 -9999 -9999 -9999 -9999 -9999 -9999 -9999
0.41 0.36 0.35 0.34 0.45 0.41 0.49 0.37 0.32 0.37 0.40 0.48 0.43 0.33 0.35 0.32 0.47 0.39 0.42 0.31 0.41 0.40 0.31 0.39 0.45 0.35 0.47 0.32 0.32 0.38 0.33 0.44 0.31 0.43 0.41 0.45 0.34 0.44 0.39 0.43 0.36 0.43 0.43 0.47 0.48 0.37 0.49 0.47 0.38 0.46 0.48 0.37 0.43 0.38 0.48 0.47 0.40 0.43 0.34 0.49 0.45 0.35 0.35 0.42 0.40 0.38 0.32 0.37 0.38 0.49 0.33 0.42 0.45 0.49 0.50 0.38 0.41 0.30 0.41 0.35 0.34 0.42 0.32 0.31 0.31 0.35 0.49 0.45 0.33 0.43 0.37 0.50 0.45 0.30 0.38 0.46 0.48 0.32 0.31 0.36 0.38 0.47 0.47 0.45 0.30 0.42 0.46 0.39 0.45 0.38 0.37 0.40 0.48 0.32 0.31 0.43 0.43 0.40 0.31 0.48 0.39 0.48 0.32 0.44 0.35 0.36 0.45 0.47 0.47 0.40 0.33 0.49 0.44 0.35 0.40 0.45 0.33 0.38 0.45 0.30 0.40 0.34 0.38 0.47 -9999 -9999 -9999 -9999 -9999 -9999 -9999 -9999 -9999 -9999 -9999 -9999 -9999 -9999 -9999 -9999 -9999 -9999 -9999 -9999 -9999 -9999 -9999 -9999 -9999 -9999 -9999 -9999 -9999 -9999 -9999 -9999 -9999 -9999 -9999 -9999 -9999 -9999 -9999 -9999 -9999 -9999 -9999 -9999 -9999 -9999 -9999 -9999 -9999 -9999 -9999 -9999 -9999 -9999 -9999 -9999 -9999 -9999 -9999 -9999 -9999 -9999 -9999 -9999 -9999 -9999 -9999 -9999 -9999 -9999 -9999
0.33 0.37 0.35 0.40 0.36 0.33 0.33 0.33 0.32 0.36 0.33 0.31 0.32 0.31 0.47 0.36 0.48 0.34 0.35 0.38 0.44 0.49 0.47 0.43 0.44 0.37 0.50 0.40 0.41 0.38 0.34 0.34 0.49 0.39 0.50 0.49 0.47 0.47 0.35 0.41 0.47 0.38 0.38 0.46 0.32 0.45 0.46 0.39 0.43 0.43 0.48 0.36 0.41 0.30 0.36 0.30 0.38 0.34 0.45 0.32 0.33 0.43 0.48 0.33 0.46 0.48 0.34 0.38 0.35 0.47 0.42 0.43 0.42 0.36 0.34 0.38 0.49 0.48 0.44 0.36 0.39 0.47 0.41 0.37 0.36 0.31 0.32 0.32 0.42 0.32 0.45 0.30 0.39 0.46 0.46 0.47 0.41 0.46 0.48 0.41 0.41 0.33 0.36 0.48 0.48 0.31 0.45 0.35 0.41 0.42 0.34 0.31 0.49 0.46 0.38 0.42 0.48 0.33 0.41 0.30 0.33 0.50 0.48 0.36 0.40 0.35 0.32 0.43 0.40 0.30 0.34 0.37 0.45 0.47 0.48 0.48 0.47 0.40 0.49 0.44 0.41 0.37 0.42 0.41 -9999 -9999 -9999 -9999 -9999 -9999 -9999 -9999 -9999 -9999 -9999 -9999 -9999 -9999 -9999 -9999 -9999 -9999 -9999 -9999 -9999 -9999 -9999 -9999 -9999 -9999 -9999 -9999 -9999 -9999 -9999 -9999 -9999 -9999 -9999 -9999 -9999 -9999 -9999 -9999 -9999 -9999 -9999 -9999 -9999 -9999 -9999 -9999 -9999 -9999 -9999 -9999 -9999 -9999 -9999 -9999 -9999 -9999 -9999 -9999 -9999 -9999 -9999 -9999 -9999 -9999 -9999 -9999 -9999 -9999 -9999
0.35 0.41 0.37 0.49 0.43 0.36 0.30 0.43 0.45 0.46 0.47 0.34 0.35 0.35 0.37 0.33 0.46 0.41 0.32 0.35 0.48 0.45 0.37 0.50 0.34 0.50 0.49 0.38 0.35 0.37 0.36 0.43 0.44 0.42 0.30 0.36 0.49 0.43 0.30 0.30 0.47 0.37 0.30 0.48 0.40 0.41 0.44 0.35 0.50 0.38 0.36 0.31 0.48 0.45 0.49 0.33 0.49 0.33 0.43 0.34 0.46 0.48 0.31 0.42 0.31 0.38 0.31 0.41 0.31 0.38 0.49 0.45 0.47 0.44 0.49 0.32 0.48 0.42 0.34 0.46 0.48 0.46 0.36 0.47 0.44 0.31 0.38 0.32 0.48 0.39 0.48 0.45 0.37 0.34 0.46 0.39 0.35 0.35 0.39 0.35 0.39 0.35 0.42 0.41 0.44 0.34 0.48 0.41 0.33 0.35 0.36 0.34 0.30 0.31 0.49 0.40 0.31 0.48 0.50 0.31 0.33 0.40 0.39 0.38 0.47 0.35 0.32 0.32 0.46 0.37 0.36 0.32 0.37 0.48 0.45 0.36 0.48 0.33 0.46 0.38 0.49 0.40 0.33 0.31 -9999 -9999 -9999 -9999 -9999 -9999 -9999 -9999 -9999 -9999 -9999 -9999 -9999 -9999 -9999 -9999 -9999 -9999 -9999 -9999 -9999 -9999 -9999 -9999 -9999 -9999 -9999 -9999 -9999 -9999 -9999 -9999 -9999 -9999 -9999 -9999 -9999 -9999 -9999 -9999 -9999 -9999 -9999 -9999 -9999 -9999 -9999 -9999 -9999 -9999 -9999 -9999 -9999 -9999 -9999 -9999 -9999 -9999 -9999 -9999 -9999 -9999 -9999 -9999 -9999 -9999 -9999 -9999 -9999 -9999 -9999
0.31 0.31 0.47 0.34 0.46 0.40 0.43 0.39 0.35 0.38 0.44 0.44 0.35 0.41 0.30 0.38 0.33 0.49 0.42 0.44 0.43 0.40 0.43 0.42 0.35 0.41 0.30 0.44 0.41 0.43 0.32 0.47 0.44 0.35 0.38 0.41 0.32 0.37 0.38 0.31 0.46 0.40 0.45 0.46 0.40 0.33 0.31 0.33 0.35 0.34 0.41 0.35 0.38 0.43 0.45 0.34 0.49 0.40 0.38 0.32 0.39 0.47 0.46 0.41 0.34 0.36 0.46 0.50 0.38 0.39 0.34 0.41 0.40 0.37 0.46 0.40 0.31 0.47 0.38 0.31 0.37 0.31 0.45 0.48 0.42 0.38 0.39 0.50 0.49 0.43 0.31 0.31 0.35 0.31 0.38 0.30 0.43 0.39 0.47 0.48 0.43 0.42 0.43 0.41 0.31 0.30 0.41 0.32 0.34 0.32 0.48 0.33 0.34 0.31 0.36 0.36 0.45 0.41 0.39 0.38 0.30 0.36 0.42 0.37 0.49 0.44 0.43 0.40 0.49 0.36 0.46 0.37 0.49 0.45 0.34 0.42 0.50 0.36 0.39 0.39 0.43 0.48 0.36 0.33 0.34 -9999 -9999 -9999 -9999 -9999 -9999 -9999 -9999 -9999 -9999 -9999 -9999 -9999 -9999 -9999 -9999 -9999 -9999 -9999 -9999 -9999 -9999 -9999 -9999 -9999 -9999 -9999 -9999 -9999 -9999 -9999 -9999 -9999 -9999 -9999 -9999 -9999 -9999 -9999 -9999 -9999 -9999 -9999 -9999 -9999 -9999 -9999 -9999 -9999 -9999 -9999 -9999 -9999 -9999 -9999 -9999 -9999 -9999 -9999 -9999 -9999 -9999 -9999 -9999 -9999 -9999 -9999 -9999 -9999 -9999
0.43 0.35 0.47 0.32 0.47 0.42 0.49 0.50 0.41 0.32 0.30 0.31 0.48 0.49 0.44 0.39 0.45 0.44 0.44 0.33 0.43 0.36 0.50 0.41 0.35 0.47 0.31 0.45 0.34 0.40 0.42 0.32 0.41 0.46 0.34 0.40 0.40 0.39 0.36 0.45 0.37 0.33 0.35 0.32 0.31 0.43 0.35 0.37 0.33 0.48 0.38 0.33 0.38 0.34 0.34 0.33 0.46 0.38 0.43 0.50 0.41 0.33 0.45 0.50 0.42 0.47 0.47 0.47 0.30 0.34 0.35 0.43 0.34 0.47 0.47 0.35 0.37 0.33 0.47 0.38 0.38 0.39 0.34 0.38 0.47 0.30 0.40 0.34 0.43 0.46 0.45 0.43 0.42 0.39 0.48 0.46 0.46 0.47 0.37 0.31 0.34 0.32 0.32 0.46 0.35 0.33 0.30 0.37 0.33 0.39 0.42 0.37 0.30 0.45 0.35 0.43 0.47 0.50 0.36 0.42 0.31 0.46 0.44 0.31 0.47 0.39 0.47 0.46 0.32 0.45 0.43 0.38 0.36 0.38 0.44 0.42 0.49 0.49 0.40 0.47 0.48 0.33 0.43 0.42 0.37 -9999 -9999 -9999 -9999 -9999 -9999 -9999 -9999 -9999 -9999 -9999 -9999 -9999 -9999 -9999 -9999 -9999 -9999 -9999 -9999 -9999 -9999 -9999 -9999 -9999 -9999 -9999 -9999 -9999 -9999 -9999 -9999 -9999 -9999 -9999 -9999 -9999 -9999 -9999 -9999 -9999 -9999 -9999 -9999 -9999 -9999 -9999 -9999 -9999 -9999 -9999 -9999 -9999 -9999 -9999 -9999 -9999 -9999 -9999 -9999 -9999 -9999 -9999 -9999 -9999 -9999 -9999 -9999 -9999 -9999
0.49 0.36 0.30 0.35 0.39 0.44 0.47 0.48 0.32 0.42 0.41 0.45 0.48 0.30 0.31 0.32 0.38 0.37 0.30 0.50 0.30 0.47 0.40 0.45 0.41 0.48 0.34 0.44 0.35 0.35 0.35 0.42 0.40 0.35 0.50 0.43 0.47 0.45 0.30 0.38 0.36 0.43 0.33 0.32 0.40 0.37 0.43 0.32 0.32 0.45 0.34 0.43 0.34 0.43 0.49 0.44 0.48 0.34 0.33 0.35 0.45 0.46 0.33 0.43 0.47 0.47 0.49 0.42 0.49 0.49 0.37 0.40 0.36 0.30 0.31 0.42 0.49 0.33 0.31 0.45 0.30 0.34 0.34 0.40 0.40 0.42 0.40 0.46 0.35 0.38 0.30 0.36 0.39 0.50 0.30 0.46 0.38 0.42 0.33 0.43 0.49 0.43 0.35 0.49 0.49 0.42 0.37 0.31 0.35 0.46 0.44 0.33 0.31 0.31 0.45 0.38 0.39 0.46 0.42 0.45 0.45 0.48 0.49 0.35 0.48 0.42 0.45 0.50 0.43 0.42 0.49 0.30 0.43 0.46 0.35 0.35 0.41 0.34 0.33 0.40 0.32 0.44 0.35 0.35 0.44 -9999 -9999 -9999 -9999 -9999 -9999 -9999 -9999 -9999 -9999 -9999 -9999 -9999 -9999 -9999 -9999 -9999 -9999 -9999 -9999 -9999 -9999 -9999 -9999 -9999 -9999 -9999 -9999 -9999 -9999 -9999 -9999 -9999 -9999 -9999 -9999 -9999 -9999 -9999 -9999 -9999 -9999 -9999 -9999 -9999 -9999 -9999 -9999 -9999 -9999 -9999 -9999 -9999 -9999 -9999 -9999 -9999 -9999 -9999 -9999 -9999 -9999 -9999 -9999 -9999 -9999 -9999 -9999 -9999 -9999
0.33 0.37 0.32 0.47 0.40 0.41 0.39 0.31 0.39 0.44 0.46 0.44 0.44 0.48 0.43 0.37 0.42 0.48 0.42 0.31 0.36 0.41 0.49 0.49 0.37 0.43 0.36 0.48 0.34 0.40 0.39 0.44 0.46 0.45 0.37 0.37 0.35 0.30 0.34 0.44 0.41 0.34 0.46 0.43 0.45 0.41 0.42 0.47 0.46 0.32 0.41 0.39 0.30 0.36 0.45 0.44 0.33 0.44 0.38 0.35 0.40 0.35 0.39 0.50 0.43 0.39 0.50 0.46 0.38 0.33 0.35 0.48 0.45 0.44 0.40 0.39 0.36 0.46 0.42 0.45 0.39 0.39 0.43 0.44 0.36 0.32 0.38 0.41 0.41 0.40 0.50 0.43 0.47 0.45 0.36 0.48 0.47 0.43 0.32 0.34 0.39 0.42 0.49 0.36 0.38 0.34 0.34 0.30 0.36 0.41 0.31 0.36 0.44 0.38 0.30 0.32 0.49 0.40 0.39 0.33 0.40 0.35 0.35 0.46 0.40 0.46 0.41 0.36 0.36 0.46 0.45 0.31 0.44 0.34 0.47 0.32 0.39 0.31 0.44 0.46 0.36 0.44 0.43 0.40 0.49 -9999 -9999 -9999 -9999 -9999 -9999 -9999 -9999 -9999 -9999 -9999 -9999 -9999 -9999 -9999 -9999 -9999 -9999 -9999 -9999 -9999 -9999 -9999 -9999 -9999 -9999 -9999 -9999 -9999 -9999 -9999 -9999 -9999 -9999 -9999 -9999 -9999 -9999 -9999 -9999 -9999 -9999 -9999 -9999 -9999 -9999 -9999 -9999 -9999 -9999 -9999 -9999 -9999 -9999 -9999 -9999 -9999 -9999 -9999 -9999 -9999 -9999 -9999 -9999 -9999 -9999 -9999 -9999 -9999 -9999
0.33 0.39 0.36 0.44 0.36 0.49 0.31 0.34 0.42 0.45 0.46 0.48 0.46 0.40 0.49 0.45 0.38 0.34 0.48 0.33 0.33 0.41 0.48 0.42 0.41 0.34 0.30 0.35 0.36 0.35 0.37 0.40 0.33 0.47 0.36 0.33 0.34 0.36 0.40 0.36 0.41 0.36 0.47 0.30 0.32 0.39 0.42 0.47 0.34 0.46 0.46 0.35 0.40 0.31 0.36 0.34 0.37 0.47 0.43 0.40 0.35 0.37 0.39 0.33 0.41 0.34 0.39 0.49 0.30 0.41 0.40 0.42 0.36 0.46 0.34 0.41 0.40 0.42 0.45 0.30 0.47 0.38 0.50 0.42 0.39 0.35 0.37 0.48 0.41 0.39 0.46 0.40 0.48 0.38 0.35 0.38 0.41 0.40 0.46 0.36 0.33 0.43 0.43 0.36 0.36 0.31 0.34 0.39 0.45 0.40 0.33 0.35 0.45 0.45 0.34 0.50 0.36 0.40 0.39 0.38 0.38 0.31 0.34 0.36 0.32 0.47 0.41 0.33 0.32 0.41 0.35 0.36 0.32 0.48 0.42 0.46 0.30 0.37 0.48 0.38 0.47 0.33 0.42 0.46 0.34 -9999 -9999 -9999 -9999 -9999 -9999 -9999 -9999 -9999 -9999 -9999 -9999 -9999 -9999 -9999 -9999 -9999 -9999 -9999 -9999 -9999 -9999 -9999 -9999 -9999 -9999 -9999 -9999 -9999 -9999 -9999 -9999 -9999 -9999 -9999 -9999 -9999 -9999 -9999 -9999 -9999 -9999 -9999 -9999 -9999 -9999 -9999 -9999 -9999 -9999 -9999 -9999 -9999 -9999 -9999 -9999 -9999 -9999 -9999 -9999 -9999 -9999 -9999 -9999 -9999 -9999 -9999 -9999 -9999 -9999
0.34 0.42 0.33 0.40 0.39 0.34 0.48 0.45 0.39 0.44 0.42 0.38 0.43 0.33 0.33 0.30 0.41 0.38 0.35 0.33 0.32 0.39 0.36 0.46 0.36 0.48 0.35 0.43 0.36 0.39 0.40 0.33 0.47 0.36 0.40 0.44 0.45 0.45 0.30 0.46 0.41 0.48 0.31 0.45 0.33 0.34 0.45 0.45 0.45 0.49 0.45 0.41 0.32 0.37 0.47 0.45 0.39 0.33 0.33 0.33 0.40 0.41 0.40 0.43 0.31 0.32 0.44 0.32 0.37 0.38 0.34 0.49 0.48 0.48 0.39 0.39 0.49 0.50 0.30 0.40 0.37 0.41 0.38 0.31 0.37 0.34 0.41 0.32 0.38 0.37 0.38 0.48 0.39 0.36 0.32 0.48 0.32 0.32 0.44 0.43 0.47 0.31 0.36 0.45 0.43 0.49 0.33 0.38 0.45 0.36 0.50 0.44 0.39 0.40 0.44 0.40 0.43 0.38 0.36 0.43 0.31 0.46 0.32 0.42 0.38 0.48 0.34 0.45 0.49 0.45 0.37 0.44 0.31 0.33 0.35 0.42 0.35 0.31 0.31 0.47 0.43 0.37 0.33 0.41 0.46 -9999 -9999 -9999 -9999 -9999 -9999 -9999 -9999 -9999 -9999 -9999 -9999 -9999 -9999 -9999 -9999 -9999 -9999 -9999 -9999 -9999 -9999 -9999 -9999 -9999 -9999 -9999 -9999 -9999 -9999 -9999 -9999 -9999 -9999 -9999 -9999 -9999 -9999 -9999 -9999 -9999 -9999 -9999 -9999 -9999 -9999 -9999 -9999 -9999 -9999 -9999 -9999 -9999 -9999 -9999 -9999 -9999 -9999 -9999 -9999 -9999 -9999 -9999 -9999 -9999 -9999 -9999 -9999 -9999 -9999
0.47 0.30 0.43 0.31 0.32 0.36 0.48 0.42 0.48 0.47 0.46 0.41 0.32 0.33 0.44 0.44 0.32 0.43 0.46 0.35 0.49 0.49 0.33 0.34 0.46 0.39 0.50 0.39 0.37 0.48 0.36 0.31 0.30 0.41 0.50 0.36 0.48 0.41 0.32 0.41 0.43 0.30 0.34 0.41 0.38 0.38 0.36 0.41 0.39 0.36 0.44 0.38 0.50 0.38 0.30 0.39 0.48 0.33 0.32 0.32 0.43 0.40 0.39 0.39 0.32 0.34 0.48 0.35 0.43 0.42 0.50 0.41 0.36 0.39 0.39 0.48 0.31 0.34 0.42 0.43 0.34 0.49 0.38 0.45 0.34 0.38 0.43 0.48 0.42 0.32 0.47 0.31 0.50 0.48 0.40 0.39 0.33 0.43 0.47 0.38 0.47 0.48 0.47 0.35 0.38 0.32 0.39 0.40 0.33 0.33 0.45 0.42 0.42 0.42 0.45 0.35 0.46 0.32 0.47 0.36 0.34 0.40 0.41 0.30 0.41 0.42 0.43 0.50 0.48 0.40 0.47 0.35 0.33 0.37 0.48 0.39 0.33 0.45 0.42 0.48 0.50 0.30 0.31 0.34 -9999 -9999 -9999 -9999 -9999 -9999 -9999 -9999 -9999 -9999 -9999 -9999 -9999 -9999 -9999 -9999 -9999 -9999 -9999 -9999 -9999 -9999 -9999 -9999 -9999 -9999 -9999 -9999 -9999 -9999 -9999 -9999 -9999 -9999 -9999 -9999 -9999 -9999 -9999 -9999 -9999 -9999 -9999 -9999 -9999 -9999 -9999 -9999 -9999 -9999 -9999 -9999 -9999 -9999 -9999 -9999 -9999 -9999 -9999 -9999 -9999 -9999 -9999 -9999 -9999 -9999 -9999 -9999 -9999 -9999 -9999
0.31 0.32 0.44 0.32 0.49 0.45 0.34 0.41 0.35 0.34 0.37 0.31 0.35 0.43 0.39 0.36 0.39 0.31 0.34 0.49 0.31 0.41 0.37 0.45 0.46 0.39 0.41 0.40 0.33 0.37 0.33 0.34 0.44 0.31 0.46 0.40 0.39 0.43 0.39 0.42 0.39 0.31 0.44 0.33 0.37 0.31 0.47 0.33 0.31 0.32 0.49 0.32 0.45 0.30 0.49 0.48 0.41 0.47 0.32 0.37 0.41 0.41 0.48 0.34 0.32 0.37 0.41 0.36 0.38 0.36 0.32 0.34 0.45 0.32 0.33 0.31 0.47 0.38 0.44 0.31 0.39 0.48 0.45 0.45 0.40 0.41 0.46 0.31 0.40 0.42 0.37 0.47 0.37 0.45 0.34 0.40 0.37 0.37 0.45 0.30 0.31 0.49 0.31 0.37 0.43 0.40 0.49 0.33 0.42 0.30 0.38 0.33 0.42 0.40 0.42 0.32 0.39 0.49 0.35 0.33 0.34 0.49 0.37 0.45 0.49 0.35 0.33 0.34 0.45 0.35 0.37 0.42 0.48 0.34 0.41 0.40 -9999 -9999 -9999 -9999 -9999 -9999 -9999 -9999 -9999 -9999 -9999 -9999 -9999 -9999 -9999 -9999 -9999 -9999 -9999 -9999 -9999 -9999 -9999 -9999 -9999 -9999 -9999 -9999 -9999 -9999 -9999 -9999 -9999 -9999 -9999 -9999 -9999 -9999 -9999 -9999 -9999 -9999 -9999 -9999 -9999 -9999 -9999 -9999 -9999 -9999 -9999 -9999 -9999 -9999 -9999 -9999 -9999 -9999 -9999 -9999 -9999 -9999 -9999 -9999 -9999 -9999 -9999 -9999 -9999 -9999 -9999 -9999 -9999 -9999 -9999 -9999 -9999 -9999 -9999
0.43 0.49 0.44 0.37 0.50 0.41 0.36 0.36 0.38 0.34 0.48 0.42 0.43 0.48 0.49 0.35 0.43 0.47 0.45 0.38 0.40 0.39 0.42 0.36 0.38 0.48 0.45 0.48 0.35 0.48 0.45 0.39 0.36 0.35 0.33 0.46 0.35 0.43 0.40 0.33 0.49 0.41 0.41 0.32 0.30 0.49 0.39 0.32 0.41 0.34 0.30 0.40 0.36 0.34 0.47 0.37 0.45 0.42 0.31 0.35 0.38 0.46 0.46 0.33 0.41 0.39 0.47 0.31 0.43 0.35 0.40 0.34 0.45 0.38 0.43 0.45 0.41 0.47 0.37 0.45 0.34 0.40 0.48 0.48 0.31 0.35 0.48 0.30 0.49 0.40 0.36 0.31 0.31 0.46 0.42 0.30 0.39 0.44 0.47 0.30 0.45 0.42 0.38 0.43 0.33 0.45 0.36 0.49 0.43 0.42 0.39 0.41 0.41 0.35 0.31 0.38 0.42 0.45 0.44 0.42 0.34 0.37 0.33 0.45 0.50 0.35 0.44 0.36 0.35 -9999 -9999 -9999 -9999 -9999 -9999 -9999 -9999 -9999 -9999 -9999 -9999 -9999 -9999 -9999 -9999 -9999 -9999 -9999 -9999 -9999 -9999 -9999 -9999 -9999 -9999 -9999 -9999 -9999 -9999 -9999 -9999 -9999 -9999 -9999 -9999 -9999 -9999 -9999 -9999 -9999 -9999 -9999 -9999 -9999 -9999 -9999 -9999 -9999 -9999 -9999 -9999 -9999 -9999 -9999 -9999 -9999 -9999 -9999 -9999 -9999 -9999 -9999 -9999 -9999 -9999 -9999 -9999 -9999 -9999 -9999 -9999 -9999 -9999 -9999 -9999 -9999 -9999 -9999 -9999 -9999 -9999 -9999 -9999 -9999 -9999
0.49 0.31 0.49 0.40 0.39 0.43 0.45 0.47 0.49 0.39 0.47 0.35 0.30 0.48 0.42 0.39 0.35 0.44 0.39 0.44 0.34 0.31 0.34 0.49 0.44 0.33 0.33 0.43 0.43 0.34 0.40 0.42 0.49 0.39 0.31 0.42 0.41 0.42 0.32 0.32 0.45 0.39 0.42 0.40 0.37 0.35 0.42 0.33 0.39 0.43 0.35 0.38 0.43 0.38 0.30 0.31 0.42 0.30 0.49 0.48 0.36 0.40 0.47 0.34 0.32 0.40 0.34 0.36 0.40 0.37 0.44 0.42 0.30 0.31 0.48 0.35 0.44 0.34 0.49 0.30 0.46 0.40 0.39 0.43 0.39 0.37 0.44 0.34 0.49 0.30 0.38 0.49 0.45 0.44 0.36 0.41 0.32 0.49 0.43 0.37 0.38 0.48 0.38 0.47 0.32 0.42 0.41 0.43 0.36 0.41 0.35 0.35 0.42 0.50 0.45 0.32 0.43 0.39 0.35 0.37 0.49 -9999 -9999 -9999 -9999 -9999 -9999 -9999 -9999 -9999 -9999 -9999 -9999 -9999 -9999 -9999 -9999 -9999 -9999 -9999 -9999 -9999 -9999 -9999 -9999 -9999 -9999 -9999 -9999 -9999 -9999 -9999 -9999 -9999 -9999 -9999 -9999 -9999 -9999 -9999 -9999 -9999 -9999 -9999 -9999 -9999 -9999 -9999 -9999 -9999 -9999 -9999 -9999 -9999 -9999 -9999 -9999 -9999 -9999 -9999 -9999 -9999 -9999 -9999 -9999 -9999 -9999 -9999 -9999 -9999 -9999 -9999 -9999 -9999 -9999 -9999 -9999 -9999 -9999 -9999 -9999 -9999 -9999 -9999 -9999 -9999 -9999 -9999 -9999 -9999 -9999 -9999 -9999 -9999 -9999
0.43 0.34 0.31 0.49 0.45 0.47 0.34 0.38 0.47 0.30 0.48 0.49 0.30 0.49 0.47 0.32 0.48 0.32 0.50 0.41 0.32 0.42 0.30 0.45 0.34 0.38 0.46 0.48 0.42 0.49 0.50 0.31 0.49 0.44 0.33 0.35 0.46 0.35 0.38 0.33 0.39 0.48 0.31 0.49 0.35 0.31 0.37 0.46 0.49 0.43 0.43 0.38 0.39 0.45 0.30 0.42 0.38 0.43 0.33 0.30 0.47 0.31 0.30 0.40 0.34 0.47 0.39 0.35 0.38 0.49 0.33 0.31 0.49 0.37 0.42 0.47 0.36 0.38 0.49 0.42 0.46 0.36 0.35 0.37 0.39 0.44 0.33 0.48 0.38 0.43 0.40 0.38 0.41 0.41 0.44 0.30 0.35 0.31 0.31 0.42 0.34 0.31 0.37 0.39 0.38 0.31 0.48 0.35 0.44 0.48 0.33 0.44 0.41 0.43 -9999 -9999 -9999 -9999 -9999 -9999 -9999 -9999 -9999 -9999 -9999 -9999 -9999 -9999 -9999 -9999 -9999 -9999 -9999 -9999 -9999 -9999 -9999 -9999 -9999 -9999 -9999 -9999 -9999 -9999 -9999 -9999 -9999 -9999 -9999 -9999 -9999 -9999 -9999 -9999 -9999 -9999 -9999 -9999 -9999 -9999 -9999 -9999 -9999 -9999 -9999 -9999 -9999 -9999 -9999 -9999 -9999 -9999 -9999 -9999 -9999 -9999 -9999 -9999 -9999 -9999 -9999 -9999 -9999 -9999 -9999 -9999 -9999 -9999 -9999 -9999 -9999 -9999 -9999 -9999 -9999 -9999 -9999 -9999 -9999 -9999 -9999 -9999 -9999 -9999 -9999 -9999 -9999 -9999 -9999 -9999 -9999 -9999 -9999 -9999 -9999
0.32 0.40 0.31 0.42 0.45 0.44 0.36 0.35 0.37 0.49 0.34 0.35 0.41 0.36 0.39 0.32 0.45 0.49 0.35 0.47 0.35 0.40 0.37 0.32 0.31 0.42 0.48 0.31 0.43 0.35 0.42 0.35 0.41 0.38 0.43 0.48 0.43 0.36 0.33 0.46 0.46 0.35 0.42 0.31 0.42 0.30 0.35 0.45 0.30 0.34 0.35 0.48 0.43 0.34 0.43 0.44 0.45 0.35 0.31 0.41 0.37 0.35 0.34 0.40 0.34 0.46 0.36 0.46 0.39 0.34 0.46 0.37 0.36 0.33 0.35 0.40 0.32 0.36 0.30 0.46 0.33 0.38 0.49 0.43 0.49 0.44 0.35 0.47 0.40 0.49 0.48 0.41 0.35 0.36 0.37 0.33 0.49 0.35 0.36 0.49 0.41 0.48 0.40 0.37 0.32 0.46 -9999 -9999 -9999 -9999 -9999 -9999 -9999 -9999 -9999 -9999 -9999 -9999 -9999 -9999 -9999 -9999 -9999 -9999 -9999 -9999 -9999 -9999 -9999 -9999 -9999 -9999 -9999 -9999 -9999 -9999 -9999 -9999 -9999 -9999 -9999 -9999 -9999 -9999 -9999 -9999 -9999 -9999 -9999 -9999 -9999 -9999 -9999 -9999 -9999 -9999 -9999 -9999 -9999 -9999 -9999 -9999 -9999 -9999 -9999 -9999 -9999 -9999 -9999 -9999 -9999 -9999 -9999 -9999 -9999 -9999 -9999 -9999 -9999 -9999 -9999 -9999 -9999 -9999 -9999 -9999 -9999 -9999 -9999 -9999 -9999 -9999 -9999 -9999 -9999 -9999 -9999 -9999 -9999 -9999 -9999 -9999 -9999 -9999 -9999 -9999 -9999 -9999 -9999 -9999 -9999 -9999 -9999 -9999 -9999
0.43 0.43 0.32 0.38 0.32 0.40 0.40 0.30 0.34 0.40 0.48 0.50 0.48 0.31 0.42 0.37 0.36 0.38 0.33 0.32 0.44 0.33 0.50 0.30 0.47 0.37 0.39 0.46 0.34 0.45 0.49 0.49 0.34 0.45 0.50 0.40 0.36 0.38 0.45 0.49 0.34 0.35 0.31 0.31 0.47 0.34 0.33 0.44 0.31 0.48 0.30 0.45 0.33 0.42 0.48 0.39 0.41 0.31 0.40 0.33 0.37 0.40 0.37 0.37 0.32 0.32 0.49 0.43 0.43 0.41 0.39 0.30 0.47 0.32 0.48 0.42 0.41 0.46 0.38 0.33 0.30 0.44 0.42 0.41 0.30 0.40 0.39 0.38 0.33 0.39 0.32 0.46 0.43 0.43 0.38 0.34 0.35 0.33 -9999 -9999 -9999 -9999 -9999 -9999 -9999 -9999 -9999 -9999 -9999 -9999 -9999 -9999 -9999 -9999 -9999 -9999 -9999 -9999 -9999 -9999 -9999 -9999 -9999 -9999 -9999 -9999 -9999 -9999 -9999 -9999 -9999 -9999 -9999 -9999 -9999 -9999 -9999 -9999 -9999 -9999 -9999 -9999 -9999 -9999 -9999 -9999 -9999 -9999 -9999 -9999 -9999 -9999 -9999 -9999 -9999 -9999 -9999 -9999 -9999 -9999 -9999 -9999 -9999 -9999 -9999 -9999 -9999 -9999 -9999 -9999 -9999 -9999 -9999 -9999 -9999 -9999 -9999 -9999 -9999 -9999 -9999 -9999 -9999 -9999 -9999 -9999 -9999 -9999 -9999 -9999 -9999 -9999 -9999 -9999 -9999 -9999 -9999 -9999 -9999 -9999 -9999 -9999 -9999 -9999 -9999 -9999 -9999 -9999 -9999 -9999 -9999 -9999 -9999 -9999 -9999
0.36 0.44 0.44 0.40 0.33 0.34 0.38 0.41 0.44 0.39 0.37 0.38 0.45 0.42 0.42 0.39 0.31 0.41 0.48 0.42 0.47 0.42 0.34 0.34 0.48 0.37 0.37 0.46 0.37 0.47 0.39 0.36 0.34 0.35 0.37 0.32 0.47 0.30 0.33 0.42 0.40 0.35 0.37 0.37 0.45 0.37 0.44 0.42 0.42 0.42 0.36 0.48 0.34 0.38 0.48 0.50 0.33 0.46 0.47 0.36 0.49 0.50 0.36 0.33 0.34 0.33 0.34 0.35 0.40 0.34 0.37 0.49 0.34 0.35 0.37 0.49 0.31 0.30 0.33 0.31 0.43 0.34 0.36 0.32 0.49 0.44 0.36 0.39 0.49 0.35 -9999 -9999 -9999 -9999 -9999 -9999 -9999 -9999 -9999 -9999 -9999 -9999 -9999 -9999 -9999 -9999 -9999 -9999 -9999 -9999 -9999 -9999 -9999 -9999 -9999 -9999 -9999 -9999 -9999 -9999 -9999 -9999 -9999 -9999 -9999 -9999 -9999 -9999 -9999 -9999 -9999 -9999 -9999 -9999 -9999 -9999 -9999 -9999 -9999 -9999 -9999 -9999 -9999 -9999 -9999 -9999 -9999 -9999 -9999 -9999 -9999 -9999 -9999 -9999 -9999 -9999 -9999 -9999 -9999 -9999 -9999 -9999 -9999 -9999 -9999 -9999 -9999 -9999 -9999 -9999 -9999 -9999 -9999 -9999 -9999 -9999 -9999 -9999 -9999 -9999 -9999 -9999 -9999 -9999 -9999 -9999 -9999 -9999 -9999 -9999 -9999 -9999 -9999 -9999 -9999 -9999 -9999 -9999 -9999 -9999 -9999 -9999 -9999 -9999 -9999 -9999 -9999 -9999 -9999 -9999 -9999 -9999 -9999 -9999 -9999
0.41 0.38 0.43 0.33 0.45 0.32 0.41 0.37 0.44 0.43 0.43 0.37 0.42 0.38 0.39 0.48 0.36 0.37 0.37 0.42 0.36 0.42 0.32 0.33 0.43 0.50 0.46 0.34 0.44 0.30 0.40 0.49 0.43 0.37 0.31 0.40 0.35 0.45 0.34 0.47 0.42 0.34 0.34 0.47 0.36 0.39 0.50 0.40 0.44 0.42 0.45 0.50 0.31 0.37 0.46 0.36 0.36 0.37 0.43 0.34 0.42 0.34 0.31 0.31 0.38 0.39 0.45 0.44 0.48 0.45 0.35 0.37 0.44 0.48 0.37 0.38 0.44 0.40 0.49 0.49 0.47 0.34 -9999 -9999 -9999 -9999 -9999 -9999 -9999 -9999 -9999 -9999 -9999 -9999 -9999 -9999 -9999 -9999 -9999 -9999 -9999 -9999 -9999 -9999 -9999 -9999 -9999 -9999 -9999 -9999 -9999 -9999 -9999 -9999 -9999 -9999 -9999 -9999 -9999 -9999 -9999 -9999 -9999 -9999 -9999 -9999 -9999 -9999 -9999 -9999 -9999 -9999 -9999 -9999 -9999 -9999 -9999 -9999 -9999 -9999 -9999 -9999 -9999 -9999 -9999 -9999 -9999 -9999 -9999 -9999 -9999 -9999 -9999 -9999 -9999 -9999 -9999 -9999 -9999 -9999 -9999 -9999 -9999 -9999 -9999 -9999 -9999 -9999 -9999 -9999 -9999 -9999 -9999 -9999 -9999 -9999 -9999 -9999 -9999 -9999 -9999 -9999 -9999 -9999 -9999 -9999 -9999 -9999 -9999 -9999 -9999 -9999 -9999 -9999 -9999 -9999 -9999 -9999 -9999 -9999 -9999 -9999 -9999 -9999 -9999 -9999 -9999 -9999 -9999 -9999 -9999 -9999 -9999 -9999 -9999
0.47 0.31 0.41 0.46 0.44 0.33 0.36 0.49 0.43 0.37 0.33 0.32 0.42 0.36 0.42 0.34 0.41 0.32 0.44 0.30 0.50 0.48 0.33 0.43 0.34 0.48 0.36 0.38 0.32 0.45 0.31 0.39 0.32 0.50 0.39 0.44 0.39 0.50 0.37 0.34 0.33 0.36 0.46 0.41 0.33 0.49 0.32 0.47 0.37 0.31 0.43 0.39 0.48 0.35 0.49 0.44 0.50 0.48 0.38 0.40 0.40 0.36 0.49 0.44 0.40 0.47 0.35 0.31 0.43 0.48 0.47 0.36 0.45 0.38 -9999 -9999 -9999 -9999 -9999 -9999 -9999 -9999 -9999 -9999 -9999 -9999 -9999 -9999 -9999 -9999 -9999 -9999 -9999 -9999 -9999 -9999 -9999 -9999 -9999 -9999 -9999 -9999 -9999 -9999 -9999 -9999 -9999 -9999 -9999 -9999 -9999 -9999 -9999 -9999 -9999 -9999 -9999 -9999 -9999 -9999 -9999 -9999 -9999 -9999 -9999 -9999 -9999 -9999 -9999 -9999 -9999 -9999 -9999 -9999 -9999 -9999 -9999 -9999 -9999 -9999 -9999 -9999 -9999 -9999 -9999 -9999 -9999 -9999 -9999 -9999 -9999 -9999 -9999 -9999 -9999 -9999 -9999 -9999 -9999 -9999 -9999 -9999 -9999 -9999 -9999 -9999 -9999 -9999 -9999 -9999 -9999 -9999 -9999 -9999 -9999 -9999 -9999 -9999 -9999 -9999 -9999 -9999 -9999 -9999 -9999 -9999 -9999 -9999 -9999 -9999 -9999 -9999 -9999 -9999 -9999 -9999 -9999 -9999 -9999 -9999 -9999 -9999 -9999 -9999 -9999 -9999 -9999 -9999 -9999 -9999 -9999 -9999 -9999 -9999 -9999
0.37 0.33 0.35 0.37 0.35 0.42 0.35 0.36 0.30 0.35 0.40 0.47 0.33 0.30 0.40 0.42 0.37 0.49 0.45 0.38 0.35 0.43 0.46 0.44 0.31 0.35 0.41 0.44 0.33 0.33 0.37 0.47 0.36 0.30 0.31 0.46 0.39 0.37 0.41 0.38 0.34 0.31 0.30 0.50 0.34 0.32 0.31 0.41 0.47 0.45 0.32 0.41 0.39 0.41 0.43 0.49 0.35 0.32 0.46 0.34 0.46 0.41 0.41 0.41 0.41 0.42 -9999 -9999 -9999 -9999 -9999 -9999 -9999 -9999 -9999 -9999 -9999 -9999 -9999 -9999 -9999 -9999 -9999 -9999 -9999 -9999 -9999 -9999 -9999 -9999 -9999 -9999 -9999 -9999 -9999 -9999 -9999 -9999 -9999 -9999 -9999 -9999 -9999 -9999 -9999 -9999 -9999 -9999 -9999 -9999 -9999 -9999 -9999 -9999 -9999 -9999 -9999 -9999 -9999 -9999 -9999 -9999 -9999 -9999 -9999 -9999 -9999 -9999 -9999 -9999 -9999 -9999 -9999 -9999 -9999 -9999 -9999 -9999 -9999 -9999 -9999 -9999 -9999 -9999 -9999 -9999 -9999 -9999 -9999 -9999 -9999 -9999 -9999 -9999 -9999 -9999 -9999 -9999 -9999 -9999 -9999 -9999 -9999 -9999 -9999 -9999 -9999 -9999 -9999 -9999 -9999 -9999 -9999 -9999 -9999 -9999 -9999 -9999 -9999 -9999 -9999 -9999 -9999 -9999 -9999 -9999 -9999 -9999 -9999 -9999 -9999 -9999 -9999 -9999 -9999 -9999 -9999 -9999 -9999 -9999 -9999 -9999 -9999 -9999 -9999 -9999 -9999 -9999 -9999 -9999 -9999 -9999 -9999 -9999 -9999
0.40 0.47 0.41 0.48 0.46 0.33 0.39 0.47 0.35 0.42 0.45 0.42 0.38 0.35 0.46 0.37 0.37 0.31 0.43 0.47 0.48 0.36 0.33 0.37 0.35 0.48 0.32 0.41 0.48 0.42 0.45 0.44 0.43 0.36 0.34 0.30 0.49 0.48 0.45 0.34 0.39 0.33 0.44 0.39 0.40 0.35 0.46 0.41 0.34 0.44 0.41 0.43 0.34 0.31 0.41 0.31 0.43 -9999 -9999 -9999 -9999 -9999 -9999 -9999 -9999 -9999 -9999 -9999 -9999 -9999 -9999 -9999 -9999 -9999 -9999 -9999 -9999 -9999 -9999 -9999 -9999 -9999 -9999 -9999 -9999 -9999 -9999 -9999 -9999 -9999 -9999 -9999 -9999 -9999 -9999 -9999 -9999 -9999 -9999 -9999 -9999 -9999 -9999 -9999 -9999 -9999 -9999 -9999 -9999 -9999 -9999 -9999 -9999 -9999 -9999 -9999 -9999 -9999 -9999 -9999 -9999 -9999 -9999 -9999 -9999 -9999 -9999 -9999 -9999 -9999 -9999 -9999 -9999 -9999 -9999 -9999 -9999 -9999 -9999 -9999 -9999 -9999 -9999 -9999 -9999 -9999 -9999 -9999 -9999 -9999 -9999 -9999 -9999 -9999 -9999 -9999 -9999 -9999 -9999 -9999 -9999 -9999 -9999 -9999 -9999 -9999 -9999 -9999 -9999 -9999 -9999 -9999 -9999 -9999 -9999 -9999 -9999 -9999 -9999 -9999 -9999 -9999 -9999 -9999 -9999 -9999 -9999 -9999 -9999 -9999 -9999 -9999 -9999 -9999 -9999 -9999 -9999 -9999 -9999 -9999 -9999 -9999 -9999 -9999 -9999 -9999 -9999 -9999 -9999 -9999 -9999 -9999 -9999 -9999 -9999
0.41 0.40 0.40 0.43 0.45 0.48 0.49 0.38 0.42 0.47 0.39 0.34 0.50 0.33 0.37 0.45 0.38 0.45 0.32 0.32 0.46 0.50 0.35 0.40 0.37 0.39 0.48 0.48 0.34 0.46 0.40 0.34 0.35 0.40 0.31 0.48 0.30 0.49 0.39 0.39 0.33 0.47 0.33 0.31 0.36 0.48 0.36 0.38 0.33 -9999 -9999 -9999 -9999 -9999 -9999 -9999 -9999 -9999 -9999 -9999 -9999 -9999 -9999 -9999 -9999 -9999 -9999 -9999 -9999 -9999 -9999 -9999 -9999 -9999 -9999 -9999 -9999 -9999 -9999 -9999 -9999 -9999 -9999 -9999 -9999 -9999 -9999 -9999 -9999 -9999 -9999 -9999 -9999 -9999 -9999 -9999 -9999 -9999 -9999 -9999 -9999 -9999 -9999 -9999 -9999 -9999 -9999 -9999 -9999 -9999 -9999 -9999 -9999 -9999 -9999 -9999 -9999 -9999 -9999 -9999 -9999 -9999 -9999 -9999 -9999 -9999 -9999 -9999 -9999 -9999 -9999 -9999 -9999 -9999 -9999 -9999 -9999 -9999 -9999 -9999 -9999 -9999 -9999 -9999 -9999 -9999 -9999 -9999 -9999 -9999 -9999 -9999 -9999 -9999 -9999 -9999 -9999 -9999 -9999 -9999 -9999 -9999 -9999 -9999 -9999 -9999 -9999 -9999 -9999 -9999 -9999 -9999 -9999 -9999 -9999 -9999 -9999 -9999 -9999 -9999 -9999 -9999 -9999 -9999 -9999 -9999 -9999 -9999 -9999 -9999 -9999 -9999 -9999 -9999 -9999 -9999 -9999 -9999 -9999 -9999 -9999 -9999 -9999 -9999 -9999 -9999 -9999 -9999 -9999 -9999 -9999 -9999 -9999 -9999 -9999
0.48 0.42 0.44 0.36 0.48 0.37 0.32 0.39 0.43 0.39 0.31 0.46 0.45 0.38 0.37 0.41 0.44 0.38 0.39 0.34 0.48 0.38 0.36 0.42 0.48 0.42 0.42 0.47 0.39 0.48 0.44 0.48 0.40 0.36 0.36 0.44 0.45 0.49 0.44 0.40 -9999 -9999 -9999 -9999 -9999 -9999 -9999 -9999 -9999 -9999 -9999 -9999 -9999 -9999 -9999 -9999 -9999 -9999 -9999 -9999 -9999 -9999 -9999 -9999 -9999 -9999 -9999 -9999 -9999 -9999 -9999 -9999 -9999 -9999 -9999 -9999 -9999 -9999 -9999 -9999 -9999 -9999 -9999 -9999 -9999 -9999 -9999 -9999 -9999 -9999 -9999 -9999 -9999 -9999 -9999 -9999 -9999 -9999 -9999 -9999 -9999 -9999 -9999 -9999 -9999 -9999 -9999 -9999 -9999 -9999 -9999 -9999 -9999 -9999 -9999 -9999 -9999 -9999 -9999 -9999 -9999 -9999 -9999 -9999 -9999 -9999 -9999 -9999 -9999 -9999 -9999 -9999 -9999 -9999 -9999 -9999 -9999 -9999 -9999 -9999 -9999 -9999 -9999 -9999 -9999 -9999 -9999 -9999 -9999 -9999 -9999 -9999 -9999 -9999 -9999 -9999 -9999 -9999 -9999 -9999 -9999 -9999 -9999 -9999 -9999 -9999 -9999 -9999 -9999 -9999 -9999 -9999 -9999 -9999 -9999 -9999 -9999 -9999 -9999 -9999 -9999 -9999 -9999 -9999 -9999 -9999 -9999 -9999 -9999 -9999 -9999 -9999 -9999 -9999 -9999 -9999 -9999 -9999 -9999 -9999 -9999 -9999 -9999 -9999 -9999 -9999 -9999 -9999 -9999 -9999 -9999 -9999 -9999 -9999 -9999
0.42 0.43 0.39 0.39 0.30 0.49 0.48 0.30 0.39 0.43 0.46 0.47 0.44 0.40 0.43 0.45 0.31 0.36 0.34 0.49 0.43 0.39 0.48 0.48 0.40 0.45 0.40 0.33 0.32 0.47 0.43 -9999 -9999 -9999 -9999 -9999 -9999 -9999 -9999 -9999 -9999 -9999 -9999 -9999 -9999 -9999 -9999 -9999 -9999 -9999 -9999 -9999 -9999 -9999 -9999 -9999 -9999 -9999 -9999 -9999 -9999 -9999 -9999 -9999 -9999 -9999 -9999 -9999 -9999 -9999 -9999 -9999 -9999 -9999 -9999 -9999 -9999 -9999 -9999 -9999 -9999 -9999 -9999 -9999 -9999 -9999 -9999 -9999 -9999 -9999 -9999 -9999 -9999 -9999 -9999 -9999 -9999 -9999 -9999 -9999 -9999 -9999 -9999 -9999 -9999 -9999 -9999 -9999 -9999 -9999 -9999 -9999 -9999 -9999 -9999 -9999 -9999 -9999 -9999 -9999 -9999 -9999 -9999 -9999 -9999 -9999 -9999 -9999 -9999 -9999 -9999 -9999 -9999 -9999 -9999 -9999 -9999 -9999 -9999 -9999 -9999 -9999 -9999 -9999 -9999 -9999 -9999 -9999 -9999 -9999 -9999 -9999 -9999 -9999 -9999 -9999 -9999 -9999 -9999 -9999 -9999 -9999 -9999 -9999 -9999 -9999 -9999 -9999 -9999 -9999 -9999 -9999 -9999 -9999 -9999 -9999 -9999 -9999 -9999 -9999 -9999 -9999 -9999 -9999 -9999 -9999 -9999 -9999 -9999 -9999 -9999 -9999 -9999 -9999 -9999 -9999 -9999 -9999 -9999 -9999 -9999 -9999 -9999 -9999 -9999 -9999 -9999 -9999 -9999 -9999 -9999 -9999 -9999 -9999 -9999
0.32 0.50 0.38 0.31 0.49 0.33 0.49 0.45 0.37 0.48 0.32 0.44 0.45 0.31 0.37 0.34 0.31 0.35 0.49 0.40 0.42 0.36 -9999 -9999 -9999 -9999 -9999 -9999 -9999 -9999 -9999 -9999 -9999 -9999 -9999 -9999 -9999 -9999 -9999 -9999 -9999 -9999 -9999 -9999 -9999 -9999 -9999 -9999 -9999 -9999 -9999 -9999 -9999 -9999 -9999 -9999 -9999 -9999 -9999 -9999 -9999 -9999 -9999 -9999 -9999 -9999 -9999 -9999 -9999 -9999 -9999 -9999 -9999 -9999 -9999 -9999 -9999 -9999 -9999 -9999 -9999 -9999 -9999 -9999 -9999 -9999 -9999 -9999 -9999 -9999 -9999 -9999 -9999 -9999 -9999 -9999 -9999 -9999 -9999 -9999 -9999 -9999 -9999 -9999 -9999 -9999 -9999 -9999 -9999 -9999 -9999 -9999 -9999 -9999 -9999 -9999 -9999 -9999 -9999 -9999 -9999 -9999 -9999 -9999 -9999 -9999 -9999 -9999 -9999 -9999 -9999 -9999 -9999 -9999 -9999 -9999 -9999 -9999 -9999 -9999 -9999 -9999 -9999 -9999 -9999 -9999 -9999 -9999 -9999 -9999 -9999 -9999 -9999 -9999 -9999 -9999 -9999 -9999 -9999 -9999 -9999 -9999 -9999 -9999 -9999 -9999 -9999 -9999 -9999 -9999 -9999 -9999 -9999 -9999 -9999 -9999 -9999 -9999 -9999 -9999 -9999 -9999 -9999 -9999 -9999 -9999 -9999 -9999 -9999 -9999 -9999 -9999 -9999 -9999 -9999 -9999 -9999 -9999 -9999 -9999 -9999 -9999 -9999 -9999 -9999 -9999 -9999 -9999 -9999 -9999 -9999 -9999 -9999 -9999 -9999
0.30 0.44 0.34 0.42 0.48 0.42 0.32 0.47 0.43 0.39 0.32 0.40 0.48 -9999 -9999 -9999 -9999 -9999 -9999 -9999 -9999 -9999 -9999 -9999 -9999 -9999 -9999 -9999 -9999 -9999 -9999 -9999 -9999 -9999 -9999 -9999 -9999 -9999 -9999 -9999 -9999 -9999 -9999 -9999 -9999 -9999 -9999 -9999 -9999 -9999 -9999 -9999 -9999 -9999 -9999 -9999 -9999 -9999 -9999 -9999 -9999 -9999 -9999 -9999 -9999 -9999 -9999 -9999 -9999 -9999 -9999 -9999 -9999 -9999 -9999 -9999 -9999 -9999 -9999 -9999 -9999 -9999 -9999 -9999 -9999 -9999 -9999 -9999 -9999 -9999 -9999 -9999 -9999 -9999 -9999 -9999 -9999 -9999 -9999 -9999 -9999 -9999 -9999 -9999 -9999 -9999 -9999 -9999 -9999 -9999 -9999 -9999 -9999 -9999 -9999 -9999 -9999 -9999 -9999 -9999 -9999 -9999 -9999 -9999 -9999 -9999 -9999 -9999 -9999 -9999 -9999 -9999 -9999 -9999 -9999 -9999 -9999 -9999 -9999 -9999 -9999 -9999 -9999 -9999 -9999 -9999 -9999 -9999 -9999 -9999 -9999 -9999 -9999 -9999 -9999 -9999 -9999 -9999 -9999 -9999 -9999 -9999 -9999 -9999 -9999 -9999 -9999 -9999 -9999 -9999 -9999 -9999 -9999 -9999 -9999 -9999 -9999 -9999 -9999 -9999 -9999 -9999 -9999 -9999 -9999 -9999 -9999 -9999 -9999 -9999 -9999 -9999 -9999 -9999 -9999 -9999 -9999 -9999 -9999 -9999 -9999 -9999 -9999 -9999 -9999 -9999 -9999 -9999 -9999 -9999 -9999 -9999 -9999 -9999 -9999
0.35 0.43 0.44 -9999 -9999 -9999 -9999 -9999 -9999 -9999 -9999 -9999 -9999 -9999 -9999 -9999 -9999 -9999 -9999 -9999 -9999 -9999 -9999 -9999 -9999 -9999 -9999 -9999 -9999 -9999 -9999 -9999 -9999 -9999 -9999 -9999 -9999 -9999 -9999 -9999 -9999 -9999 -9999 -9999 -9999 -9999 -9999 -9999 -9999 -9999 -9999 -9999 -9999 -9999 -9999 -9999 -9999 -9999 -9999 -9999 -9999 -9999 -9999 -9999 -9999 -9999 -9999 -9999 -9999 -9999 -9999 -9999 -9999 -9999 -9999 -9999 -9999 -9999 -9999 -9999 -9999 -9999 -9999 -9999 -9999 -9999 -9999 -9999 -9999 -9999 -9999 -9999 -9999 -9999 -9999 -9999 -9999 -9999 -9999 -9999 -9999 -9999 -9999 -9999 -9999 -9999 -9999 -9999 -9999 -9999 -9999 -9999 -9999 -9999 -9999 -9999 -9999 -9999 -9999 -9999 -9999 -9999 -9999 -9999 -9999 -9999 -9999 -9999 -9999 -9999 -9999 -9999 -9999 -9999 -9999 -9999 -9999 -9999 -9999 -9999 -9999 -9999 -9999 -9999 -9999 -9999 -9999 -9999 -9999 -9999 -9999 -9999 -9999 -9999 -9999 -9999 -9999 -9999 -9999 -9999 -9999 -9999 -9999 -9999 -9999 -9999 -9999 -9999 -9999 -9999 -9999 -9999 -9999 -9999 -9999 -9999 -9999 -9999 -9999 -9999 -9999 -9999 -9999 -9999 -9999 -9999 -9999 -9999 -9999 -9999 -9999 -9999 -9999 -9999 -9999 -9999 -9999 -9999 -9999 -9999 -9999 -9999 -9999 -9999 -9999 -9999 -9999 -9999 -9999 -9999 -9999 -9999 -9999 -9999 -9999
-9999 -9999 -9999 -9999 -9999 -9999 -9999 -9999 -9999 -9999 -9999 -9999 -9999 -9999 -9999 -9999 -9999 -9999 -9999 -9999 -9999 -9999 -9999 -9999 -9999 -9999 -9999 -9999 -9999 -9999 -9999 -9999 -9999 -9999 -9999 -9999 -9999 -9999 -9999 -9999 -9999 -9999 -9999 -9999 -9999 -9999 -9999 -9999 -9999 -9999 -9999 -9999 -9999 -9999 -9999 -9999 -9999 -9999 -9999 -9999 -9999 -9999 -9999 -9999 -9999 -9999 -9999 -9999 -9999 -9999 -9999 -9999 -9999 -9999 -9999 -9999 -9999 -9999 -9999 -9999 -9999 -9999 -9999 -9999 -9999 -9999 -9999 -9999 -9999 -9999 -9999 -9999 -9999 -9999 -9999 -9999 -9999 -9999 -9999 -9999 -9999 -9999 -9999 -9999 -9999 -9999 -9999 -9999 -9999 -9999 -9999 -9999 -9999 -9999 -9999 -9999 -9999 -9999 -9999 -9999 -9999 -9999 -9999 -9999 -9999 -9999 -9999 -9999 -9999 -9999 -9999 -9999 -9999 -9999 -9999 -9999 -9999 -9999 -9999 -9999 -9999 -9999 -9999 -9999 -9999 -9999 -9999 -9999 -9999 -9999 -9999 -9999 -9999 -9999 -9999 -9999 -9999 -9999 -9999 -9999 -9999 -9999 -9999 -9999 -9999 -9999 -9999 -9999 -9999 -9999 -9999 -9999 -9999 -9999 -9999 -9999 -9999 -9999 -9999 -9999 -9999 -9999 -9999 -9999 -9999 -9999 -9999 -9999 -9999 -9999 -9999 -9999 -9999 -9999 -9999 -9999 -9999 -9999 -9999 -9999 -9999 -9999 -9999 -9999 -9999 -9999 -9999 -9999 -9999 -9999 -9999 -9999 -9999 -9999 -9999
-9999 -9999 -9999 -9999 -9999 -9999 -9999 -9999 -9999 -9999 -9999 -9999 -9999 -9999 -9999 -9999 -9999 -9999 -9999 -9999 -9999 -9999 -9999 -9999 -9999 -9999 -9999 -9999 -9999 -9999 -9999 -9999 -9999 -9999 -9999 -9999 -9999 -9999 -9999 -9999 -9999 -9999 -9999 -9999 -9999 -9999 -9999 -9999 -9999 -9999 -9999 -9999 -9999 -9999 -9999 -9999 -9999 -9999 -9999 -9999 -9999 -9999 -9999 -9999 -9999 -9999 -9999 -9999 -9999 -9999 -9999 -9999 -9999 -9999 -9999 -9999 -9999 -9999 -9999 -9999 -9999 -9999 -9999 -9999 -9999 -9999 -9999 -9999 -9999 -9999 -9999 -9999 -9999 -9999 -9999 -9999 -9999 -9999 -9999 -9999 -9999 -9999 -9999 -9999 -9999 -9999 -9999 -9999 -9999 -9999 -9999 -9999 -9999 -9999 -9999 -9999 -9999 -9999 -9999 -9999 -9999 -9999 -9999 -9999 -9999 -9999 -9999 -9999 -9999 -9999 -9999 -9999 -9999 -9999 -9999 -9999 -9999 -9999 -9999 -9999 -9999 -9999 -9999 -9999 -9999 -9999 -9999 -9999 -9999 -9999 -9999 -9999 -9999 -9999 -9999 -9999 -9999 -9999 -9999 -9999 -9999 -9999 -9999 -9999 -9999 -9999 -9999 -9999 -9999 -9999 -9999 -9999 -9999 -9999 -9999 -9999 -9999 -9999 -9999 -9999 -9999 -9999 -9999 -9999 -9999 -9999 -9999 -9999 -9999 -9999 -9999 -9999 -9999 -9999 -9999 -9999 -9999 -9999 -9999 -9999 -9999 -9999 -9999 -9999 -9999 -9999 -9999 -9999 -9999 -9999 -9999 -9999 -9999 -9999 -9999
-9999 -9999 -9999 -9999 -9999 -9999 -9999 -9999 -9999 -9999 -9999 -9999 -9999 -9999 -9999 -9999 -9999 -9999 -9999 -9999 -9999 -9999 -9999 -9999 -9999 -9999 -9999 -9999 -9999 -9999 -9999 -9999 -9999 -9999 -9999 -9999 -9999 -9999 -9999 -9999 -9999 -9999 -9999 -9999 -9999 -9999 -9999 -9999 -9999 -9999 -9999 -9999 -9999 -9999 -9999 -9999 -9999 -9999 -9999 -9999 -9999 -9999 -9999 -9999 -9999 -9999 -9999 -9999 -9999 -9999 -9999 -9999 -9999 -9999 -9999 -9999 -9999 -9999 -9999 -9999 -9999 -9999 -9999 -9999 -9999 -9999 -9999 -9999 -9999 -9999 -9999 -9999 -9999 -9999 -9999 -9999 -9999 -9999 -9999 -9999 -9999 -9999 -9999 -9999 -9999 -9999 -9999 -9999 -9999 -9999 -9999 -9999 -9999 -9999 -9999 -9999 -9999 -9999 -9999 -9999 -9999 -9999 -9999 -9999 -9999 -9999 -9999 -9999 -9999 -9999 -9999 -9999 -9999 -9999 -9999 -9999 -9999 -9999 -9999 -9999 -9999 -9999 -9999 -9999 -9999 -9999 -9999 -9999 -9999 -9999 -9999 -9999 -9999 -9999 -9999 -9999 -9999 -9999 -9999 -9999 -9999 -9999 -9999 -9999 -9999 -9999 -9999 -9999 -9999 -9999 -9999 -9999 -9999 -9999 -9999 -9999 -9999 -9999 -9999 -9999 -9999 -9999 -9999 -9999 -9999 -9999 -9999 -9999 -9999 -9999 -9999 -9999 -9999 -9999 -9999 -9999 -9999 -9999 -9999 -9999 -9999 -9999 -9999 -9999 -9999 -9999 -9999 -9999 -9999 -9999 -9999 -9999 -9999 -9999 -9999
-9999 -9999 -9999 -9999 -9999 -9999 -9999 -9999 -9999 -9999 -9999 -9999 -9999 -9999 -9999 -9999 -9999 -9999 -9999 -9999 -9999 -9999 -9999 -9999 -9999 -9999 -9999 -9999 -9999 -9999 -9999 -9999 -9999 -9999 -9999 -9999 -9999 -9999 -9999 -9999 -9999 -9999 -9999 -9999 -9999 -9999 -9999 -9999 -9999 -9999 -9999 -9999 -9999 -9999 -9999 -9999 -9999 -9999 -9999 -9999 -9999 -9999 -9999 -9999 -9999 -9999 -9999 -9999 -9999 -9999 -9999 -9999 -9999 -9999 -9999 -9999 -9999 -9999 -9999 -9999 -9999 -9999 -9999 -9999 -9999 -9999 -9999 -9999 -9999 -9999 -9999 -9999 -9999 -9999 -9999 -9999 -9999 -9999 -9999 -9999 -9999 -9999 -9999 -9999 -9999 -9999 -9999 -9999 -9999 -9999 -9999 -9999 -9999 -9999 -9999 -9999 -9999 -9999 -9999 -9999 -9999 -9999 -9999 -9999 -9999 -9999 -9999 -9999 -9999 -9999 -9999 -9999 -9999 -9999 -9999 -9999 -9999 -9999 -9999 -9999 -9999 -9999 -9999 -9999 -9999 -9999 -9999 -9999 -9999 -9999 -9999 -9999 -9999 -9999 -9999 -9999 -9999 -9999 -9999 -9999 -9999 -9999 -9999 -9999 -9999 -9999 -9999 -9999 -9999 -9999 -9999 -9999 -9999 -9999 -9999 -9999 -9999 -9999 -9999 -9999 -9999 -9999 -9999 -9999 -9999 -9999 -9999 -9999 -9999 -9999 -9999 -9999 -9999 -9999 -9999 -9999 -9999 -9999 -9999 -9999 -9999 -9999 -9999 -9999 -9999 -9999 -9999 -9999 -9999 -9999 -9999 -9999 -9999 -9999 -9999
-9999 -9999 -9999 -9999 -9999 -9999 -9999 -9999 -9999 -9999 -9999 -9999 -9999 -9999 -9999 -9999 -9999 -9999 -9999 -9999 -9999 -9999 -9999 -9999 -9999 -9999 -9999 -9999 -9999 -9999 -9999 -9999 -9999 -9999 -9999 -9999 -9999 -9999 -9999 -9999 -9999 -9999 -9999 -9999 -9999 -9999 -9999 -9999 -9999 -9999 -9999 -9999 -9999 -9999 -9999 -9999 -9999 -9999 -9999 -9999 -9999 -9999 -9999 -9999 -9999 -9999 -9999 -9999 -9999 -9999 -9999 -9999 -9999 -9999 -9999 -9999 -9999 -9999 -9999 -9999 -9999 -9999 -9999 -9999 -9999 -9999 -9999 -9999 -9999 -9999 -9999 -9999 -9999 -9999 -9999 -9999 -9999 -9999 -9999 -9999 -9999 -9999 -9999 -9999 -9999 -9999 -9999 -9999 -9999 -9999 -9999 -9999 -9999 -9999 -9999 -9999 -9999 -9999 -9999 -9999 -9999 -9999 -9999 -9999 -9999 -9999 -9999 -9999 -9999 -9999 -9999 -9999 -9999 -9999 -9999 -9999 -9999 -9999 -9999 -9999 -9999 -9999 -9999 -9999 -9999 -9999 -9999 -9999 -9999 -9999 -9999 -9999 -9999 -9999 -9999 -9999 -9999 -9999 -9999 -9999 -9999 -9999 -9999 -9999 -9999 -9999 -9999 -9999 -9999 -9999 -9999 -9999 -9999 -9999 -9999 -9999 -9999 -9999 -9999 -9999 -9999 -9999 -9999 -9999 -9999 -9999 -9999 -9999 -9999 -9999 -9999 -9999 -9999 -9999 -9999 -9999 -9999 -9999 -9999 -9999 -9999 -9999 -9999 -9999 -9999 -9999 -9999 -9999 -9999 -9999 -9999 -9999 -9999 -9999 -9999
-9999 -9999 -9999 -9999 -9999 -9999 -9999 -9999 -9999 -9999 -9999 -9999 -9999 -9999 -9999 -9999 -9999 -9999 -9999 -9999 -9999 -9999 -9999 -9999 -9999 -9999 -9999 -9999 -9999 -9999 -9999 -9999 -9999 -9999 -9999 -9999 -9999 -9999 -9999 -9999 -9999 -9999 -9999 -9999 -9999 -9999 -9999 -9999 -9999 -9999 -9999 -9999 -9999 -9999 -9999 -9999 -9999 -9999 -9999 -9999 -9999 -9999 -9999 -9999 -9999 -9999 -9999 -9999 -9999 -9999 -9999 -9999 -9999 -9999 -9999 -9999 -9999 -9999 -9999 -9999 -9999 -9999 -9999 -9999 -9999 -9999 -9999 -9999 -9999 -9999 -9999 -9999 -9999 -9999 -9999 -9999 -9999 -9999 -9999 -9999 -9999 -9999 -9999 -9999 -9999 -9999 -9999 -9999 -9999 -9999 -9999 -9999 -9999 -9999 -9999 -9999 -9999 -9999 -9999 -9999 -9999 -9999 -9999 -9999 -9999 -9999 -9999 -9999 -9999 -9999 -9999 -9999 -9999 -9999 -9999 -9999 -9999 -9999 -9999 -9999 -9999 -9999 -9999 -9999 -9999 -9999 -9999 -9999 -9999 -9999 -9999 -9999 -9999 -9999 -9999 -9999 -9999 -9999 -9999 -9999 -9999 -9999 -9999 -9999 -9999 -9999 -9999 -9999 -9999 -9999 -9999 -9999 -9999 -9999 -9999 -9999 -9999 -9999 -9999 -9999 -9999 -9999 -9999 -9999 -9999 -9999 -9999 -9999 -9999 -9999 -9999 -9999 -9999 -9999 -9999 -9999 -9999 -9999 -9999 -9999 -9999 -9999 -9999 -9999 -9999 -9999 -9999 -9999 -9999 -9999 -9999 -9999 -9999 -9999 -9999
-9999 -9999 -9999 -9999 -9999 -9999 -9999 -9999 -9999 -9999 -9999 -9999 -9999 -9999 -9999 -9999 -9999 -9999 -9999 -9999 -9999 -9999 -9999 -9999 -9999 -9999 -9999 -9999 -9999 -9999 -9999 -9999 -9999 -9999 -9999 -9999 -9999 -9999 -9999 -9999 -9999 -9999 -9999 -9999 -9999 -9999 -9999 -9999 -9999 -9999 -9999 -9999 -9999 -9999 -9999 -9999 -9999 -9999 -9999 -9999 -9999 -9999 -9999 -9999 -9999 -9999 -9999 -9999 -9999 -9999 -9999 -9999 -9999 -9999 -9999 -9999 -9999 -9999 -9999 -9999 -9999 -9999 -9999 -9999 -9999 -9999 -9999 -9999 -9999 -9999 -9999 -9999 -9999 -9999 -9999 -9999 -9999 -9999 -9999 -9999 -9999 -9999 -9999 -9999 -9999 -9999 -9999 -9999 -9999 -9999 -9999 -9999 -9999 -9999 -9999 -9999 -9999 -9999 -9999 -9999 -9999 -9999 -9999 -9999 -9999 -9999 -9999 -9999 -9999 -9999 -9999 -9999 -9999 -9999 -9999 -9999 -9999 -9999 -9999 -9999 -9999 -9999 -9999 -9999 -9999 -9999 -9999 -9999 -9999 -9999 -9999 -9999 -9999 -9999 -9999 -9999 -9999 -9999 -9999 -9999 -9999 -9999 -9999 -9999 -9999 -9999 -9999 -9999 -9999 -9999 -9999 -9999 -9999 -9999 -9999 -9999 -9999 -9999 -9999 -9999 -9999 -9999 -9999 -9999 -9999 -9999 -9999 -9999 -9999 -9999 -9999 -9999 -9999 -9999 -9999 -9999 -9999 -9999 -9999 -9999 -9999 -9999 -9999 -9999 -9999 -9999 -9999 -9999 -9999 -9999 -9999 -9999 -9999 -9999 -9999
-9999 -9999 -9999 -9999 -9999 -9999 -9999 -9999 -9999 -9999 -9999 -9999 -9999 -9999 -9999 -9999 -9999 -9999 -9999 -9999 -9999 -9999 -9999 -9999 -9999 -9999 -9999 -9999 -9999 -9999 -9999 -9999 -9999 -9999 -9999 -9999 -9999 -9999 -9999 -9999 -9999 -9999 -9999 -9999 -9999 -9999 -9999 -9999 -9999 -9999 -9999 -9999 -9999 -9999 -9999 -9999 -9999 -9999 -9999 -9999 -9999 -9999 -9999 -9999 -9999 -9999 -9999 -9999 -9999 -9999 -9999 -9999 -9999 -9999 -9999 -9999 -9999 -9999 -9999 -9999 -9999 -9999 -9999 -9999 -9999 -9999 -9999 -9999 -9999 -9999 -9999 -9999 -9999 -9999 -9999 -9999 -9999 -9999 -9999 -9999 -9999 -9999 -9999 -9999 -9999 -9999 -9999 -9999 -9999 -9999 -9999 -9999 -9999 -9999 -9999 -9999 -9999 -9999 -9999 -9999 -9999 -9999 -9999 -9999 -9999 -9999 -9999 -9999 -9999 -9999 -9999 -9999 -9999 -9999 -9999 -9999 -9999 -9999 -9999 -9999 -9999 -9999 -9999 -9999 -9999 -9999 -9999 -9999 -9999 -9999 -9999 -9999 -9999 -9999 -9999 -9999 -9999 -9999 -9999 -9999 -9999 -9999 -9999 -9999 -9999 -9999 -9999 -9999 -9999 -9999 -9999 -9999 -9999 -9999 -9999 -9999 -9999 -9999 -9999 -9999 -9999 -9999 -9999 -9999 -9999 -9999 -9999 -9999 -9999 -9999 -9999 -9999 -9999 -9999 -9999 -9999 -9999 -9999 -9999 -9999 -9999 -9999 -9999 -9999 -9999 -9999 -9999 -9999 -9999 -9999 -9999 -9999 -9999 -9999 -9999
-9999 -9999 -9999 -9999 -9999 -9999 -9999 -9999 -9999 -9999 -9999 -9999 -9999 -9999 -9999 -9999 -9999 -9999 -9999 -9999 -9999 -9999 -9999 -9999 -9999 -9999 -9999 -9999 -9999 -9999 -9999 -9999 -9999 -9999 -9999 -9999 -9999 -9999 -9999 -9999 -9999 -9999 -9999 -9999 -9999 -9999 -9999 -9999 -9999 -9999 -9999 -9999 -9999 -9999 -9999 -9999 -9999 -9999 -9999 -9999 -9999 -9999 -9999 -9999 -9999 -9999 -9999 -9999 -9999 -9999 -9999 -9999 -9999 -9999 -9999 -9999 -9999 -9999 -9999 -9999 -9999 -9999 -9999 -9999 -9999 -9999 -9999 -9999 -9999 -9999 -9999 -9999 -9999 -9999 -9999 -9999 -9999 -9999 -9999 -9999 -9999 -9999 -9999 -9999 -9999 -9999 -9999 -9999 -9999 -9999 -9999 -9999 -9999 -9999 -9999 -9999 -9999 -9999 -9999 -9999 -9999 -9999 -9999 -9999 -9999 -9999 -9999 -9999 -9999 -9999 -9999 -9999 -9999 -9999 -9999 -9999 -9999 -9999 -9999 -9999 -9999 -9999 -9999 -9999 -9999 -9999 -9999 -9999 -9999 -9999 -9999 -9999 -9999 -9999 -9999 -9999 -9999 -9999 -9999 -9999 -9999 -9999 -9999 -9999 -9999 -9999 -9999 -9999 -9999 -9999 -9999 -9999 -9999 -9999 -9999 -9999 -9999 -9999 -9999 -9999 -9999 -9999 -9999 -9999 -9999 -9999 -9999 -9999 -9999 -9999 -9999 -9999 -9999 -9999 -9999 -9999 -9999 -9999 -9999 -9999 -9999 -9999 -9999 -9999 -9999 -9999 -9999 -9999 -9999 -9999 -9999 -9999 -9999 -9999 -9999
-9999 -9999 -9999 -9999 -9999 -9999 -9999 -9999 -9999 -9999 -9999 -9999 -9999 -9999 -9999 -9999 -9999 -9999 -9999 -9999 -9999 -9999 -9999 -9999 -9999 -9999 -9999 -9999 -9999 -9999 -9999 -9999 -9999 -9999 -9999 -9999 -9999 -9999 -9999 -9999 -9999 -9999 -9999 -9999 -9999 -9999 -9999 -9999 -9999 -9999 -9999 -9999 -9999 -9999 -9999 -9999 -9999 -9999 -9999 -9999 -9999 -9999 -9999 -9999 -9999 -9999 -9999 -9999 -9999 -9999 -9999 -9999 -9999 -9999 -9999 -9999 -9999 -9999 -9999 -9999 -9999 -9999 -9999 -9999 -9999 -9999 -9999 -9999 -9999 -9999 -9999 -9999 -9999 -9999 -9999 -9999 -9999 -9999 -9999 -9999 -9999 -9999 -9999 -9999 -9999 -9999 -9999 -9999 -9999 -9999 -9999 -9999 -9999 -9999 -9999 -9999 -9999 -9999 -9999 -9999 -9999 -9999 -9999 -9999 -9999 -9999 -9999 -9999 -9999 -9999 -9999 -9999 -9999 -9999 -9999 -9999 -9999 -9999 -9999 -9999 -9999 -9999 -9999 -9999 -9999 -9999 -9999 -9999 -9999 -9999 -9999 -9999 -9999 -9999 -9999 -9999 -9999 -9999 -9999 -9999 -9999 -9999 -9999 -9999 -9999 -9999 -9999 -9999 -9999 -9999 -9999 -9999 -9999 -9999 -9999 -9999 -9999 -9999 -9999 -9999 -9999 -9999 -9999 -9999 -9999 -9999 -9999 -9999 -9999 -9999 -9999 -9999 -9999 -9999 -9999 -9999 -9999 -9999 -9999 -9999 -9999 -9999 -9999 -9999 -9999 -9999 -9999 -9999 -9999 -9999 -9999 -9999 -9999 -9999 -9999
-9999 -9999 -9999 -9999 -9999 -9999 -9999 -9999 -9999 -9999 -9999 -9999 -9999 -9999 -9999 -9999 -9999 -9999 -9999 -9999 -9999 -9999 -9999 -9999 -9999 -9999 -9999 -9999 -9999 -9999 -9999 -9999 -9999 -9999 -9999 -9999 -9999 -9999 -9999 -9999 -9999 -9999 -9999 -9999 -9999 -9999 -9999 -9999 -9999 -9999 -9999 -9999 -9999 -9999 -9999 -9999 -9999 -9999 -9999 -9999 -9999 -9999 -9999 -9999 -9999 -9999 -9999 -9999 -9999 -9999 -9999 -9999 -9999 -9999 -9999 -9999 -9999 -9999 -9999 -9999 -9999 -9999 -9999 -9999 -9999 -9999 -9999 -9999 -9999 -9999 -9999 -9999 -9999 -9999 -9999 -9999 -9999 -9999 -9999 -9999 -9999 -9999 -9999 -9999 -9999 -9999 -9999 -9999 -9999 -9999 -9999 -9999 -9999 -9999 -9999 -9999 -9999 -9999 -9999 -9999 -9999 -9999 -9999 -9999 -9999 -9999 -9999 -9999 -9999 -9999 -9999 -9999 -9999 -9999 -9999 -9999 -9999 -9999 -9999 -9999 -9999 -9999 -9999 -9999 -9999 -9999 -9999 -9999 -9999 -9999 -9999 -9999 -9999 -9999 -9999 -9999 -9999 -9999 -9999 -9999 -9999 -9999 -9999 -9999 -9999 -9999 -9999 -9999 -9999 -9999 -9999 -9999 -9999 -9999 -9999 -9999 -9999 -9999 -9999 -9999 -9999 -9999 -9999 -9999 -9999 -9999 -9999 -9999 -9999 -9999 -9999 -9999 -9999 -9999 -9999 -9999 -9999 -9999 -9999 -9999 -9999 -9999 -9999 -9999 -9999 -9999 -9999 -9999 -9999 -9999 -9999 -9999 -9999 -9999 -9999
-9999 -9999 -9999 -9999 -9999 -9999 -9999 -9999 -9999 -9999 -9999 -9999 -9999 -9999 -9999 -9999 -9999 -9999 -9999 -9999 -9999 -9999 -9999 -9999 -9999 -9999 -9999 -9999 -9999 -9999 -9999 -9999 -9999 -9999 -9999 -9999 -9999 -9999 -9999 -9999 -9999 -9999 -9999 -9999 -9999 -9999 -9999 -9999 -9999 -9999 -9999 -9999 -9999 -9999 -9999 -9999 -9999 -9999 -9999 -9999 -9999 -9999 -9999 -9999 -9999 -9999 -9999 -9999 -9999 -9999 -9999 -9999 -9999 -9999 -9999 -9999 -9999 -9999 -9999 -9999 -9999 -9999 -9999 -9999 -9999 -9999 -9999 -9999 -9999 -9999 -9999 -9999 -9999 -9999 -9999 -9999 -9999 -9999 -9999 -9999 -9999 -9999 -9999 -9999 -9999 -9999 -9999 -9999 -9999 -9999 -9999 -9999 -9999 -9999 -9999 -9999 -9999 -9999 -9999 -9999 -9999 -9999 -9999 -9999 -9999 -9999 -9999 -9999 -9999 -9999 -9999 -9999 -9999 -9999 -9999 -9999 -9999 -9999 -9999 -9999 -9999 -9999 -9999 -9999 -9999 -9999 -9999 -9999 -9999 -9999 -9999 -9999 -9999 -9999 -9999 -9999 -9999 -9999 -9999 -9999 -9999 -9999 -9999 -9999 -9999 -9999 -9999 -9999 -9999 -9999 -9999 -9999 -9999 -9999 -9999 -9999 -9999 -9999 -9999 -9999 -9999 -9999 -9999 -9999 -9999 -9999 -9999 -9999 -9999 -9999 -9999 -9999 -9999 -9999 -9999 -9999 -9999 -9999 -9999 -9999 -9999 -9999 -9999 -9999 -9999 -9999 -9999 -9999 -9999 -9999 -9999 -9999 -9999 -9999 -9999
-9999 -9999 -9999 -9999 -9999 -9999 -9999 -9999 -9999 -9999 -9999 -9999 -9999 -9999 -9999 -9999 -9999 -9999 -9999 -9999 -9999 -9999 -9999 -9999 -9999 -9999 -9999 -9999 -9999 -9999 -9999 -9999 -9999 -9999 -9999 -9999 -9999 -9999 -9999 -9999 -9999 -9999 -9999 -9999 -9999 -9999 -9999 -9999 -9999 -9999 -9999 -9999 -9999 -9999 -9999 -9999 -9999 -9999 -9999 -9999 -9999 -9999 -9999 -9999 -9999 -9999 -9999 -9999 -9999 -9999 -9999 -9999 -9999 -9999 -9999 -9999 -9999 -9999 -9999 -9999 -9999 -9999 -9999 -9999 -9999 -9999 -9999 -9999 -9999 -9999 -9999 -9999 -9999 -9999 -9999 -9999 -9999 -9999 -9999 -9999 -9999 -9999 -9999 -9999 -9999 -9999 -9999 -9999 -9999 -9999 -9999 -9999 -9999 -9999 -9999 -9999 -9999 -9999 -9999 -9999 -9999 -9999 -9999 -9999 -9999 -9999 -9999 -9999 -9999 -9999 -9999 -9999 -9999 -9999 -9999 -9999 -9999 -9999 -9999 -9999 -9999 -9999 -9999 -9999 -9999 -9999 -9999 -9999 -9999 -9999 -9999 -9999 -9999 -9999 -9999 -9999 -9999 -9999 -9999 -9999 -9999 -9999 -9999 -9999 -9999 -9999 -9999 -9999 -9999 -9999 -9999 -9999 -9999 -9999 -9999 -9999 -9999 -9999 -9999 -9999 -9999 -9999 -9999 -9999 -9999 -9999 -9999 -9999 -9999 -9999 -9999 -9999 -9999 -9999 -9999 -9999 -9999 -9999 -9999 -9999 -9999 -9999 -9999 -9999 -9999 -9999 -9999 -9999 -9999 -9999 -9999 -9999 -9999 -9999 -9999
-9999 -9999 -9999 -9999 -9999 -9999 -9999 -9999 -9999 -9999 -9999 -9999 -9999 -9999 -9999 -9999 -9999 -9999 -9999 -9999 -9999 -9999 -9999 -9999 -9999 -9999 -9999 -9999 -9999 -9999 -9999 -9999 -9999 -9999 -9999 -9999 -9999 -9999 -9999 -9999 -9999 -9999 -9999 -9999 -9999 -9999 -9999 -9999 -9999 -9999 -9999 -9999 -9999 -9999 -9999 -9999 -9999 -9999 -9999 -9999 -9999 -9999 -9999 -9999 -9999 -9999 -9999 -9999 -9999 -9999 -9999 -9999 -9999 -9999 -9999 -9999 -9999 -9999 -9999 -9999 -9999 -9999 -9999 -9999 -9999 -9999 -9999 -9999 -9999 -9999 -9999 -9999 -9999 -9999 -9999 -9999 -9999 -9999 -9999 -9999 -9999 -9999 -9999 -9999 -9999 -9999 -9999 -9999 -9999 -9999 -9999 -9999 -9999 -9999 -9999 -9999 -9999 -9999 -9999 -9999 -9999 -9999 -9999 -9999 -9999 -9999 -9999 -9999 -9999 -9999 -9999 -9999 -9999 -9999 -9999 -9999 -9999 -9999 -9999 -9999 -9999 -9999 -9999 -9999 -9999 -9999 -9999 -9999 -9999 -9999 -9999 -9999 -9999 -9999 -9999 -9999 -9999 -9999 -9999 -9999 -9999 -9999 -9999 -9999 -9999 -9999 -9999 -9999 -9999 -9999 -9999 -9999 -9999 -9999 -9999 -9999 -9999 -9999 -9999 -9999 -9999 -9999 -9999 -9999 -9999 -9999 -9999 -9999 -9999 -9999 -9999 -9999 -9999 -9999 -9999 -9999 -9999 -9999 -9999 -9999 -9999 -9999 -9999 -9999 -9999 -9999 -9999 -9999 -9999 -9999 -9999 -9999 -9999 -9999 -9999
-9999 -9999 -9999 -9999 -9999 -9999 -9999 -9999 -9999 -9999 -9999 -9999 -9999 -9999 -9999 -9999 -9999 -9999 -9999 -9999 -9999 -9999 -9999 -9999 -9999 -9999 -9999 -9999 -9999 -9999 -9999 -9999 -9999 -9999 -9999 -9999 -9999 -9999 -9999 -9999 -9999 -9999 -9999 -9999 -9999 -9999 -9999 -9999 -9999 -9999 -9999 -9999 -9999 -9999 -9999 -9999 -9999 -9999 -9999 -9999 -9999 -9999 -9999 -9999 -9999 -9999 -9999 -9999 -9999 -9999 -9999 -9999 -9999 -9999 -9999 -9999 -9999 -9999 -9999 -9999 -9999 -9999 -9999 -9999 -9999 -9999 -9999 -9999 -9999 -9999 -9999 -9999 -9999 -9999 -9999 -9999 -9999 -9999 -9999 -9999 -9999 -9999 -9999 -9999 -9999 -9999 -9999 -9999 -9999 -9999 -9999 -9999 -9999 -9999 -9999 -9999 -9999 -9999 -9999 -9999 -9999 -9999 -9999 -9999 -9999 -9999 -9999 -9999 -9999 -9999 -9999 -9999 -9999 -9999 -9999 -9999 -9999 -9999 -9999 -9999 -9999 -9999 -9999 -9999 -9999 -9999 -9999 -9999 -9999 -9999 -9999 -9999 -9999 -9999 -9999 -9999 -9999 -9999 -9999 -9999 -9999 -9999 -9999 -9999 -9999 -9999 -9999 -9999 -9999 -9999 -9999 -9999 -9999 -9999 -9999 -9999 -9999 -9999 -9999 -9999 -9999 -9999 -9999 -9999 -9999 -9999 -9999 -9999 -9999 -9999 -9999 -9999 -9999 -9999 -9999 -9999 -9999 -9999 -9999 -9999 -9999 -9999 -9999 -9999 -9999 -9999 -9999 -9999 -9999 -9999 -9999 -9999 -9999 -9999 -9999
-9999 -9999 -9999 -9999 -9999 -9999 -9999 -9999 -9999 -9999 -9999 -9999 -9999 -9999 -9999 -9999 -9999 -9999 -9999 -9999 -9999 -9999 -9999 -9999 -9999 -9999 -9999 -9999 -9999 -9999 -9999 -9999 -9999 -9999 -9999 -9999 -9999 -9999 -9999 -9999 -9999 -9999 -9999 -9999 -9999 -9999 -9999 -9999 -9999 -9999 -9999 -9999 -9999 -9999 -9999 -9999 -9999 -9999 -9999 -9999 -9999 -9999 -9999 -9999 -9999 -9999 -9999 -9999 -9999 -9999 -9999 -9999 -9999 -9999 -9999 -9999 -9999 -9999 -9999 -9999 -9999 -9999 -9999 -9999 -9999 -9999 -9999 -9999 -9999 -9999 -9999 -9999 -9999 -9999 -9999 -9999 -9999 -9999 -9999 -9999 -9999 -9999 -9999 -9999 -9999 -9999 -9999 -9999 -9999 -9999 -9999 -9999 -9999 -9999 -9999 -9999 -9999 -9999 -9999 -9999 -9999 -9999 -9999 -9999 -9999 -9999 -9999 -9999 -9999 -9999 -9999 -9999 -9999 -9999 -9999 -9999 -9999 -9999 -9999 -9999 -9999 -9999 -9999 -9999 -9999 -9999 -9999 -9999 -9999 -9999 -9999 -9999 -9999 -9999 -9999 -9999 -9999 -9999 -9999 -9999 -9999 -9999 -9999 -9999 -9999 -9999 -9999 -9999 -9999 -9999 -9999 -9999 -9999 -9999 -9999 -9999 -9999 -9999 -9999 -9999 -9999 -9999 -9999 -9999 -9999 -9999 -9999 -9999 -9999 -9999 -9999 -9999 -9999 -9999 -9999 -9999 -9999 -9999 -9999 -9999 -9999 -9999 -9999 -9999 -9999 -9999 -9999 -9999 -9999 -9999 -9999 -9999 -9999 -9999 -9999
-9999 -9999 -9999 -9999 -9999 -9999 -9999 -9999 -9999 -9999 -9999 -9999 -9999 -9999 -9999 -9999 -9999 -9999 -9999 -9999 -9999 -9999 -9999 -9999 -9999 -9999 -9999 -9999 -9999 -9999 -9999 -9999 -9999 -9999 -9999 -9999 -9999 -9999 -9999 -9999 -9999 -9999 -9999 -9999 -9999 -9999 -9999 -9999 -9999 -9999 -9999 -9999 -9999 -9999 -9999 -9999 -9999 -9999 -9999 -9999 -9999 -9999 -9999 -9999 -9999 -9999 -9999 -9999 -9999 -9999 -9999 -9999 -9999 -9999 -9999 -9999 -9999 -9999 -9999 -9999 -9999 -9999 -9999 -9999 -9999 -9999 -9999 -9999 -9999 -9999 -9999 -9999 -9999 -9999 -9999 -9999 -9999 -9999 -9999 -9999 -9999 -9999 -9999 -9999 -9999 -9999 -9999 -9999 -9999 -9999 -9999 -9999 -9999 -9999 -9999 -9999 -9999 -9999 -9999 -9999 -9999 -9999 -9999 -9999 -9999 -9999 -9999 -9999 -9999 -9999 -9999 -9999 -9999 -9999 -9999 -9999 -9999 -9999 -9999 -9999 -9999 -9999 -9999 -9999 -9999 -9999 -9999 -9999 -9999 -9999 -9999 -9999 -9999 -9999 -9999 -9999 -9999 -9999 -9999 -9999 -9999 -9999 -9999 -9999 -9999 -9999 -9999 -9999 -9999 -9999 -9999 -9999 -9999 -9999 -9999 -9999 -9999 -9999 -9999 -9999 -9999 -9999 -9999 -9999 -9999 -9999 -9999 -9999 -9999 -9999 -9999 -9999 -9999 -9999 -9999 -9999 -9999 -9999 -9999 -9999 -9999 -9999 -9999 -9999 -9999 -9999 -9999 -9999 -9999 -9999 -9999 -9999 -9999 -9999 -9999
-9999 -9999 -9999 -9999 -9999 -9999 -9999 -9999 -9999 -9999 -9999 -9999 -9999 -9999 -9999 -9999 -9999 -9999 -9999 -9999 -9999 -9999 -9999 -9999 -9999 -9999 -9999 -9999 -9999 -9999 -9999 -9999 -9999 -9999 -9999 -9999 -9999 -9999 -9999 -9999 -9999 -9999 -9999 -9999 -9999 -9999 -9999 -9999 -9999 -9999 -9999 -9999 -9999 -9999 -9999 -9999 -9999 -9999 -9999 -9999 -9999 -9999 -9999 -9999 -9999 -9999 -9999 -9999 -9999 -9999 -9999 -9999 -9999 -9999 -9999 -9999 -9999 -9999 -9999 -9999 -9999 -9999 -9999 -9999 -9999 -9999 -9999 -9999 -9999 -9999 -9999 -9999 -9999 -9999 -9999 -9999 -9999 -9999 -9999 -9999 -9999 -9999 -9999 -9999 -9999 -9999 -9999 -9999 -9999 -9999 -9999 -9999 -9999 -9999 -9999 -9999 -9999 -9999 -9999 -9999 -9999 -9999 -9999 -9999 -9999 -9999 -9999 -9999 -9999 -9999 -9999 -9999 -9999 -9999 -9999 -9999 -9999 -9999 -9999 -9999 -9999 -9999 -9999 -9999 -9999 -9999 -9999 -9999 -9999 -9999 -9999 -9999 -9999 -9999 -9999 -9999 -9999 -9999 -9999 -9999 -9999 -9999 -9999 -9999 -9999 -9999 -9999 -9999 -9999 -9999 -9999 -9999 -9999 -9999 -9999 -9999 -9999 -9999 -9999 -9999 -9999 -9999 -9999 -9999 -9999 -9999 -9999 -9999 -9999 -9999 -9999 -9999 -9999 -9999 -9999 -9999 -9999 -9999 -9999 -9999 -9999 -9999 -9999 -9999 -9999 -9999 -9999 -9999 -9999 -9999 -9999 -9999 -9999 -9999 -9999
-9999 -9999 -9999 -9999 -9999 -9999 -9999 -9999 -9999 -9999 -9999 -9999 -9999 -9999 -9999 -9999 -9999 -9999 -9999 -9999 -9999 -9999 -9999 -9999 -9999 -9999 -9999 -9999 -9999 -9999 -9999 -9999 -9999 -9999 -9999 -9999 -9999 -9999 -9999 -9999 -9999 -9999 -9999 -9999 -9999 -9999 -9999 -9999 -9999 -9999 -9999 -9999 -9999 -9999 -9999 -9999 -9999 -9999 -9999 -9999 -9999 -9999 -9999 -9999 -9999 -9999 -9999 -9999 -9999 -9999 -9999 -9999 -9999 -9999 -9999 -9999 -9999 -9999 -9999 -9999 -9999 -9999 -9999 -9999 -9999 -9999 -9999 -9999 -9999 -9999 -9999 -9999 -9999 -9999 -9999 -9999 -9999 -9999 -9999 -9999 -9999 -9999 -9999 -9999 -9999 -9999 -9999 -9999 -9999 -9999 -9999 -9999 -9999 -9999 -9999 -9999 -9999 -9999 -9999 -9999 -9999 -9999 -9999 -9999 -9999 -9999 -9999 -9999 -9999 -9999 -9999 -9999 -9999 -9999 -9999 -9999 -9999 -9999 -9999 -9999 -9999 -9999 -9999 -9999 -9999 -9999 -9999 -9999 -9999 -9999 -9999 -9999 -9999 -9999 -9999 -9999 -9999 -9999 -9999 -9999 -9999 -9999 -9999 -9999 -9999 -9999 -9999 -9999 -9999 -9999 -9999 -9999 -9999 -9999 -9999 -9999 -9999 -9999 -9999 -9999 -9999 -9999 -9999 -9999 -9999 -9999 -9999 -9999 -9999 -9999 -9999 -9999 -9999 -9999 -9999 -9999 -9999 -9999 -9999 -9999 -9999 -9999 -9999 -9999 -9999 -9999 -9999 -9999 -9999 -9999 -9999 -9999 -9999 -9999 -9999
-9999 -9999 -9999 -9999 -9999 -9999 -9999 -9999 -9999 -9999 -9999 -9999 -9999 -9999 -9999 -9999 -9999 -9999 -9999 -9999 -9999 -9999 -9999 -9999 -9999 -9999 -9999 -9999 -9999 -9999 -9999 -9999 -9999 -9999 -9999 -9999 -9999 -9999 -9999 -9999 -9999 -9999 -9999 -9999 -9999 -9999 -9999 -9999 -9999 -9999 -9999 -9999 -9999 -9999 -9999 -9999 -9999 -9999 -9999 -9999 -9999 -9999 -9999 -9999 -9999 -9999 -9999 -9999 -9999 -9999 -9999 -9999 -9999 -9999 -9999 -9999 -9999 -9999 -9999 -9999 -9999 -9999 -9999 -9999 -9999 -9999 -9999 -9999 -9999 -9999 -9999 -9999 -9999 -9999 -9999 -9999 -9999 -9999 -9999 -9999 -9999 -9999 -9999 -9999 -9999 -9999 -9999 -9999 -9999 -9999 -9999 -9999 -9999 -9999 -9999 -9999 -9999 -9999 -9999 -9999 -9999 -9999 -9999 -9999 -9999 -9999 -9999 -9999 -9999 -9999 -9999 -9999 -9999 -9999 -9999 -9999 -9999 -9999 -9999 -9999 -9999 -9999 -9999 -9999 -9999 -9999 -9999 -9999 -9999 -9999 -9999 -9999 -9999 -9999 -9999 -9999 -9999 -9999 -9999 -9999 -9999 -9999 -9999 -9999 -9999 -9999 -9999 -9999 -9999 -9999 -9999 -9999 -9999 -9999 -9999 -9999 -9999 -9999 -9999 -9999 -9999 -9999 -9999 -9999 -9999 -9999 -9999 -9999 -9999 -9999 -9999 -9999 -9999 -9999 -9999 -9999 -9999 -9999 -9999 -9999 -9999 -9999 -9999 -9999 -9999 -9999 -9999 -9999 -9999 -9999 -9999 -9999 -9999 -9999 -9999
-9999 -9999 -9999 -9999 -9999 -9999 -9999 -9999 -9999 -9999 -9999 -9999 -9999 -9999 -9999 -9999 -9999 -9999 -9999 -9999 -9999 -9999 -9999 -9999 -9999 -9999 -9999 -9999 -9999 -9999 -9999 -9999 -9999 -9999 -9999 -9999 -9999 -9999 -9999 -9999 -9999 -9999 -9999 -9999 -9999 -9999 -9999 -9999 -9999 -9999 -9999 -9999 -9999 -9999 -9999 -9999 -9999 -9999 -9999 -9999 -9999 -9999 -9999 -9999 -9999 -9999 -9999 -9999 -9999 -9999 -9999 -9999 -9999 -9999 -9999 -9999 -9999 -9999 -9999 -9999 -9999 -9999 -9999 -9999 -9999 -9999 -9999 -9999 -9999 -9999 -9999 -9999 -9999 -9999 -9999 -9999 -9999 -9999 -9999 -9999 -9999 -9999 -9999 -9999 -9999 -9999 -9999 -9999 -9999 -9999 -9999 -9999 -9999 -9999 -9999 -9999 -9999 -9999 -9999 -9999 -9999 -9999 -9999 -9999 -9999 -9999 -9999 -9999 -9999 -9999 -9999 -9999 -9999 -9999 -9999 -9999 -9999 -9999 -9999 -9999 -9999 -9999 -9999 -9999 -9999 -9999 -9999 -9999 -9999 -9999 -9999 -9999 -9999 -9999 -9999 -9999 -9999 -9999 -9999 -9999 -9999 -9999 -9999 -9999 -9999 -9999 -9999 -9999 -9999 -9999 -9999 -9999 -9999 -9999 -9999 -9999 -9999 -9999 -9999 -9999 -9999 -9999 -9999 -9999 -9999 -9999 -9999 -9999 -9999 -9999 -9999 -9999 -9999 -9999 -9999 -9999 -9999 -9999 -9999 -9999 -9999 -9999 -9999 -9999 -9999 -9999 -9999 -9999 -9999 -9999 -9999 -9999 -9999 -9999 -9999
-9999 -9999 -9999 -9999 -9999 -9999 -9999 -9999 -9999 -9999 -9999 -9999 -9999 -9999 -9999 -9999 -9999 -9999 -9999 -9999 -9999 -9999 -9999 -9999 -9999 -9999 -9999 -9999 -9999 -9999 -9999 -9999 -9999 -9999 -9999 -9999 -9999 -9999 -9999 -9999 -9999 -9999 -9999 -9999 -9999 -9999 -9999 -9999 -9999 -9999 -9999 -9999 -9999 -9999 -9999 -9999 -9999 -9999 -9999 -9999 -9999 -9999 -9999 -9999 -9999 -9999 -9999 -9999 -9999 -9999 -9999 -9999 -9999 -9999 -9999 -9999 -9999 -9999 -9999 -9999 -9999 -9999 -9999 -9999 -9999 -9999 -9999 -9999 -9999 -9999 -9999 -9999 -9999 -9999 -9999 -9999 -9999 -9999 -9999 -9999 -9999 -9999 -9999 -9999 -9999 -9999 -9999 -9999 -9999 -9999 -9999 -9999 -9999 -9999 -9999 -9999 -9999 -9999 -9999 -9999 -9999 -9999 -9999 -9999 -9999 -9999 -9999 -9999 -9999 -9999 -9999 -9999 -9999 -9999 -9999 -9999 -9999 -9999 -9999 -9999 -9999 -9999 -9999 -9999 -9999 -9999 -9999 -9999 -9999 -9999 -9999 -9999 -9999 -9999 -9999 -9999 -9999 -9999 -9999 -9999 -9999 -9999 -9999 -9999 -9999 -9999 -9999 -9999 -9999 -9999 -9999 -9999 -9999 -9999 -9999 -9999 -9999 -9999 -9999 -9999 -9999 -9999 -9999 -9999 -9999 -9999 -9999 -9999 -9999 -9999 -9999 -9999 -9999 -9999 -9999 -9999 -9999 -9999 -9999 -9999 -9999 -9999 -9999 -9999 -9999 -9999 -9999 -9999 -9999 -9999 -9999 -9999 -9999 -9999 -9999
-9999 -9999 -9999 -9999 -9999 -9999 -9999 -9999 -9999 -9999 -9999 -9999 -9999 -9999 -9999 -9999 -9999 -9999 -9999 -9999 -9999 -9999 -9999 -9999 -9999 -9999 -9999 -9999 -9999 -9999 -9999 -9999 -9999 -9999 -9999 -9999 -9999 -9999 -9999 -9999 -9999 -9999 -9999 -9999 -9999 -9999 -9999 -9999 -9999 -9999 -9999 -9999 -9999 -9999 -9999 -9999 -9999 -9999 -9999 -9999 -9999 -9999 -9999 -9999 -9999 -9999 -9999 -9999 -9999 -9999 -9999 -9999 -9999 -9999 -9999 -9999 -9999 -9999 -9999 -9999 -9999 -9999 -9999 -9999 -9999 -9999 -9999 -9999 -9999 -9999 -9999 -9999 -9999 -9999 -9999 -9999 -9999 -9999 -9999 -9999 -9999 -9999 -9999 -9999 -9999 -9999 -9999 -9999 -9999 -9999 -9999 -9999 -9999 -9999 -9999 -9999 -9999 -9999 -9999 -9999 -9999 -9999 -9999 -9999 -9999 -9999 -9999 -9999 -9999 -9999 -9999 -9999 -9999 -9999 -9999 -9999 -9999 -9999 -9999 -9999 -9999 -9999 -9999 -9999 -9999 -9999 -9999 -9999 -9999 -9999 -9999 -9999 -9999 -9999 -9999 -9999 -9999 -9999 -9999 -9999 -9999 -9999 -9999 -9999 -9999 -9999 -9999 -9999 -9999 -9999 -9999 -9999 -9999 -9999 -9999 -9999 -9999 -9999 -9999 -9999 -9999 -9999 -9999 -9999 -9999 -9999 -9999 -9999 -9999 -9999 -9999 -9999 -9999 -9999 -9999 -9999 -9999 -9999 -9999 -9999 -9999 -9999 -9999 -9999 -9999 -9999 -9999 -9999 -9999 -9999 -9999 -9999 -9999 -9999 -9999
-9999 -9999 -9999 -9999 -9999 -9999 -9999 -9999 -9999 -9999 -9999 -9999 -9999 -9999 -9999 -9999 -9999 -9999 -9999 -9999 -9999 -9999 -9999 -9999 -9999 -9999 -9999 -9999 -9999 -9999 -9999 -9999 -9999 -9999 -9999 -9999 -9999 -9999 -9999 -9999 -9999 -9999 -9999 -9999 -9999 -9999 -9999 -9999 -9999 -9999 -9999 -9999 -9999 -9999 -9999 -9999 -9999 -9999 -9999 -9999 -9999 -9999 -9999 -9999 -9999 -9999 -9999 -9999 -9999 -9999 -9999 -9999 -9999 -9999 -9999 -9999 -9999 -9999 -9999 -9999 -9999 -9999 -9999 -9999 -9999 -9999 -9999 -9999 -9999 -9999 -9999 -9999 -9999 -9999 -9999 -9999 -9999 -9999 -9999 -9999 -9999 -9999 -9999 -9999 -9999 -9999 -9999 -9999 -9999 -9999 -9999 -9999 -9999 -9999 -9999 -9999 -9999 -9999 -9999 -9999 -9999 -9999 -9999 -9999 -9999 -9999 -9999 -9999 -9999 -9999 -9999 -9999 -9999 -9999 -9999 -9999 -9999 -9999 -9999 -9999 -9999 -9999 -9999 -9999 -9999 -9999 -9999 -9999 -9999 -9999 -9999 -9999 -9999 -9999 -9999 -9999 -9999 -9999 -9999 -9999 -9999 -9999 -9999 -9999 -9999 -9999 -9999 -9999 -9999 -9999 -9999 -9999 -9999 -9999 -9999 -9999 -9999 -9999 -9999 -9999 -9999 -9999 -9999 -9999 -9999 -9999 -9999 -9999 -9999 -9999 -9999 -9999 -9999 -9999 -9999 -9999 -9999 -9999 -9999 -9999 -9999 -9999 -9999 -9999 -9999 -9999 -9999 -9999 -9999 -9999 -9999 -9999 -9999 -9999 -9999
-9999 -9999 -9999 -9999 -9999 -9999 -9999 -9999 -9999 -9999 -9999 -9999 -9999 -9999 -9999 -9999 -9999 -9999 -9999 -9999 -9999 -9999 -9999 -9999 -9999 -9999 -9999 -9999 -9999 -9999 -9999 -9999 -9999 -9999 -9999 -9999 -9999 -9999 -9999 -9999 -9999 -9999 -9999 -9999 -9999 -9999 -9999 -9999 -9999 -9999 -9999 -9999 -9999 -9999 -9999 -9999 -9999 -9999 -9999 -9999 -9999 -9999 -9999 -9999 -9999 -9999 -9999 -9999 -9999 -9999 -9999 -9999 -9999 -9999 -9999 -9999 -9999 -9999 -9999 -9999 -9999 -9999 -9999 -9999 -9999 -9999 -9999 -9999 -9999 -9999 -9999 -9999 -9999 -9999 -9999 -9999 -9999 -9999 -9999 -9999 -9999 -9999 -9999 -9999 -9999 -9999 -9999 -9999 -9999 -9999 -9999 -9999 -9999 -9999 -9999 -9999 -9999 -9999 -9999 -9999 -9999 -9999 -9999 -9999 -9999 -9999 -9999 -9999 -9999 -9999 -9999 -9999 -9999 -9999 -9999 -9999 -9999 -9999 -9999 -9999 -9999 -9999 -9999 -9999 -9999 -9999 -9999 -9999 -9999 -9999 -9999 -9999 -9999 -9999 -9999 -9999 -9999 -9999 -9999 -9999 -9999 -9999 -9999 -9999 -9999 -9999 -9999 -9999 -9999 -9999 -9999 -9999 -9999 -9999 -9999 -9999 -9999 -9999 -9999 -9999 -9999 -9999 -9999 -9999 -9999 -9999 -9999 -9999 -9999 -9999 -9999 -9999 -9999 -9999 -9999 -9999 -9999 -9999 -9999 -9999 -9999 -9999 -9999 -9999 -9999 -9999 -9999 -9999 -9999 -9999 -9999 -9999 -9999 -9999 -9999
-9999 -9999 -9999 -9999 -9999 -9999 -9999 -9999 -9999 -9999 -9999 -9999 -9999 -9999 -9999 -9999 -9999 -9999 -9999 -9999 -9999 -9999 -9999 -9999 -9999 -9999 -9999 -9999 -9999 -9999 -9999 -9999 -9999 -9999 -9999 -9999 -9999 -9999 -9999 -9999 -9999 -9999 -9999 -9999 -9999 -9999 -9999 -9999 -9999 -9999 -9999 -9999 -9999 -9999 -9999 -9999 -9999 -9999 -9999 -9999 -9999 -9999 -9999 -9999 -9999 -9999 -9999 -9999 -9999 -9999 -9999 -9999 -9999 -9999 -9999 -9999 -9999 -9999 -9999 -9999 -9999 -9999 -9999 -9999 -9999 -9999 -9999 -9999 -9999 -9999 -9999 -9999 -9999 -9999 -9999 -9999 -9999 -9999 -9999 -9999 -9999 -9999 -9999 -9999 -9999 -9999 -9999 -9999 -9999 -9999 -9999 -9999 -9999 -9999 -9999 -9999 -9999 -9999 -9999 -9999 -9999 -9999 -9999 -9999 -9999 -9999 -9999 -9999 -9999 -9999 -9999 -9999 -9999 -9999 -9999 -9999 -9999 -9999 -9999 -9999 -9999 -9999 -9999 -9999 -9999 -9999 -9999 -9999 -9999 -9999 -9999 -9999 -9999 -9999 -9999 -9999 -9999 -9999 -9999 -9999 -9999 -9999 -9999 -9999 -9999 -9999 -9999 -9999 -9999 -9999 -9999 -9999 -9999 -9999 -9999 -9999 -9999 -9999 -9999 -9999 -9999 -9999 -9999 -9999 -9999 -9999 -9999 -9999 -9999 -9999 -9999 -9999 -9999 -9999 -9999 -9999 -9999 -9999 -9999 -9999 -9999 -9999 -9999 -9999 -9999 -9999 -9999 -9999 -9999 -9999 -9999 -9999 -9999 -9999 -9999
-9999 -9999 -9999 -9999 -9999 -9999 -9999 -9999 -9999 -9999 -9999 -9999 -9999 -9999 -9999 -9999 -9999 -9999 -9999 -9999 -9999 -9999 -9999 -9999 -9999 -9999 -9999 -9999 -9999 -9999 -9999 -9999 -9999 -9999 -9999 -9999 -9999 -9999 -9999 -9999 -9999 -9999 -9999 -9999 -9999 -9999 -9999 -9999 -9999 -9999 -9999 -9999 -9999 -9999 -9999 -9999 -9999 -9999 -9999 -9999 -9999 -9999 -9999 -9999 -9999 -9999 -9999 -9999 -9999 -9999 -9999 -9999 -9999 -9999 -9999 -9999 -9999 -9999 -9999 -9999 -9999 -9999 -9999 -9999 -9999 -9999 -9999 -9999 -9999 -9999 -9999 -9999 -9999 -9999 -9999 -9999 -9999 -9999 -9999 -9999 -9999 -9999 -9999 -9999 -9999 -9999 -9999 -9999 -9999 -9999 -9999 -9999 -9999 -9999 -9999 -9999 -9999 -9999 -9999 -9999 -9999 -9999 -9999 -9999 -9999 -9999 -9999 -9999 -9999 -9999 -9999 -9999 -9999 -9999 -9999 -9999 -9999 -9999 -9999 -9999 -9999 -9999 -9999 -9999 -9999 -9999 -9999 -9999 -9999 -9999 -9999 -9999 -9999 -9999 -9999 -9999 -9999 -9999 -9999 -9999 -9999 -9999 -9999 -9999 -9999 -9999 -9999 -9999 -9999 -9999 -9999 -9999 -9999 -9999 -9999 -9999 -9999 -9999 -9999 -9999 -9999 -9999 -9999 -9999 -9999 -9999 -9999 -9999 -9999 -9999 -9999 -9999 -9999 -9999 -9999 -9999 -9999 -9999 -9999 -9999 -9999 -9999 -9999 -9999 -9999 -9999 -9999 -9999 -9999 -9999 -9999 -9999 -9999 -9999 -9999
-9999 -9999 -9999 -9999 -9999 -9999 -9999 -9999 -9999 -9999 -9999 -9999 -9999 -9999 -9999 -9999 -9999 -9999 -9999 -9999 -9999 -9999 -9999 -9999 -9999 -9999 -9999 -9999 -9999 -9999 -9999 -9999 -9999 -9999 -9999 -9999 -9999 -9999 -9999 -9999 -9999 -9999 -9999 -9999 -9999 -9999 -9999 -9999 -9999 -9999 -9999 -9999 -9999 -9999 -9999 -9999 -9999 -9999 -9999 -9999 -9999 -9999 -9999 -9999 -9999 -9999 -9999 -9999 -9999 -9999 -9999 -9999 -9999 -9999 -9999 -9999 -9999 -9999 -9999 -9999 -9999 -9999 -9999 -9999 -9999 -9999 -9999 -9999 -9999 -9999 -9999 -9999 -9999 -9999 -9999 -9999 -9999 -9999 -9999 -9999 -9999 -9999 -9999 -9999 -9999 -9999 -9999 -9999 -9999 -9999 -9999 -9999 -9999 -9999 -9999 -9999 -9999 -9999 -9999 -9999 -9999 -9999 -9999 -9999 -9999 -9999 -9999 -9999 -9999 -9999 -9999 -9999 -9999 -9999 -9999 -9999 -9999 -9999 -9999 -9999 -9999 -9999 -9999 -9999 -9999 -9999 -9999 -9999 -9999 -9999 -9999 -9999 -9999 -9999 -9999 -9999 -9999 -9999 -9999 -9999 -9999 -9999 -9999 -9999 -9999 -9999 -9999 -9999 -9999 -9999 -9999 -9999 -9999 -9999 -9999 -9999 -9999 -9999 -9999 -9999 -9999 -9999 -9999 -9999 -9999 -9999 -9999 -9999 -9999 -9999 -9999 -9999 -9999 -9999 -9999 -9999 -9999 -9999 -9999 -9999 -9999 -9999 -9999 -9999 -9999 -9999 -9999 -9999 -9999 -9999 -9999 -9999 -9999 -9999 -9999
-9999 -9999 -9999 -9999 -9999 -9999 -9999 -9999 -9999 -9999 -9999 -9999 -9999 -9999 -9999 -9999 -9999 -9999 -9999 -9999 -9999 -9999 -9999 -9999 -9999 -9999 -9999 -9999 -9999 -9999 -9999 -9999 -9999 -9999 -9999 -9999 -9999 -9999 -9999 -9999 -9999 -9999 -9999 -9999 -9999 -9999 -9999 -9999 -9999 -9999 -9999 -9999 -9999 -9999 -9999 -9999 -9999 -9999 -9999 -9999 -9999 -9999 -9999 -9999 -9999 -9999 -9999 -9999 -9999 -9999 -9999 -9999 -9999 -9999 -9999 -9999 -9999 -9999 -9999 -9999 -9999 -9999 -9999 -9999 -9999 -9999 -9999 -9999 -9999 -9999 -9999 -9999 -9999 -9999 -9999 -9999 -9999 -9999 -9999 -9999 -9999 -9999 -9999 -9999 -9999 -9999 -9999 -9999 -9999 -9999 -9999 -9999 -9999 -9999 -9999 -9999 -9999 -9999 -9999 -9999 -9999 -9999 -9999 -9999 -9999 -9999 -9999 -9999 -9999 -9999 -9999 -9999 -9999 -9999 -9999 -9999 -9999 -9999 -9999 -9999 -9999 -9999 -9999 -9999 -9999 -9999 -9999 -9999 -9999 -9999 -9999 -9999 -9999 -9999 -9999 -9999 -9999 -9999 -9999 -9999 -9999 -9999 -9999 -9999 -9999 -9999 -9999 -9999 -9999 -9999 -9999 -9999 -9999 -9999 -9999 -9999 -9999 -9999 -9999 -9999 -9999 -9999 -9999 -9999 -9999 -9999 -9999 -9999 -9999 -9999 -9999 -9999 -9999 -9999 -9999 -9999 -9999 -9999 -9999 -9999 -9999 -9999 -9999 -9999 -9999 -9999 -9999 -9999 -9999 -9999 -9999 -9999 -9999 -9999 -9999
-9999 -9999 -9999 -9999 -9999 -9999 -9999 -9999 -9999 -9999 -9999 -9999 -9999 -9999 -9999 -9999 -9999 -9999 -9999 -9999 -9999 -9999 -9999 -9999 -9999 -9999 -9999 -9999 -9999 -9999 -9999 -9999 -9999 -9999 -9999 -9999 -9999 -9999 -9999 -9999 -9999 -9999 -9999 -9999 -9999 -9999 -9999 -9999 -9999 -9999 -9999 -9999 -9999 -9999 -9999 -9999 -9999 -9999 -9999 -9999 -9999 -9999 -9999 -9999 -9999 -9999 -9999 -9999 -9999 -9999 -9999 -9999 -9999 -9999 -9999 -9999 -9999 -9999 -9999 -9999 -9999 -9999 -9999 -9999 -9999 -9999 -9999 -9999 -9999 -9999 -9999 -9999 -9999 -9999 -9999 -9999 -9999 -9999 -9999 -9999 -9999 -9999 -9999 -9999 -9999 -9999 -9999 -9999 -9999 -9999 -9999 -9999 -9999 -9999 -9999 -9999 -9999 -9999 -9999 -9999 -9999 -9999 -9999 -9999 -9999 -9999 -9999 -9999 -9999 -9999 -9999 -9999 -9999 -9999 -9999 -9999 -9999 -9999 -9999 -9999 -9999 -9999 -9999 -9999 -9999 -9999 -9999 -9999 -9999 -9999 -9999 -9999 -9999 -9999 -9999 -9999 -9999 -9999 -9999 -9999 -9999 -9999 -9999 -9999 -9999 -9999 -9999 -9999 -9999 -9999 -9999 -9999 -9999 -9999 -9999 -9999 -9999 -9999 -9999 -9999 -9999 -9999 -9999 -9999 -9999 -9999 -9999 -9999 -9999 -9999 -9999 -9999 -9999 -9999 -9999 -9999 -9999 -9999 -9999 -9999 -9999 -9999 -9999 -9999 -9999 -9999 -9999 -9999 -9999 -9999 -9999 -9999 -9999 -9999 -9999
-9999 -9999 -9999 -9999 -9999 -9999 -9999 -9999 -9999 -9999 -9999 -9999 -9999 -9999 -9999 -9999 -9999 -9999 -9999 -9999 -9999 -9999 -9999 -9999 -9999 -9999 -9999 -9999 -9999 -9999 -9999 -9999 -9999 -9999 -9999 -9999 -9999 -9999 -9999 -9999 -9999 -9999 -9999 -9999 -9999 -9999 -9999 -9999 -9999 -9999 -9999 -9999 -9999 -9999 -9999 -9999 -9999 -9999 -9999 -9999 -9999 -9999 -9999 -9999 -9999 -9999 -9999 -9999 -9999 -9999 -9999 -9999 -9999 -9999 -9999 -9999 -9999 -9999 -9999 -9999 -9999 -9999 -9999 -9999 -9999 -9999 -9999 -9999 -9999 -9999 -9999 -9999 -9999 -9999 -9999 -9999 -9999 -9999 -9999 -9999 -9999 -9999 -9999 -9999 -9999 -9999 -9999 -9999 -9999 -9999 -9999 -9999 -9999 -9999 -9999 -9999 -9999 -9999 -9999 -9999 -9999 -9999 -9999 -9999 -9999 -9999 -9999 -9999 -9999 -9999 -9999 -9999 -9999 -9999 -9999 -9999 -9999 -9999 -9999 -9999 -9999 -9999 -9999 -9999 -9999 -9999 -9999 -9999 -9999 -9999 -9999 -9999 -9999 -9999 -9999 -9999 -9999 -9999 -9999 -9999 -9999 -9999 -9999 -9999 -9999 -9999 -9999 -9999 -9999 -9999 -9999 -9999 -9999 -9999 -9999 -9999 -9999 -9999 -9999 -9999 -9999 -9999 -9999 -9999 -9999 -9999 -9999 -9999 -9999 -9999 -9999 -9999 -9999 -9999 -9999 -9999 -9999 -9999 -9999 -9999 -9999 -9999 -9999 -9999 -9999 -9999 -9999 -9999 -9999 -9999 -9999 -9999 -9999 -9999 -9999
-9999 -9999 -9999 -9999 -9999 -9999 -9999 -9999 -9999 -9999 -9999 -9999 -9999 -9999 -9999 -9999 -9999 -9999 -9999 -9999 -9999 -9999 -9999 -9999 -9999 -9999 -9999 -9999 -9999 -9999 -9999 -9999 -9999 -9999 -9999 -9999 -9999 -9999 -9999 -9999 -9999 -9999 -9999 -9999 -9999 -9999 -9999 -9999 -9999 -9999 -9999 -9999 -9999 -9999 -9999 -9999 -9999 -9999 -9999 -9999 -9999 -9999 -9999 -9999 -9999 -9999 -9999 -9999 -9999 -9999 -9999 -9999 -9999 -9999 -9999 -9999 -9999 -9999 -9999 -9999 -9999 -9999 -9999 -9999 -9999 -9999 -9999 -9999 -9999 -9999 -9999 -9999 -9999 -9999 -9999 -9999 -9999 -9999 -9999 -9999 -9999 -9999 -9999 -9999 -9999 -9999 -9999 -9999 -9999 -9999 -9999 -9999 -9999 -9999 -9999 -9999 -9999 -9999 -9999 -9999 -9999 -9999 -9999 -9999 -9999 -9999 -9999 -9999 -9999 -9999 -9999 -9999 -9999 -9999 -9999 -9999 -9999 -9999 -9999 -9999 -9999 -9999 -9999 -9999 -9999 -9999 -9999 -9999 -9999 -9999 -9999 -9999 -9999 -9999 -9999 -9999 -9999 -9999 -9999 -9999 -9999 -9999 -9999 -9999 -9999 -9999 -9999 -9999 -9999 -9999 -9999 -9999 -9999 -9999 -9999 -9999 -9999 -9999 -9999 -9999 -9999 -9999 -9999 -9999 -9999 -9999 -9999 -9999 -9999 -9999 -9999 -9999 -9999 -9999 -9999 -9999 -9999 -9999 -9999 -9999 -9999 -9999 -9999 -9999 -9999 -9999 -9999 -9999 -9999 -9999 -9999 -9999 -9999 -9999 -9999
-9999 -9999 -9999 -9999 -9999 -9999 -9999 -9999 -9999 -9999 -9999 -9999 -9999 -9999 -9999 -9999 -9999 -9999 -9999 -9999 -9999 -9999 -9999 -9999 -9999 -9999 -9999 -9999 -9999 -9999 -9999 -9999 -9999 -9999 -9999 -9999 -9999 -9999 -9999 -9999 -9999 -9999 -9999 -9999 -9999 -9999 -9999 -9999 -9999 -9999 -9999 -9999 -9999 -9999 -9999 -9999 -9999 -9999 -9999 -9999 -9999 -9999 -9999 -9999 -9999 -9999 -9999 -9999 -9999 -9999 -9999 -9999 -9999 -9999 -9999 -9999 -9999 -9999 -9999 -9999 -9999 -9999 -9999 -9999 -9999 -9999 -9999 -9999 -9999 -9999 -9999 -9999 -9999 -9999 -9999 -9999 -9999 -9999 -9999 -9999 -9999 -9999 -9999 -9999 -9999 -9999 -9999 -9999 -9999 -9999 -9999 -9999 -9999 -9999 -9999 -9999 -9999 -9999 -9999 -9999 -9999 -9999 -9999 -9999 -9999 -9999 -9999 -9999 -9999 -9999 -9999 -9999 -9999 -9999 -9999 -9999 -9999 -9999 -9999 -9999 -9999 -9999 -9999 -9999 -9999 -9999 -9999 -9999 -9999 -9999 -9999 -9999 -9999 -9999 -9999 -9999 -9999 -9999 -9999 -9999 -9999 -9999 -9999 -9999 -9999 -9999 -9999 -9999 -9999 -9999 -9999 -9999 -9999 -9999 -9999 -9999 -9999 -9999 -9999 -9999 -9999 -9999 -9999 -9999 -9999 -9999 -9999 -9999 -9999 -9999 -9999 -9999 -9999 -9999 -9999 -9999 -9999 -9999 -9999 -9999 -9999 -9999 -9999 -9999 -9999 -9999 -9999 -9999 -9999 -9999 -9999 -9999 -9999 -9999 -9999
-9999 -9999 -9999 -9999 -9999 -9999 -9999 -9999 -9999 -9999 -9999 -9999 -9999 -9999 -9999 -9999 -9999 -9999 -9999 -9999 -9999 -9999 -9999 -9999 -9999 -9999 -9999 -9999 -9999 -9999 -9999 -9999 -9999 -9999 -9999 -9999 -9999 -9999 -9999 -9999 -9999 -9999 -9999 -9999 -9999 -9999 -9999 -9999 -9999 -9999 -9999 -9999 -9999 -9999 -9999 -9999 -9999 -9999 -9999 -9999 -9999 -9999 -9999 -9999 -9999 -9999 -9999 -9999 -9999 -9999 -9999 -9999 -9999 -9999 -9999 -9999 -9999 -9999 -9999 -9999 -9999 -9999 -9999 -9999 -9999 -9999 -9999 -9999 -9999 -9999 -9999 -9999 -9999 -9999 -9999 -9999 -9999 -9999 -9999 -9999 -9999 -9999 -9999 -9999 -9999 -9999 -9999 -9999 -9999 -9999 -9999 -9999 -9999 -9999 -9999 -9999 -9999 -9999 -9999 -9999 -9999 -9999 -9999 -9999 -9999 -9999 -9999 -9999 -9999 -9999 -9999 -9999 -9999 -9999 -9999 -9999 -9999 -9999 -9999 -9999 -9999 -9999 -9999 -9999 -9999 -9999 -9999 -9999 -9999 -9999 -9999 -9999 -9999 -9999 -9999 -9999 -9999 -9999 -9999 -9999 -9999 -9999 -9999 -9999 -9999 -9999 -9999 -9999 -9999 -9999 -9999 -9999 -9999 -9999 -9999 -9999 -9999 -9999 -9999 -9999 -9999 -9999 -9999 -9999 -9999 -9999 -9999 -9999 -9999 -9999 -9999 -9999 -9999 -9999 -9999 -9999 -9999 -9999 -9999 -9999 -9999 -9999 -9999 -9999 -9999 -9999 -9999 -9999 -9999 -9999 -9999 -9999 -9999 -9999 -9999
