NCOLS 215
NROWS 375
XLLCORNER 4809000
YLLCORNER 3480000
CELLSIZE 1000
NODATA_value -9999
0.86 0.87 0.78 0.77 0.71 0.74 0.83 0.85 0.83 0.90 0.75 0.86 0.86 0.81 0.81 0.77 0.75 0.72 0.77 0.85 0.89 0.77 0.85 0.78 0.84 0.83 0.90 0.73 0.80 0.90 0.75 0.76 0.86 0.83 0.89 0.82 0.78 0.78 0.78 0.80 0.83 0.74 0.85 0.79 0.89 0.86 0.84 0.72 0.90 0.81 0.74 0.86 0.74 0.88 0.84 0.77 0.83 0.76 0.84 0.73 0.83 0.85 0.78 0.79 0.71 0.74 0.82 0.89 0.88 0.87 0.73 0.80 0.80 0.86 0.84 0.74 0.75 0.80 0.71 0.87 0.74 0.79 0.82 0.86 0.75 0.85 0.83 0.85 0.78 0.71 0.83 0.74 0.85 0.86 0.87 0.71 0.79 0.87 0.77 0.79 0.71 0.73 0.86 0.78 0.79 0.74 0.72 0.81 0.73 0.79 0.74 0.77 0.80 0.85 0.83 0.72 0.89 0.83 0.71 0.74 0.72 0.84 0.89 0.84 0.74 0.87 0.88 0.80 0.82 0.71 0.77 0.77 0.71 0.86 0.74 0.80 0.71 0.90 0.89 0.85 0.73 0.87 0.86 0.75 0.76 0.87 0.86 0.88 0.78 0.83 0.76 0.77 0.85 0.87 0.77 0.77 0.84 0.78 0.86 0.89 0.79 0.87 0.85 0.79 0.90 0.82 0.75 0.84 0.87 0.74 0.81 0.81 0.88 -9999 -9999 -9999 -9999 -9999 -9999 -9999 -9999 -9999 -9999 -9999 -9999 -9999 -9999 -9999 -9999 -9999 -9999 -9999 -9999 -9999 -9999 -9999 -9999 -9999 -9999 -9999 -9999 -9999 -9999 -9999 -9999 -9999 -9999 -9999 -9999 -9999 -9999 -9999 -9999 -9999 -9999
0.75 0.87 0.77 0.89 0.78 0.79 0.78 0.83 0.84 0.89 0.85 0.88 0.78 0.74 0.85 0.82 0.86 0.89 0.76 0.76 0.89 0.83 0.71 0.83 0.86 0.84 0.86 0.75 0.87 0.80 0.81 0.82 0.70 0.88 0.82 0.75 0.70 0.71 0.74 0.88 0.80 0.86 0.73 0.80 0.80 0.79 0.76 0.78 0.87 0.74 0.76 0.72 0.78 0.84 0.75 0.74 0.82 0.79 0.71 0.81 0.79 0.81 0.84 0.81 0.89 0.88 0.70 0.73 0.89 0.87 0.72 0.85 0.81 0.82 0.82 0.88 0.81 0.86 0.83 0.88 0.87 0.89 0.70 0.76 0.72 0.89 0.84 0.74 0.87 0.89 0.70 0.83 0.75 0.75 0.84 0.73 0.86 0.82 0.78 0.71 0.72 0.75 0.81 0.80 0.73 0.90 0.75 0.86 0.82 0.82 0.77 0.86 0.75 0.85 0.74 0.73 0.87 0.72 0.73 0.87 0.70 0.85 0.81 0.83 0.76 0.90 0.77 0.72 0.85 0.74 0.77 0.87 0.80 0.80 0.87 0.70 0.90 0.75 0.71 0.82 0.76 0.89 0.76 0.80 0.87 0.82 0.88 0.82 0.85 0.75 0.77 0.78 0.87 0.72 0.72 0.83 0.84 0.78 0.87 0.88 0.73 0.88 0.88 0.85 0.71 0.75 0.72 0.84 0.73 0.86 0.87 0.70 0.80 -9999 -9999 -9999 -9999 -9999 -9999 -9999 -9999 -9999 -9999 -9999 -9999 -9999 -9999 -9999 -9999 -9999 -9999 -9999 -9999 -9999 -9999 -9999 -9999 -9999 -9999 -9999 -9999 -9999 -9999 -9999 -9999 -9999 -9999 -9999 -9999 -9999 -9999 -9999 -9999 -9999 -9999
0.84 0.82 0.87 0.89 0.89 0.74 0.78 0.88 0.82 0.87 0.71 0.81 0.80 0.71 0.75 0.76 0.74 0.71 0.84 0.75 0.81 0.78 0.85 0.77 0.88 0.83 0.76 0.84 0.82 0.82 0.88 0.84 0.82 0.82 0.88 0.73 0.77 0.71 0.78 0.86 0.80 0.83 0.78 0.81 0.82 0.79 0.83 0.78 0.86 0.71 0.70 0.70 0.73 0.86 0.81 0.70 0.79 0.89 0.78 0.84 0.84 0.90 0.79 0.89 0.88 0.78 0.76 0.84 0.87 0.73 0.86 0.83 0.71 0.73 0.89 0.80 0.78 0.79 0.78 0.72 0.78 0.83 0.80 0.74 0.82 0.83 0.73 0.80 0.74 0.86 0.73 0.74 0.72 0.76 0.74 0.86 0.88 0.80 0.86 0.79 0.74 0.71 0.80 0.89 0.77 0.77 0.88 0.77 0.74 0.74 0.75 0.78 0.85 0.74 0.77 0.86 0.71 0.73 0.79 0.79 0.79 0.80 0.79 0.80 0.80 0.80 0.70 0.83 0.85 0.83 0.73 0.89 0.87 0.86 0.76 0.76 0.77 0.79 0.88 0.78 0.84 0.72 0.81 0.82 0.75 0.87 0.84 0.78 0.85 0.90 0.89 0.81 0.70 0.70 0.83 0.76 0.75 0.75 0.84 0.80 0.87 0.85 0.77 0.74 0.71 0.87 0.75 0.82 0.79 0.73 0.88 0.86 0.82 -9999 -9999 -9999 -9999 -9999 -9999 -9999 -9999 -9999 -9999 -9999 -9999 -9999 -9999 -9999 -9999 -9999 -9999 -9999 -9999 -9999 -9999 -9999 -9999 -9999 -9999 -9999 -9999 -9999 -9999 -9999 -9999 -9999 -9999 -9999 -9999 -9999 -9999 -9999 -9999 -9999 -9999
0.89 0.87 0.77 0.83 0.73 0.71 0.78 0.79 0.83 0.83 0.90 0.81 0.76 0.76 0.71 0.87 0.78 0.88 0.85 0.88 0.89 0.85 0.72 0.82 0.78 0.81 0.88 0.78 0.84 0.84 0.87 0.71 0.80 0.87 0.85 0.85 0.82 0.78 0.84 0.81 0.82 0.86 0.88 0.86 0.83 0.73 0.79 0.86 0.79 0.86 0.86 0.76 0.89 0.76 0.82 0.71 0.73 0.80 0.73 0.77 0.88 0.72 0.83 0.80 0.89 0.89 0.84 0.75 0.79 0.82 0.80 0.76 0.80 0.86 0.73 0.73 0.87 0.83 0.76 0.71 0.71 0.89 0.80 0.89 0.72 0.72 0.81 0.74 0.86 0.76 0.79 0.86 0.80 0.88 0.75 0.74 0.82 0.79 0.85 0.80 0.89 0.78 0.78 0.72 0.77 0.86 0.84 0.85 0.81 0.86 0.85 0.73 0.73 0.82 0.85 0.84 0.71 0.86 0.75 0.81 0.75 0.71 0.81 0.84 0.87 0.75 0.79 0.86 0.80 0.84 0.89 0.70 0.83 0.74 0.86 0.86 0.76 0.89 0.84 0.87 0.80 0.85 0.81 0.76 0.85 0.86 0.72 0.88 0.74 0.71 0.86 0.88 0.84 0.89 0.78 0.71 0.90 0.78 0.86 0.89 0.87 0.85 0.90 0.82 0.82 0.88 0.75 0.73 0.76 0.79 0.77 0.72 0.85 -9999 -9999 -9999 -9999 -9999 -9999 -9999 -9999 -9999 -9999 -9999 -9999 -9999 -9999 -9999 -9999 -9999 -9999 -9999 -9999 -9999 -9999 -9999 -9999 -9999 -9999 -9999 -9999 -9999 -9999 -9999 -9999 -9999 -9999 -9999 -9999 -9999 -9999 -9999 -9999 -9999 -9999
0.80 0.78 0.73 0.89 0.80 0.85 0.86 0.84 0.80 0.85 0.88 0.75 0.87 0.89 0.87 0.86 0.85 0.83 0.83 0.84 0.89 0.72 0.71 0.70 0.82 0.86 0.75 0.88 0.78 0.88 0.76 0.83 0.72 0.88 0.74 0.77 0.89 0.85 0.85 0.72 0.80 0.70 0.87 0.77 0.80 0.77 0.81 0.84 0.80 0.89 0.71 0.89 0.80 0.84 0.75 0.89 0.72 0.82 0.75 0.88 0.81 0.83 0.73 0.82 0.73 0.88 0.89 0.77 0.84 0.77 0.75 0.79 0.71 0.79 0.83 0.80 0.81 0.73 0.83 0.75 0.85 0.84 0.77 0.86 0.71 0.77 0.87 0.71 0.85 0.76 0.75 0.82 0.90 0.87 0.86 0.70 0.80 0.87 0.73 0.74 0.80 0.80 0.78 0.80 0.88 0.89 0.82 0.74 0.85 0.72 0.89 0.77 0.90 0.84 0.89 0.75 0.82 0.85 0.75 0.78 0.80 0.73 0.85 0.78 0.83 0.83 0.81 0.88 0.72 0.85 0.83 0.83 0.79 0.87 0.78 0.83 0.71 0.90 0.86 0.83 0.82 0.86 0.85 0.82 0.87 0.82 0.70 0.78 0.84 0.72 0.72 0.74 0.80 0.85 0.71 0.74 0.77 0.89 0.86 0.73 0.77 0.82 0.75 0.70 0.82 0.89 0.83 0.75 0.90 0.73 0.74 0.86 0.81 -9999 -9999 -9999 -9999 -9999 -9999 -9999 -9999 -9999 -9999 -9999 -9999 -9999 -9999 -9999 -9999 -9999 -9999 -9999 -9999 -9999 -9999 -9999 -9999 -9999 -9999 -9999 -9999 -9999 -9999 -9999 -9999 -9999 -9999 -9999 -9999 -9999 -9999 -9999 -9999 -9999 -9999
0.73 0.72 0.82 0.83 0.70 0.71 0.77 0.77 0.83 0.82 0.85 0.71 0.86 0.79 0.90 0.73 0.87 0.78 0.75 0.70 0.89 0.73 0.75 0.87 0.85 0.72 0.89 0.76 0.86 0.72 0.75 0.75 0.86 0.78 0.74 0.83 0.76 0.84 0.85 0.84 0.72 0.88 0.70 0.77 0.72 0.80 0.71 0.90 0.87 0.71 0.75 0.72 0.90 0.73 0.76 0.72 0.81 0.75 0.90 0.80 0.85 0.87 0.81 0.71 0.88 0.71 0.74 0.85 0.83 0.85 0.90 0.84 0.79 0.83 0.77 0.78 0.75 0.79 0.74 0.71 0.80 0.76 0.88 0.86 0.74 0.78 0.78 0.72 0.74 0.87 0.87 0.79 0.74 0.88 0.76 0.74 0.72 0.84 0.76 0.73 0.79 0.88 0.71 0.81 0.82 0.88 0.74 0.72 0.82 0.73 0.71 0.86 0.80 0.77 0.71 0.74 0.74 0.82 0.80 0.76 0.81 0.75 0.76 0.80 0.82 0.80 0.81 0.89 0.76 0.79 0.89 0.84 0.89 0.88 0.74 0.76 0.86 0.76 0.82 0.77 0.79 0.84 0.70 0.74 0.73 0.82 0.87 0.89 0.89 0.86 0.77 0.73 0.78 0.81 0.72 0.72 0.88 0.77 0.72 0.89 0.84 0.80 0.84 0.74 0.87 0.77 0.88 0.82 0.88 0.84 0.81 0.87 0.77 0.86 -9999 -9999 -9999 -9999 -9999 -9999 -9999 -9999 -9999 -9999 -9999 -9999 -9999 -9999 -9999 -9999 -9999 -9999 -9999 -9999 -9999 -9999 -9999 -9999 -9999 -9999 -9999 -9999 -9999 -9999 -9999 -9999 -9999 -9999 -9999 -9999 -9999 -9999 -9999 -9999 -9999
0.83 0.74 0.75 0.88 0.81 0.80 0.86 0.72 0.71 0.87 0.80 0.80 0.74 0.86 0.76 0.83 0.89 0.71 0.77 0.84 0.75 0.80 0.75 0.85 0.89 0.76 0.71 0.74 0.86 0.83 0.84 0.79 0.85 0.90 0.80 0.74 0.76 0.82 0.85 0.84 0.85 0.85 0.70 0.84 0.87 0.89 0.71 0.72 0.85 0.77 0.89 0.85 0.73 0.76 0.80 0.86 0.81 0.70 0.87 0.79 0.79 0.76 0.78 0.79 0.87 0.73 0.79 0.72 0.84 0.86 0.85 0.70 0.82 0.85 0.77 0.75 0.88 0.80 0.71 0.90 0.78 0.79 0.86 0.76 0.75 0.71 0.79 0.84 0.72 0.80 0.73 0.83 0.77 0.87 0.83 0.78 0.80 0.79 0.74 0.82 0.79 0.76 0.82 0.75 0.87 0.75 0.90 0.87 0.76 0.77 0.82 0.86 0.89 0.70 0.89 0.88 0.85 0.87 0.76 0.77 0.72 0.90 0.76 0.90 0.81 0.85 0.74 0.83 0.71 0.89 0.75 0.73 0.71 0.87 0.84 0.78 0.83 0.71 0.74 0.78 0.84 0.76 0.80 0.78 0.78 0.75 0.71 0.77 0.82 0.81 0.74 0.78 0.83 0.80 0.76 0.89 0.85 0.88 0.90 0.75 0.85 0.72 0.86 0.88 0.86 0.78 0.72 0.77 0.85 0.83 0.74 0.86 0.87 0.88 -9999 -9999 -9999 -9999 -9999 -9999 -9999 -9999 -9999 -9999 -9999 -9999 -9999 -9999 -9999 -9999 -9999 -9999 -9999 -9999 -9999 -9999 -9999 -9999 -9999 -9999 -9999 -9999 -9999 -9999 -9999 -9999 -9999 -9999 -9999 -9999 -9999 -9999 -9999 -9999 -9999
0.80 0.85 0.84 0.71 0.89 0.80 0.85 0.89 0.74 0.90 0.82 0.71 0.73 0.74 0.77 0.85 0.83 0.89 0.84 0.72 0.90 0.89 0.77 0.76 0.70 0.81 0.79 0.89 0.73 0.75 0.79 0.72 0.72 0.76 0.83 0.73 0.78 0.79 0.81 0.76 0.89 0.71 0.72 0.85 0.79 0.77 0.79 0.76 0.70 0.75 0.84 0.87 0.78 0.77 0.80 0.85 0.71 0.86 0.76 0.80 0.77 0.80 0.88 0.71 0.76 0.72 0.84 0.87 0.88 0.87 0.82 0.87 0.90 0.87 0.73 0.76 0.90 0.80 0.88 0.88 0.78 0.70 0.78 0.79 0.90 0.73 0.77 0.72 0.85 0.87 0.76 0.86 0.88 0.77 0.76 0.89 0.78 0.78 0.86 0.85 0.82 0.82 0.73 0.87 0.72 0.79 0.71 0.83 0.75 0.87 0.74 0.72 0.73 0.70 0.83 0.86 0.74 0.87 0.76 0.82 0.72 0.86 0.72 0.76 0.87 0.78 0.70 0.72 0.73 0.87 0.75 0.72 0.83 0.76 0.74 0.72 0.79 0.75 0.72 0.78 0.87 0.86 0.88 0.73 0.85 0.90 0.77 0.71 0.86 0.76 0.89 0.86 0.82 0.80 0.86 0.82 0.72 0.80 0.78 0.76 0.78 0.77 0.73 0.81 0.75 0.76 0.72 0.85 0.84 0.81 0.85 0.86 0.75 0.80 -9999 -9999 -9999 -9999 -9999 -9999 -9999 -9999 -9999 -9999 -9999 -9999 -9999 -9999 -9999 -9999 -9999 -9999 -9999 -9999 -9999 -9999 -9999 -9999 -9999 -9999 -9999 -9999 -9999 -9999 -9999 -9999 -9999 -9999 -9999 -9999 -9999 -9999 -9999 -9999 -9999
0.83 0.84 0.86 0.79 0.90 0.81 0.87 0.86 0.86 0.84 0.85 0.79 0.78 0.76 0.83 0.80 0.73 0.86 0.78 0.80 0.84 0.90 0.77 0.87 0.71 0.72 0.72 0.84 0.81 0.77 0.74 0.72 0.73 0.73 0.79 0.75 0.87 0.74 0.71 0.79 0.71 0.75 0.70 0.71 0.75 0.84 0.89 0.74 0.86 0.72 0.75 0.82 0.89 0.75 0.72 0.72 0.77 0.81 0.79 0.82 0.75 0.89 0.79 0.74 0.80 0.74 0.86 0.85 0.74 0.80 0.73 0.78 0.73 0.83 0.79 0.82 0.83 0.70 0.72 0.74 0.87 0.88 0.85 0.89 0.85 0.87 0.90 0.76 0.84 0.79 0.76 0.82 0.87 0.84 0.73 0.75 0.83 0.74 0.76 0.75 0.73 0.80 0.89 0.87 0.72 0.72 0.86 0.71 0.81 0.89 0.80 0.72 0.85 0.74 0.74 0.82 0.72 0.87 0.80 0.80 0.88 0.82 0.85 0.71 0.79 0.78 0.82 0.83 0.77 0.74 0.88 0.85 0.83 0.76 0.79 0.80 0.87 0.81 0.75 0.89 0.76 0.82 0.76 0.79 0.85 0.83 0.85 0.86 0.84 0.80 0.84 0.89 0.81 0.86 0.72 0.73 0.75 0.73 0.74 0.78 0.73 0.86 0.84 0.84 0.79 0.85 0.74 0.77 0.77 0.81 0.87 0.88 0.83 0.77 -9999 -9999 -9999 -9999 -9999 -9999 -9999 -9999 -9999 -9999 -9999 -9999 -9999 -9999 -9999 -9999 -9999 -9999 -9999 -9999 -9999 -9999 -9999 -9999 -9999 -9999 -9999 -9999 -9999 -9999 -9999 -9999 -9999 -9999 -9999 -9999 -9999 -9999 -9999 -9999 -9999
0.89 0.86 0.74 0.88 0.71 0.85 0.81 0.80 0.85 0.90 0.76 0.76 0.89 0.83 0.79 0.82 0.79 0.76 0.72 0.79 0.79 0.74 0.84 0.77 0.78 0.81 0.72 0.70 0.77 0.90 0.73 0.71 0.78 0.78 0.74 0.77 0.72 0.73 0.87 0.71 0.75 0.83 0.81 0.89 0.83 0.85 0.71 0.76 0.81 0.89 0.88 0.83 0.87 0.84 0.74 0.70 0.74 0.86 0.77 0.75 0.87 0.88 0.83 0.87 0.79 0.72 0.72 0.82 0.78 0.89 0.89 0.78 0.85 0.86 0.71 0.82 0.78 0.79 0.78 0.74 0.83 0.75 0.85 0.81 0.72 0.82 0.89 0.77 0.75 0.90 0.86 0.83 0.72 0.82 0.83 0.73 0.77 0.87 0.83 0.73 0.85 0.89 0.76 0.81 0.77 0.79 0.89 0.76 0.71 0.71 0.81 0.72 0.75 0.84 0.71 0.72 0.77 0.83 0.86 0.89 0.73 0.86 0.84 0.72 0.83 0.74 0.82 0.73 0.76 0.82 0.85 0.89 0.77 0.81 0.78 0.85 0.83 0.71 0.74 0.77 0.72 0.79 0.71 0.77 0.73 0.86 0.85 0.83 0.81 0.87 0.78 0.82 0.89 0.80 0.86 0.84 0.83 0.88 0.87 0.80 0.71 0.75 0.78 0.86 0.83 0.70 0.71 0.82 0.78 0.76 0.90 0.82 0.83 0.70 -9999 -9999 -9999 -9999 -9999 -9999 -9999 -9999 -9999 -9999 -9999 -9999 -9999 -9999 -9999 -9999 -9999 -9999 -9999 -9999 -9999 -9999 -9999 -9999 -9999 -9999 -9999 -9999 -9999 -9999 -9999 -9999 -9999 -9999 -9999 -9999 -9999 -9999 -9999 -9999 -9999
0.73 0.73 0.78 0.75 0.74 0.79 0.90 0.72 0.79 0.79 0.71 0.88 0.71 0.82 0.78 0.74 0.81 0.75 0.81 0.84 0.70 0.82 0.79 0.74 0.82 0.71 0.74 0.79 0.73 0.86 0.71 0.77 0.90 0.77 0.83 0.72 0.87 0.74 0.87 0.77 0.78 0.85 0.82 0.88 0.83 0.81 0.73 0.76 0.71 0.79 0.74 0.81 0.84 0.80 0.70 0.88 0.84 0.74 0.87 0.87 0.75 0.83 0.88 0.72 0.75 0.87 0.82 0.83 0.84 0.79 0.75 0.78 0.74 0.78 0.84 0.76 0.75 0.76 0.81 0.80 0.90 0.75 0.90 0.77 0.77 0.85 0.75 0.72 0.86 0.89 0.72 0.71 0.81 0.84 0.85 0.78 0.79 0.78 0.85 0.75 0.71 0.72 0.76 0.71 0.70 0.90 0.90 0.81 0.85 0.87 0.71 0.81 0.77 0.74 0.83 0.86 0.71 0.73 0.70 0.86 0.72 0.71 0.89 0.73 0.84 0.82 0.73 0.72 0.90 0.81 0.87 0.83 0.70 0.76 0.83 0.78 0.85 0.87 0.77 0.71 0.88 0.87 0.84 0.80 0.81 0.74 0.87 0.88 0.78 0.73 0.88 0.72 0.89 0.79 0.85 0.83 0.77 0.79 0.85 0.88 0.73 0.84 0.87 0.70 0.85 0.75 0.76 0.90 0.70 0.87 0.84 0.71 0.76 0.74 -9999 -9999 -9999 -9999 -9999 -9999 -9999 -9999 -9999 -9999 -9999 -9999 -9999 -9999 -9999 -9999 -9999 -9999 -9999 -9999 -9999 -9999 -9999 -9999 -9999 -9999 -9999 -9999 -9999 -9999 -9999 -9999 -9999 -9999 -9999 -9999 -9999 -9999 -9999 -9999 -9999
0.84 0.88 0.74 0.74 0.77 0.77 0.77 0.88 0.82 0.74 0.82 0.72 0.80 0.85 0.83 0.72 0.89 0.81 0.78 0.77 0.88 0.80 0.88 0.70 0.74 0.90 0.70 0.72 0.77 0.84 0.84 0.76 0.77 0.72 0.75 0.88 0.86 0.71 0.83 0.78 0.85 0.84 0.71 0.70 0.88 0.75 0.78 0.87 0.78 0.79 0.87 0.81 0.74 0.84 0.86 0.84 0.79 0.73 0.87 0.82 0.73 0.73 0.86 0.79 0.71 0.89 0.78 0.70 0.81 0.87 0.73 0.85 0.76 0.81 0.75 0.88 0.72 0.88 0.87 0.86 0.89 0.89 0.76 0.83 0.78 0.71 0.81 0.85 0.77 0.85 0.86 0.77 0.77 0.89 0.88 0.87 0.89 0.78 0.70 0.82 0.79 0.77 0.76 0.79 0.81 0.79 0.76 0.89 0.79 0.75 0.86 0.81 0.87 0.82 0.84 0.80 0.85 0.81 0.77 0.80 0.77 0.89 0.88 0.87 0.75 0.71 0.86 0.89 0.73 0.88 0.76 0.84 0.84 0.72 0.77 0.73 0.88 0.83 0.77 0.80 0.73 0.89 0.77 0.90 0.77 0.77 0.80 0.82 0.84 0.90 0.82 0.74 0.78 0.75 0.85 0.84 0.70 0.85 0.86 0.87 0.89 0.71 0.80 0.75 0.86 0.83 0.84 0.73 0.73 0.87 0.89 0.82 0.82 0.83 0.84 -9999 -9999 -9999 -9999 -9999 -9999 -9999 -9999 -9999 -9999 -9999 -9999 -9999 -9999 -9999 -9999 -9999 -9999 -9999 -9999 -9999 -9999 -9999 -9999 -9999 -9999 -9999 -9999 -9999 -9999 -9999 -9999 -9999 -9999 -9999 -9999 -9999 -9999 -9999 -9999
0.80 0.71 0.79 0.89 0.78 0.90 0.81 0.73 0.89 0.75 0.78 0.86 0.72 0.84 0.82 0.79 0.76 0.75 0.88 0.81 0.84 0.74 0.73 0.80 0.78 0.82 0.85 0.80 0.86 0.80 0.80 0.78 0.78 0.84 0.84 0.87 0.80 0.73 0.83 0.81 0.84 0.76 0.79 0.81 0.79 0.79 0.74 0.78 0.78 0.78 0.85 0.73 0.86 0.73 0.73 0.89 0.74 0.72 0.77 0.84 0.71 0.87 0.83 0.85 0.83 0.80 0.72 0.88 0.70 0.78 0.81 0.88 0.80 0.75 0.85 0.80 0.81 0.70 0.72 0.73 0.77 0.89 0.88 0.90 0.81 0.71 0.79 0.85 0.71 0.86 0.85 0.86 0.82 0.79 0.78 0.76 0.86 0.80 0.72 0.74 0.78 0.72 0.83 0.79 0.75 0.76 0.77 0.71 0.84 0.83 0.74 0.71 0.88 0.87 0.74 0.72 0.82 0.87 0.75 0.84 0.78 0.85 0.88 0.84 0.74 0.85 0.89 0.79 0.87 0.84 0.82 0.74 0.80 0.74 0.71 0.85 0.75 0.73 0.85 0.78 0.89 0.82 0.84 0.84 0.74 0.87 0.78 0.82 0.87 0.80 0.82 0.70 0.70 0.73 0.79 0.77 0.77 0.81 0.82 0.79 0.78 0.84 0.88 0.85 0.74 0.90 0.81 0.82 0.71 0.74 0.77 0.87 0.80 0.77 0.73 -9999 -9999 -9999 -9999 -9999 -9999 -9999 -9999 -9999 -9999 -9999 -9999 -9999 -9999 -9999 -9999 -9999 -9999 -9999 -9999 -9999 -9999 -9999 -9999 -9999 -9999 -9999 -9999 -9999 -9999 -9999 -9999 -9999 -9999 -9999 -9999 -9999 -9999 -9999 -9999
0.89 0.81 0.88 0.72 0.83 0.88 0.78 0.76 0.76 0.84 0.90 0.79 0.76 0.71 0.74 0.85 0.80 0.71 0.88 0.73 0.81 0.88 0.80 0.85 0.79 0.77 0.73 0.70 0.79 0.73 0.80 0.88 0.70 0.83 0.86 0.78 0.73 0.70 0.74 0.76 0.83 0.82 0.81 0.71 0.86 0.76 0.76 0.76 0.83 0.74 0.80 0.80 0.82 0.77 0.84 0.72 0.85 0.83 0.87 0.83 0.75 0.70 0.72 0.79 0.86 0.89 0.88 0.73 0.78 0.78 0.86 0.78 0.86 0.88 0.86 0.73 0.70 0.87 0.83 0.77 0.82 0.71 0.74 0.74 0.89 0.78 0.88 0.81 0.70 0.74 0.77 0.72 0.74 0.79 0.86 0.73 0.89 0.84 0.85 0.83 0.71 0.83 0.71 0.79 0.75 0.84 0.76 0.72 0.72 0.83 0.79 0.83 0.87 0.79 0.86 0.78 0.80 0.82 0.80 0.71 0.82 0.71 0.89 0.75 0.81 0.86 0.70 0.84 0.73 0.82 0.87 0.70 0.88 0.88 0.78 0.88 0.76 0.74 0.89 0.87 0.88 0.88 0.80 0.81 0.73 0.82 0.71 0.73 0.72 0.89 0.79 0.89 0.82 0.72 0.80 0.81 0.88 0.80 0.77 0.74 0.81 0.86 0.76 0.83 0.84 0.88 0.82 0.76 0.73 0.89 0.81 0.80 0.87 0.78 0.79 -9999 -9999 -9999 -9999 -9999 -9999 -9999 -9999 -9999 -9999 -9999 -9999 -9999 -9999 -9999 -9999 -9999 -9999 -9999 -9999 -9999 -9999 -9999 -9999 -9999 -9999 -9999 -9999 -9999 -9999 -9999 -9999 -9999 -9999 -9999 -9999 -9999 -9999 -9999 -9999
0.83 0.80 0.71 0.73 0.85 0.88 0.73 0.75 0.86 0.83 0.76 0.78 0.73 0.86 0.88 0.78 0.70 0.86 0.71 0.85 0.83 0.77 0.82 0.71 0.89 0.76 0.89 0.79 0.77 0.82 0.74 0.74 0.83 0.88 0.73 0.77 0.73 0.86 0.71 0.87 0.82 0.86 0.88 0.82 0.77 0.72 0.88 0.86 0.82 0.86 0.77 0.76 0.72 0.86 0.71 0.81 0.79 0.80 0.82 0.85 0.80 0.89 0.72 0.70 0.82 0.85 0.80 0.89 0.78 0.73 0.89 0.88 0.88 0.82 0.88 0.71 0.81 0.80 0.83 0.83 0.90 0.85 0.81 0.87 0.79 0.78 0.75 0.85 0.77 0.77 0.82 0.86 0.84 0.74 0.78 0.77 0.75 0.81 0.87 0.75 0.87 0.78 0.85 0.71 0.79 0.87 0.78 0.86 0.85 0.80 0.75 0.71 0.72 0.74 0.77 0.90 0.82 0.74 0.88 0.87 0.82 0.80 0.71 0.89 0.70 0.73 0.82 0.86 0.76 0.89 0.73 0.76 0.70 0.73 0.89 0.79 0.79 0.90 0.87 0.72 0.83 0.90 0.85 0.80 0.71 0.84 0.73 0.85 0.82 0.86 0.83 0.75 0.79 0.74 0.85 0.87 0.71 0.75 0.86 0.75 0.70 0.79 0.83 0.82 0.89 0.82 0.89 0.72 0.88 0.72 0.81 0.83 0.86 0.81 0.79 -9999 -9999 -9999 -9999 -9999 -9999 -9999 -9999 -9999 -9999 -9999 -9999 -9999 -9999 -9999 -9999 -9999 -9999 -9999 -9999 -9999 -9999 -9999 -9999 -9999 -9999 -9999 -9999 -9999 -9999 -9999 -9999 -9999 -9999 -9999 -9999 -9999 -9999 -9999 -9999
0.84 0.75 0.87 0.75 0.86 0.89 0.85 0.74 0.84 0.79 0.74 0.84 0.80 0.75 0.84 0.70 0.73 0.78 0.78 0.80 0.71 0.90 0.90 0.84 0.88 0.81 0.76 0.73 0.83 0.84 0.82 0.82 0.90 0.71 0.79 0.72 0.75 0.85 0.80 0.75 0.84 0.71 0.76 0.87 0.86 0.72 0.78 0.84 0.79 0.80 0.90 0.76 0.70 0.76 0.87 0.73 0.78 0.73 0.73 0.75 0.73 0.70 0.81 0.81 0.87 0.70 0.88 0.75 0.88 0.70 0.87 0.87 0.75 0.80 0.75 0.78 0.87 0.78 0.77 0.75 0.79 0.79 0.71 0.82 0.75 0.82 0.82 0.77 0.72 0.78 0.78 0.87 0.74 0.76 0.81 0.77 0.77 0.90 0.86 0.79 0.77 0.88 0.71 0.79 0.81 0.75 0.81 0.81 0.80 0.86 0.86 0.80 0.83 0.87 0.73 0.90 0.77 0.80 0.84 0.90 0.82 0.80 0.85 0.80 0.70 0.77 0.75 0.85 0.70 0.79 0.85 0.90 0.74 0.81 0.71 0.72 0.87 0.73 0.73 0.89 0.73 0.71 0.80 0.79 0.73 0.72 0.78 0.89 0.76 0.73 0.89 0.90 0.88 0.75 0.88 0.81 0.86 0.76 0.80 0.75 0.74 0.88 0.87 0.79 0.86 0.72 0.77 0.72 0.89 0.75 0.88 0.87 0.82 0.89 0.74 -9999 -9999 -9999 -9999 -9999 -9999 -9999 -9999 -9999 -9999 -9999 -9999 -9999 -9999 -9999 -9999 -9999 -9999 -9999 -9999 -9999 -9999 -9999 -9999 -9999 -9999 -9999 -9999 -9999 -9999 -9999 -9999 -9999 -9999 -9999 -9999 -9999 -9999 -9999 -9999
0.85 0.86 0.84 0.74 0.74 0.88 0.84 0.71 0.86 0.80 0.88 0.85 0.79 0.83 0.85 0.83 0.88 0.85 0.78 0.79 0.84 0.75 0.81 0.82 0.75 0.79 0.73 0.88 0.82 0.88 0.84 0.83 0.83 0.89 0.85 0.85 0.81 0.77 0.84 0.76 0.85 0.73 0.71 0.70 0.87 0.76 0.87 0.79 0.88 0.74 0.84 0.74 0.85 0.74 0.88 0.86 0.84 0.80 0.79 0.77 0.87 0.80 0.89 0.78 0.78 0.81 0.89 0.85 0.72 0.80 0.76 0.90 0.84 0.73 0.82 0.83 0.88 0.73 0.86 0.83 0.85 0.75 0.86 0.75 0.76 0.72 0.81 0.76 0.80 0.88 0.83 0.77 0.86 0.71 0.83 0.72 0.73 0.82 0.71 0.79 0.73 0.84 0.87 0.83 0.88 0.89 0.73 0.90 0.79 0.84 0.82 0.83 0.78 0.79 0.88 0.83 0.75 0.79 0.81 0.73 0.79 0.71 0.85 0.75 0.80 0.84 0.72 0.89 0.79 0.87 0.85 0.80 0.73 0.75 0.80 0.87 0.79 0.90 0.75 0.85 0.89 0.79 0.85 0.84 0.78 0.87 0.72 0.72 0.79 0.76 0.75 0.81 0.73 0.80 0.90 0.82 0.90 0.86 0.74 0.81 0.76 0.73 0.88 0.83 0.89 0.80 0.78 0.78 0.87 0.83 0.87 0.89 0.74 0.76 0.73 -9999 -9999 -9999 -9999 -9999 -9999 -9999 -9999 -9999 -9999 -9999 -9999 -9999 -9999 -9999 -9999 -9999 -9999 -9999 -9999 -9999 -9999 -9999 -9999 -9999 -9999 -9999 -9999 -9999 -9999 -9999 -9999 -9999 -9999 -9999 -9999 -9999 -9999 -9999 -9999
0.75 0.80 0.88 0.72 0.78 0.79 0.82 0.71 0.87 0.72 0.73 0.88 0.88 0.83 0.77 0.81 0.88 0.83 0.72 0.74 0.82 0.76 0.80 0.74 0.78 0.90 0.79 0.82 0.75 0.76 0.85 0.78 0.86 0.82 0.82 0.81 0.79 0.89 0.78 0.79 0.72 0.89 0.81 0.78 0.74 0.79 0.71 0.82 0.89 0.80 0.79 0.78 0.83 0.85 0.84 0.71 0.75 0.83 0.71 0.83 0.78 0.74 0.87 0.74 0.89 0.75 0.80 0.76 0.72 0.78 0.74 0.75 0.80 0.76 0.71 0.72 0.84 0.78 0.78 0.80 0.87 0.90 0.75 0.85 0.88 0.83 0.77 0.79 0.77 0.82 0.89 0.70 0.86 0.84 0.73 0.80 0.86 0.79 0.78 0.80 0.84 0.75 0.72 0.86 0.83 0.78 0.76 0.81 0.86 0.83 0.78 0.82 0.84 0.74 0.86 0.79 0.79 0.71 0.81 0.80 0.85 0.72 0.88 0.84 0.87 0.82 0.83 0.88 0.80 0.79 0.89 0.83 0.84 0.84 0.72 0.87 0.71 0.87 0.73 0.74 0.88 0.75 0.85 0.81 0.86 0.78 0.77 0.76 0.75 0.77 0.79 0.73 0.77 0.76 0.85 0.79 0.81 0.89 0.72 0.89 0.89 0.71 0.73 0.79 0.78 0.70 0.84 0.79 0.78 0.79 0.77 0.71 0.86 0.76 0.79 0.73 -9999 -9999 -9999 -9999 -9999 -9999 -9999 -9999 -9999 -9999 -9999 -9999 -9999 -9999 -9999 -9999 -9999 -9999 -9999 -9999 -9999 -9999 -9999 -9999 -9999 -9999 -9999 -9999 -9999 -9999 -9999 -9999 -9999 -9999 -9999 -9999 -9999 -9999 -9999
0.72 0.71 0.70 0.81 0.72 0.87 0.75 0.70 0.82 0.76 0.86 0.77 0.73 0.72 0.84 0.86 0.77 0.84 0.87 0.84 0.71 0.82 0.87 0.76 0.70 0.73 0.86 0.83 0.73 0.84 0.83 0.79 0.75 0.82 0.82 0.73 0.89 0.83 0.88 0.72 0.80 0.86 0.80 0.71 0.86 0.77 0.70 0.73 0.73 0.73 0.74 0.86 0.77 0.84 0.87 0.72 0.82 0.86 0.71 0.87 0.71 0.79 0.84 0.82 0.82 0.78 0.76 0.83 0.71 0.73 0.88 0.74 0.72 0.75 0.71 0.79 0.75 0.72 0.84 0.77 0.75 0.83 0.82 0.78 0.86 0.87 0.89 0.80 0.86 0.81 0.73 0.77 0.88 0.74 0.70 0.78 0.74 0.87 0.84 0.88 0.80 0.70 0.75 0.85 0.87 0.71 0.90 0.88 0.72 0.78 0.83 0.72 0.79 0.73 0.87 0.83 0.75 0.79 0.73 0.82 0.78 0.84 0.76 0.88 0.79 0.76 0.77 0.85 0.76 0.78 0.87 0.81 0.88 0.89 0.88 0.80 0.87 0.71 0.88 0.77 0.79 0.77 0.85 0.89 0.81 0.78 0.87 0.73 0.79 0.76 0.78 0.82 0.82 0.83 0.83 0.84 0.70 0.77 0.89 0.72 0.72 0.85 0.88 0.77 0.83 0.89 0.86 0.72 0.80 0.77 0.75 0.86 0.75 0.77 0.78 0.71 -9999 -9999 -9999 -9999 -9999 -9999 -9999 -9999 -9999 -9999 -9999 -9999 -9999 -9999 -9999 -9999 -9999 -9999 -9999 -9999 -9999 -9999 -9999 -9999 -9999 -9999 -9999 -9999 -9999 -9999 -9999 -9999 -9999 -9999 -9999 -9999 -9999 -9999 -9999
0.70 0.84 0.85 0.87 0.89 0.87 0.78 0.71 0.85 0.88 0.86 0.90 0.75 0.71 0.83 0.71 0.90 0.77 0.77 0.74 0.83 0.86 0.89 0.89 0.89 0.90 0.72 0.71 0.72 0.89 0.74 0.74 0.73 0.75 0.70 0.85 0.76 0.79 0.84 0.81 0.76 0.86 0.82 0.88 0.74 0.83 0.84 0.81 0.71 0.89 0.87 0.71 0.77 0.81 0.78 0.90 0.78 0.83 0.77 0.87 0.83 0.82 0.72 0.72 0.75 0.71 0.83 0.83 0.75 0.88 0.76 0.72 0.83 0.84 0.84 0.82 0.80 0.86 0.87 0.85 0.76 0.81 0.71 0.83 0.71 0.88 0.80 0.83 0.89 0.83 0.86 0.76 0.71 0.74 0.82 0.83 0.72 0.78 0.75 0.88 0.76 0.82 0.71 0.82 0.79 0.81 0.86 0.86 0.80 0.82 0.81 0.82 0.87 0.87 0.79 0.74 0.81 0.75 0.72 0.84 0.88 0.75 0.81 0.85 0.81 0.74 0.87 0.83 0.82 0.89 0.80 0.87 0.76 0.82 0.82 0.89 0.86 0.76 0.74 0.73 0.79 0.82 0.87 0.90 0.81 0.71 0.78 0.84 0.89 0.75 0.81 0.70 0.90 0.85 0.80 0.77 0.80 0.83 0.78 0.83 0.81 0.80 0.85 0.77 0.87 0.85 0.73 0.77 0.81 0.76 0.74 0.82 0.73 0.80 0.76 0.71 -9999 -9999 -9999 -9999 -9999 -9999 -9999 -9999 -9999 -9999 -9999 -9999 -9999 -9999 -9999 -9999 -9999 -9999 -9999 -9999 -9999 -9999 -9999 -9999 -9999 -9999 -9999 -9999 -9999 -9999 -9999 -9999 -9999 -9999 -9999 -9999 -9999 -9999 -9999
0.72 0.83 0.72 0.79 0.88 0.88 0.85 0.77 0.73 0.77 0.73 0.84 0.74 0.82 0.81 0.70 0.80 0.76 0.89 0.70 0.80 0.78 0.83 0.79 0.84 0.83 0.77 0.81 0.78 0.84 0.85 0.86 0.71 0.83 0.89 0.88 0.89 0.81 0.77 0.80 0.87 0.88 0.74 0.80 0.74 0.84 0.86 0.80 0.84 0.86 0.90 0.79 0.85 0.76 0.80 0.88 0.77 0.74 0.77 0.78 0.76 0.78 0.79 0.84 0.86 0.70 0.85 0.87 0.74 0.85 0.71 0.77 0.75 0.78 0.80 0.84 0.71 0.77 0.81 0.84 0.84 0.86 0.74 0.73 0.73 0.85 0.83 0.71 0.70 0.71 0.85 0.85 0.86 0.75 0.77 0.84 0.84 0.74 0.73 0.87 0.76 0.77 0.71 0.74 0.87 0.89 0.78 0.80 0.74 0.81 0.72 0.74 0.83 0.82 0.72 0.73 0.84 0.80 0.84 0.71 0.90 0.84 0.86 0.87 0.76 0.83 0.73 0.82 0.75 0.79 0.81 0.81 0.74 0.81 0.78 0.75 0.78 0.82 0.79 0.87 0.87 0.88 0.80 0.74 0.79 0.85 0.75 0.85 0.78 0.74 0.77 0.86 0.79 0.81 0.75 0.75 0.71 0.74 0.87 0.79 0.85 0.76 0.78 0.78 0.78 0.87 0.89 0.76 0.75 0.73 0.71 0.88 0.84 0.84 0.71 0.84 -9999 -9999 -9999 -9999 -9999 -9999 -9999 -9999 -9999 -9999 -9999 -9999 -9999 -9999 -9999 -9999 -9999 -9999 -9999 -9999 -9999 -9999 -9999 -9999 -9999 -9999 -9999 -9999 -9999 -9999 -9999 -9999 -9999 -9999 -9999 -9999 -9999 -9999 -9999
0.78 0.71 0.87 0.71 0.74 0.75 0.71 0.77 0.73 0.75 0.72 0.76 0.86 0.70 0.71 0.81 0.70 0.74 0.71 0.85 0.76 0.71 0.74 0.72 0.85 0.83 0.84 0.89 0.89 0.78 0.77 0.88 0.82 0.86 0.76 0.77 0.85 0.80 0.81 0.81 0.78 0.82 0.90 0.90 0.89 0.84 0.83 0.89 0.85 0.78 0.88 0.75 0.77 0.88 0.86 0.79 0.73 0.80 0.74 0.85 0.75 0.80 0.79 0.89 0.90 0.78 0.89 0.89 0.88 0.87 0.89 0.80 0.82 0.73 0.86 0.81 0.70 0.82 0.79 0.81 0.77 0.75 0.79 0.87 0.89 0.83 0.76 0.71 0.83 0.75 0.84 0.86 0.78 0.82 0.84 0.74 0.75 0.71 0.72 0.89 0.82 0.75 0.87 0.82 0.73 0.81 0.79 0.82 0.75 0.78 0.76 0.80 0.87 0.88 0.85 0.74 0.82 0.79 0.82 0.87 0.88 0.72 0.88 0.79 0.76 0.70 0.77 0.80 0.88 0.82 0.73 0.84 0.77 0.84 0.86 0.88 0.82 0.80 0.75 0.82 0.85 0.72 0.88 0.80 0.71 0.74 0.70 0.88 0.76 0.71 0.84 0.84 0.78 0.90 0.87 0.82 0.80 0.76 0.74 0.87 0.81 0.89 0.83 0.74 0.88 0.86 0.71 0.80 0.71 0.71 0.76 0.83 0.81 0.73 0.77 0.87 -9999 -9999 -9999 -9999 -9999 -9999 -9999 -9999 -9999 -9999 -9999 -9999 -9999 -9999 -9999 -9999 -9999 -9999 -9999 -9999 -9999 -9999 -9999 -9999 -9999 -9999 -9999 -9999 -9999 -9999 -9999 -9999 -9999 -9999 -9999 -9999 -9999 -9999 -9999
0.84 0.83 0.90 0.87 0.80 0.77 0.86 0.83 0.83 0.87 0.79 0.86 0.87 0.84 0.79 0.75 0.76 0.80 0.81 0.83 0.84 0.88 0.87 0.78 0.79 0.87 0.78 0.81 0.82 0.75 0.80 0.86 0.76 0.77 0.74 0.88 0.89 0.89 0.87 0.90 0.71 0.85 0.79 0.71 0.88 0.74 0.78 0.70 0.85 0.89 0.71 0.80 0.83 0.76 0.88 0.87 0.87 0.80 0.79 0.70 0.75 0.73 0.85 0.82 0.89 0.90 0.79 0.72 0.81 0.73 0.73 0.77 0.81 0.76 0.86 0.83 0.81 0.86 0.75 0.70 0.78 0.90 0.78 0.77 0.74 0.84 0.88 0.75 0.79 0.77 0.78 0.85 0.87 0.79 0.79 0.73 0.83 0.89 0.83 0.80 0.89 0.87 0.78 0.73 0.80 0.75 0.84 0.87 0.76 0.80 0.89 0.86 0.71 0.71 0.85 0.79 0.82 0.85 0.79 0.80 0.79 0.75 0.81 0.88 0.74 0.88 0.77 0.71 0.82 0.85 0.82 0.86 0.77 0.75 0.84 0.86 0.89 0.77 0.82 0.71 0.74 0.82 0.85 0.75 0.81 0.78 0.82 0.75 0.73 0.85 0.89 0.80 0.87 0.88 0.71 0.81 0.73 0.83 0.75 0.72 0.77 0.76 0.88 0.86 0.81 0.79 0.71 0.75 0.76 0.83 0.75 0.75 0.73 0.72 0.73 0.83 -9999 -9999 -9999 -9999 -9999 -9999 -9999 -9999 -9999 -9999 -9999 -9999 -9999 -9999 -9999 -9999 -9999 -9999 -9999 -9999 -9999 -9999 -9999 -9999 -9999 -9999 -9999 -9999 -9999 -9999 -9999 -9999 -9999 -9999 -9999 -9999 -9999 -9999 -9999
0.82 0.79 0.73 0.72 0.73 0.88 0.89 0.70 0.81 0.75 0.87 0.80 0.83 0.85 0.84 0.77 0.75 0.71 0.87 0.86 0.86 0.88 0.85 0.78 0.80 0.75 0.74 0.76 0.77 0.87 0.85 0.76 0.83 0.84 0.80 0.72 0.77 0.87 0.75 0.79 0.88 0.86 0.70 0.76 0.76 0.81 0.75 0.75 0.80 0.80 0.90 0.88 0.75 0.88 0.87 0.81 0.83 0.84 0.70 0.79 0.84 0.70 0.80 0.88 0.78 0.77 0.89 0.80 0.81 0.73 0.71 0.88 0.70 0.82 0.89 0.87 0.79 0.87 0.73 0.86 0.74 0.77 0.89 0.78 0.86 0.76 0.85 0.79 0.86 0.78 0.72 0.85 0.71 0.84 0.72 0.86 0.74 0.82 0.88 0.89 0.82 0.84 0.82 0.81 0.84 0.88 0.85 0.75 0.77 0.88 0.84 0.73 0.83 0.72 0.71 0.73 0.88 0.76 0.74 0.75 0.89 0.78 0.82 0.87 0.73 0.82 0.88 0.85 0.76 0.86 0.89 0.81 0.80 0.84 0.84 0.76 0.80 0.86 0.78 0.84 0.84 0.73 0.75 0.85 0.72 0.84 0.71 0.77 0.76 0.81 0.81 0.79 0.84 0.89 0.70 0.85 0.72 0.77 0.72 0.73 0.77 0.82 0.84 0.72 0.83 0.90 0.88 0.88 0.81 0.84 0.86 0.89 0.80 0.85 0.80 0.83 -9999 -9999 -9999 -9999 -9999 -9999 -9999 -9999 -9999 -9999 -9999 -9999 -9999 -9999 -9999 -9999 -9999 -9999 -9999 -9999 -9999 -9999 -9999 -9999 -9999 -9999 -9999 -9999 -9999 -9999 -9999 -9999 -9999 -9999 -9999 -9999 -9999 -9999 -9999
0.73 0.71 0.74 0.86 0.81 0.85 0.73 0.79 0.86 0.87 0.77 0.76 0.87 0.72 0.71 0.71 0.83 0.86 0.73 0.81 0.89 0.88 0.86 0.87 0.82 0.87 0.71 0.79 0.86 0.81 0.71 0.71 0.85 0.70 0.89 0.71 0.89 0.72 0.84 0.85 0.89 0.81 0.89 0.72 0.82 0.70 0.81 0.75 0.88 0.70 0.89 0.73 0.90 0.87 0.76 0.79 0.71 0.78 0.70 0.83 0.87 0.76 0.78 0.76 0.85 0.80 0.74 0.90 0.84 0.78 0.84 0.81 0.74 0.76 0.79 0.77 0.90 0.76 0.73 0.77 0.76 0.80 0.73 0.87 0.87 0.80 0.71 0.70 0.76 0.89 0.78 0.83 0.79 0.78 0.84 0.87 0.89 0.88 0.80 0.83 0.75 0.89 0.83 0.70 0.85 0.80 0.89 0.88 0.74 0.82 0.73 0.77 0.78 0.77 0.85 0.73 0.74 0.89 0.79 0.85 0.85 0.89 0.73 0.77 0.75 0.88 0.82 0.81 0.89 0.84 0.89 0.89 0.87 0.88 0.71 0.73 0.70 0.89 0.90 0.71 0.80 0.75 0.85 0.80 0.77 0.80 0.71 0.90 0.89 0.82 0.82 0.81 0.86 0.75 0.73 0.73 0.86 0.78 0.70 0.77 0.87 0.74 0.72 0.76 0.75 0.79 0.71 0.77 0.88 0.79 0.80 0.75 0.71 0.86 0.77 0.73 0.78 -9999 -9999 -9999 -9999 -9999 -9999 -9999 -9999 -9999 -9999 -9999 -9999 -9999 -9999 -9999 -9999 -9999 -9999 -9999 -9999 -9999 -9999 -9999 -9999 -9999 -9999 -9999 -9999 -9999 -9999 -9999 -9999 -9999 -9999 -9999 -9999 -9999 -9999
0.73 0.84 0.88 0.73 0.75 0.89 0.89 0.83 0.75 0.81 0.77 0.87 0.76 0.76 0.84 0.74 0.82 0.76 0.77 0.80 0.78 0.72 0.80 0.78 0.89 0.81 0.80 0.82 0.85 0.76 0.81 0.79 0.78 0.85 0.82 0.86 0.71 0.89 0.76 0.86 0.90 0.89 0.81 0.77 0.79 0.75 0.90 0.82 0.72 0.71 0.72 0.89 0.90 0.82 0.87 0.84 0.87 0.81 0.88 0.83 0.72 0.76 0.82 0.86 0.83 0.71 0.88 0.71 0.74 0.75 0.72 0.72 0.86 0.73 0.89 0.87 0.76 0.82 0.74 0.71 0.88 0.75 0.82 0.78 0.73 0.72 0.77 0.84 0.70 0.86 0.79 0.84 0.88 0.72 0.82 0.76 0.79 0.74 0.87 0.77 0.77 0.79 0.86 0.82 0.88 0.86 0.85 0.72 0.88 0.83 0.76 0.76 0.90 0.79 0.87 0.75 0.80 0.90 0.85 0.70 0.70 0.86 0.75 0.75 0.72 0.78 0.76 0.81 0.76 0.70 0.80 0.76 0.88 0.77 0.79 0.82 0.79 0.77 0.75 0.85 0.82 0.72 0.89 0.84 0.72 0.87 0.76 0.76 0.76 0.82 0.71 0.78 0.83 0.72 0.90 0.85 0.80 0.78 0.73 0.88 0.75 0.84 0.75 0.83 0.87 0.86 0.75 0.88 0.80 0.75 0.79 0.80 0.75 0.74 0.86 0.83 0.81 -9999 -9999 -9999 -9999 -9999 -9999 -9999 -9999 -9999 -9999 -9999 -9999 -9999 -9999 -9999 -9999 -9999 -9999 -9999 -9999 -9999 -9999 -9999 -9999 -9999 -9999 -9999 -9999 -9999 -9999 -9999 -9999 -9999 -9999 -9999 -9999 -9999 -9999
0.80 0.72 0.79 0.76 0.80 0.74 0.90 0.78 0.88 0.87 0.70 0.71 0.77 0.90 0.79 0.88 0.75 0.82 0.88 0.80 0.76 0.89 0.76 0.89 0.87 0.73 0.77 0.72 0.82 0.74 0.78 0.90 0.73 0.73 0.81 0.76 0.84 0.82 0.83 0.83 0.89 0.86 0.75 0.76 0.84 0.76 0.81 0.77 0.75 0.78 0.74 0.78 0.73 0.82 0.72 0.82 0.75 0.78 0.87 0.81 0.71 0.81 0.90 0.72 0.89 0.89 0.84 0.86 0.84 0.88 0.73 0.84 0.75 0.79 0.83 0.83 0.74 0.73 0.90 0.81 0.80 0.88 0.78 0.79 0.89 0.87 0.73 0.70 0.76 0.86 0.75 0.78 0.72 0.84 0.83 0.82 0.84 0.83 0.78 0.85 0.90 0.74 0.82 0.71 0.77 0.71 0.79 0.79 0.88 0.81 0.70 0.78 0.80 0.71 0.90 0.74 0.90 0.78 0.76 0.78 0.78 0.70 0.79 0.76 0.71 0.79 0.85 0.73 0.90 0.73 0.76 0.71 0.82 0.72 0.78 0.76 0.89 0.90 0.73 0.84 0.84 0.76 0.76 0.74 0.73 0.80 0.80 0.79 0.74 0.83 0.85 0.84 0.80 0.82 0.79 0.75 0.74 0.87 0.79 0.73 0.80 0.89 0.81 0.89 0.79 0.77 0.75 0.76 0.80 0.73 0.77 0.85 0.88 0.81 0.88 0.80 0.72 -9999 -9999 -9999 -9999 -9999 -9999 -9999 -9999 -9999 -9999 -9999 -9999 -9999 -9999 -9999 -9999 -9999 -9999 -9999 -9999 -9999 -9999 -9999 -9999 -9999 -9999 -9999 -9999 -9999 -9999 -9999 -9999 -9999 -9999 -9999 -9999 -9999 -9999
0.86 0.77 0.78 0.74 0.75 0.87 0.79 0.79 0.75 0.80 0.82 0.79 0.88 0.78 0.85 0.84 0.89 0.90 0.76 0.70 0.80 0.72 0.81 0.73 0.81 0.79 0.87 0.85 0.87 0.71 0.84 0.76 0.78 0.77 0.82 0.81 0.87 0.84 0.77 0.85 0.79 0.80 0.73 0.88 0.86 0.76 0.76 0.75 0.88 0.83 0.80 0.77 0.75 0.86 0.78 0.79 0.86 0.70 0.80 0.76 0.89 0.85 0.74 0.88 0.87 0.80 0.74 0.83 0.82 0.77 0.76 0.75 0.78 0.86 0.78 0.81 0.77 0.89 0.88 0.71 0.79 0.88 0.71 0.73 0.76 0.81 0.71 0.90 0.80 0.80 0.88 0.74 0.84 0.86 0.88 0.86 0.85 0.76 0.78 0.72 0.80 0.78 0.85 0.86 0.86 0.89 0.85 0.73 0.81 0.84 0.80 0.79 0.71 0.75 0.89 0.85 0.75 0.90 0.86 0.89 0.86 0.72 0.73 0.88 0.71 0.77 0.82 0.76 0.74 0.70 0.74 0.75 0.88 0.78 0.74 0.77 0.84 0.78 0.87 0.73 0.85 0.88 0.77 0.82 0.85 0.88 0.90 0.83 0.79 0.84 0.75 0.74 0.82 0.76 0.89 0.73 0.83 0.73 0.89 0.74 0.85 0.82 0.87 0.74 0.80 0.85 0.84 0.85 0.71 0.87 0.79 0.89 0.90 0.80 0.87 0.85 0.85 -9999 -9999 -9999 -9999 -9999 -9999 -9999 -9999 -9999 -9999 -9999 -9999 -9999 -9999 -9999 -9999 -9999 -9999 -9999 -9999 -9999 -9999 -9999 -9999 -9999 -9999 -9999 -9999 -9999 -9999 -9999 -9999 -9999 -9999 -9999 -9999 -9999 -9999
0.88 0.78 0.81 0.70 0.74 0.84 0.85 0.85 0.86 0.77 0.83 0.71 0.73 0.76 0.85 0.83 0.73 0.80 0.82 0.81 0.85 0.82 0.85 0.71 0.89 0.74 0.87 0.74 0.79 0.77 0.81 0.71 0.76 0.82 0.79 0.86 0.74 0.79 0.85 0.80 0.74 0.77 0.78 0.89 0.75 0.80 0.82 0.80 0.77 0.84 0.79 0.87 0.72 0.71 0.70 0.72 0.81 0.72 0.89 0.76 0.82 0.75 0.89 0.86 0.76 0.88 0.75 0.73 0.83 0.71 0.85 0.75 0.89 0.71 0.85 0.84 0.81 0.81 0.88 0.88 0.81 0.75 0.81 0.72 0.88 0.83 0.88 0.81 0.83 0.73 0.71 0.78 0.78 0.85 0.81 0.70 0.86 0.86 0.73 0.89 0.80 0.82 0.76 0.82 0.87 0.88 0.87 0.77 0.78 0.75 0.83 0.80 0.77 0.86 0.89 0.89 0.82 0.81 0.86 0.88 0.89 0.79 0.75 0.81 0.82 0.84 0.87 0.78 0.86 0.86 0.79 0.81 0.76 0.78 0.71 0.86 0.84 0.81 0.74 0.89 0.85 0.79 0.77 0.86 0.76 0.72 0.77 0.89 0.89 0.71 0.80 0.71 0.82 0.74 0.73 0.72 0.70 0.87 0.75 0.75 0.80 0.76 0.82 0.88 0.83 0.87 0.78 0.77 0.73 0.85 0.71 0.70 0.78 0.86 0.82 0.82 0.83 -9999 -9999 -9999 -9999 -9999 -9999 -9999 -9999 -9999 -9999 -9999 -9999 -9999 -9999 -9999 -9999 -9999 -9999 -9999 -9999 -9999 -9999 -9999 -9999 -9999 -9999 -9999 -9999 -9999 -9999 -9999 -9999 -9999 -9999 -9999 -9999 -9999 -9999
0.89 0.88 0.83 0.83 0.84 0.71 0.88 0.78 0.73 0.70 0.83 0.85 0.88 0.80 0.70 0.77 0.89 0.88 0.75 0.86 0.71 0.80 0.79 0.74 0.82 0.76 0.83 0.78 0.74 0.78 0.87 0.84 0.75 0.72 0.71 0.88 0.90 0.79 0.80 0.85 0.78 0.72 0.75 0.81 0.70 0.81 0.83 0.81 0.82 0.74 0.88 0.79 0.83 0.70 0.83 0.72 0.89 0.81 0.75 0.83 0.71 0.72 0.71 0.80 0.73 0.86 0.85 0.90 0.82 0.78 0.73 0.78 0.75 0.87 0.85 0.79 0.72 0.80 0.78 0.84 0.72 0.81 0.70 0.76 0.86 0.73 0.77 0.74 0.78 0.83 0.90 0.90 0.87 0.77 0.87 0.88 0.80 0.79 0.80 0.70 0.79 0.71 0.84 0.86 0.76 0.74 0.88 0.89 0.85 0.72 0.73 0.83 0.78 0.82 0.82 0.77 0.78 0.84 0.88 0.75 0.87 0.74 0.78 0.90 0.77 0.80 0.87 0.79 0.74 0.71 0.71 0.81 0.77 0.85 0.86 0.72 0.89 0.80 0.86 0.70 0.86 0.71 0.73 0.81 0.72 0.85 0.78 0.74 0.83 0.86 0.89 0.87 0.72 0.80 0.73 0.77 0.90 0.77 0.75 0.81 0.84 0.79 0.83 0.81 0.73 0.83 0.88 0.86 0.80 0.86 0.81 0.81 0.81 0.81 0.88 0.88 0.82 -9999 -9999 -9999 -9999 -9999 -9999 -9999 -9999 -9999 -9999 -9999 -9999 -9999 -9999 -9999 -9999 -9999 -9999 -9999 -9999 -9999 -9999 -9999 -9999 -9999 -9999 -9999 -9999 -9999 -9999 -9999 -9999 -9999 -9999 -9999 -9999 -9999 -9999
0.74 0.78 0.81 0.82 0.88 0.83 0.88 0.74 0.74 0.74 0.81 0.79 0.80 0.74 0.71 0.83 0.70 0.75 0.88 0.85 0.88 0.85 0.81 0.90 0.84 0.71 0.85 0.80 0.81 0.73 0.89 0.71 0.84 0.86 0.74 0.76 0.85 0.81 0.71 0.86 0.72 0.78 0.75 0.74 0.79 0.76 0.83 0.74 0.84 0.73 0.79 0.71 0.78 0.90 0.74 0.83 0.89 0.86 0.82 0.79 0.74 0.75 0.84 0.82 0.88 0.79 0.75 0.84 0.71 0.84 0.71 0.77 0.86 0.80 0.86 0.71 0.83 0.78 0.79 0.90 0.72 0.81 0.83 0.87 0.75 0.89 0.76 0.84 0.71 0.81 0.81 0.80 0.76 0.88 0.74 0.85 0.72 0.77 0.75 0.86 0.81 0.71 0.88 0.83 0.75 0.79 0.77 0.90 0.72 0.73 0.74 0.79 0.87 0.81 0.82 0.80 0.76 0.74 0.90 0.88 0.80 0.84 0.74 0.81 0.87 0.90 0.78 0.78 0.74 0.88 0.88 0.84 0.79 0.77 0.75 0.86 0.75 0.85 0.83 0.74 0.87 0.80 0.84 0.80 0.84 0.88 0.76 0.81 0.81 0.76 0.75 0.73 0.84 0.86 0.87 0.87 0.80 0.71 0.75 0.80 0.71 0.78 0.90 0.79 0.70 0.77 0.84 0.86 0.84 0.88 0.88 0.77 0.85 0.84 0.75 0.83 0.78 0.81 -9999 -9999 -9999 -9999 -9999 -9999 -9999 -9999 -9999 -9999 -9999 -9999 -9999 -9999 -9999 -9999 -9999 -9999 -9999 -9999 -9999 -9999 -9999 -9999 -9999 -9999 -9999 -9999 -9999 -9999 -9999 -9999 -9999 -9999 -9999 -9999 -9999
0.74 0.75 0.84 0.89 0.73 0.88 0.79 0.71 0.73 0.83 0.75 0.78 0.89 0.80 0.82 0.86 0.77 0.71 0.80 0.73 0.89 0.76 0.89 0.89 0.77 0.90 0.84 0.81 0.75 0.74 0.81 0.76 0.73 0.84 0.80 0.85 0.77 0.88 0.81 0.78 0.83 0.71 0.88 0.71 0.77 0.79 0.71 0.71 0.82 0.72 0.83 0.71 0.73 0.90 0.81 0.81 0.80 0.84 0.84 0.86 0.81 0.89 0.86 0.76 0.70 0.71 0.81 0.75 0.83 0.76 0.75 0.89 0.80 0.82 0.71 0.76 0.79 0.84 0.76 0.76 0.85 0.81 0.85 0.71 0.86 0.83 0.78 0.74 0.74 0.89 0.73 0.85 0.75 0.89 0.84 0.79 0.89 0.71 0.76 0.77 0.71 0.85 0.89 0.87 0.71 0.89 0.78 0.81 0.71 0.87 0.85 0.73 0.71 0.77 0.70 0.74 0.72 0.80 0.70 0.72 0.74 0.79 0.73 0.85 0.75 0.88 0.88 0.75 0.76 0.86 0.76 0.85 0.81 0.78 0.86 0.82 0.81 0.83 0.73 0.90 0.75 0.89 0.70 0.77 0.71 0.73 0.79 0.81 0.74 0.83 0.79 0.76 0.83 0.70 0.82 0.78 0.79 0.76 0.88 0.81 0.75 0.89 0.73 0.89 0.87 0.86 0.83 0.80 0.88 0.82 0.82 0.73 0.83 0.71 0.86 0.74 0.89 0.82 -9999 -9999 -9999 -9999 -9999 -9999 -9999 -9999 -9999 -9999 -9999 -9999 -9999 -9999 -9999 -9999 -9999 -9999 -9999 -9999 -9999 -9999 -9999 -9999 -9999 -9999 -9999 -9999 -9999 -9999 -9999 -9999 -9999 -9999 -9999 -9999 -9999
0.86 0.84 0.79 0.70 0.84 0.84 0.76 0.82 0.74 0.79 0.87 0.71 0.86 0.85 0.81 0.86 0.87 0.71 0.75 0.72 0.82 0.73 0.81 0.71 0.85 0.73 0.82 0.74 0.76 0.73 0.88 0.79 0.77 0.71 0.80 0.76 0.88 0.73 0.73 0.90 0.77 0.82 0.71 0.85 0.79 0.79 0.84 0.72 0.74 0.80 0.72 0.86 0.72 0.82 0.81 0.89 0.78 0.73 0.74 0.72 0.74 0.87 0.78 0.80 0.75 0.73 0.80 0.90 0.83 0.70 0.80 0.86 0.80 0.86 0.85 0.74 0.82 0.87 0.78 0.85 0.78 0.76 0.74 0.89 0.84 0.77 0.79 0.74 0.72 0.82 0.89 0.79 0.76 0.76 0.76 0.85 0.73 0.70 0.87 0.82 0.89 0.75 0.86 0.78 0.71 0.73 0.77 0.75 0.71 0.87 0.89 0.73 0.80 0.84 0.85 0.81 0.88 0.80 0.81 0.86 0.79 0.87 0.83 0.84 0.85 0.76 0.70 0.76 0.87 0.73 0.71 0.71 0.80 0.76 0.83 0.75 0.71 0.74 0.75 0.90 0.80 0.73 0.80 0.80 0.89 0.71 0.79 0.80 0.74 0.73 0.77 0.76 0.87 0.80 0.83 0.76 0.81 0.72 0.87 0.82 0.74 0.86 0.83 0.72 0.87 0.81 0.75 0.75 0.81 0.86 0.73 0.70 0.71 0.80 0.86 0.77 0.81 0.77 -9999 -9999 -9999 -9999 -9999 -9999 -9999 -9999 -9999 -9999 -9999 -9999 -9999 -9999 -9999 -9999 -9999 -9999 -9999 -9999 -9999 -9999 -9999 -9999 -9999 -9999 -9999 -9999 -9999 -9999 -9999 -9999 -9999 -9999 -9999 -9999 -9999
0.81 0.80 0.75 0.74 0.77 0.83 0.74 0.71 0.70 0.71 0.71 0.87 0.82 0.74 0.88 0.81 0.74 0.75 0.73 0.77 0.87 0.74 0.84 0.89 0.86 0.80 0.76 0.86 0.87 0.90 0.70 0.79 0.86 0.88 0.77 0.87 0.81 0.76 0.79 0.77 0.89 0.81 0.78 0.75 0.71 0.79 0.86 0.79 0.78 0.72 0.81 0.77 0.82 0.77 0.76 0.70 0.81 0.89 0.89 0.88 0.77 0.76 0.87 0.78 0.85 0.85 0.75 0.89 0.87 0.80 0.85 0.71 0.80 0.85 0.85 0.81 0.83 0.78 0.82 0.71 0.86 0.77 0.85 0.84 0.77 0.88 0.82 0.87 0.86 0.82 0.71 0.85 0.78 0.76 0.85 0.86 0.72 0.79 0.88 0.81 0.89 0.73 0.84 0.85 0.78 0.83 0.79 0.73 0.81 0.90 0.86 0.73 0.86 0.75 0.83 0.76 0.79 0.81 0.86 0.77 0.79 0.80 0.72 0.85 0.83 0.89 0.75 0.73 0.73 0.72 0.74 0.74 0.80 0.81 0.73 0.82 0.78 0.87 0.79 0.75 0.76 0.78 0.77 0.89 0.84 0.71 0.83 0.82 0.89 0.75 0.80 0.76 0.74 0.81 0.81 0.79 0.90 0.88 0.74 0.76 0.83 0.74 0.79 0.81 0.74 0.73 0.86 0.77 0.83 0.78 0.84 0.89 0.77 0.72 0.87 0.76 0.90 0.76 -9999 -9999 -9999 -9999 -9999 -9999 -9999 -9999 -9999 -9999 -9999 -9999 -9999 -9999 -9999 -9999 -9999 -9999 -9999 -9999 -9999 -9999 -9999 -9999 -9999 -9999 -9999 -9999 -9999 -9999 -9999 -9999 -9999 -9999 -9999 -9999 -9999
0.85 0.71 0.72 0.78 0.88 0.71 0.76 0.89 0.81 0.73 0.81 0.89 0.83 0.75 0.74 0.75 0.82 0.86 0.80 0.79 0.74 0.80 0.72 0.73 0.77 0.87 0.87 0.77 0.81 0.72 0.73 0.81 0.82 0.83 0.83 0.71 0.79 0.87 0.71 0.86 0.85 0.75 0.80 0.83 0.82 0.75 0.76 0.79 0.78 0.76 0.74 0.90 0.83 0.78 0.80 0.76 0.83 0.73 0.79 0.81 0.78 0.77 0.80 0.79 0.81 0.82 0.77 0.77 0.70 0.73 0.70 0.84 0.80 0.74 0.80 0.78 0.76 0.72 0.85 0.74 0.75 0.72 0.86 0.86 0.77 0.79 0.75 0.75 0.75 0.78 0.76 0.79 0.80 0.82 0.80 0.84 0.79 0.84 0.74 0.87 0.81 0.70 0.84 0.82 0.71 0.87 0.84 0.76 0.71 0.74 0.81 0.75 0.74 0.83 0.79 0.76 0.81 0.86 0.87 0.76 0.78 0.73 0.82 0.75 0.70 0.72 0.87 0.83 0.73 0.84 0.80 0.76 0.77 0.82 0.73 0.77 0.83 0.75 0.79 0.75 0.74 0.78 0.80 0.75 0.73 0.79 0.70 0.84 0.72 0.80 0.77 0.70 0.83 0.87 0.79 0.85 0.86 0.88 0.86 0.89 0.86 0.88 0.81 0.74 0.86 0.70 0.82 0.85 0.82 0.71 0.86 0.87 0.86 0.86 0.86 0.90 0.71 0.87 -9999 -9999 -9999 -9999 -9999 -9999 -9999 -9999 -9999 -9999 -9999 -9999 -9999 -9999 -9999 -9999 -9999 -9999 -9999 -9999 -9999 -9999 -9999 -9999 -9999 -9999 -9999 -9999 -9999 -9999 -9999 -9999 -9999 -9999 -9999 -9999 -9999
0.70 0.71 0.78 0.81 0.79 0.72 0.88 0.74 0.85 0.70 0.77 0.82 0.80 0.83 0.70 0.72 0.88 0.89 0.74 0.80 0.80 0.89 0.85 0.86 0.85 0.88 0.86 0.83 0.88 0.75 0.79 0.78 0.73 0.83 0.79 0.72 0.74 0.89 0.75 0.76 0.82 0.85 0.75 0.78 0.79 0.82 0.88 0.76 0.72 0.83 0.76 0.79 0.72 0.76 0.86 0.85 0.84 0.88 0.76 0.72 0.89 0.84 0.72 0.81 0.75 0.75 0.79 0.82 0.70 0.74 0.90 0.87 0.88 0.76 0.77 0.82 0.74 0.80 0.88 0.81 0.77 0.72 0.78 0.83 0.81 0.73 0.89 0.89 0.76 0.71 0.75 0.78 0.81 0.86 0.86 0.87 0.78 0.83 0.87 0.75 0.75 0.83 0.78 0.82 0.75 0.88 0.87 0.85 0.73 0.89 0.86 0.75 0.70 0.88 0.88 0.74 0.72 0.72 0.75 0.84 0.71 0.78 0.80 0.75 0.75 0.84 0.83 0.72 0.77 0.79 0.82 0.72 0.82 0.81 0.88 0.82 0.78 0.80 0.79 0.80 0.71 0.79 0.77 0.73 0.88 0.71 0.82 0.84 0.82 0.86 0.85 0.77 0.84 0.74 0.71 0.89 0.72 0.74 0.84 0.89 0.72 0.79 0.80 0.72 0.86 0.81 0.84 0.74 0.89 0.86 0.81 0.89 0.77 0.82 0.87 0.75 0.70 0.76 -9999 -9999 -9999 -9999 -9999 -9999 -9999 -9999 -9999 -9999 -9999 -9999 -9999 -9999 -9999 -9999 -9999 -9999 -9999 -9999 -9999 -9999 -9999 -9999 -9999 -9999 -9999 -9999 -9999 -9999 -9999 -9999 -9999 -9999 -9999 -9999 -9999
0.74 0.71 0.77 0.70 0.85 0.72 0.86 0.89 0.70 0.84 0.79 0.86 0.82 0.82 0.86 0.86 0.72 0.86 0.73 0.79 0.70 0.73 0.81 0.88 0.89 0.88 0.74 0.74 0.84 0.71 0.76 0.85 0.75 0.86 0.77 0.71 0.79 0.80 0.80 0.84 0.75 0.70 0.88 0.81 0.88 0.89 0.86 0.73 0.75 0.72 0.86 0.76 0.75 0.88 0.78 0.88 0.86 0.72 0.73 0.72 0.81 0.72 0.74 0.88 0.75 0.78 0.82 0.84 0.72 0.81 0.87 0.81 0.75 0.89 0.89 0.89 0.86 0.70 0.79 0.84 0.72 0.83 0.80 0.82 0.86 0.75 0.82 0.82 0.76 0.89 0.79 0.75 0.83 0.86 0.73 0.77 0.88 0.86 0.71 0.75 0.71 0.89 0.77 0.84 0.72 0.83 0.73 0.72 0.81 0.85 0.79 0.80 0.86 0.73 0.72 0.84 0.80 0.72 0.86 0.80 0.72 0.84 0.73 0.75 0.86 0.86 0.88 0.72 0.77 0.90 0.81 0.77 0.79 0.73 0.73 0.84 0.84 0.78 0.88 0.78 0.82 0.71 0.85 0.73 0.71 0.86 0.70 0.90 0.83 0.74 0.80 0.77 0.84 0.80 0.73 0.86 0.79 0.84 0.71 0.73 0.74 0.73 0.72 0.80 0.71 0.81 0.81 0.77 0.74 0.80 0.89 0.90 0.88 0.83 0.72 0.86 0.84 0.80 0.74 -9999 -9999 -9999 -9999 -9999 -9999 -9999 -9999 -9999 -9999 -9999 -9999 -9999 -9999 -9999 -9999 -9999 -9999 -9999 -9999 -9999 -9999 -9999 -9999 -9999 -9999 -9999 -9999 -9999 -9999 -9999 -9999 -9999 -9999 -9999 -9999
0.74 0.81 0.88 0.80 0.84 0.77 0.70 0.85 0.85 0.87 0.79 0.70 0.87 0.76 0.73 0.87 0.79 0.79 0.80 0.72 0.74 0.72 0.73 0.89 0.74 0.78 0.90 0.88 0.71 0.75 0.85 0.73 0.71 0.90 0.80 0.90 0.72 0.85 0.86 0.78 0.86 0.71 0.88 0.85 0.70 0.81 0.89 0.84 0.86 0.89 0.76 0.76 0.84 0.81 0.81 0.77 0.75 0.81 0.88 0.76 0.80 0.79 0.82 0.87 0.74 0.79 0.84 0.75 0.74 0.77 0.76 0.72 0.86 0.74 0.79 0.77 0.87 0.77 0.75 0.85 0.79 0.77 0.88 0.89 0.75 0.84 0.79 0.79 0.74 0.78 0.78 0.73 0.71 0.83 0.74 0.89 0.85 0.82 0.79 0.87 0.82 0.71 0.71 0.88 0.70 0.77 0.90 0.89 0.73 0.87 0.86 0.84 0.85 0.78 0.79 0.82 0.82 0.84 0.88 0.80 0.81 0.83 0.74 0.79 0.72 0.88 0.80 0.81 0.81 0.73 0.80 0.86 0.82 0.75 0.86 0.81 0.83 0.73 0.82 0.81 0.74 0.76 0.78 0.87 0.71 0.73 0.78 0.75 0.70 0.71 0.89 0.87 0.73 0.74 0.86 0.90 0.72 0.82 0.87 0.85 0.72 0.88 0.84 0.88 0.80 0.82 0.73 0.87 0.86 0.86 0.70 0.80 0.82 0.72 0.89 0.78 0.70 0.73 0.80 -9999 -9999 -9999 -9999 -9999 -9999 -9999 -9999 -9999 -9999 -9999 -9999 -9999 -9999 -9999 -9999 -9999 -9999 -9999 -9999 -9999 -9999 -9999 -9999 -9999 -9999 -9999 -9999 -9999 -9999 -9999 -9999 -9999 -9999 -9999 -9999
0.86 0.76 0.80 0.74 0.75 0.89 0.81 0.72 0.79 0.71 0.88 0.79 0.81 0.89 0.73 0.72 0.79 0.86 0.77 0.72 0.75 0.76 0.70 0.80 0.72 0.72 0.74 0.86 0.74 0.74 0.84 0.72 0.85 0.84 0.73 0.83 0.84 0.80 0.73 0.90 0.85 0.82 0.77 0.82 0.75 0.86 0.82 0.83 0.89 0.84 0.72 0.85 0.78 0.72 0.72 0.82 0.88 0.72 0.88 0.81 0.75 0.87 0.72 0.73 0.87 0.80 0.75 0.90 0.83 0.82 0.89 0.88 0.79 0.77 0.89 0.83 0.87 0.84 0.84 0.90 0.79 0.89 0.71 0.84 0.77 0.74 0.72 0.84 0.75 0.87 0.79 0.85 0.80 0.73 0.89 0.78 0.82 0.84 0.84 0.76 0.79 0.82 0.88 0.86 0.82 0.84 0.74 0.72 0.89 0.77 0.78 0.75 0.89 0.77 0.88 0.73 0.83 0.79 0.71 0.74 0.80 0.82 0.76 0.88 0.75 0.87 0.88 0.76 0.81 0.81 0.80 0.88 0.74 0.73 0.77 0.80 0.88 0.76 0.76 0.85 0.86 0.75 0.80 0.79 0.81 0.85 0.71 0.76 0.88 0.80 0.72 0.84 0.70 0.86 0.89 0.82 0.70 0.78 0.80 0.83 0.83 0.90 0.74 0.88 0.74 0.73 0.86 0.77 0.88 0.79 0.90 0.88 0.76 0.83 0.81 0.77 0.75 0.80 0.78 -9999 -9999 -9999 -9999 -9999 -9999 -9999 -9999 -9999 -9999 -9999 -9999 -9999 -9999 -9999 -9999 -9999 -9999 -9999 -9999 -9999 -9999 -9999 -9999 -9999 -9999 -9999 -9999 -9999 -9999 -9999 -9999 -9999 -9999 -9999 -9999
0.79 0.83 0.84 0.79 0.89 0.77 0.77 0.80 0.82 0.72 0.83 0.88 0.85 0.72 0.74 0.88 0.87 0.79 0.86 0.74 0.74 0.76 0.86 0.85 0.80 0.71 0.87 0.71 0.71 0.74 0.73 0.87 0.77 0.89 0.81 0.90 0.77 0.73 0.78 0.80 0.83 0.75 0.86 0.76 0.89 0.80 0.73 0.80 0.83 0.82 0.70 0.76 0.71 0.75 0.88 0.75 0.77 0.90 0.87 0.70 0.84 0.75 0.74 0.72 0.79 0.80 0.73 0.78 0.74 0.82 0.90 0.73 0.82 0.84 0.74 0.75 0.70 0.71 0.80 0.88 0.80 0.73 0.84 0.73 0.70 0.87 0.86 0.70 0.71 0.84 0.86 0.73 0.77 0.72 0.75 0.82 0.74 0.80 0.89 0.74 0.72 0.90 0.74 0.82 0.74 0.80 0.71 0.73 0.82 0.82 0.88 0.88 0.85 0.79 0.86 0.75 0.77 0.87 0.72 0.85 0.82 0.86 0.86 0.88 0.71 0.84 0.85 0.81 0.82 0.89 0.72 0.81 0.83 0.73 0.87 0.72 0.72 0.74 0.76 0.87 0.87 0.87 0.83 0.88 0.72 0.77 0.89 0.82 0.74 0.79 0.82 0.79 0.77 0.89 0.82 0.79 0.78 0.73 0.80 0.82 0.70 0.79 0.86 0.74 0.71 0.77 0.77 0.88 0.79 0.73 0.82 0.75 0.79 0.71 0.78 0.81 0.89 0.74 0.79 -9999 -9999 -9999 -9999 -9999 -9999 -9999 -9999 -9999 -9999 -9999 -9999 -9999 -9999 -9999 -9999 -9999 -9999 -9999 -9999 -9999 -9999 -9999 -9999 -9999 -9999 -9999 -9999 -9999 -9999 -9999 -9999 -9999 -9999 -9999 -9999
0.75 0.81 0.85 0.83 0.71 0.74 0.81 0.85 0.83 0.77 0.79 0.85 0.74 0.79 0.70 0.71 0.86 0.87 0.76 0.86 0.74 0.85 0.72 0.86 0.78 0.83 0.76 0.81 0.76 0.75 0.73 0.73 0.72 0.81 0.89 0.72 0.74 0.84 0.83 0.72 0.73 0.85 0.79 0.71 0.89 0.80 0.74 0.73 0.86 0.71 0.70 0.82 0.80 0.77 0.88 0.78 0.73 0.86 0.76 0.85 0.85 0.74 0.82 0.84 0.83 0.74 0.86 0.83 0.75 0.72 0.87 0.88 0.78 0.76 0.86 0.82 0.81 0.77 0.73 0.75 0.84 0.89 0.70 0.74 0.85 0.83 0.83 0.80 0.70 0.77 0.86 0.90 0.81 0.77 0.89 0.88 0.88 0.79 0.74 0.90 0.75 0.75 0.73 0.89 0.87 0.71 0.76 0.87 0.74 0.70 0.72 0.84 0.84 0.87 0.87 0.74 0.80 0.73 0.80 0.74 0.74 0.72 0.85 0.84 0.76 0.71 0.87 0.89 0.70 0.72 0.80 0.85 0.73 0.71 0.80 0.81 0.80 0.78 0.74 0.77 0.75 0.82 0.74 0.81 0.85 0.81 0.81 0.80 0.86 0.80 0.73 0.88 0.78 0.88 0.84 0.71 0.73 0.74 0.86 0.89 0.72 0.81 0.70 0.77 0.82 0.76 0.73 0.73 0.74 0.87 0.73 0.80 0.84 0.78 0.85 0.81 0.83 0.83 0.85 -9999 -9999 -9999 -9999 -9999 -9999 -9999 -9999 -9999 -9999 -9999 -9999 -9999 -9999 -9999 -9999 -9999 -9999 -9999 -9999 -9999 -9999 -9999 -9999 -9999 -9999 -9999 -9999 -9999 -9999 -9999 -9999 -9999 -9999 -9999 -9999
0.78 0.71 0.80 0.81 0.80 0.77 0.72 0.86 0.71 0.90 0.80 0.88 0.75 0.88 0.86 0.71 0.76 0.73 0.89 0.71 0.83 0.86 0.76 0.71 0.73 0.76 0.78 0.85 0.80 0.76 0.89 0.78 0.90 0.83 0.72 0.76 0.77 0.71 0.75 0.86 0.78 0.84 0.79 0.74 0.74 0.81 0.89 0.75 0.79 0.87 0.74 0.88 0.74 0.71 0.72 0.88 0.71 0.83 0.81 0.78 0.75 0.83 0.81 0.82 0.76 0.83 0.73 0.74 0.84 0.84 0.85 0.80 0.78 0.72 0.82 0.83 0.84 0.75 0.75 0.71 0.72 0.80 0.88 0.78 0.84 0.81 0.82 0.86 0.75 0.89 0.79 0.72 0.76 0.89 0.89 0.70 0.71 0.71 0.83 0.72 0.87 0.80 0.79 0.86 0.74 0.72 0.80 0.77 0.74 0.71 0.83 0.90 0.81 0.70 0.82 0.73 0.79 0.81 0.77 0.71 0.72 0.80 0.86 0.87 0.76 0.77 0.80 0.85 0.77 0.72 0.81 0.81 0.71 0.75 0.83 0.73 0.88 0.89 0.71 0.87 0.87 0.84 0.84 0.90 0.72 0.72 0.90 0.79 0.78 0.77 0.71 0.70 0.71 0.71 0.81 0.74 0.72 0.78 0.73 0.75 0.75 0.81 0.75 0.80 0.80 0.80 0.80 0.80 0.88 0.77 0.81 0.84 0.84 0.83 0.75 0.89 0.85 0.79 0.73 -9999 -9999 -9999 -9999 -9999 -9999 -9999 -9999 -9999 -9999 -9999 -9999 -9999 -9999 -9999 -9999 -9999 -9999 -9999 -9999 -9999 -9999 -9999 -9999 -9999 -9999 -9999 -9999 -9999 -9999 -9999 -9999 -9999 -9999 -9999 -9999
0.75 0.79 0.80 0.78 0.89 0.71 0.83 0.74 0.80 0.74 0.90 0.77 0.70 0.81 0.71 0.78 0.87 0.90 0.71 0.76 0.81 0.87 0.77 0.74 0.85 0.76 0.76 0.89 0.79 0.77 0.76 0.76 0.71 0.87 0.77 0.83 0.73 0.74 0.73 0.75 0.83 0.82 0.73 0.77 0.89 0.74 0.88 0.84 0.79 0.81 0.71 0.87 0.75 0.78 0.77 0.72 0.84 0.75 0.76 0.77 0.87 0.79 0.71 0.78 0.81 0.79 0.76 0.86 0.74 0.86 0.72 0.73 0.79 0.74 0.71 0.85 0.78 0.82 0.83 0.86 0.77 0.87 0.78 0.77 0.76 0.76 0.78 0.90 0.85 0.78 0.89 0.74 0.75 0.80 0.70 0.78 0.84 0.75 0.81 0.79 0.76 0.90 0.71 0.79 0.74 0.78 0.82 0.70 0.73 0.72 0.79 0.79 0.85 0.83 0.77 0.75 0.73 0.80 0.83 0.75 0.82 0.80 0.83 0.82 0.84 0.88 0.72 0.73 0.75 0.83 0.80 0.79 0.75 0.82 0.78 0.90 0.87 0.71 0.73 0.84 0.78 0.83 0.87 0.84 0.86 0.74 0.85 0.85 0.85 0.76 0.89 0.73 0.83 0.73 0.80 0.83 0.86 0.88 0.80 0.87 0.86 0.89 0.90 0.87 0.81 0.78 0.72 0.85 0.77 0.87 0.76 0.85 0.84 0.75 0.77 0.75 0.72 0.86 0.88 0.76 -9999 -9999 -9999 -9999 -9999 -9999 -9999 -9999 -9999 -9999 -9999 -9999 -9999 -9999 -9999 -9999 -9999 -9999 -9999 -9999 -9999 -9999 -9999 -9999 -9999 -9999 -9999 -9999 -9999 -9999 -9999 -9999 -9999 -9999 -9999
0.73 0.85 0.76 0.86 0.90 0.86 0.73 0.76 0.89 0.72 0.78 0.76 0.77 0.86 0.87 0.71 0.88 0.85 0.88 0.83 0.85 0.70 0.80 0.87 0.74 0.87 0.86 0.71 0.76 0.73 0.76 0.84 0.83 0.73 0.75 0.78 0.90 0.86 0.75 0.74 0.85 0.90 0.80 0.88 0.81 0.73 0.85 0.82 0.88 0.84 0.78 0.90 0.82 0.75 0.83 0.82 0.89 0.81 0.82 0.73 0.85 0.76 0.88 0.76 0.84 0.72 0.80 0.77 0.86 0.88 0.86 0.74 0.72 0.76 0.75 0.90 0.77 0.85 0.77 0.80 0.75 0.87 0.86 0.83 0.75 0.89 0.87 0.87 0.77 0.86 0.74 0.74 0.71 0.86 0.70 0.74 0.72 0.88 0.77 0.89 0.73 0.90 0.78 0.88 0.76 0.84 0.87 0.90 0.82 0.72 0.75 0.83 0.82 0.73 0.75 0.78 0.79 0.79 0.77 0.80 0.77 0.71 0.83 0.84 0.71 0.87 0.77 0.76 0.79 0.84 0.83 0.80 0.75 0.88 0.83 0.77 0.87 0.76 0.87 0.83 0.89 0.82 0.89 0.75 0.77 0.84 0.80 0.79 0.82 0.80 0.77 0.73 0.78 0.75 0.70 0.87 0.89 0.72 0.79 0.84 0.90 0.73 0.78 0.82 0.72 0.88 0.90 0.71 0.86 0.80 0.81 0.89 0.79 0.80 0.88 0.90 0.76 0.87 0.72 0.73 -9999 -9999 -9999 -9999 -9999 -9999 -9999 -9999 -9999 -9999 -9999 -9999 -9999 -9999 -9999 -9999 -9999 -9999 -9999 -9999 -9999 -9999 -9999 -9999 -9999 -9999 -9999 -9999 -9999 -9999 -9999 -9999 -9999 -9999 -9999
0.85 0.89 0.77 0.72 0.89 0.85 0.76 0.88 0.84 0.77 0.74 0.84 0.74 0.73 0.82 0.86 0.89 0.80 0.80 0.75 0.76 0.79 0.83 0.86 0.78 0.81 0.87 0.79 0.75 0.72 0.88 0.71 0.77 0.82 0.75 0.90 0.89 0.83 0.74 0.86 0.79 0.86 0.88 0.87 0.75 0.88 0.74 0.78 0.89 0.82 0.75 0.80 0.78 0.76 0.73 0.83 0.87 0.89 0.80 0.74 0.70 0.77 0.86 0.79 0.89 0.72 0.71 0.76 0.83 0.76 0.89 0.78 0.86 0.88 0.75 0.86 0.84 0.85 0.78 0.72 0.71 0.71 0.83 0.81 0.77 0.84 0.71 0.77 0.85 0.72 0.70 0.88 0.73 0.83 0.75 0.83 0.87 0.75 0.72 0.88 0.84 0.76 0.88 0.84 0.87 0.86 0.76 0.77 0.83 0.81 0.87 0.89 0.78 0.88 0.88 0.81 0.83 0.82 0.86 0.76 0.80 0.79 0.80 0.82 0.77 0.70 0.78 0.71 0.80 0.83 0.84 0.87 0.83 0.73 0.75 0.78 0.89 0.73 0.74 0.81 0.84 0.81 0.88 0.85 0.87 0.80 0.89 0.71 0.85 0.71 0.70 0.73 0.86 0.86 0.71 0.86 0.87 0.84 0.73 0.88 0.81 0.70 0.81 0.81 0.90 0.81 0.85 0.71 0.74 0.71 0.86 0.85 0.77 0.77 0.75 0.83 0.75 0.81 0.87 0.71 -9999 -9999 -9999 -9999 -9999 -9999 -9999 -9999 -9999 -9999 -9999 -9999 -9999 -9999 -9999 -9999 -9999 -9999 -9999 -9999 -9999 -9999 -9999 -9999 -9999 -9999 -9999 -9999 -9999 -9999 -9999 -9999 -9999 -9999 -9999
0.74 0.89 0.72 0.86 0.89 0.77 0.77 0.86 0.88 0.79 0.72 0.77 0.88 0.72 0.82 0.76 0.85 0.87 0.78 0.72 0.70 0.72 0.82 0.81 0.83 0.88 0.78 0.80 0.85 0.74 0.89 0.81 0.71 0.85 0.81 0.74 0.81 0.73 0.77 0.83 0.73 0.90 0.87 0.84 0.82 0.82 0.76 0.75 0.78 0.86 0.87 0.89 0.81 0.82 0.81 0.83 0.84 0.71 0.79 0.88 0.78 0.81 0.86 0.72 0.86 0.78 0.84 0.88 0.76 0.90 0.86 0.85 0.87 0.79 0.86 0.87 0.80 0.73 0.84 0.89 0.85 0.72 0.81 0.84 0.83 0.87 0.84 0.86 0.72 0.87 0.77 0.80 0.81 0.77 0.88 0.74 0.77 0.89 0.82 0.75 0.75 0.81 0.72 0.76 0.86 0.73 0.75 0.79 0.83 0.88 0.74 0.78 0.73 0.75 0.78 0.82 0.76 0.77 0.76 0.78 0.78 0.79 0.76 0.77 0.86 0.85 0.78 0.81 0.89 0.72 0.89 0.74 0.74 0.78 0.83 0.76 0.76 0.89 0.74 0.83 0.85 0.87 0.73 0.73 0.79 0.79 0.85 0.71 0.73 0.76 0.76 0.80 0.81 0.70 0.88 0.90 0.85 0.83 0.86 0.89 0.85 0.84 0.71 0.89 0.77 0.77 0.73 0.74 0.78 0.72 0.75 0.74 0.80 0.79 0.76 0.75 0.74 0.87 0.87 0.76 -9999 -9999 -9999 -9999 -9999 -9999 -9999 -9999 -9999 -9999 -9999 -9999 -9999 -9999 -9999 -9999 -9999 -9999 -9999 -9999 -9999 -9999 -9999 -9999 -9999 -9999 -9999 -9999 -9999 -9999 -9999 -9999 -9999 -9999 -9999
0.80 0.78 0.73 0.76 0.82 0.88 0.86 0.88 0.84 0.86 0.81 0.88 0.71 0.87 0.86 0.87 0.82 0.90 0.82 0.90 0.82 0.77 0.70 0.79 0.74 0.72 0.82 0.86 0.77 0.82 0.80 0.72 0.84 0.71 0.70 0.76 0.74 0.80 0.85 0.87 0.76 0.71 0.77 0.74 0.74 0.71 0.89 0.74 0.72 0.78 0.89 0.82 0.90 0.88 0.77 0.87 0.72 0.77 0.82 0.78 0.71 0.77 0.77 0.79 0.84 0.85 0.78 0.87 0.79 0.71 0.87 0.74 0.76 0.77 0.76 0.72 0.78 0.84 0.71 0.86 0.82 0.86 0.81 0.74 0.77 0.82 0.86 0.87 0.89 0.81 0.83 0.89 0.77 0.88 0.87 0.76 0.89 0.80 0.88 0.85 0.76 0.86 0.76 0.75 0.79 0.71 0.72 0.89 0.70 0.87 0.75 0.83 0.76 0.77 0.81 0.85 0.85 0.73 0.78 0.75 0.84 0.70 0.78 0.80 0.86 0.77 0.77 0.80 0.72 0.83 0.90 0.85 0.85 0.90 0.81 0.81 0.78 0.77 0.80 0.85 0.80 0.72 0.71 0.73 0.73 0.85 0.82 0.88 0.73 0.73 0.85 0.83 0.73 0.79 0.90 0.86 0.75 0.86 0.78 0.73 0.79 0.70 0.85 0.88 0.78 0.89 0.84 0.83 0.80 0.72 0.85 0.76 0.79 0.85 0.72 0.83 0.81 0.79 0.75 0.72 -9999 -9999 -9999 -9999 -9999 -9999 -9999 -9999 -9999 -9999 -9999 -9999 -9999 -9999 -9999 -9999 -9999 -9999 -9999 -9999 -9999 -9999 -9999 -9999 -9999 -9999 -9999 -9999 -9999 -9999 -9999 -9999 -9999 -9999 -9999
0.90 0.86 0.79 0.70 0.71 0.79 0.82 0.77 0.85 0.85 0.79 0.72 0.80 0.76 0.83 0.85 0.87 0.76 0.87 0.73 0.77 0.88 0.86 0.75 0.80 0.70 0.77 0.79 0.73 0.76 0.75 0.81 0.77 0.80 0.87 0.81 0.79 0.78 0.89 0.79 0.76 0.84 0.78 0.74 0.89 0.83 0.79 0.86 0.84 0.74 0.72 0.80 0.84 0.88 0.73 0.72 0.71 0.82 0.88 0.85 0.81 0.74 0.90 0.86 0.77 0.78 0.71 0.78 0.82 0.88 0.88 0.76 0.72 0.84 0.82 0.86 0.82 0.71 0.88 0.89 0.80 0.77 0.82 0.83 0.89 0.86 0.74 0.72 0.84 0.77 0.80 0.72 0.80 0.75 0.72 0.85 0.83 0.74 0.80 0.74 0.73 0.76 0.83 0.75 0.86 0.87 0.85 0.83 0.78 0.76 0.74 0.83 0.79 0.75 0.83 0.73 0.84 0.75 0.79 0.84 0.81 0.72 0.77 0.72 0.87 0.72 0.72 0.73 0.75 0.80 0.89 0.72 0.90 0.81 0.83 0.72 0.74 0.76 0.80 0.77 0.81 0.79 0.75 0.77 0.83 0.72 0.83 0.86 0.78 0.73 0.87 0.80 0.73 0.81 0.81 0.71 0.80 0.89 0.74 0.82 0.71 0.73 0.82 0.71 0.86 0.89 0.79 0.81 0.79 0.76 0.83 0.74 0.79 0.90 0.83 0.83 0.79 0.77 0.71 0.72 -9999 -9999 -9999 -9999 -9999 -9999 -9999 -9999 -9999 -9999 -9999 -9999 -9999 -9999 -9999 -9999 -9999 -9999 -9999 -9999 -9999 -9999 -9999 -9999 -9999 -9999 -9999 -9999 -9999 -9999 -9999 -9999 -9999 -9999 -9999
0.79 0.80 0.78 0.78 0.75 0.72 0.72 0.74 0.74 0.87 0.78 0.74 0.88 0.73 0.81 0.73 0.75 0.82 0.87 0.83 0.87 0.84 0.81 0.81 0.71 0.72 0.81 0.82 0.85 0.86 0.83 0.71 0.74 0.73 0.81 0.71 0.70 0.76 0.71 0.80 0.79 0.84 0.80 0.75 0.76 0.72 0.87 0.84 0.87 0.72 0.79 0.81 0.89 0.77 0.86 0.75 0.77 0.86 0.79 0.75 0.72 0.80 0.81 0.87 0.82 0.83 0.76 0.85 0.75 0.85 0.89 0.78 0.80 0.72 0.82 0.78 0.83 0.81 0.87 0.82 0.90 0.84 0.85 0.76 0.78 0.88 0.85 0.80 0.75 0.83 0.82 0.81 0.80 0.76 0.85 0.72 0.81 0.71 0.71 0.82 0.80 0.77 0.77 0.84 0.79 0.83 0.70 0.81 0.74 0.89 0.73 0.83 0.89 0.73 0.87 0.71 0.73 0.81 0.77 0.89 0.75 0.88 0.86 0.83 0.89 0.85 0.85 0.83 0.87 0.89 0.70 0.82 0.81 0.90 0.71 0.79 0.83 0.72 0.75 0.75 0.85 0.81 0.78 0.86 0.86 0.82 0.81 0.87 0.90 0.81 0.70 0.72 0.73 0.79 0.82 0.82 0.71 0.76 0.73 0.89 0.76 0.82 0.81 0.85 0.76 0.76 0.86 0.81 0.89 0.79 0.74 0.76 0.72 0.70 0.85 0.89 0.74 0.74 0.89 0.76 -9999 -9999 -9999 -9999 -9999 -9999 -9999 -9999 -9999 -9999 -9999 -9999 -9999 -9999 -9999 -9999 -9999 -9999 -9999 -9999 -9999 -9999 -9999 -9999 -9999 -9999 -9999 -9999 -9999 -9999 -9999 -9999 -9999 -9999 -9999
0.83 0.89 0.72 0.88 0.71 0.79 0.75 0.83 0.85 0.76 0.72 0.72 0.89 0.72 0.84 0.74 0.80 0.88 0.74 0.82 0.76 0.84 0.70 0.77 0.71 0.76 0.81 0.87 0.82 0.74 0.71 0.76 0.80 0.88 0.79 0.89 0.85 0.87 0.81 0.81 0.71 0.81 0.74 0.81 0.90 0.76 0.70 0.87 0.71 0.80 0.79 0.89 0.79 0.83 0.85 0.85 0.82 0.90 0.73 0.75 0.85 0.73 0.90 0.79 0.86 0.88 0.71 0.87 0.72 0.83 0.85 0.71 0.85 0.81 0.81 0.90 0.71 0.86 0.83 0.77 0.75 0.73 0.78 0.78 0.73 0.80 0.74 0.84 0.84 0.77 0.72 0.74 0.71 0.76 0.86 0.86 0.72 0.85 0.82 0.87 0.87 0.83 0.75 0.83 0.80 0.73 0.76 0.74 0.84 0.75 0.86 0.75 0.80 0.82 0.82 0.76 0.78 0.87 0.85 0.81 0.73 0.77 0.86 0.87 0.86 0.89 0.77 0.72 0.75 0.89 0.77 0.84 0.76 0.86 0.83 0.87 0.86 0.82 0.81 0.74 0.81 0.81 0.70 0.73 0.70 0.90 0.84 0.83 0.78 0.85 0.79 0.74 0.89 0.78 0.80 0.83 0.75 0.77 0.82 0.78 0.87 0.79 0.79 0.88 0.79 0.89 0.79 0.75 0.72 0.83 0.73 0.73 0.81 0.78 0.86 0.78 0.88 0.77 0.73 0.83 0.81 -9999 -9999 -9999 -9999 -9999 -9999 -9999 -9999 -9999 -9999 -9999 -9999 -9999 -9999 -9999 -9999 -9999 -9999 -9999 -9999 -9999 -9999 -9999 -9999 -9999 -9999 -9999 -9999 -9999 -9999 -9999 -9999 -9999 -9999
0.81 0.76 0.75 0.71 0.85 0.83 0.84 0.76 0.73 0.79 0.79 0.81 0.78 0.85 0.72 0.81 0.70 0.80 0.82 0.76 0.85 0.87 0.83 0.85 0.84 0.82 0.86 0.80 0.71 0.88 0.74 0.75 0.73 0.77 0.84 0.84 0.74 0.83 0.79 0.88 0.88 0.87 0.81 0.81 0.82 0.74 0.86 0.90 0.84 0.85 0.74 0.71 0.85 0.82 0.75 0.80 0.78 0.86 0.84 0.77 0.88 0.85 0.76 0.86 0.75 0.72 0.89 0.79 0.72 0.78 0.89 0.89 0.88 0.74 0.82 0.82 0.74 0.71 0.78 0.74 0.84 0.75 0.75 0.75 0.70 0.76 0.71 0.75 0.83 0.78 0.74 0.87 0.88 0.86 0.87 0.73 0.72 0.82 0.86 0.75 0.71 0.84 0.78 0.75 0.79 0.89 0.84 0.81 0.87 0.76 0.79 0.75 0.85 0.76 0.89 0.87 0.73 0.81 0.86 0.83 0.75 0.81 0.73 0.71 0.70 0.87 0.78 0.74 0.85 0.71 0.78 0.84 0.90 0.88 0.74 0.73 0.74 0.80 0.71 0.72 0.74 0.87 0.87 0.76 0.73 0.84 0.71 0.87 0.70 0.82 0.82 0.71 0.81 0.72 0.76 0.78 0.72 0.73 0.75 0.81 0.81 0.76 0.80 0.80 0.73 0.71 0.72 0.83 0.89 0.73 0.72 0.71 0.87 0.84 0.80 0.89 0.88 0.71 0.84 0.86 0.79 -9999 -9999 -9999 -9999 -9999 -9999 -9999 -9999 -9999 -9999 -9999 -9999 -9999 -9999 -9999 -9999 -9999 -9999 -9999 -9999 -9999 -9999 -9999 -9999 -9999 -9999 -9999 -9999 -9999 -9999 -9999 -9999 -9999 -9999
0.86 0.74 0.83 0.81 0.80 0.71 0.71 0.77 0.75 0.76 0.74 0.76 0.89 0.85 0.87 0.87 0.75 0.73 0.73 0.77 0.88 0.79 0.83 0.76 0.89 0.82 0.77 0.82 0.79 0.78 0.85 0.86 0.79 0.73 0.80 0.87 0.73 0.90 0.84 0.89 0.86 0.73 0.90 0.78 0.72 0.84 0.88 0.71 0.81 0.75 0.72 0.81 0.89 0.85 0.79 0.75 0.83 0.77 0.72 0.76 0.78 0.73 0.79 0.79 0.73 0.74 0.83 0.71 0.90 0.90 0.81 0.90 0.83 0.78 0.76 0.74 0.74 0.83 0.74 0.78 0.74 0.78 0.73 0.80 0.80 0.82 0.82 0.85 0.87 0.88 0.78 0.85 0.75 0.74 0.80 0.72 0.89 0.87 0.84 0.76 0.75 0.81 0.80 0.81 0.85 0.89 0.78 0.78 0.86 0.82 0.75 0.80 0.77 0.88 0.84 0.75 0.83 0.76 0.73 0.83 0.82 0.89 0.72 0.77 0.75 0.73 0.89 0.83 0.88 0.78 0.76 0.88 0.85 0.82 0.88 0.77 0.84 0.75 0.71 0.75 0.74 0.86 0.71 0.88 0.75 0.76 0.75 0.78 0.80 0.71 0.76 0.73 0.71 0.86 0.77 0.83 0.70 0.88 0.81 0.79 0.86 0.79 0.77 0.85 0.72 0.79 0.75 0.78 0.74 0.77 0.77 0.82 0.81 0.73 0.84 0.82 0.88 0.78 0.73 0.83 0.87 -9999 -9999 -9999 -9999 -9999 -9999 -9999 -9999 -9999 -9999 -9999 -9999 -9999 -9999 -9999 -9999 -9999 -9999 -9999 -9999 -9999 -9999 -9999 -9999 -9999 -9999 -9999 -9999 -9999 -9999 -9999 -9999 -9999 -9999
0.71 0.89 0.82 0.84 0.73 0.72 0.90 0.78 0.72 0.79 0.75 0.85 0.76 0.82 0.79 0.73 0.73 0.83 0.78 0.80 0.74 0.84 0.75 0.87 0.86 0.77 0.90 0.77 0.78 0.74 0.71 0.83 0.72 0.71 0.73 0.87 0.80 0.88 0.87 0.85 0.77 0.85 0.77 0.81 0.78 0.80 0.76 0.86 0.79 0.72 0.83 0.79 0.80 0.87 0.75 0.71 0.88 0.80 0.79 0.75 0.82 0.72 0.81 0.86 0.82 0.84 0.76 0.82 0.77 0.71 0.86 0.81 0.87 0.72 0.74 0.82 0.71 0.88 0.82 0.73 0.89 0.85 0.89 0.82 0.81 0.75 0.72 0.81 0.76 0.79 0.72 0.74 0.83 0.86 0.70 0.84 0.79 0.78 0.76 0.85 0.73 0.85 0.72 0.89 0.78 0.88 0.89 0.85 0.75 0.87 0.74 0.90 0.80 0.81 0.80 0.87 0.72 0.79 0.83 0.77 0.87 0.70 0.76 0.80 0.87 0.81 0.74 0.82 0.88 0.85 0.88 0.89 0.74 0.77 0.79 0.78 0.77 0.74 0.82 0.80 0.80 0.77 0.84 0.88 0.76 0.73 0.89 0.76 0.80 0.75 0.83 0.88 0.75 0.87 0.88 0.71 0.88 0.86 0.77 0.70 0.77 0.79 0.85 0.87 0.85 0.89 0.88 0.84 0.71 0.72 0.87 0.83 0.75 0.72 0.73 0.75 0.79 0.71 0.71 0.70 0.73 -9999 -9999 -9999 -9999 -9999 -9999 -9999 -9999 -9999 -9999 -9999 -9999 -9999 -9999 -9999 -9999 -9999 -9999 -9999 -9999 -9999 -9999 -9999 -9999 -9999 -9999 -9999 -9999 -9999 -9999 -9999 -9999 -9999 -9999
0.83 0.72 0.72 0.76 0.76 0.79 0.83 0.75 0.71 0.85 0.88 0.86 0.74 0.71 0.77 0.83 0.76 0.86 0.84 0.89 0.77 0.85 0.82 0.81 0.73 0.81 0.78 0.75 0.72 0.84 0.87 0.75 0.83 0.88 0.82 0.72 0.81 0.82 0.82 0.71 0.78 0.76 0.77 0.82 0.80 0.71 0.90 0.86 0.87 0.82 0.89 0.81 0.78 0.83 0.84 0.77 0.81 0.82 0.81 0.86 0.73 0.75 0.73 0.84 0.81 0.80 0.81 0.81 0.89 0.85 0.73 0.85 0.83 0.77 0.80 0.89 0.72 0.71 0.78 0.78 0.89 0.81 0.80 0.88 0.88 0.71 0.76 0.78 0.82 0.78 0.79 0.73 0.86 0.81 0.85 0.89 0.70 0.71 0.84 0.88 0.71 0.73 0.77 0.71 0.80 0.87 0.80 0.71 0.81 0.84 0.73 0.76 0.90 0.88 0.76 0.70 0.85 0.81 0.79 0.81 0.75 0.77 0.89 0.77 0.88 0.79 0.79 0.89 0.88 0.75 0.87 0.89 0.82 0.79 0.74 0.71 0.76 0.78 0.80 0.75 0.74 0.83 0.72 0.89 0.71 0.79 0.75 0.76 0.79 0.88 0.89 0.87 0.77 0.72 0.72 0.89 0.89 0.72 0.84 0.78 0.71 0.86 0.89 0.75 0.81 0.72 0.72 0.72 0.75 0.89 0.77 0.84 0.77 0.77 0.71 0.77 0.84 0.86 0.78 0.85 0.74 -9999 -9999 -9999 -9999 -9999 -9999 -9999 -9999 -9999 -9999 -9999 -9999 -9999 -9999 -9999 -9999 -9999 -9999 -9999 -9999 -9999 -9999 -9999 -9999 -9999 -9999 -9999 -9999 -9999 -9999 -9999 -9999 -9999 -9999
0.88 0.80 0.81 0.80 0.74 0.78 0.85 0.84 0.74 0.81 0.82 0.73 0.89 0.75 0.89 0.82 0.86 0.88 0.83 0.77 0.74 0.83 0.72 0.90 0.75 0.84 0.76 0.86 0.82 0.88 0.78 0.80 0.73 0.70 0.90 0.82 0.78 0.87 0.72 0.79 0.87 0.82 0.78 0.78 0.89 0.85 0.72 0.86 0.86 0.85 0.79 0.85 0.77 0.72 0.71 0.82 0.83 0.75 0.89 0.85 0.72 0.89 0.77 0.78 0.82 0.74 0.89 0.87 0.80 0.85 0.78 0.88 0.72 0.75 0.80 0.73 0.74 0.74 0.70 0.81 0.72 0.86 0.86 0.88 0.82 0.74 0.75 0.84 0.72 0.76 0.75 0.75 0.74 0.80 0.85 0.78 0.85 0.79 0.84 0.73 0.80 0.83 0.80 0.74 0.85 0.90 0.75 0.78 0.75 0.82 0.79 0.74 0.83 0.74 0.87 0.73 0.83 0.72 0.82 0.79 0.84 0.84 0.85 0.77 0.74 0.82 0.75 0.89 0.71 0.90 0.71 0.83 0.82 0.71 0.73 0.71 0.84 0.82 0.80 0.75 0.89 0.82 0.73 0.74 0.84 0.88 0.76 0.82 0.77 0.81 0.79 0.83 0.81 0.86 0.82 0.72 0.71 0.78 0.77 0.88 0.77 0.71 0.79 0.78 0.86 0.84 0.89 0.72 0.72 0.88 0.76 0.85 0.84 0.85 0.78 0.77 0.70 0.77 0.78 0.90 0.84 -9999 -9999 -9999 -9999 -9999 -9999 -9999 -9999 -9999 -9999 -9999 -9999 -9999 -9999 -9999 -9999 -9999 -9999 -9999 -9999 -9999 -9999 -9999 -9999 -9999 -9999 -9999 -9999 -9999 -9999 -9999 -9999 -9999 -9999
0.84 0.88 0.78 0.80 0.72 0.89 0.76 0.79 0.77 0.82 0.73 0.82 0.77 0.74 0.76 0.74 0.88 0.86 0.71 0.75 0.84 0.81 0.82 0.80 0.72 0.73 0.74 0.84 0.83 0.77 0.77 0.87 0.72 0.82 0.73 0.79 0.79 0.76 0.71 0.73 0.85 0.77 0.76 0.84 0.72 0.85 0.77 0.78 0.82 0.85 0.82 0.77 0.74 0.72 0.78 0.71 0.88 0.78 0.77 0.75 0.72 0.84 0.79 0.83 0.78 0.83 0.78 0.89 0.76 0.74 0.87 0.85 0.85 0.76 0.75 0.89 0.87 0.88 0.74 0.74 0.72 0.87 0.88 0.78 0.78 0.77 0.85 0.74 0.71 0.89 0.79 0.81 0.82 0.71 0.81 0.77 0.86 0.83 0.83 0.74 0.86 0.71 0.87 0.82 0.87 0.72 0.83 0.78 0.86 0.77 0.84 0.79 0.80 0.77 0.85 0.88 0.75 0.77 0.84 0.71 0.87 0.75 0.75 0.90 0.81 0.74 0.74 0.84 0.78 0.83 0.87 0.71 0.75 0.85 0.72 0.83 0.83 0.78 0.90 0.80 0.84 0.70 0.78 0.84 0.85 0.87 0.80 0.82 0.80 0.86 0.90 0.78 0.70 0.89 0.77 0.86 0.77 0.87 0.83 0.84 0.84 0.78 0.81 0.80 0.70 0.83 0.75 0.71 0.86 0.78 0.84 0.80 0.87 0.74 0.84 0.76 0.89 0.75 0.89 0.89 0.85 0.71 -9999 -9999 -9999 -9999 -9999 -9999 -9999 -9999 -9999 -9999 -9999 -9999 -9999 -9999 -9999 -9999 -9999 -9999 -9999 -9999 -9999 -9999 -9999 -9999 -9999 -9999 -9999 -9999 -9999 -9999 -9999 -9999 -9999
0.84 0.85 0.86 0.76 0.77 0.75 0.76 0.80 0.83 0.81 0.86 0.81 0.84 0.74 0.76 0.78 0.88 0.74 0.71 0.83 0.86 0.85 0.78 0.72 0.70 0.75 0.82 0.87 0.83 0.87 0.73 0.81 0.79 0.82 0.81 0.74 0.71 0.80 0.80 0.82 0.81 0.84 0.77 0.79 0.76 0.88 0.72 0.87 0.70 0.72 0.75 0.85 0.81 0.73 0.83 0.78 0.72 0.83 0.82 0.79 0.72 0.88 0.84 0.78 0.74 0.89 0.75 0.73 0.75 0.88 0.87 0.76 0.72 0.89 0.90 0.85 0.82 0.71 0.71 0.80 0.86 0.87 0.78 0.81 0.90 0.75 0.83 0.86 0.70 0.83 0.88 0.80 0.72 0.70 0.86 0.88 0.74 0.83 0.75 0.88 0.85 0.83 0.87 0.85 0.70 0.80 0.78 0.88 0.72 0.74 0.70 0.79 0.71 0.82 0.81 0.84 0.74 0.75 0.88 0.89 0.84 0.78 0.86 0.87 0.89 0.73 0.90 0.73 0.72 0.82 0.74 0.85 0.81 0.81 0.75 0.81 0.74 0.85 0.72 0.75 0.78 0.88 0.87 0.85 0.78 0.70 0.83 0.81 0.75 0.74 0.83 0.73 0.76 0.74 0.90 0.73 0.73 0.73 0.71 0.82 0.72 0.80 0.86 0.85 0.79 0.77 0.82 0.80 0.77 0.88 0.89 0.73 0.71 0.87 0.75 0.84 0.70 0.86 0.89 0.78 0.83 0.75 -9999 -9999 -9999 -9999 -9999 -9999 -9999 -9999 -9999 -9999 -9999 -9999 -9999 -9999 -9999 -9999 -9999 -9999 -9999 -9999 -9999 -9999 -9999 -9999 -9999 -9999 -9999 -9999 -9999 -9999 -9999 -9999 -9999
0.81 0.81 0.85 0.70 0.78 0.87 0.76 0.88 0.86 0.89 0.70 0.89 0.71 0.74 0.90 0.82 0.88 0.71 0.78 0.89 0.73 0.81 0.83 0.85 0.72 0.86 0.84 0.70 0.76 0.71 0.77 0.75 0.72 0.71 0.79 0.74 0.72 0.83 0.85 0.85 0.90 0.85 0.71 0.76 0.72 0.75 0.89 0.75 0.76 0.85 0.83 0.85 0.81 0.80 0.71 0.89 0.90 0.75 0.76 0.86 0.80 0.75 0.73 0.71 0.85 0.73 0.72 0.90 0.82 0.86 0.89 0.80 0.76 0.86 0.82 0.76 0.77 0.83 0.73 0.75 0.83 0.78 0.76 0.86 0.88 0.71 0.83 0.72 0.82 0.82 0.90 0.83 0.75 0.83 0.84 0.80 0.75 0.83 0.78 0.83 0.77 0.89 0.81 0.87 0.89 0.82 0.71 0.80 0.74 0.81 0.79 0.85 0.76 0.80 0.71 0.82 0.73 0.78 0.82 0.83 0.72 0.80 0.77 0.87 0.81 0.85 0.85 0.78 0.70 0.71 0.81 0.84 0.87 0.88 0.72 0.71 0.74 0.82 0.85 0.79 0.76 0.70 0.70 0.70 0.76 0.75 0.73 0.90 0.80 0.75 0.74 0.81 0.88 0.83 0.79 0.75 0.86 0.82 0.88 0.73 0.87 0.90 0.74 0.82 0.83 0.89 0.71 0.87 0.74 0.78 0.78 0.84 0.77 0.72 0.79 0.79 0.85 0.83 0.75 0.82 0.79 0.72 -9999 -9999 -9999 -9999 -9999 -9999 -9999 -9999 -9999 -9999 -9999 -9999 -9999 -9999 -9999 -9999 -9999 -9999 -9999 -9999 -9999 -9999 -9999 -9999 -9999 -9999 -9999 -9999 -9999 -9999 -9999 -9999 -9999
0.85 0.81 0.84 0.85 0.74 0.76 0.81 0.77 0.73 0.70 0.86 0.72 0.85 0.81 0.84 0.72 0.71 0.83 0.79 0.81 0.80 0.76 0.84 0.82 0.79 0.83 0.73 0.86 0.81 0.88 0.82 0.84 0.81 0.70 0.84 0.87 0.81 0.78 0.89 0.79 0.75 0.75 0.83 0.75 0.77 0.73 0.74 0.82 0.83 0.79 0.77 0.72 0.84 0.82 0.75 0.81 0.89 0.75 0.81 0.82 0.79 0.70 0.89 0.80 0.84 0.85 0.86 0.87 0.83 0.71 0.81 0.84 0.73 0.86 0.88 0.70 0.73 0.86 0.72 0.71 0.88 0.83 0.72 0.78 0.89 0.79 0.79 0.74 0.88 0.82 0.81 0.80 0.79 0.89 0.74 0.81 0.77 0.87 0.89 0.79 0.74 0.80 0.72 0.90 0.74 0.72 0.73 0.78 0.81 0.73 0.84 0.78 0.80 0.79 0.81 0.80 0.76 0.90 0.78 0.78 0.83 0.73 0.71 0.74 0.84 0.73 0.73 0.88 0.71 0.86 0.80 0.73 0.86 0.88 0.76 0.88 0.83 0.70 0.81 0.80 0.81 0.79 0.77 0.84 0.80 0.76 0.71 0.71 0.89 0.82 0.89 0.77 0.88 0.76 0.80 0.71 0.81 0.85 0.86 0.90 0.74 0.82 0.86 0.80 0.77 0.89 0.79 0.89 0.76 0.83 0.81 0.78 0.71 0.73 0.82 0.73 0.72 0.72 0.80 0.80 0.70 0.83 -9999 -9999 -9999 -9999 -9999 -9999 -9999 -9999 -9999 -9999 -9999 -9999 -9999 -9999 -9999 -9999 -9999 -9999 -9999 -9999 -9999 -9999 -9999 -9999 -9999 -9999 -9999 -9999 -9999 -9999 -9999 -9999 -9999
0.71 0.74 0.74 0.72 0.75 0.74 0.71 0.74 0.71 0.86 0.87 0.78 0.84 0.89 0.89 0.89 0.85 0.72 0.82 0.71 0.73 0.72 0.75 0.79 0.87 0.80 0.89 0.80 0.71 0.77 0.82 0.89 0.89 0.81 0.74 0.76 0.83 0.82 0.75 0.71 0.71 0.82 0.84 0.83 0.71 0.81 0.87 0.80 0.87 0.74 0.80 0.82 0.84 0.79 0.80 0.78 0.72 0.83 0.71 0.80 0.80 0.89 0.75 0.86 0.78 0.72 0.83 0.73 0.82 0.81 0.86 0.85 0.78 0.83 0.71 0.86 0.85 0.88 0.75 0.73 0.72 0.76 0.86 0.85 0.76 0.73 0.75 0.84 0.82 0.85 0.70 0.84 0.74 0.78 0.80 0.77 0.82 0.90 0.84 0.85 0.70 0.76 0.84 0.75 0.75 0.84 0.81 0.80 0.78 0.85 0.84 0.80 0.82 0.83 0.75 0.76 0.78 0.79 0.71 0.85 0.86 0.71 0.71 0.76 0.89 0.87 0.85 0.70 0.77 0.86 0.76 0.82 0.83 0.78 0.90 0.76 0.75 0.75 0.80 0.89 0.88 0.82 0.72 0.70 0.72 0.90 0.81 0.78 0.72 0.89 0.86 0.90 0.81 0.75 0.87 0.82 0.83 0.88 0.86 0.80 0.74 0.81 0.84 0.85 0.86 0.78 0.72 0.85 0.87 0.87 0.74 0.79 0.84 0.71 0.80 0.75 0.75 0.86 0.71 0.84 0.80 0.89 -9999 -9999 -9999 -9999 -9999 -9999 -9999 -9999 -9999 -9999 -9999 -9999 -9999 -9999 -9999 -9999 -9999 -9999 -9999 -9999 -9999 -9999 -9999 -9999 -9999 -9999 -9999 -9999 -9999 -9999 -9999 -9999 -9999
0.72 0.77 0.73 0.72 0.89 0.85 0.73 0.81 0.71 0.76 0.83 0.78 0.85 0.78 0.72 0.85 0.80 0.73 0.76 0.85 0.80 0.71 0.76 0.72 0.71 0.85 0.70 0.79 0.70 0.73 0.89 0.89 0.82 0.88 0.87 0.76 0.78 0.77 0.72 0.80 0.89 0.83 0.83 0.77 0.72 0.78 0.80 0.84 0.85 0.87 0.74 0.73 0.80 0.73 0.76 0.73 0.74 0.76 0.78 0.78 0.85 0.90 0.77 0.89 0.70 0.86 0.77 0.81 0.77 0.85 0.72 0.84 0.85 0.83 0.74 0.79 0.84 0.87 0.84 0.87 0.80 0.76 0.81 0.81 0.84 0.87 0.74 0.83 0.85 0.79 0.79 0.75 0.84 0.87 0.81 0.88 0.81 0.89 0.79 0.85 0.80 0.90 0.85 0.77 0.78 0.84 0.75 0.90 0.75 0.86 0.75 0.83 0.88 0.73 0.72 0.87 0.86 0.84 0.90 0.74 0.82 0.83 0.81 0.77 0.87 0.70 0.77 0.86 0.76 0.86 0.79 0.71 0.78 0.83 0.79 0.81 0.76 0.81 0.87 0.82 0.74 0.89 0.88 0.89 0.78 0.70 0.89 0.77 0.84 0.81 0.90 0.85 0.82 0.87 0.74 0.78 0.89 0.73 0.80 0.87 0.75 0.71 0.75 0.89 0.83 0.74 0.77 0.87 0.84 0.75 0.85 0.83 0.71 0.74 0.85 0.86 0.86 0.87 0.89 0.85 0.71 0.80 -9999 -9999 -9999 -9999 -9999 -9999 -9999 -9999 -9999 -9999 -9999 -9999 -9999 -9999 -9999 -9999 -9999 -9999 -9999 -9999 -9999 -9999 -9999 -9999 -9999 -9999 -9999 -9999 -9999 -9999 -9999 -9999 -9999
0.71 0.77 0.75 0.79 0.85 0.76 0.84 0.77 0.70 0.74 0.89 0.87 0.77 0.72 0.72 0.79 0.81 0.88 0.83 0.82 0.81 0.83 0.76 0.86 0.84 0.82 0.79 0.72 0.83 0.89 0.83 0.82 0.74 0.75 0.84 0.83 0.80 0.86 0.86 0.74 0.86 0.70 0.71 0.85 0.78 0.71 0.88 0.76 0.74 0.75 0.80 0.80 0.87 0.78 0.88 0.79 0.90 0.81 0.82 0.74 0.71 0.71 0.79 0.78 0.76 0.76 0.77 0.71 0.79 0.80 0.75 0.79 0.87 0.90 0.79 0.76 0.84 0.83 0.87 0.83 0.80 0.84 0.71 0.81 0.72 0.87 0.72 0.85 0.87 0.81 0.76 0.80 0.79 0.79 0.71 0.81 0.77 0.86 0.84 0.89 0.78 0.81 0.71 0.84 0.78 0.86 0.89 0.72 0.83 0.75 0.73 0.71 0.88 0.77 0.77 0.71 0.87 0.81 0.83 0.89 0.74 0.74 0.73 0.81 0.78 0.89 0.73 0.84 0.90 0.87 0.78 0.88 0.77 0.89 0.81 0.82 0.71 0.73 0.84 0.86 0.90 0.86 0.80 0.72 0.87 0.71 0.70 0.86 0.74 0.73 0.86 0.80 0.85 0.77 0.89 0.71 0.78 0.71 0.84 0.72 0.70 0.85 0.77 0.79 0.81 0.72 0.75 0.77 0.71 0.78 0.89 0.89 0.87 0.74 0.84 0.72 0.78 0.83 0.88 0.80 0.87 0.87 0.85 -9999 -9999 -9999 -9999 -9999 -9999 -9999 -9999 -9999 -9999 -9999 -9999 -9999 -9999 -9999 -9999 -9999 -9999 -9999 -9999 -9999 -9999 -9999 -9999 -9999 -9999 -9999 -9999 -9999 -9999 -9999 -9999
0.84 0.71 0.90 0.85 0.84 0.72 0.88 0.73 0.74 0.90 0.73 0.87 0.82 0.70 0.83 0.73 0.84 0.79 0.88 0.71 0.74 0.76 0.77 0.89 0.82 0.79 0.88 0.80 0.80 0.74 0.77 0.82 0.85 0.70 0.72 0.72 0.79 0.77 0.79 0.76 0.73 0.71 0.89 0.89 0.84 0.85 0.89 0.80 0.79 0.76 0.71 0.74 0.81 0.78 0.79 0.88 0.75 0.80 0.82 0.87 0.88 0.74 0.79 0.82 0.70 0.87 0.89 0.70 0.74 0.80 0.88 0.78 0.74 0.76 0.86 0.75 0.78 0.82 0.89 0.79 0.88 0.80 0.88 0.80 0.77 0.76 0.86 0.71 0.73 0.79 0.75 0.74 0.81 0.77 0.81 0.80 0.86 0.89 0.71 0.78 0.72 0.74 0.83 0.86 0.77 0.86 0.89 0.79 0.86 0.78 0.84 0.73 0.74 0.80 0.88 0.75 0.78 0.81 0.76 0.73 0.86 0.76 0.88 0.86 0.83 0.84 0.76 0.79 0.71 0.87 0.88 0.83 0.81 0.75 0.71 0.77 0.83 0.85 0.89 0.87 0.82 0.74 0.90 0.75 0.76 0.88 0.88 0.84 0.71 0.84 0.82 0.75 0.71 0.73 0.79 0.76 0.85 0.73 0.77 0.72 0.77 0.76 0.89 0.71 0.84 0.75 0.85 0.86 0.79 0.78 0.84 0.75 0.72 0.75 0.88 0.78 0.84 0.82 0.83 0.89 0.72 0.80 0.74 -9999 -9999 -9999 -9999 -9999 -9999 -9999 -9999 -9999 -9999 -9999 -9999 -9999 -9999 -9999 -9999 -9999 -9999 -9999 -9999 -9999 -9999 -9999 -9999 -9999 -9999 -9999 -9999 -9999 -9999 -9999 -9999
0.83 0.85 0.89 0.70 0.82 0.75 0.70 0.89 0.74 0.84 0.82 0.83 0.74 0.75 0.86 0.80 0.86 0.75 0.78 0.80 0.89 0.77 0.73 0.83 0.81 0.79 0.84 0.80 0.86 0.73 0.81 0.81 0.77 0.73 0.86 0.84 0.85 0.73 0.78 0.77 0.89 0.75 0.89 0.78 0.89 0.84 0.74 0.75 0.85 0.84 0.71 0.75 0.89 0.70 0.88 0.76 0.76 0.78 0.82 0.74 0.89 0.87 0.83 0.74 0.79 0.83 0.80 0.88 0.74 0.70 0.78 0.78 0.72 0.78 0.88 0.81 0.87 0.89 0.85 0.76 0.80 0.76 0.87 0.89 0.70 0.75 0.79 0.85 0.89 0.87 0.71 0.78 0.75 0.76 0.83 0.88 0.84 0.74 0.77 0.70 0.79 0.86 0.75 0.80 0.77 0.76 0.70 0.85 0.81 0.76 0.80 0.88 0.79 0.81 0.76 0.74 0.80 0.73 0.75 0.72 0.73 0.75 0.74 0.79 0.86 0.77 0.73 0.76 0.76 0.87 0.75 0.85 0.84 0.84 0.72 0.81 0.85 0.81 0.79 0.79 0.81 0.89 0.85 0.79 0.72 0.88 0.89 0.90 0.86 0.80 0.81 0.82 0.83 0.90 0.79 0.71 0.87 0.79 0.83 0.86 0.87 0.84 0.82 0.86 0.79 0.77 0.88 0.73 0.89 0.84 0.85 0.81 0.89 0.81 0.75 0.78 0.79 0.74 0.85 0.90 0.77 0.76 0.71 -9999 -9999 -9999 -9999 -9999 -9999 -9999 -9999 -9999 -9999 -9999 -9999 -9999 -9999 -9999 -9999 -9999 -9999 -9999 -9999 -9999 -9999 -9999 -9999 -9999 -9999 -9999 -9999 -9999 -9999 -9999 -9999
0.72 0.89 0.73 0.85 0.76 0.75 0.72 0.76 0.77 0.85 0.84 0.81 0.82 0.73 0.73 0.75 0.71 0.85 0.85 0.75 0.74 0.76 0.86 0.71 0.73 0.74 0.81 0.75 0.75 0.85 0.81 0.70 0.88 0.81 0.80 0.90 0.88 0.80 0.84 0.72 0.84 0.70 0.90 0.79 0.90 0.77 0.79 0.78 0.89 0.86 0.83 0.79 0.82 0.82 0.77 0.82 0.74 0.90 0.72 0.73 0.84 0.73 0.90 0.73 0.72 0.86 0.75 0.72 0.77 0.88 0.79 0.77 0.76 0.81 0.85 0.83 0.80 0.78 0.72 0.88 0.87 0.75 0.74 0.73 0.89 0.77 0.78 0.88 0.70 0.83 0.80 0.75 0.78 0.75 0.75 0.84 0.81 0.87 0.80 0.83 0.82 0.74 0.80 0.78 0.82 0.77 0.79 0.80 0.83 0.87 0.81 0.88 0.73 0.85 0.84 0.72 0.85 0.84 0.71 0.79 0.78 0.87 0.85 0.80 0.84 0.87 0.81 0.79 0.73 0.74 0.74 0.80 0.86 0.77 0.74 0.82 0.86 0.81 0.79 0.77 0.76 0.71 0.88 0.86 0.85 0.77 0.83 0.87 0.76 0.90 0.82 0.71 0.83 0.86 0.71 0.87 0.83 0.84 0.89 0.77 0.81 0.86 0.81 0.85 0.75 0.76 0.83 0.72 0.81 0.86 0.90 0.89 0.85 0.71 0.88 0.76 0.79 0.85 0.80 0.74 0.79 0.79 0.72 -9999 -9999 -9999 -9999 -9999 -9999 -9999 -9999 -9999 -9999 -9999 -9999 -9999 -9999 -9999 -9999 -9999 -9999 -9999 -9999 -9999 -9999 -9999 -9999 -9999 -9999 -9999 -9999 -9999 -9999 -9999 -9999
0.88 0.74 0.76 0.86 0.73 0.79 0.82 0.72 0.89 0.81 0.71 0.79 0.87 0.78 0.77 0.78 0.79 0.87 0.86 0.89 0.87 0.81 0.89 0.80 0.80 0.82 0.73 0.75 0.89 0.89 0.85 0.80 0.82 0.70 0.89 0.81 0.85 0.86 0.87 0.75 0.75 0.77 0.81 0.70 0.79 0.71 0.87 0.80 0.75 0.71 0.79 0.75 0.76 0.74 0.85 0.80 0.71 0.77 0.73 0.83 0.80 0.83 0.88 0.80 0.70 0.83 0.90 0.77 0.90 0.73 0.73 0.71 0.78 0.84 0.75 0.85 0.82 0.70 0.73 0.79 0.86 0.85 0.79 0.83 0.88 0.86 0.86 0.85 0.71 0.84 0.72 0.82 0.74 0.76 0.75 0.81 0.75 0.74 0.80 0.80 0.86 0.76 0.80 0.84 0.75 0.75 0.75 0.84 0.78 0.86 0.82 0.78 0.78 0.75 0.89 0.79 0.85 0.76 0.77 0.81 0.71 0.87 0.76 0.78 0.86 0.74 0.88 0.79 0.75 0.72 0.88 0.87 0.71 0.87 0.77 0.73 0.86 0.75 0.77 0.87 0.81 0.71 0.90 0.80 0.77 0.85 0.90 0.87 0.83 0.70 0.80 0.84 0.70 0.72 0.80 0.80 0.74 0.72 0.71 0.79 0.84 0.88 0.80 0.72 0.81 0.70 0.83 0.74 0.87 0.81 0.81 0.87 0.76 0.76 0.76 0.77 0.73 0.71 0.76 0.85 0.71 0.79 0.74 -9999 -9999 -9999 -9999 -9999 -9999 -9999 -9999 -9999 -9999 -9999 -9999 -9999 -9999 -9999 -9999 -9999 -9999 -9999 -9999 -9999 -9999 -9999 -9999 -9999 -9999 -9999 -9999 -9999 -9999 -9999 -9999
0.71 0.81 0.77 0.84 0.77 0.84 0.73 0.71 0.72 0.86 0.71 0.87 0.84 0.74 0.76 0.72 0.87 0.73 0.85 0.89 0.84 0.73 0.71 0.84 0.81 0.73 0.71 0.82 0.80 0.85 0.77 0.78 0.85 0.83 0.77 0.77 0.85 0.80 0.88 0.74 0.82 0.86 0.84 0.70 0.80 0.82 0.71 0.77 0.77 0.77 0.72 0.90 0.71 0.86 0.74 0.82 0.87 0.82 0.70 0.87 0.70 0.75 0.87 0.90 0.79 0.74 0.87 0.81 0.86 0.73 0.83 0.82 0.79 0.72 0.79 0.85 0.85 0.79 0.88 0.86 0.80 0.79 0.88 0.80 0.78 0.87 0.85 0.72 0.78 0.78 0.71 0.73 0.71 0.82 0.76 0.78 0.87 0.81 0.70 0.87 0.84 0.80 0.88 0.89 0.84 0.87 0.78 0.83 0.78 0.73 0.82 0.76 0.75 0.84 0.71 0.84 0.86 0.89 0.88 0.79 0.84 0.81 0.87 0.90 0.87 0.87 0.79 0.73 0.77 0.89 0.86 0.73 0.85 0.73 0.86 0.89 0.83 0.86 0.79 0.86 0.76 0.79 0.85 0.85 0.77 0.89 0.72 0.75 0.85 0.89 0.80 0.74 0.86 0.81 0.78 0.79 0.72 0.80 0.85 0.86 0.71 0.79 0.86 0.78 0.86 0.75 0.79 0.90 0.85 0.78 0.79 0.72 0.72 0.82 0.82 0.83 0.90 0.74 0.86 0.77 0.88 0.79 0.80 -9999 -9999 -9999 -9999 -9999 -9999 -9999 -9999 -9999 -9999 -9999 -9999 -9999 -9999 -9999 -9999 -9999 -9999 -9999 -9999 -9999 -9999 -9999 -9999 -9999 -9999 -9999 -9999 -9999 -9999 -9999 -9999
0.84 0.81 0.84 0.82 0.71 0.89 0.87 0.77 0.75 0.70 0.76 0.73 0.86 0.80 0.73 0.90 0.85 0.88 0.75 0.82 0.76 0.80 0.78 0.90 0.71 0.80 0.87 0.84 0.72 0.75 0.73 0.74 0.81 0.79 0.85 0.83 0.71 0.86 0.75 0.79 0.81 0.87 0.80 0.89 0.77 0.77 0.90 0.89 0.72 0.87 0.76 0.82 0.81 0.79 0.82 0.74 0.79 0.83 0.89 0.74 0.72 0.72 0.71 0.80 0.74 0.89 0.88 0.77 0.83 0.71 0.88 0.88 0.86 0.74 0.72 0.81 0.74 0.85 0.82 0.88 0.80 0.78 0.90 0.85 0.80 0.84 0.80 0.84 0.73 0.77 0.78 0.73 0.78 0.82 0.71 0.89 0.83 0.89 0.82 0.79 0.72 0.71 0.87 0.83 0.76 0.84 0.73 0.89 0.90 0.89 0.80 0.81 0.89 0.82 0.73 0.85 0.79 0.77 0.88 0.71 0.82 0.76 0.84 0.89 0.70 0.86 0.90 0.81 0.76 0.72 0.86 0.83 0.81 0.88 0.72 0.89 0.85 0.79 0.84 0.82 0.70 0.78 0.74 0.71 0.87 0.73 0.75 0.81 0.80 0.89 0.82 0.87 0.70 0.81 0.78 0.71 0.72 0.78 0.83 0.82 0.85 0.85 0.79 0.79 0.71 0.82 0.82 0.89 0.83 0.83 0.83 0.80 0.72 0.72 0.81 0.86 0.82 0.82 0.71 0.87 0.89 0.74 0.78 0.88 -9999 -9999 -9999 -9999 -9999 -9999 -9999 -9999 -9999 -9999 -9999 -9999 -9999 -9999 -9999 -9999 -9999 -9999 -9999 -9999 -9999 -9999 -9999 -9999 -9999 -9999 -9999 -9999 -9999 -9999 -9999
0.89 0.75 0.83 0.74 0.89 0.87 0.76 0.80 0.74 0.86 0.82 0.83 0.77 0.71 0.71 0.76 0.76 0.72 0.87 0.88 0.89 0.73 0.79 0.87 0.72 0.83 0.77 0.89 0.80 0.90 0.81 0.82 0.78 0.80 0.87 0.83 0.82 0.73 0.70 0.77 0.78 0.86 0.77 0.76 0.73 0.76 0.75 0.83 0.78 0.81 0.79 0.71 0.80 0.88 0.80 0.80 0.79 0.85 0.86 0.77 0.87 0.83 0.71 0.80 0.79 0.80 0.72 0.71 0.74 0.85 0.72 0.81 0.88 0.89 0.89 0.71 0.76 0.76 0.85 0.89 0.74 0.89 0.81 0.82 0.73 0.80 0.71 0.79 0.83 0.84 0.75 0.81 0.73 0.90 0.75 0.73 0.72 0.71 0.85 0.77 0.76 0.74 0.70 0.72 0.78 0.71 0.72 0.73 0.75 0.80 0.86 0.78 0.76 0.70 0.82 0.79 0.73 0.72 0.73 0.86 0.80 0.87 0.77 0.88 0.71 0.88 0.72 0.85 0.71 0.90 0.73 0.78 0.75 0.74 0.76 0.83 0.78 0.76 0.89 0.79 0.76 0.76 0.87 0.85 0.78 0.71 0.86 0.75 0.84 0.83 0.76 0.87 0.85 0.76 0.77 0.73 0.87 0.76 0.76 0.75 0.78 0.83 0.85 0.75 0.79 0.77 0.80 0.71 0.75 0.70 0.75 0.77 0.74 0.88 0.76 0.76 0.86 0.88 0.82 0.71 0.88 0.72 0.81 0.76 -9999 -9999 -9999 -9999 -9999 -9999 -9999 -9999 -9999 -9999 -9999 -9999 -9999 -9999 -9999 -9999 -9999 -9999 -9999 -9999 -9999 -9999 -9999 -9999 -9999 -9999 -9999 -9999 -9999 -9999 -9999
0.87 0.72 0.88 0.79 0.72 0.73 0.85 0.82 0.88 0.83 0.82 0.89 0.82 0.84 0.76 0.80 0.74 0.79 0.80 0.71 0.78 0.83 0.82 0.80 0.81 0.90 0.77 0.78 0.86 0.82 0.84 0.74 0.81 0.71 0.85 0.79 0.74 0.77 0.79 0.85 0.86 0.85 0.88 0.74 0.83 0.71 0.86 0.70 0.76 0.78 0.80 0.88 0.87 0.80 0.79 0.85 0.81 0.85 0.74 0.76 0.80 0.79 0.82 0.74 0.84 0.80 0.77 0.88 0.84 0.88 0.76 0.83 0.86 0.76 0.90 0.89 0.73 0.81 0.87 0.81 0.86 0.76 0.77 0.84 0.75 0.83 0.87 0.88 0.74 0.74 0.82 0.80 0.87 0.78 0.85 0.72 0.73 0.71 0.88 0.77 0.76 0.77 0.88 0.86 0.71 0.83 0.86 0.87 0.86 0.81 0.80 0.77 0.73 0.81 0.81 0.84 0.73 0.82 0.71 0.75 0.76 0.72 0.88 0.82 0.84 0.77 0.89 0.78 0.88 0.89 0.79 0.90 0.79 0.85 0.89 0.77 0.75 0.72 0.80 0.88 0.74 0.87 0.87 0.76 0.84 0.83 0.82 0.77 0.84 0.89 0.76 0.78 0.85 0.73 0.90 0.71 0.80 0.83 0.89 0.82 0.86 0.76 0.78 0.82 0.89 0.70 0.79 0.71 0.83 0.85 0.90 0.78 0.76 0.88 0.77 0.72 0.78 0.88 0.87 0.78 0.76 0.78 0.78 0.82 -9999 -9999 -9999 -9999 -9999 -9999 -9999 -9999 -9999 -9999 -9999 -9999 -9999 -9999 -9999 -9999 -9999 -9999 -9999 -9999 -9999 -9999 -9999 -9999 -9999 -9999 -9999 -9999 -9999 -9999 -9999
0.71 0.88 0.89 0.80 0.73 0.90 0.70 0.83 0.70 0.72 0.78 0.79 0.83 0.70 0.73 0.72 0.80 0.75 0.84 0.76 0.81 0.74 0.73 0.80 0.89 0.71 0.89 0.77 0.76 0.74 0.86 0.80 0.88 0.82 0.74 0.77 0.89 0.73 0.80 0.84 0.89 0.74 0.78 0.72 0.89 0.71 0.72 0.72 0.80 0.77 0.77 0.78 0.73 0.76 0.80 0.90 0.80 0.85 0.79 0.77 0.83 0.89 0.73 0.70 0.86 0.76 0.70 0.87 0.80 0.81 0.85 0.77 0.75 0.83 0.77 0.72 0.71 0.76 0.88 0.90 0.75 0.76 0.89 0.81 0.74 0.85 0.82 0.78 0.81 0.84 0.86 0.76 0.82 0.86 0.89 0.75 0.73 0.88 0.81 0.78 0.89 0.79 0.74 0.82 0.74 0.79 0.84 0.80 0.72 0.77 0.75 0.71 0.83 0.83 0.80 0.86 0.75 0.75 0.84 0.78 0.71 0.76 0.80 0.73 0.74 0.85 0.85 0.72 0.72 0.86 0.79 0.88 0.83 0.82 0.89 0.82 0.78 0.85 0.77 0.76 0.84 0.87 0.76 0.83 0.86 0.82 0.85 0.88 0.81 0.76 0.84 0.72 0.71 0.82 0.77 0.80 0.90 0.90 0.76 0.72 0.82 0.73 0.83 0.89 0.77 0.76 0.85 0.87 0.75 0.72 0.86 0.70 0.76 0.84 0.73 0.82 0.71 0.83 0.84 0.71 0.81 0.78 0.84 0.75 -9999 -9999 -9999 -9999 -9999 -9999 -9999 -9999 -9999 -9999 -9999 -9999 -9999 -9999 -9999 -9999 -9999 -9999 -9999 -9999 -9999 -9999 -9999 -9999 -9999 -9999 -9999 -9999 -9999 -9999 -9999
0.87 0.78 0.81 0.80 0.90 0.71 0.86 0.84 0.78 0.88 0.86 0.73 0.79 0.71 0.80 0.74 0.72 0.77 0.85 0.87 0.77 0.76 0.75 0.88 0.72 0.82 0.72 0.89 0.84 0.87 0.77 0.75 0.78 0.77 0.86 0.76 0.86 0.78 0.88 0.86 0.78 0.89 0.70 0.89 0.81 0.86 0.74 0.81 0.89 0.80 0.85 0.70 0.73 0.88 0.72 0.86 0.85 0.75 0.80 0.88 0.85 0.74 0.85 0.75 0.74 0.85 0.71 0.87 0.86 0.78 0.81 0.83 0.75 0.84 0.79 0.79 0.71 0.89 0.88 0.90 0.82 0.76 0.77 0.89 0.81 0.89 0.71 0.82 0.70 0.85 0.85 0.85 0.73 0.88 0.82 0.71 0.74 0.80 0.71 0.76 0.78 0.78 0.80 0.87 0.88 0.76 0.90 0.81 0.76 0.77 0.76 0.76 0.70 0.75 0.71 0.78 0.86 0.83 0.87 0.75 0.86 0.82 0.72 0.84 0.87 0.75 0.75 0.88 0.74 0.85 0.87 0.74 0.87 0.79 0.72 0.76 0.86 0.82 0.78 0.73 0.73 0.87 0.76 0.74 0.88 0.75 0.82 0.70 0.84 0.88 0.82 0.80 0.82 0.83 0.85 0.71 0.79 0.80 0.73 0.86 0.76 0.74 0.80 0.71 0.84 0.88 0.84 0.83 0.73 0.80 0.73 0.84 0.88 0.78 0.79 0.80 0.86 0.85 0.81 0.73 0.89 0.85 0.87 0.86 -9999 -9999 -9999 -9999 -9999 -9999 -9999 -9999 -9999 -9999 -9999 -9999 -9999 -9999 -9999 -9999 -9999 -9999 -9999 -9999 -9999 -9999 -9999 -9999 -9999 -9999 -9999 -9999 -9999 -9999 -9999
0.82 0.82 0.72 0.86 0.72 0.74 0.87 0.77 0.78 0.72 0.83 0.76 0.75 0.82 0.89 0.79 0.87 0.80 0.80 0.77 0.81 0.88 0.72 0.82 0.81 0.73 0.90 0.88 0.86 0.84 0.78 0.81 0.85 0.88 0.77 0.85 0.89 0.73 0.89 0.84 0.74 0.75 0.75 0.74 0.89 0.71 0.87 0.82 0.82 0.86 0.77 0.76 0.73 0.73 0.75 0.75 0.75 0.86 0.83 0.70 0.77 0.74 0.80 0.70 0.77 0.83 0.72 0.82 0.85 0.83 0.75 0.86 0.87 0.81 0.84 0.86 0.76 0.90 0.84 0.76 0.89 0.90 0.87 0.72 0.73 0.74 0.85 0.72 0.89 0.76 0.74 0.84 0.86 0.75 0.71 0.82 0.73 0.81 0.86 0.82 0.85 0.79 0.88 0.84 0.75 0.83 0.83 0.89 0.72 0.74 0.89 0.78 0.84 0.89 0.90 0.83 0.87 0.76 0.81 0.88 0.87 0.76 0.74 0.75 0.84 0.70 0.90 0.86 0.75 0.77 0.70 0.83 0.88 0.74 0.83 0.84 0.89 0.86 0.86 0.75 0.83 0.79 0.73 0.79 0.84 0.71 0.75 0.72 0.78 0.81 0.79 0.70 0.70 0.86 0.89 0.73 0.85 0.71 0.78 0.78 0.80 0.74 0.88 0.89 0.87 0.80 0.88 0.84 0.75 0.74 0.81 0.83 0.84 0.82 0.71 0.86 0.76 0.84 0.74 0.77 0.76 0.76 0.89 0.72 -9999 -9999 -9999 -9999 -9999 -9999 -9999 -9999 -9999 -9999 -9999 -9999 -9999 -9999 -9999 -9999 -9999 -9999 -9999 -9999 -9999 -9999 -9999 -9999 -9999 -9999 -9999 -9999 -9999 -9999 -9999
0.75 0.89 0.76 0.87 0.80 0.70 0.79 0.78 0.88 0.70 0.83 0.76 0.80 0.87 0.79 0.78 0.89 0.87 0.83 0.74 0.77 0.88 0.86 0.77 0.82 0.74 0.89 0.89 0.87 0.86 0.85 0.72 0.86 0.78 0.86 0.76 0.83 0.88 0.78 0.80 0.78 0.81 0.83 0.85 0.80 0.79 0.75 0.83 0.72 0.78 0.83 0.72 0.86 0.76 0.82 0.76 0.79 0.77 0.80 0.82 0.84 0.84 0.83 0.88 0.79 0.86 0.84 0.83 0.78 0.88 0.85 0.83 0.84 0.78 0.70 0.83 0.79 0.88 0.78 0.75 0.85 0.80 0.83 0.76 0.80 0.77 0.85 0.72 0.79 0.90 0.76 0.79 0.82 0.75 0.70 0.79 0.89 0.78 0.83 0.90 0.89 0.75 0.77 0.76 0.71 0.88 0.71 0.77 0.76 0.80 0.83 0.85 0.85 0.87 0.76 0.87 0.70 0.71 0.85 0.83 0.90 0.75 0.87 0.85 0.78 0.84 0.83 0.75 0.76 0.77 0.72 0.70 0.78 0.76 0.77 0.82 0.85 0.74 0.82 0.71 0.75 0.75 0.71 0.87 0.86 0.88 0.86 0.75 0.82 0.79 0.75 0.71 0.81 0.81 0.81 0.73 0.83 0.88 0.89 0.87 0.90 0.86 0.85 0.80 0.88 0.73 0.78 0.85 0.81 0.86 0.88 0.74 0.78 0.84 0.85 0.71 0.77 0.71 0.76 0.84 0.85 0.71 0.87 0.82 -9999 -9999 -9999 -9999 -9999 -9999 -9999 -9999 -9999 -9999 -9999 -9999 -9999 -9999 -9999 -9999 -9999 -9999 -9999 -9999 -9999 -9999 -9999 -9999 -9999 -9999 -9999 -9999 -9999 -9999 -9999
0.75 0.70 0.70 0.84 0.88 0.89 0.79 0.78 0.87 0.76 0.82 0.70 0.77 0.85 0.89 0.70 0.84 0.88 0.77 0.83 0.85 0.71 0.74 0.77 0.87 0.86 0.83 0.85 0.73 0.82 0.75 0.75 0.70 0.88 0.86 0.74 0.81 0.87 0.83 0.70 0.73 0.76 0.77 0.83 0.72 0.70 0.83 0.75 0.76 0.87 0.88 0.75 0.86 0.71 0.82 0.76 0.71 0.71 0.79 0.79 0.81 0.77 0.85 0.77 0.87 0.73 0.76 0.70 0.87 0.77 0.75 0.84 0.74 0.88 0.78 0.88 0.83 0.87 0.74 0.85 0.70 0.88 0.71 0.85 0.88 0.79 0.85 0.78 0.80 0.86 0.81 0.87 0.74 0.78 0.80 0.86 0.73 0.85 0.89 0.71 0.78 0.84 0.84 0.75 0.72 0.88 0.71 0.88 0.70 0.72 0.87 0.87 0.76 0.84 0.78 0.76 0.86 0.78 0.71 0.84 0.79 0.71 0.82 0.78 0.88 0.84 0.87 0.74 0.80 0.73 0.72 0.87 0.75 0.73 0.73 0.81 0.88 0.72 0.74 0.74 0.79 0.82 0.82 0.83 0.72 0.87 0.87 0.74 0.77 0.72 0.86 0.74 0.79 0.77 0.80 0.77 0.82 0.79 0.77 0.82 0.84 0.70 0.78 0.81 0.83 0.89 0.85 0.78 0.86 0.88 0.81 0.86 0.88 0.85 0.81 0.88 0.72 0.72 0.81 0.77 0.90 0.77 0.81 0.84 0.86 -9999 -9999 -9999 -9999 -9999 -9999 -9999 -9999 -9999 -9999 -9999 -9999 -9999 -9999 -9999 -9999 -9999 -9999 -9999 -9999 -9999 -9999 -9999 -9999 -9999 -9999 -9999 -9999 -9999 -9999
0.88 0.89 0.73 0.81 0.72 0.84 0.89 0.87 0.84 0.70 0.77 0.70 0.78 0.81 0.85 0.88 0.81 0.80 0.77 0.79 0.82 0.70 0.71 0.88 0.87 0.72 0.85 0.83 0.79 0.71 0.84 0.85 0.70 0.81 0.75 0.76 0.78 0.76 0.72 0.90 0.89 0.85 0.88 0.86 0.82 0.88 0.70 0.82 0.76 0.75 0.80 0.87 0.87 0.85 0.88 0.82 0.80 0.85 0.90 0.70 0.87 0.84 0.78 0.83 0.70 0.73 0.75 0.78 0.74 0.84 0.85 0.89 0.89 0.83 0.71 0.85 0.70 0.88 0.82 0.83 0.76 0.80 0.80 0.87 0.83 0.77 0.72 0.77 0.72 0.71 0.82 0.83 0.84 0.76 0.76 0.87 0.81 0.81 0.90 0.82 0.78 0.86 0.90 0.83 0.72 0.87 0.71 0.72 0.76 0.82 0.72 0.80 0.79 0.81 0.85 0.81 0.80 0.82 0.76 0.82 0.79 0.83 0.84 0.79 0.74 0.78 0.83 0.78 0.72 0.77 0.80 0.83 0.83 0.86 0.71 0.81 0.88 0.75 0.71 0.74 0.82 0.74 0.85 0.81 0.78 0.71 0.80 0.76 0.89 0.82 0.88 0.82 0.90 0.75 0.83 0.87 0.83 0.76 0.80 0.79 0.77 0.89 0.75 0.75 0.73 0.82 0.74 0.90 0.70 0.85 0.76 0.87 0.82 0.73 0.77 0.90 0.72 0.71 0.74 0.83 0.73 0.90 0.81 0.76 0.87 -9999 -9999 -9999 -9999 -9999 -9999 -9999 -9999 -9999 -9999 -9999 -9999 -9999 -9999 -9999 -9999 -9999 -9999 -9999 -9999 -9999 -9999 -9999 -9999 -9999 -9999 -9999 -9999 -9999 -9999
0.88 0.82 0.76 0.81 0.75 0.89 0.85 0.81 0.86 0.80 0.89 0.70 0.79 0.75 0.85 0.84 0.77 0.90 0.80 0.87 0.88 0.86 0.85 0.75 0.89 0.88 0.75 0.81 0.81 0.77 0.79 0.84 0.82 0.89 0.70 0.89 0.88 0.75 0.82 0.84 0.78 0.70 0.84 0.78 0.71 0.82 0.88 0.71 0.88 0.74 0.79 0.81 0.88 0.84 0.84 0.80 0.72 0.74 0.75 0.72 0.86 0.79 0.83 0.80 0.81 0.76 0.74 0.86 0.79 0.82 0.76 0.88 0.83 0.70 0.85 0.80 0.74 0.82 0.89 0.86 0.73 0.87 0.71 0.81 0.79 0.72 0.80 0.79 0.88 0.85 0.73 0.80 0.89 0.70 0.87 0.85 0.88 0.83 0.89 0.78 0.72 0.71 0.84 0.88 0.81 0.80 0.89 0.79 0.88 0.76 0.79 0.75 0.71 0.71 0.78 0.80 0.72 0.71 0.89 0.82 0.74 0.80 0.72 0.74 0.88 0.77 0.75 0.72 0.72 0.76 0.79 0.84 0.81 0.83 0.81 0.73 0.86 0.90 0.87 0.87 0.86 0.82 0.86 0.76 0.73 0.75 0.80 0.86 0.83 0.77 0.79 0.82 0.88 0.89 0.80 0.83 0.71 0.81 0.89 0.79 0.89 0.70 0.77 0.71 0.80 0.86 0.88 0.81 0.88 0.87 0.86 0.88 0.79 0.87 0.83 0.72 0.75 0.84 0.80 0.84 0.84 0.74 0.77 0.75 0.79 -9999 -9999 -9999 -9999 -9999 -9999 -9999 -9999 -9999 -9999 -9999 -9999 -9999 -9999 -9999 -9999 -9999 -9999 -9999 -9999 -9999 -9999 -9999 -9999 -9999 -9999 -9999 -9999 -9999 -9999
0.82 0.76 0.89 0.73 0.74 0.72 0.88 0.82 0.70 0.79 0.88 0.83 0.81 0.73 0.82 0.71 0.87 0.80 0.73 0.83 0.73 0.77 0.75 0.87 0.71 0.79 0.84 0.72 0.88 0.83 0.72 0.82 0.75 0.75 0.70 0.74 0.80 0.82 0.82 0.84 0.85 0.83 0.83 0.83 0.78 0.76 0.85 0.79 0.82 0.71 0.79 0.85 0.71 0.80 0.87 0.89 0.79 0.79 0.86 0.86 0.89 0.73 0.74 0.84 0.82 0.76 0.87 0.80 0.78 0.70 0.71 0.76 0.76 0.81 0.78 0.85 0.78 0.88 0.78 0.89 0.82 0.73 0.79 0.80 0.81 0.82 0.85 0.85 0.87 0.74 0.89 0.74 0.72 0.76 0.88 0.74 0.81 0.71 0.82 0.84 0.71 0.71 0.70 0.78 0.88 0.85 0.79 0.87 0.77 0.87 0.71 0.77 0.71 0.80 0.77 0.85 0.75 0.81 0.85 0.82 0.90 0.75 0.85 0.77 0.84 0.76 0.76 0.83 0.76 0.85 0.78 0.88 0.79 0.81 0.75 0.87 0.77 0.87 0.76 0.82 0.80 0.78 0.85 0.88 0.79 0.77 0.72 0.84 0.80 0.88 0.81 0.86 0.75 0.70 0.72 0.78 0.71 0.73 0.85 0.83 0.82 0.85 0.83 0.86 0.77 0.84 0.71 0.73 0.77 0.73 0.86 0.70 0.71 0.82 0.72 0.86 0.80 0.74 0.76 0.75 0.70 0.75 0.82 0.78 0.81 -9999 -9999 -9999 -9999 -9999 -9999 -9999 -9999 -9999 -9999 -9999 -9999 -9999 -9999 -9999 -9999 -9999 -9999 -9999 -9999 -9999 -9999 -9999 -9999 -9999 -9999 -9999 -9999 -9999 -9999
0.89 0.88 0.90 0.85 0.84 0.85 0.88 0.79 0.87 0.73 0.76 0.88 0.88 0.87 0.78 0.80 0.81 0.86 0.73 0.80 0.81 0.78 0.76 0.83 0.73 0.89 0.85 0.85 0.82 0.84 0.78 0.77 0.89 0.84 0.81 0.82 0.87 0.80 0.74 0.83 0.81 0.75 0.87 0.74 0.84 0.87 0.77 0.79 0.86 0.80 0.85 0.73 0.72 0.76 0.82 0.78 0.76 0.82 0.75 0.71 0.78 0.86 0.83 0.88 0.71 0.79 0.81 0.72 0.83 0.75 0.78 0.74 0.82 0.71 0.82 0.84 0.86 0.74 0.85 0.79 0.73 0.72 0.80 0.75 0.79 0.86 0.77 0.75 0.79 0.72 0.86 0.72 0.74 0.73 0.85 0.84 0.77 0.89 0.74 0.79 0.88 0.80 0.75 0.85 0.77 0.88 0.70 0.72 0.83 0.83 0.75 0.73 0.84 0.85 0.72 0.74 0.73 0.89 0.78 0.74 0.81 0.72 0.74 0.89 0.76 0.81 0.79 0.86 0.71 0.83 0.80 0.80 0.77 0.84 0.82 0.83 0.75 0.83 0.83 0.82 0.82 0.76 0.85 0.72 0.76 0.78 0.71 0.79 0.71 0.87 0.82 0.82 0.73 0.71 0.73 0.74 0.75 0.90 0.87 0.84 0.80 0.81 0.85 0.71 0.74 0.82 0.74 0.87 0.73 0.79 0.81 0.73 0.85 0.76 0.89 0.72 0.76 0.82 0.80 0.74 0.88 0.75 0.75 0.72 0.85 -9999 -9999 -9999 -9999 -9999 -9999 -9999 -9999 -9999 -9999 -9999 -9999 -9999 -9999 -9999 -9999 -9999 -9999 -9999 -9999 -9999 -9999 -9999 -9999 -9999 -9999 -9999 -9999 -9999 -9999
0.81 0.72 0.74 0.78 0.77 0.74 0.78 0.85 0.74 0.79 0.86 0.70 0.85 0.88 0.83 0.77 0.84 0.86 0.86 0.89 0.84 0.74 0.86 0.89 0.81 0.76 0.79 0.87 0.73 0.79 0.75 0.80 0.77 0.73 0.80 0.74 0.90 0.70 0.78 0.75 0.81 0.75 0.75 0.82 0.71 0.74 0.87 0.86 0.80 0.86 0.89 0.77 0.78 0.87 0.82 0.85 0.81 0.78 0.79 0.75 0.80 0.73 0.82 0.88 0.76 0.83 0.71 0.74 0.88 0.74 0.86 0.77 0.86 0.84 0.85 0.83 0.88 0.79 0.87 0.88 0.79 0.76 0.83 0.73 0.80 0.70 0.85 0.79 0.74 0.83 0.88 0.83 0.75 0.89 0.90 0.79 0.78 0.81 0.72 0.70 0.85 0.88 0.83 0.83 0.80 0.72 0.78 0.88 0.82 0.89 0.81 0.81 0.72 0.78 0.74 0.81 0.88 0.72 0.85 0.82 0.80 0.78 0.77 0.86 0.74 0.79 0.73 0.72 0.85 0.74 0.88 0.90 0.74 0.77 0.88 0.89 0.83 0.86 0.87 0.89 0.72 0.78 0.81 0.85 0.85 0.76 0.88 0.72 0.82 0.72 0.83 0.82 0.86 0.82 0.84 0.83 0.86 0.70 0.75 0.75 0.73 0.81 0.90 0.82 0.87 0.84 0.85 0.74 0.77 0.90 0.81 0.85 0.77 0.75 0.89 0.77 0.86 0.82 0.74 0.72 0.72 0.78 0.83 0.74 0.86 -9999 -9999 -9999 -9999 -9999 -9999 -9999 -9999 -9999 -9999 -9999 -9999 -9999 -9999 -9999 -9999 -9999 -9999 -9999 -9999 -9999 -9999 -9999 -9999 -9999 -9999 -9999 -9999 -9999 -9999
0.75 0.80 0.71 0.75 0.80 0.83 0.75 0.73 0.76 0.87 0.85 0.72 0.74 0.85 0.85 0.82 0.70 0.83 0.80 0.79 0.74 0.75 0.84 0.83 0.82 0.77 0.85 0.73 0.73 0.89 0.78 0.74 0.84 0.74 0.89 0.77 0.73 0.74 0.84 0.84 0.84 0.88 0.74 0.90 0.83 0.82 0.73 0.82 0.73 0.75 0.80 0.82 0.71 0.84 0.83 0.73 0.84 0.77 0.87 0.78 0.84 0.74 0.81 0.81 0.82 0.78 0.74 0.72 0.70 0.79 0.89 0.78 0.80 0.71 0.86 0.82 0.76 0.89 0.84 0.78 0.78 0.79 0.72 0.85 0.78 0.80 0.76 0.74 0.73 0.86 0.71 0.81 0.78 0.87 0.83 0.88 0.73 0.75 0.78 0.81 0.82 0.84 0.75 0.86 0.82 0.73 0.78 0.89 0.71 0.75 0.90 0.84 0.74 0.90 0.85 0.73 0.82 0.84 0.76 0.77 0.88 0.71 0.77 0.75 0.82 0.82 0.89 0.85 0.88 0.73 0.72 0.74 0.74 0.82 0.73 0.82 0.80 0.82 0.84 0.87 0.77 0.86 0.87 0.80 0.80 0.77 0.76 0.76 0.78 0.76 0.72 0.76 0.85 0.88 0.71 0.71 0.84 0.84 0.78 0.90 0.80 0.71 0.81 0.82 0.85 0.87 0.88 0.87 0.86 0.85 0.89 0.87 0.71 0.76 0.85 0.86 0.73 0.87 0.81 0.83 0.79 0.83 0.80 0.82 0.80 0.87 -9999 -9999 -9999 -9999 -9999 -9999 -9999 -9999 -9999 -9999 -9999 -9999 -9999 -9999 -9999 -9999 -9999 -9999 -9999 -9999 -9999 -9999 -9999 -9999 -9999 -9999 -9999 -9999 -9999
0.72 0.84 0.74 0.78 0.81 0.77 0.81 0.77 0.73 0.71 0.71 0.75 0.70 0.70 0.85 0.85 0.74 0.84 0.73 0.74 0.76 0.74 0.71 0.83 0.73 0.81 0.74 0.79 0.87 0.76 0.81 0.71 0.85 0.72 0.87 0.71 0.76 0.77 0.87 0.72 0.72 0.78 0.72 0.72 0.82 0.77 0.85 0.75 0.72 0.86 0.75 0.70 0.81 0.89 0.83 0.90 0.79 0.87 0.79 0.71 0.90 0.85 0.71 0.73 0.71 0.84 0.71 0.76 0.71 0.87 0.72 0.84 0.78 0.89 0.87 0.80 0.79 0.81 0.88 0.73 0.89 0.81 0.76 0.84 0.71 0.87 0.77 0.80 0.74 0.73 0.73 0.80 0.76 0.77 0.88 0.82 0.87 0.71 0.73 0.80 0.83 0.81 0.73 0.79 0.71 0.90 0.71 0.73 0.78 0.70 0.76 0.76 0.83 0.80 0.76 0.82 0.88 0.89 0.89 0.80 0.72 0.71 0.76 0.81 0.70 0.79 0.74 0.84 0.75 0.70 0.76 0.71 0.73 0.76 0.81 0.73 0.86 0.86 0.79 0.86 0.74 0.74 0.80 0.76 0.89 0.87 0.76 0.83 0.88 0.71 0.77 0.86 0.76 0.81 0.76 0.80 0.83 0.85 0.77 0.86 0.79 0.82 0.72 0.85 0.78 0.78 0.76 0.88 0.80 0.71 0.78 0.80 0.89 0.80 0.74 0.89 0.81 0.88 0.75 0.82 0.82 0.71 0.89 0.85 0.86 0.86 -9999 -9999 -9999 -9999 -9999 -9999 -9999 -9999 -9999 -9999 -9999 -9999 -9999 -9999 -9999 -9999 -9999 -9999 -9999 -9999 -9999 -9999 -9999 -9999 -9999 -9999 -9999 -9999 -9999
0.82 0.76 0.81 0.72 0.84 0.87 0.86 0.85 0.83 0.76 0.84 0.86 0.75 0.70 0.74 0.80 0.85 0.84 0.87 0.82 0.79 0.77 0.89 0.83 0.85 0.88 0.70 0.88 0.73 0.81 0.89 0.82 0.84 0.86 0.82 0.82 0.77 0.74 0.80 0.76 0.80 0.86 0.80 0.80 0.73 0.85 0.86 0.71 0.87 0.80 0.73 0.71 0.72 0.80 0.84 0.73 0.79 0.77 0.86 0.83 0.84 0.76 0.75 0.70 0.72 0.71 0.84 0.81 0.79 0.84 0.72 0.73 0.71 0.72 0.89 0.70 0.83 0.72 0.71 0.73 0.71 0.72 0.81 0.74 0.80 0.78 0.87 0.79 0.82 0.79 0.73 0.80 0.78 0.71 0.81 0.82 0.83 0.81 0.73 0.80 0.89 0.88 0.79 0.87 0.78 0.80 0.90 0.75 0.81 0.89 0.71 0.73 0.82 0.79 0.79 0.76 0.81 0.78 0.86 0.82 0.72 0.73 0.83 0.81 0.73 0.83 0.80 0.75 0.70 0.72 0.90 0.83 0.71 0.71 0.85 0.79 0.70 0.79 0.70 0.72 0.83 0.74 0.82 0.72 0.78 0.83 0.89 0.78 0.90 0.80 0.81 0.75 0.77 0.76 0.80 0.77 0.81 0.76 0.73 0.87 0.82 0.77 0.80 0.79 0.90 0.85 0.82 0.79 0.72 0.78 0.75 0.83 0.72 0.72 0.85 0.76 0.77 0.87 0.74 0.81 0.77 0.80 0.73 0.72 0.71 0.87 -9999 -9999 -9999 -9999 -9999 -9999 -9999 -9999 -9999 -9999 -9999 -9999 -9999 -9999 -9999 -9999 -9999 -9999 -9999 -9999 -9999 -9999 -9999 -9999 -9999 -9999 -9999 -9999 -9999
0.71 0.77 0.89 0.86 0.88 0.83 0.82 0.73 0.84 0.73 0.79 0.72 0.74 0.89 0.71 0.83 0.71 0.78 0.89 0.88 0.85 0.78 0.80 0.86 0.79 0.86 0.76 0.76 0.87 0.80 0.88 0.87 0.83 0.73 0.84 0.77 0.82 0.72 0.88 0.79 0.86 0.84 0.82 0.76 0.77 0.73 0.77 0.70 0.87 0.87 0.77 0.73 0.88 0.80 0.71 0.81 0.83 0.85 0.83 0.80 0.84 0.89 0.72 0.83 0.82 0.81 0.81 0.79 0.89 0.87 0.84 0.84 0.86 0.88 0.85 0.88 0.80 0.76 0.82 0.78 0.70 0.87 0.72 0.72 0.89 0.79 0.89 0.72 0.88 0.88 0.73 0.81 0.71 0.79 0.89 0.72 0.70 0.78 0.84 0.89 0.83 0.76 0.85 0.89 0.80 0.89 0.86 0.76 0.83 0.73 0.85 0.79 0.85 0.81 0.85 0.82 0.76 0.78 0.90 0.90 0.78 0.85 0.84 0.84 0.89 0.86 0.88 0.70 0.71 0.74 0.75 0.84 0.86 0.79 0.83 0.70 0.85 0.85 0.82 0.82 0.75 0.77 0.79 0.81 0.82 0.87 0.84 0.87 0.81 0.75 0.73 0.80 0.76 0.75 0.76 0.89 0.85 0.78 0.89 0.81 0.89 0.85 0.79 0.84 0.87 0.77 0.70 0.86 0.73 0.72 0.74 0.88 0.73 0.76 0.74 0.86 0.83 0.75 0.76 0.85 0.77 0.84 0.80 0.82 0.89 0.72 -9999 -9999 -9999 -9999 -9999 -9999 -9999 -9999 -9999 -9999 -9999 -9999 -9999 -9999 -9999 -9999 -9999 -9999 -9999 -9999 -9999 -9999 -9999 -9999 -9999 -9999 -9999 -9999 -9999
0.84 0.73 0.81 0.75 0.80 0.70 0.71 0.75 0.83 0.71 0.83 0.84 0.73 0.81 0.86 0.86 0.87 0.70 0.74 0.79 0.71 0.85 0.85 0.85 0.73 0.88 0.82 0.87 0.86 0.80 0.83 0.71 0.84 0.73 0.79 0.79 0.88 0.82 0.82 0.90 0.76 0.90 0.88 0.88 0.71 0.73 0.78 0.73 0.87 0.79 0.83 0.81 0.86 0.89 0.77 0.74 0.72 0.78 0.70 0.89 0.72 0.76 0.72 0.88 0.85 0.88 0.78 0.79 0.85 0.84 0.76 0.87 0.85 0.71 0.87 0.87 0.79 0.81 0.74 0.72 0.77 0.78 0.82 0.82 0.76 0.80 0.77 0.90 0.70 0.90 0.73 0.70 0.73 0.74 0.90 0.73 0.74 0.81 0.76 0.76 0.75 0.79 0.83 0.77 0.70 0.88 0.89 0.80 0.90 0.76 0.72 0.88 0.73 0.83 0.81 0.78 0.78 0.72 0.76 0.81 0.88 0.81 0.86 0.80 0.82 0.79 0.79 0.89 0.74 0.80 0.71 0.82 0.78 0.77 0.89 0.78 0.82 0.88 0.70 0.83 0.72 0.83 0.75 0.81 0.71 0.70 0.77 0.76 0.77 0.74 0.90 0.75 0.75 0.85 0.88 0.76 0.70 0.81 0.75 0.72 0.89 0.87 0.76 0.85 0.81 0.81 0.85 0.87 0.88 0.74 0.71 0.73 0.77 0.72 0.83 0.79 0.70 0.84 0.79 0.89 0.70 0.71 0.75 0.89 0.75 0.80 -9999 -9999 -9999 -9999 -9999 -9999 -9999 -9999 -9999 -9999 -9999 -9999 -9999 -9999 -9999 -9999 -9999 -9999 -9999 -9999 -9999 -9999 -9999 -9999 -9999 -9999 -9999 -9999 -9999
0.78 0.71 0.73 0.82 0.88 0.77 0.83 0.86 0.81 0.79 0.88 0.78 0.73 0.84 0.72 0.73 0.89 0.78 0.71 0.71 0.85 0.73 0.78 0.74 0.72 0.84 0.86 0.82 0.78 0.77 0.82 0.84 0.77 0.75 0.90 0.85 0.82 0.84 0.88 0.87 0.70 0.78 0.83 0.75 0.82 0.84 0.82 0.75 0.88 0.87 0.85 0.85 0.87 0.71 0.81 0.86 0.88 0.73 0.80 0.89 0.74 0.71 0.75 0.81 0.77 0.73 0.84 0.78 0.70 0.72 0.88 0.81 0.74 0.81 0.90 0.77 0.73 0.80 0.89 0.75 0.80 0.79 0.74 0.79 0.84 0.75 0.75 0.79 0.77 0.81 0.71 0.78 0.79 0.82 0.84 0.76 0.80 0.79 0.72 0.85 0.71 0.87 0.80 0.83 0.87 0.70 0.73 0.85 0.73 0.84 0.90 0.87 0.70 0.83 0.76 0.84 0.87 0.81 0.84 0.86 0.86 0.76 0.71 0.84 0.80 0.86 0.78 0.79 0.72 0.84 0.75 0.76 0.86 0.86 0.74 0.72 0.72 0.78 0.83 0.82 0.90 0.85 0.88 0.76 0.73 0.79 0.82 0.84 0.85 0.90 0.83 0.76 0.90 0.78 0.74 0.77 0.71 0.73 0.73 0.83 0.75 0.82 0.79 0.88 0.77 0.77 0.86 0.88 0.84 0.76 0.84 0.72 0.84 0.84 0.80 0.78 0.80 0.77 0.77 0.78 0.80 0.82 0.82 0.77 0.89 0.73 -9999 -9999 -9999 -9999 -9999 -9999 -9999 -9999 -9999 -9999 -9999 -9999 -9999 -9999 -9999 -9999 -9999 -9999 -9999 -9999 -9999 -9999 -9999 -9999 -9999 -9999 -9999 -9999 -9999
0.86 0.79 0.84 0.74 0.75 0.83 0.71 0.77 0.71 0.86 0.80 0.74 0.87 0.84 0.70 0.72 0.89 0.84 0.75 0.89 0.77 0.81 0.79 0.87 0.74 0.80 0.81 0.89 0.84 0.76 0.84 0.89 0.85 0.82 0.86 0.74 0.76 0.87 0.79 0.78 0.72 0.81 0.81 0.80 0.82 0.80 0.84 0.79 0.80 0.77 0.86 0.89 0.85 0.85 0.74 0.71 0.86 0.74 0.86 0.81 0.84 0.90 0.80 0.82 0.72 0.87 0.80 0.87 0.84 0.85 0.74 0.78 0.87 0.88 0.82 0.87 0.90 0.83 0.87 0.72 0.83 0.75 0.78 0.76 0.90 0.82 0.86 0.88 0.88 0.80 0.79 0.78 0.71 0.90 0.88 0.86 0.77 0.90 0.79 0.74 0.87 0.71 0.87 0.78 0.81 0.86 0.81 0.84 0.75 0.73 0.72 0.84 0.72 0.74 0.79 0.87 0.83 0.81 0.79 0.83 0.86 0.80 0.80 0.76 0.72 0.87 0.80 0.77 0.89 0.86 0.72 0.84 0.83 0.89 0.71 0.83 0.84 0.83 0.71 0.80 0.84 0.83 0.81 0.86 0.89 0.84 0.75 0.73 0.78 0.86 0.87 0.80 0.87 0.87 0.81 0.85 0.81 0.71 0.74 0.76 0.71 0.73 0.85 0.71 0.73 0.88 0.73 0.90 0.80 0.72 0.72 0.75 0.78 0.90 0.82 0.74 0.85 0.83 0.86 0.76 0.78 0.76 0.86 0.87 0.84 0.84 0.86 -9999 -9999 -9999 -9999 -9999 -9999 -9999 -9999 -9999 -9999 -9999 -9999 -9999 -9999 -9999 -9999 -9999 -9999 -9999 -9999 -9999 -9999 -9999 -9999 -9999 -9999 -9999 -9999
0.76 0.82 0.90 0.75 0.74 0.84 0.73 0.78 0.77 0.81 0.81 0.79 0.79 0.84 0.76 0.80 0.87 0.77 0.79 0.74 0.72 0.73 0.82 0.84 0.88 0.71 0.76 0.86 0.84 0.72 0.79 0.71 0.87 0.73 0.88 0.90 0.82 0.80 0.84 0.77 0.78 0.78 0.77 0.83 0.81 0.86 0.81 0.80 0.88 0.72 0.84 0.75 0.79 0.77 0.74 0.75 0.75 0.75 0.85 0.86 0.71 0.77 0.76 0.81 0.71 0.71 0.71 0.74 0.79 0.87 0.79 0.89 0.81 0.75 0.81 0.80 0.71 0.72 0.71 0.84 0.73 0.85 0.88 0.81 0.71 0.72 0.87 0.75 0.84 0.82 0.82 0.87 0.74 0.84 0.71 0.81 0.80 0.75 0.80 0.82 0.80 0.85 0.76 0.71 0.81 0.82 0.71 0.76 0.79 0.73 0.87 0.75 0.72 0.74 0.84 0.82 0.78 0.76 0.84 0.81 0.78 0.89 0.77 0.75 0.76 0.74 0.71 0.82 0.71 0.74 0.76 0.76 0.90 0.80 0.86 0.81 0.73 0.85 0.72 0.83 0.86 0.81 0.82 0.74 0.88 0.83 0.87 0.71 0.82 0.84 0.73 0.80 0.73 0.76 0.86 0.83 0.75 0.81 0.88 0.84 0.87 0.73 0.83 0.84 0.87 0.78 0.82 0.84 0.70 0.88 0.87 0.83 0.77 0.89 0.77 0.71 0.71 0.77 0.76 0.89 0.82 0.85 0.84 0.84 0.83 0.72 0.76 -9999 -9999 -9999 -9999 -9999 -9999 -9999 -9999 -9999 -9999 -9999 -9999 -9999 -9999 -9999 -9999 -9999 -9999 -9999 -9999 -9999 -9999 -9999 -9999 -9999 -9999 -9999 -9999
0.84 0.89 0.77 0.77 0.82 0.84 0.72 0.90 0.85 0.77 0.75 0.78 0.89 0.84 0.72 0.85 0.85 0.79 0.74 0.75 0.83 0.71 0.77 0.74 0.83 0.79 0.83 0.73 0.81 0.89 0.81 0.87 0.75 0.79 0.89 0.88 0.72 0.71 0.75 0.70 0.78 0.72 0.82 0.72 0.75 0.75 0.81 0.72 0.82 0.88 0.90 0.79 0.84 0.77 0.78 0.80 0.82 0.88 0.71 0.84 0.77 0.82 0.86 0.87 0.83 0.89 0.78 0.82 0.79 0.78 0.76 0.78 0.87 0.75 0.81 0.83 0.81 0.82 0.72 0.80 0.82 0.81 0.83 0.88 0.80 0.85 0.90 0.79 0.71 0.74 0.71 0.77 0.82 0.87 0.88 0.81 0.79 0.74 0.83 0.85 0.89 0.85 0.82 0.71 0.86 0.84 0.86 0.79 0.88 0.76 0.88 0.89 0.84 0.71 0.72 0.73 0.78 0.75 0.81 0.77 0.82 0.79 0.83 0.90 0.85 0.73 0.80 0.74 0.74 0.73 0.87 0.71 0.79 0.89 0.76 0.84 0.81 0.89 0.75 0.86 0.74 0.86 0.87 0.80 0.88 0.82 0.85 0.80 0.74 0.87 0.81 0.88 0.79 0.70 0.73 0.75 0.78 0.78 0.75 0.79 0.70 0.70 0.87 0.70 0.71 0.84 0.90 0.74 0.77 0.89 0.84 0.76 0.88 0.74 0.87 0.83 0.76 0.75 0.77 0.76 0.75 0.73 0.75 0.73 0.87 0.83 0.77 -9999 -9999 -9999 -9999 -9999 -9999 -9999 -9999 -9999 -9999 -9999 -9999 -9999 -9999 -9999 -9999 -9999 -9999 -9999 -9999 -9999 -9999 -9999 -9999 -9999 -9999 -9999 -9999
0.78 0.76 0.72 0.83 0.77 0.82 0.81 0.81 0.72 0.74 0.76 0.72 0.86 0.70 0.75 0.88 0.83 0.89 0.74 0.77 0.76 0.90 0.75 0.89 0.76 0.83 0.72 0.87 0.75 0.72 0.86 0.86 0.73 0.79 0.70 0.78 0.78 0.76 0.74 0.78 0.73 0.70 0.75 0.80 0.71 0.79 0.70 0.88 0.82 0.86 0.78 0.87 0.88 0.76 0.85 0.80 0.86 0.71 0.79 0.71 0.86 0.78 0.81 0.72 0.83 0.72 0.75 0.87 0.90 0.71 0.83 0.72 0.70 0.77 0.84 0.84 0.76 0.83 0.71 0.81 0.88 0.85 0.74 0.82 0.71 0.86 0.71 0.73 0.75 0.80 0.71 0.74 0.85 0.84 0.79 0.75 0.84 0.74 0.81 0.76 0.76 0.86 0.86 0.74 0.78 0.72 0.71 0.79 0.78 0.90 0.80 0.78 0.87 0.73 0.84 0.76 0.90 0.82 0.78 0.90 0.71 0.74 0.71 0.78 0.70 0.71 0.83 0.75 0.84 0.80 0.84 0.79 0.87 0.76 0.71 0.75 0.73 0.86 0.85 0.86 0.87 0.82 0.82 0.70 0.78 0.78 0.74 0.82 0.79 0.71 0.74 0.87 0.73 0.77 0.78 0.73 0.89 0.81 0.81 0.86 0.71 0.76 0.78 0.72 0.77 0.84 0.75 0.85 0.76 0.70 0.78 0.82 0.72 0.77 0.79 0.78 0.72 0.72 0.73 0.78 0.73 0.89 0.70 0.80 0.70 0.86 0.75 -9999 -9999 -9999 -9999 -9999 -9999 -9999 -9999 -9999 -9999 -9999 -9999 -9999 -9999 -9999 -9999 -9999 -9999 -9999 -9999 -9999 -9999 -9999 -9999 -9999 -9999 -9999 -9999
0.89 0.85 0.84 0.88 0.86 0.72 0.90 0.72 0.75 0.85 0.71 0.81 0.77 0.86 0.87 0.77 0.72 0.78 0.78 0.73 0.72 0.83 0.90 0.87 0.89 0.82 0.83 0.89 0.80 0.78 0.85 0.90 0.83 0.71 0.86 0.72 0.77 0.88 0.78 0.72 0.82 0.77 0.77 0.70 0.88 0.81 0.77 0.76 0.73 0.75 0.72 0.88 0.89 0.86 0.79 0.76 0.74 0.89 0.85 0.83 0.72 0.71 0.88 0.76 0.82 0.76 0.72 0.75 0.90 0.75 0.86 0.73 0.86 0.77 0.84 0.73 0.81 0.74 0.75 0.90 0.80 0.89 0.80 0.89 0.88 0.72 0.73 0.81 0.89 0.75 0.71 0.76 0.72 0.86 0.78 0.88 0.71 0.81 0.88 0.83 0.89 0.72 0.78 0.81 0.89 0.85 0.81 0.85 0.78 0.86 0.71 0.76 0.82 0.79 0.87 0.71 0.77 0.83 0.71 0.81 0.85 0.75 0.83 0.72 0.73 0.78 0.79 0.84 0.83 0.90 0.80 0.75 0.72 0.83 0.82 0.86 0.84 0.75 0.75 0.87 0.80 0.86 0.75 0.86 0.81 0.76 0.82 0.89 0.80 0.88 0.76 0.85 0.77 0.79 0.88 0.85 0.75 0.76 0.83 0.76 0.87 0.88 0.84 0.73 0.71 0.75 0.71 0.81 0.82 0.77 0.72 0.73 0.77 0.79 0.88 0.71 0.83 0.75 0.72 0.86 0.85 0.86 0.79 0.72 0.89 0.82 0.81 -9999 -9999 -9999 -9999 -9999 -9999 -9999 -9999 -9999 -9999 -9999 -9999 -9999 -9999 -9999 -9999 -9999 -9999 -9999 -9999 -9999 -9999 -9999 -9999 -9999 -9999 -9999 -9999
0.83 0.81 0.77 0.84 0.74 0.78 0.74 0.73 0.77 0.90 0.83 0.80 0.87 0.76 0.75 0.87 0.79 0.73 0.90 0.86 0.81 0.81 0.78 0.87 0.78 0.73 0.70 0.85 0.86 0.86 0.86 0.76 0.83 0.71 0.73 0.85 0.75 0.89 0.74 0.70 0.79 0.78 0.88 0.71 0.76 0.79 0.75 0.72 0.82 0.70 0.83 0.79 0.81 0.75 0.88 0.73 0.88 0.88 0.85 0.76 0.75 0.82 0.70 0.77 0.85 0.85 0.73 0.81 0.76 0.81 0.89 0.81 0.72 0.72 0.88 0.75 0.82 0.86 0.73 0.73 0.75 0.73 0.74 0.73 0.80 0.83 0.79 0.88 0.86 0.72 0.79 0.88 0.85 0.88 0.79 0.79 0.86 0.84 0.78 0.86 0.81 0.82 0.74 0.89 0.78 0.86 0.81 0.83 0.87 0.89 0.70 0.88 0.88 0.89 0.85 0.80 0.84 0.88 0.79 0.87 0.86 0.83 0.77 0.73 0.76 0.76 0.83 0.77 0.75 0.76 0.74 0.88 0.87 0.83 0.78 0.72 0.77 0.74 0.86 0.89 0.86 0.80 0.78 0.79 0.88 0.87 0.75 0.82 0.77 0.76 0.80 0.72 0.77 0.73 0.84 0.80 0.81 0.78 0.74 0.79 0.77 0.82 0.87 0.78 0.72 0.78 0.72 0.72 0.86 0.74 0.87 0.70 0.70 0.80 0.74 0.77 0.75 0.83 0.74 0.90 0.77 0.79 0.82 0.72 0.78 0.85 0.82 -9999 -9999 -9999 -9999 -9999 -9999 -9999 -9999 -9999 -9999 -9999 -9999 -9999 -9999 -9999 -9999 -9999 -9999 -9999 -9999 -9999 -9999 -9999 -9999 -9999 -9999 -9999 -9999
0.78 0.74 0.82 0.87 0.89 0.85 0.89 0.85 0.76 0.76 0.78 0.84 0.87 0.86 0.83 0.86 0.81 0.87 0.79 0.86 0.79 0.82 0.82 0.88 0.82 0.84 0.89 0.80 0.78 0.73 0.87 0.89 0.80 0.70 0.85 0.83 0.72 0.72 0.75 0.89 0.76 0.84 0.81 0.80 0.72 0.71 0.86 0.87 0.87 0.88 0.87 0.82 0.70 0.86 0.81 0.89 0.81 0.75 0.81 0.87 0.77 0.87 0.75 0.72 0.78 0.78 0.89 0.86 0.71 0.87 0.85 0.80 0.78 0.82 0.85 0.75 0.84 0.75 0.73 0.81 0.89 0.75 0.83 0.88 0.74 0.75 0.82 0.72 0.89 0.76 0.73 0.80 0.86 0.70 0.85 0.81 0.87 0.88 0.72 0.76 0.90 0.73 0.83 0.81 0.72 0.80 0.72 0.73 0.75 0.71 0.74 0.85 0.87 0.87 0.82 0.82 0.72 0.75 0.76 0.77 0.78 0.82 0.79 0.71 0.82 0.75 0.87 0.86 0.88 0.90 0.86 0.73 0.87 0.73 0.72 0.83 0.84 0.72 0.75 0.86 0.82 0.90 0.86 0.77 0.78 0.87 0.72 0.80 0.88 0.80 0.85 0.84 0.74 0.86 0.83 0.75 0.71 0.76 0.77 0.81 0.88 0.75 0.85 0.72 0.90 0.79 0.85 0.84 0.79 0.83 0.84 0.80 0.80 0.87 0.83 0.72 0.83 0.90 0.71 0.72 0.81 0.82 0.90 0.79 0.73 0.72 0.73 0.89 -9999 -9999 -9999 -9999 -9999 -9999 -9999 -9999 -9999 -9999 -9999 -9999 -9999 -9999 -9999 -9999 -9999 -9999 -9999 -9999 -9999 -9999 -9999 -9999 -9999 -9999 -9999
0.80 0.86 0.87 0.89 0.82 0.87 0.72 0.73 0.88 0.82 0.84 0.81 0.77 0.71 0.79 0.84 0.87 0.77 0.80 0.85 0.76 0.81 0.77 0.88 0.74 0.90 0.81 0.79 0.74 0.72 0.70 0.77 0.88 0.84 0.73 0.76 0.82 0.86 0.78 0.84 0.76 0.71 0.70 0.77 0.86 0.75 0.71 0.88 0.72 0.89 0.85 0.79 0.78 0.85 0.80 0.85 0.79 0.86 0.74 0.85 0.87 0.81 0.71 0.71 0.82 0.83 0.75 0.74 0.73 0.81 0.83 0.72 0.88 0.77 0.89 0.85 0.72 0.76 0.77 0.87 0.90 0.81 0.76 0.70 0.70 0.73 0.86 0.82 0.71 0.76 0.79 0.87 0.70 0.71 0.83 0.81 0.71 0.79 0.72 0.85 0.81 0.89 0.72 0.73 0.75 0.72 0.72 0.74 0.90 0.88 0.74 0.76 0.77 0.80 0.82 0.72 0.72 0.85 0.76 0.77 0.85 0.73 0.74 0.83 0.90 0.74 0.80 0.70 0.84 0.88 0.80 0.85 0.73 0.90 0.71 0.76 0.81 0.82 0.79 0.80 0.87 0.81 0.88 0.79 0.76 0.88 0.82 0.73 0.80 0.87 0.85 0.83 0.81 0.75 0.89 0.77 0.80 0.73 0.86 0.70 0.70 0.76 0.82 0.87 0.70 0.71 0.84 0.76 0.82 0.83 0.71 0.81 0.81 0.81 0.71 0.89 0.84 0.81 0.88 0.90 0.71 0.86 0.74 0.75 0.88 0.83 0.81 0.78 -9999 -9999 -9999 -9999 -9999 -9999 -9999 -9999 -9999 -9999 -9999 -9999 -9999 -9999 -9999 -9999 -9999 -9999 -9999 -9999 -9999 -9999 -9999 -9999 -9999 -9999 -9999
0.84 0.78 0.81 0.78 0.79 0.90 0.75 0.77 0.89 0.89 0.78 0.73 0.79 0.88 0.76 0.86 0.90 0.90 0.71 0.74 0.87 0.83 0.81 0.72 0.83 0.73 0.76 0.85 0.74 0.73 0.86 0.75 0.84 0.81 0.85 0.84 0.88 0.88 0.70 0.75 0.85 0.72 0.81 0.71 0.84 0.72 0.71 0.89 0.89 0.81 0.78 0.87 0.77 0.86 0.77 0.87 0.77 0.72 0.89 0.84 0.73 0.79 0.79 0.87 0.88 0.78 0.73 0.72 0.82 0.80 0.77 0.86 0.76 0.71 0.89 0.84 0.72 0.70 0.87 0.76 0.88 0.80 0.87 0.83 0.85 0.89 0.79 0.84 0.84 0.86 0.74 0.77 0.81 0.76 0.80 0.81 0.76 0.72 0.78 0.89 0.72 0.70 0.88 0.74 0.83 0.85 0.78 0.83 0.70 0.90 0.83 0.73 0.89 0.77 0.77 0.80 0.71 0.74 0.89 0.77 0.82 0.75 0.72 0.86 0.72 0.74 0.71 0.71 0.73 0.82 0.75 0.89 0.81 0.75 0.74 0.89 0.82 0.80 0.75 0.90 0.86 0.75 0.87 0.88 0.88 0.70 0.79 0.81 0.71 0.88 0.80 0.89 0.86 0.79 0.78 0.85 0.82 0.86 0.89 0.78 0.85 0.71 0.83 0.84 0.76 0.83 0.72 0.78 0.86 0.73 0.86 0.71 0.71 0.79 0.83 0.83 0.77 0.73 0.74 0.86 0.84 0.78 0.86 0.73 0.78 0.73 0.79 0.79 -9999 -9999 -9999 -9999 -9999 -9999 -9999 -9999 -9999 -9999 -9999 -9999 -9999 -9999 -9999 -9999 -9999 -9999 -9999 -9999 -9999 -9999 -9999 -9999 -9999 -9999 -9999
0.78 0.87 0.83 0.80 0.84 0.83 0.88 0.87 0.74 0.82 0.81 0.84 0.73 0.87 0.83 0.76 0.77 0.83 0.80 0.74 0.81 0.72 0.85 0.86 0.89 0.88 0.76 0.89 0.82 0.81 0.82 0.86 0.77 0.87 0.71 0.75 0.89 0.90 0.85 0.80 0.82 0.80 0.82 0.79 0.71 0.76 0.75 0.79 0.71 0.88 0.83 0.83 0.77 0.72 0.81 0.87 0.90 0.71 0.74 0.81 0.79 0.86 0.70 0.76 0.74 0.86 0.84 0.77 0.81 0.77 0.84 0.83 0.88 0.85 0.76 0.81 0.87 0.84 0.78 0.73 0.75 0.70 0.87 0.89 0.72 0.84 0.79 0.87 0.70 0.84 0.88 0.70 0.70 0.76 0.83 0.82 0.81 0.77 0.81 0.87 0.85 0.84 0.87 0.89 0.73 0.77 0.79 0.87 0.79 0.80 0.82 0.75 0.79 0.80 0.85 0.85 0.90 0.79 0.83 0.84 0.77 0.84 0.81 0.75 0.88 0.79 0.84 0.76 0.83 0.81 0.72 0.85 0.86 0.81 0.83 0.89 0.74 0.77 0.76 0.81 0.86 0.84 0.89 0.80 0.88 0.88 0.76 0.88 0.77 0.76 0.85 0.78 0.84 0.73 0.77 0.71 0.73 0.70 0.82 0.78 0.86 0.89 0.82 0.85 0.86 0.73 0.78 0.88 0.75 0.88 0.74 0.84 0.71 0.82 0.75 0.83 0.80 0.78 0.75 0.84 0.74 0.84 0.76 0.79 0.78 0.90 0.73 0.87 -9999 -9999 -9999 -9999 -9999 -9999 -9999 -9999 -9999 -9999 -9999 -9999 -9999 -9999 -9999 -9999 -9999 -9999 -9999 -9999 -9999 -9999 -9999 -9999 -9999 -9999 -9999
0.81 0.87 0.70 0.83 0.81 0.83 0.79 0.79 0.83 0.87 0.78 0.84 0.70 0.83 0.89 0.83 0.71 0.87 0.84 0.78 0.82 0.88 0.80 0.86 0.75 0.84 0.75 0.79 0.81 0.89 0.87 0.89 0.76 0.77 0.83 0.84 0.78 0.87 0.88 0.89 0.82 0.83 0.80 0.86 0.83 0.71 0.77 0.76 0.71 0.73 0.82 0.75 0.85 0.81 0.84 0.83 0.86 0.79 0.78 0.89 0.87 0.72 0.84 0.76 0.87 0.80 0.80 0.70 0.77 0.80 0.74 0.73 0.80 0.80 0.75 0.77 0.85 0.72 0.88 0.82 0.76 0.79 0.73 0.74 0.83 0.85 0.78 0.89 0.87 0.73 0.90 0.71 0.80 0.85 0.78 0.77 0.75 0.88 0.81 0.88 0.73 0.87 0.88 0.88 0.71 0.74 0.77 0.90 0.89 0.87 0.74 0.76 0.77 0.89 0.72 0.74 0.78 0.88 0.82 0.87 0.81 0.71 0.73 0.75 0.71 0.87 0.79 0.90 0.87 0.83 0.87 0.75 0.78 0.84 0.88 0.70 0.77 0.85 0.77 0.77 0.81 0.87 0.71 0.70 0.75 0.77 0.79 0.77 0.71 0.81 0.83 0.84 0.77 0.82 0.77 0.84 0.86 0.72 0.89 0.70 0.86 0.71 0.88 0.72 0.90 0.71 0.82 0.86 0.85 0.82 0.87 0.85 0.88 0.85 0.75 0.79 0.79 0.76 0.79 0.75 0.83 0.88 0.72 0.87 0.77 0.90 0.85 0.70 -9999 -9999 -9999 -9999 -9999 -9999 -9999 -9999 -9999 -9999 -9999 -9999 -9999 -9999 -9999 -9999 -9999 -9999 -9999 -9999 -9999 -9999 -9999 -9999 -9999 -9999 -9999
0.86 0.73 0.81 0.75 0.87 0.78 0.80 0.75 0.85 0.80 0.84 0.80 0.80 0.83 0.82 0.73 0.85 0.81 0.73 0.75 0.74 0.86 0.81 0.88 0.78 0.75 0.83 0.82 0.82 0.72 0.90 0.84 0.86 0.79 0.82 0.77 0.71 0.71 0.80 0.74 0.73 0.85 0.75 0.82 0.79 0.86 0.75 0.85 0.84 0.70 0.83 0.73 0.89 0.77 0.88 0.86 0.89 0.83 0.75 0.76 0.76 0.81 0.76 0.78 0.76 0.78 0.78 0.82 0.85 0.73 0.75 0.89 0.81 0.79 0.72 0.89 0.80 0.84 0.77 0.75 0.76 0.89 0.78 0.76 0.76 0.79 0.90 0.72 0.76 0.76 0.86 0.77 0.82 0.81 0.80 0.87 0.71 0.73 0.88 0.87 0.83 0.78 0.81 0.70 0.82 0.74 0.76 0.90 0.82 0.79 0.73 0.78 0.81 0.81 0.74 0.77 0.82 0.87 0.73 0.77 0.75 0.77 0.78 0.89 0.85 0.77 0.79 0.84 0.90 0.84 0.79 0.79 0.78 0.75 0.75 0.72 0.87 0.86 0.74 0.82 0.85 0.73 0.74 0.75 0.89 0.77 0.84 0.75 0.81 0.83 0.79 0.74 0.76 0.72 0.88 0.87 0.71 0.70 0.89 0.78 0.83 0.90 0.71 0.88 0.73 0.81 0.79 0.90 0.82 0.78 0.74 0.77 0.81 0.88 0.74 0.70 0.77 0.70 0.81 0.77 0.78 0.86 0.70 0.84 0.84 0.87 0.86 0.87 -9999 -9999 -9999 -9999 -9999 -9999 -9999 -9999 -9999 -9999 -9999 -9999 -9999 -9999 -9999 -9999 -9999 -9999 -9999 -9999 -9999 -9999 -9999 -9999 -9999 -9999 -9999
0.73 0.73 0.79 0.72 0.76 0.89 0.89 0.86 0.71 0.73 0.81 0.83 0.83 0.76 0.75 0.73 0.89 0.75 0.73 0.84 0.75 0.71 0.79 0.84 0.70 0.77 0.86 0.90 0.75 0.89 0.75 0.73 0.75 0.74 0.78 0.83 0.71 0.78 0.84 0.73 0.70 0.80 0.80 0.89 0.83 0.79 0.78 0.87 0.84 0.77 0.79 0.72 0.70 0.77 0.83 0.77 0.72 0.81 0.84 0.73 0.84 0.78 0.86 0.81 0.80 0.85 0.86 0.82 0.73 0.82 0.84 0.90 0.88 0.74 0.81 0.76 0.86 0.83 0.75 0.82 0.77 0.87 0.74 0.88 0.76 0.88 0.75 0.90 0.75 0.85 0.76 0.85 0.76 0.72 0.77 0.72 0.76 0.88 0.76 0.87 0.83 0.70 0.71 0.81 0.85 0.74 0.90 0.77 0.80 0.73 0.71 0.89 0.77 0.76 0.75 0.88 0.90 0.78 0.87 0.77 0.72 0.80 0.87 0.74 0.71 0.84 0.86 0.71 0.73 0.87 0.81 0.77 0.71 0.78 0.80 0.81 0.89 0.71 0.75 0.88 0.77 0.77 0.80 0.88 0.74 0.73 0.81 0.89 0.82 0.75 0.83 0.84 0.74 0.85 0.86 0.82 0.77 0.72 0.83 0.73 0.78 0.85 0.74 0.86 0.89 0.83 0.83 0.83 0.76 0.74 0.73 0.85 0.80 0.73 0.79 0.72 0.89 0.76 0.76 0.80 0.74 0.87 0.81 0.75 0.74 0.81 0.85 0.73 -9999 -9999 -9999 -9999 -9999 -9999 -9999 -9999 -9999 -9999 -9999 -9999 -9999 -9999 -9999 -9999 -9999 -9999 -9999 -9999 -9999 -9999 -9999 -9999 -9999 -9999 -9999
0.85 0.75 0.84 0.72 0.87 0.75 0.85 0.73 0.79 0.86 0.90 0.71 0.80 0.82 0.72 0.79 0.86 0.72 0.88 0.87 0.83 0.87 0.81 0.74 0.83 0.88 0.82 0.87 0.74 0.87 0.77 0.89 0.88 0.79 0.74 0.80 0.77 0.72 0.71 0.89 0.87 0.78 0.86 0.88 0.86 0.73 0.89 0.75 0.80 0.71 0.73 0.89 0.72 0.89 0.83 0.79 0.72 0.90 0.83 0.82 0.85 0.71 0.78 0.88 0.88 0.83 0.73 0.77 0.76 0.73 0.82 0.74 0.82 0.74 0.82 0.75 0.79 0.82 0.85 0.80 0.87 0.71 0.82 0.83 0.81 0.80 0.77 0.75 0.81 0.84 0.81 0.77 0.74 0.75 0.79 0.71 0.80 0.85 0.83 0.86 0.82 0.82 0.85 0.82 0.76 0.74 0.76 0.74 0.86 0.70 0.90 0.84 0.73 0.80 0.76 0.89 0.85 0.89 0.86 0.74 0.89 0.75 0.74 0.74 0.77 0.90 0.72 0.83 0.88 0.84 0.87 0.70 0.85 0.80 0.88 0.88 0.89 0.84 0.77 0.84 0.83 0.75 0.82 0.79 0.87 0.84 0.87 0.86 0.86 0.88 0.88 0.72 0.73 0.77 0.84 0.86 0.84 0.79 0.71 0.78 0.88 0.84 0.71 0.71 0.85 0.71 0.87 0.88 0.78 0.90 0.82 0.72 0.89 0.86 0.79 0.77 0.87 0.80 0.86 0.83 0.70 0.84 0.89 0.90 0.81 0.77 0.72 0.72 0.86 -9999 -9999 -9999 -9999 -9999 -9999 -9999 -9999 -9999 -9999 -9999 -9999 -9999 -9999 -9999 -9999 -9999 -9999 -9999 -9999 -9999 -9999 -9999 -9999 -9999 -9999
0.88 0.73 0.74 0.74 0.89 0.88 0.73 0.85 0.85 0.88 0.88 0.80 0.77 0.72 0.84 0.71 0.76 0.88 0.76 0.78 0.87 0.73 0.81 0.79 0.84 0.77 0.81 0.84 0.87 0.89 0.73 0.81 0.82 0.85 0.78 0.75 0.74 0.87 0.74 0.76 0.87 0.84 0.89 0.81 0.80 0.75 0.78 0.71 0.74 0.84 0.86 0.77 0.83 0.87 0.76 0.80 0.83 0.78 0.75 0.88 0.88 0.87 0.83 0.88 0.78 0.80 0.73 0.80 0.81 0.80 0.86 0.87 0.73 0.72 0.75 0.84 0.87 0.76 0.88 0.86 0.85 0.85 0.86 0.80 0.85 0.82 0.89 0.85 0.74 0.86 0.81 0.73 0.80 0.71 0.83 0.88 0.82 0.89 0.75 0.81 0.76 0.77 0.89 0.80 0.71 0.87 0.78 0.88 0.75 0.85 0.88 0.82 0.78 0.84 0.79 0.86 0.73 0.89 0.85 0.72 0.72 0.84 0.77 0.75 0.88 0.77 0.90 0.72 0.77 0.72 0.79 0.82 0.79 0.74 0.80 0.77 0.81 0.70 0.75 0.71 0.72 0.78 0.89 0.76 0.76 0.76 0.78 0.71 0.72 0.79 0.86 0.74 0.83 0.75 0.77 0.81 0.78 0.88 0.76 0.77 0.83 0.90 0.79 0.83 0.77 0.72 0.78 0.72 0.86 0.88 0.85 0.72 0.89 0.89 0.85 0.86 0.73 0.71 0.90 0.86 0.72 0.75 0.81 0.75 0.72 0.72 0.72 0.78 0.83 -9999 -9999 -9999 -9999 -9999 -9999 -9999 -9999 -9999 -9999 -9999 -9999 -9999 -9999 -9999 -9999 -9999 -9999 -9999 -9999 -9999 -9999 -9999 -9999 -9999 -9999
0.86 0.84 0.89 0.71 0.71 0.89 0.74 0.75 0.74 0.85 0.76 0.80 0.80 0.89 0.83 0.75 0.81 0.77 0.81 0.80 0.88 0.85 0.73 0.72 0.76 0.84 0.73 0.71 0.73 0.82 0.89 0.75 0.83 0.88 0.78 0.77 0.90 0.76 0.73 0.78 0.78 0.71 0.76 0.74 0.76 0.75 0.82 0.85 0.81 0.80 0.71 0.76 0.86 0.73 0.78 0.72 0.89 0.73 0.77 0.85 0.78 0.78 0.88 0.81 0.87 0.82 0.80 0.87 0.82 0.85 0.89 0.80 0.76 0.84 0.74 0.84 0.83 0.81 0.82 0.89 0.87 0.85 0.75 0.76 0.83 0.85 0.73 0.82 0.77 0.86 0.86 0.82 0.82 0.87 0.76 0.84 0.78 0.87 0.88 0.79 0.86 0.88 0.76 0.85 0.78 0.87 0.81 0.70 0.73 0.87 0.89 0.73 0.77 0.83 0.72 0.72 0.80 0.77 0.86 0.84 0.80 0.87 0.77 0.81 0.76 0.79 0.84 0.74 0.82 0.76 0.87 0.75 0.79 0.73 0.74 0.78 0.90 0.74 0.88 0.78 0.86 0.78 0.89 0.81 0.71 0.82 0.75 0.73 0.86 0.82 0.72 0.76 0.75 0.72 0.88 0.77 0.77 0.84 0.74 0.74 0.77 0.84 0.78 0.72 0.85 0.71 0.72 0.74 0.71 0.90 0.71 0.85 0.75 0.90 0.84 0.85 0.85 0.76 0.77 0.76 0.71 0.76 0.76 0.75 0.86 0.82 0.84 0.81 0.78 -9999 -9999 -9999 -9999 -9999 -9999 -9999 -9999 -9999 -9999 -9999 -9999 -9999 -9999 -9999 -9999 -9999 -9999 -9999 -9999 -9999 -9999 -9999 -9999 -9999 -9999
0.79 0.82 0.90 0.74 0.71 0.74 0.89 0.80 0.76 0.79 0.84 0.72 0.70 0.88 0.72 0.78 0.74 0.74 0.88 0.82 0.87 0.81 0.83 0.81 0.87 0.87 0.70 0.75 0.72 0.71 0.90 0.76 0.76 0.71 0.76 0.85 0.86 0.76 0.88 0.87 0.87 0.73 0.83 0.77 0.89 0.90 0.71 0.81 0.77 0.80 0.76 0.89 0.75 0.73 0.89 0.74 0.89 0.88 0.85 0.75 0.88 0.80 0.73 0.85 0.83 0.82 0.80 0.86 0.79 0.73 0.90 0.75 0.84 0.88 0.88 0.87 0.86 0.87 0.72 0.74 0.85 0.83 0.89 0.87 0.81 0.87 0.71 0.73 0.85 0.89 0.87 0.71 0.73 0.84 0.86 0.71 0.89 0.82 0.88 0.87 0.86 0.77 0.74 0.78 0.80 0.72 0.76 0.79 0.73 0.86 0.79 0.72 0.72 0.89 0.84 0.79 0.71 0.82 0.77 0.82 0.81 0.88 0.80 0.85 0.73 0.90 0.78 0.84 0.82 0.78 0.87 0.80 0.88 0.71 0.72 0.73 0.79 0.78 0.75 0.78 0.85 0.80 0.75 0.83 0.80 0.74 0.83 0.73 0.70 0.70 0.87 0.83 0.78 0.82 0.85 0.76 0.81 0.71 0.89 0.88 0.70 0.71 0.84 0.85 0.74 0.74 0.77 0.79 0.75 0.72 0.77 0.88 0.85 0.75 0.73 0.90 0.74 0.73 0.83 0.89 0.83 0.84 0.79 0.78 0.72 0.84 0.77 0.82 0.76 -9999 -9999 -9999 -9999 -9999 -9999 -9999 -9999 -9999 -9999 -9999 -9999 -9999 -9999 -9999 -9999 -9999 -9999 -9999 -9999 -9999 -9999 -9999 -9999 -9999 -9999
0.72 0.89 0.89 0.82 0.89 0.75 0.84 0.77 0.84 0.83 0.83 0.72 0.85 0.74 0.83 0.84 0.87 0.77 0.83 0.81 0.72 0.72 0.87 0.90 0.88 0.82 0.72 0.80 0.72 0.86 0.85 0.75 0.84 0.71 0.82 0.80 0.81 0.76 0.72 0.71 0.83 0.80 0.85 0.79 0.77 0.71 0.76 0.86 0.71 0.81 0.88 0.80 0.89 0.81 0.71 0.88 0.87 0.76 0.75 0.81 0.72 0.80 0.79 0.83 0.71 0.84 0.81 0.72 0.76 0.78 0.76 0.72 0.87 0.79 0.71 0.75 0.80 0.79 0.76 0.83 0.74 0.79 0.87 0.85 0.85 0.86 0.90 0.77 0.75 0.83 0.72 0.79 0.71 0.71 0.77 0.83 0.83 0.71 0.84 0.81 0.75 0.79 0.85 0.81 0.82 0.82 0.70 0.84 0.77 0.73 0.73 0.82 0.73 0.76 0.83 0.83 0.81 0.87 0.75 0.79 0.85 0.82 0.87 0.89 0.87 0.85 0.71 0.90 0.70 0.82 0.87 0.73 0.90 0.83 0.85 0.86 0.75 0.81 0.86 0.77 0.88 0.85 0.78 0.74 0.78 0.81 0.83 0.84 0.84 0.82 0.78 0.81 0.86 0.87 0.71 0.87 0.79 0.73 0.79 0.87 0.82 0.88 0.79 0.87 0.71 0.75 0.87 0.88 0.75 0.74 0.71 0.72 0.79 0.86 0.81 0.78 0.89 0.72 0.85 0.73 0.83 0.70 0.73 0.88 0.87 0.71 0.71 0.84 0.72 -9999 -9999 -9999 -9999 -9999 -9999 -9999 -9999 -9999 -9999 -9999 -9999 -9999 -9999 -9999 -9999 -9999 -9999 -9999 -9999 -9999 -9999 -9999 -9999 -9999 -9999
0.88 0.78 0.85 0.80 0.72 0.87 0.74 0.88 0.76 0.85 0.74 0.79 0.73 0.78 0.87 0.77 0.85 0.73 0.79 0.85 0.89 0.72 0.74 0.86 0.75 0.87 0.85 0.84 0.87 0.86 0.84 0.85 0.87 0.83 0.77 0.80 0.90 0.88 0.86 0.88 0.73 0.81 0.74 0.71 0.82 0.75 0.89 0.83 0.81 0.73 0.77 0.82 0.77 0.76 0.86 0.82 0.71 0.86 0.75 0.81 0.88 0.77 0.80 0.75 0.75 0.83 0.82 0.81 0.76 0.72 0.70 0.84 0.77 0.70 0.89 0.86 0.89 0.71 0.87 0.84 0.89 0.73 0.86 0.71 0.84 0.79 0.88 0.85 0.78 0.89 0.72 0.87 0.83 0.74 0.88 0.81 0.78 0.83 0.74 0.73 0.73 0.73 0.80 0.80 0.72 0.70 0.89 0.76 0.88 0.77 0.80 0.71 0.81 0.80 0.87 0.79 0.82 0.80 0.79 0.90 0.81 0.76 0.81 0.74 0.90 0.75 0.86 0.87 0.78 0.73 0.83 0.78 0.78 0.88 0.72 0.86 0.88 0.77 0.85 0.87 0.85 0.77 0.76 0.83 0.70 0.85 0.81 0.74 0.79 0.75 0.76 0.83 0.80 0.71 0.83 0.85 0.85 0.78 0.87 0.88 0.71 0.82 0.74 0.79 0.83 0.87 0.71 0.77 0.89 0.74 0.85 0.82 0.80 0.82 0.76 0.75 0.76 0.83 0.74 0.78 0.80 0.85 0.73 0.83 0.74 0.85 0.81 0.87 0.81 -9999 -9999 -9999 -9999 -9999 -9999 -9999 -9999 -9999 -9999 -9999 -9999 -9999 -9999 -9999 -9999 -9999 -9999 -9999 -9999 -9999 -9999 -9999 -9999 -9999 -9999
0.86 0.89 0.86 0.71 0.76 0.73 0.88 0.82 0.85 0.81 0.77 0.80 0.77 0.72 0.71 0.82 0.88 0.79 0.83 0.76 0.88 0.77 0.85 0.78 0.88 0.77 0.76 0.87 0.89 0.74 0.82 0.78 0.71 0.71 0.84 0.82 0.90 0.71 0.77 0.70 0.89 0.78 0.84 0.70 0.73 0.81 0.89 0.90 0.82 0.71 0.86 0.85 0.80 0.82 0.76 0.84 0.87 0.75 0.82 0.72 0.72 0.88 0.75 0.88 0.70 0.81 0.80 0.79 0.81 0.71 0.81 0.87 0.72 0.73 0.86 0.79 0.83 0.82 0.84 0.79 0.89 0.71 0.81 0.89 0.71 0.73 0.74 0.71 0.83 0.72 0.86 0.77 0.83 0.73 0.88 0.71 0.90 0.72 0.77 0.75 0.81 0.74 0.76 0.87 0.74 0.70 0.83 0.89 0.89 0.73 0.83 0.81 0.73 0.85 0.72 0.78 0.87 0.79 0.72 0.73 0.88 0.89 0.84 0.87 0.87 0.87 0.84 0.89 0.76 0.87 0.77 0.80 0.79 0.83 0.82 0.81 0.74 0.76 0.76 0.89 0.82 0.72 0.84 0.83 0.79 0.73 0.73 0.72 0.76 0.86 0.71 0.82 0.88 0.87 0.71 0.90 0.76 0.71 0.82 0.76 0.73 0.87 0.70 0.89 0.76 0.78 0.71 0.70 0.82 0.81 0.77 0.72 0.83 0.88 0.80 0.71 0.81 0.84 0.75 0.72 0.79 0.80 0.86 0.73 0.85 0.87 0.88 0.87 0.73 0.78 -9999 -9999 -9999 -9999 -9999 -9999 -9999 -9999 -9999 -9999 -9999 -9999 -9999 -9999 -9999 -9999 -9999 -9999 -9999 -9999 -9999 -9999 -9999 -9999 -9999
0.80 0.84 0.80 0.74 0.82 0.83 0.78 0.87 0.77 0.80 0.87 0.82 0.86 0.87 0.84 0.78 0.89 0.78 0.79 0.79 0.78 0.83 0.74 0.72 0.75 0.79 0.80 0.89 0.72 0.77 0.83 0.88 0.79 0.75 0.82 0.83 0.78 0.89 0.80 0.76 0.78 0.85 0.85 0.90 0.80 0.82 0.79 0.88 0.86 0.72 0.85 0.80 0.73 0.77 0.81 0.76 0.81 0.82 0.70 0.89 0.71 0.81 0.78 0.79 0.87 0.76 0.75 0.74 0.73 0.81 0.80 0.78 0.89 0.90 0.80 0.75 0.90 0.90 0.72 0.77 0.84 0.86 0.88 0.72 0.78 0.75 0.76 0.72 0.82 0.81 0.73 0.88 0.81 0.73 0.83 0.70 0.78 0.79 0.89 0.82 0.81 0.83 0.74 0.73 0.72 0.75 0.84 0.80 0.87 0.76 0.89 0.71 0.78 0.80 0.85 0.80 0.77 0.83 0.76 0.88 0.80 0.75 0.77 0.73 0.78 0.88 0.90 0.90 0.76 0.86 0.85 0.87 0.85 0.84 0.83 0.75 0.84 0.71 0.71 0.85 0.70 0.77 0.80 0.71 0.87 0.76 0.80 0.90 0.78 0.82 0.89 0.72 0.70 0.85 0.81 0.85 0.90 0.79 0.85 0.82 0.78 0.86 0.84 0.71 0.76 0.74 0.86 0.74 0.84 0.72 0.87 0.79 0.72 0.87 0.73 0.77 0.72 0.84 0.79 0.74 0.73 0.86 0.77 0.72 0.73 0.83 0.88 0.84 0.90 0.79 -9999 -9999 -9999 -9999 -9999 -9999 -9999 -9999 -9999 -9999 -9999 -9999 -9999 -9999 -9999 -9999 -9999 -9999 -9999 -9999 -9999 -9999 -9999 -9999 -9999
0.84 0.70 0.79 0.85 0.81 0.81 0.71 0.73 0.74 0.77 0.70 0.87 0.76 0.81 0.83 0.89 0.84 0.83 0.78 0.77 0.79 0.70 0.72 0.73 0.71 0.80 0.77 0.75 0.76 0.87 0.84 0.71 0.72 0.84 0.75 0.90 0.88 0.72 0.73 0.72 0.82 0.81 0.71 0.77 0.70 0.78 0.71 0.78 0.77 0.73 0.83 0.71 0.78 0.80 0.89 0.78 0.85 0.87 0.84 0.83 0.77 0.87 0.80 0.80 0.85 0.83 0.76 0.81 0.78 0.74 0.90 0.72 0.75 0.75 0.79 0.89 0.89 0.89 0.89 0.79 0.89 0.83 0.72 0.84 0.87 0.84 0.74 0.75 0.85 0.77 0.81 0.71 0.90 0.80 0.72 0.81 0.78 0.87 0.78 0.89 0.82 0.86 0.79 0.78 0.73 0.72 0.86 0.70 0.88 0.81 0.72 0.71 0.84 0.79 0.75 0.77 0.83 0.76 0.78 0.72 0.77 0.89 0.82 0.86 0.82 0.76 0.71 0.90 0.72 0.80 0.84 0.71 0.71 0.73 0.72 0.73 0.71 0.78 0.77 0.70 0.86 0.86 0.89 0.87 0.76 0.79 0.82 0.86 0.73 0.78 0.79 0.87 0.89 0.82 0.79 0.77 0.76 0.88 0.85 0.89 0.89 0.83 0.84 0.85 0.81 0.74 0.81 0.71 0.73 0.76 0.80 0.84 0.86 0.80 0.73 0.72 0.74 0.87 0.76 0.73 0.81 0.80 0.72 0.89 0.71 0.77 0.74 0.88 0.83 0.71 -9999 -9999 -9999 -9999 -9999 -9999 -9999 -9999 -9999 -9999 -9999 -9999 -9999 -9999 -9999 -9999 -9999 -9999 -9999 -9999 -9999 -9999 -9999 -9999 -9999
0.83 0.82 0.86 0.71 0.77 0.76 0.73 0.74 0.82 0.81 0.77 0.82 0.77 0.80 0.75 0.80 0.82 0.88 0.77 0.89 0.80 0.73 0.78 0.89 0.71 0.82 0.74 0.82 0.71 0.84 0.85 0.78 0.85 0.72 0.77 0.75 0.84 0.79 0.79 0.86 0.78 0.88 0.83 0.78 0.77 0.86 0.78 0.76 0.80 0.84 0.81 0.76 0.72 0.89 0.81 0.90 0.88 0.81 0.83 0.84 0.87 0.70 0.84 0.75 0.76 0.89 0.81 0.71 0.81 0.87 0.89 0.88 0.80 0.72 0.79 0.73 0.74 0.87 0.83 0.87 0.74 0.82 0.84 0.74 0.83 0.85 0.84 0.76 0.74 0.82 0.82 0.72 0.76 0.87 0.76 0.85 0.84 0.78 0.72 0.81 0.72 0.80 0.82 0.82 0.80 0.76 0.79 0.76 0.77 0.77 0.78 0.81 0.74 0.85 0.75 0.88 0.79 0.78 0.85 0.71 0.89 0.84 0.83 0.72 0.89 0.75 0.86 0.79 0.87 0.75 0.83 0.87 0.83 0.83 0.87 0.82 0.84 0.80 0.72 0.71 0.87 0.71 0.74 0.78 0.74 0.83 0.84 0.75 0.83 0.88 0.80 0.85 0.73 0.77 0.86 0.89 0.85 0.86 0.78 0.76 0.78 0.90 0.78 0.75 0.78 0.85 0.71 0.86 0.83 0.84 0.86 0.75 0.81 0.72 0.88 0.81 0.73 0.85 0.88 0.81 0.88 0.87 0.74 0.85 0.87 0.88 0.78 0.79 0.74 0.84 -9999 -9999 -9999 -9999 -9999 -9999 -9999 -9999 -9999 -9999 -9999 -9999 -9999 -9999 -9999 -9999 -9999 -9999 -9999 -9999 -9999 -9999 -9999 -9999 -9999
0.71 0.83 0.78 0.76 0.79 0.88 0.86 0.89 0.79 0.72 0.82 0.87 0.72 0.73 0.76 0.71 0.79 0.78 0.85 0.76 0.80 0.82 0.89 0.85 0.86 0.90 0.73 0.76 0.75 0.90 0.77 0.85 0.70 0.75 0.83 0.72 0.74 0.74 0.71 0.77 0.88 0.71 0.74 0.77 0.79 0.82 0.88 0.75 0.77 0.84 0.78 0.75 0.74 0.88 0.75 0.74 0.89 0.73 0.86 0.75 0.87 0.72 0.84 0.85 0.89 0.78 0.75 0.83 0.84 0.78 0.84 0.74 0.88 0.80 0.75 0.81 0.78 0.83 0.89 0.71 0.83 0.78 0.85 0.87 0.86 0.87 0.75 0.72 0.75 0.77 0.80 0.87 0.74 0.84 0.88 0.85 0.90 0.80 0.79 0.77 0.76 0.83 0.74 0.78 0.78 0.86 0.74 0.87 0.70 0.74 0.79 0.73 0.70 0.84 0.80 0.77 0.71 0.73 0.79 0.88 0.71 0.80 0.70 0.72 0.74 0.79 0.78 0.71 0.84 0.78 0.76 0.77 0.71 0.85 0.75 0.77 0.75 0.74 0.89 0.71 0.81 0.76 0.87 0.73 0.89 0.79 0.73 0.89 0.73 0.83 0.73 0.82 0.86 0.70 0.86 0.73 0.89 0.86 0.80 0.73 0.87 0.83 0.85 0.85 0.75 0.76 0.82 0.75 0.82 0.71 0.82 0.88 0.74 0.74 0.84 0.84 0.72 0.75 0.79 0.74 0.86 0.75 0.80 0.81 0.78 0.83 0.71 0.81 0.71 0.89 -9999 -9999 -9999 -9999 -9999 -9999 -9999 -9999 -9999 -9999 -9999 -9999 -9999 -9999 -9999 -9999 -9999 -9999 -9999 -9999 -9999 -9999 -9999 -9999 -9999
0.75 0.71 0.87 0.72 0.86 0.90 0.71 0.76 0.88 0.85 0.72 0.88 0.87 0.74 0.90 0.72 0.74 0.88 0.80 0.80 0.73 0.83 0.88 0.73 0.87 0.84 0.73 0.71 0.87 0.87 0.83 0.81 0.73 0.71 0.80 0.79 0.73 0.71 0.78 0.85 0.79 0.88 0.75 0.83 0.71 0.86 0.85 0.89 0.83 0.86 0.73 0.87 0.88 0.75 0.82 0.81 0.85 0.71 0.78 0.87 0.88 0.80 0.77 0.73 0.77 0.89 0.71 0.80 0.72 0.89 0.80 0.77 0.87 0.82 0.85 0.82 0.76 0.86 0.84 0.84 0.84 0.82 0.85 0.74 0.70 0.88 0.84 0.90 0.89 0.82 0.78 0.73 0.72 0.83 0.72 0.72 0.77 0.77 0.81 0.73 0.86 0.71 0.78 0.82 0.80 0.71 0.89 0.85 0.82 0.84 0.89 0.81 0.80 0.78 0.75 0.81 0.82 0.78 0.78 0.71 0.74 0.75 0.87 0.85 0.79 0.81 0.76 0.85 0.79 0.76 0.78 0.85 0.73 0.76 0.85 0.76 0.76 0.81 0.83 0.81 0.80 0.72 0.89 0.87 0.77 0.87 0.83 0.82 0.79 0.71 0.79 0.73 0.74 0.84 0.73 0.79 0.86 0.79 0.87 0.90 0.85 0.76 0.77 0.74 0.89 0.72 0.81 0.72 0.88 0.84 0.87 0.71 0.83 0.73 0.86 0.80 0.82 0.70 0.75 0.85 0.87 0.80 0.84 0.89 0.73 0.71 0.87 0.88 0.73 0.76 -9999 -9999 -9999 -9999 -9999 -9999 -9999 -9999 -9999 -9999 -9999 -9999 -9999 -9999 -9999 -9999 -9999 -9999 -9999 -9999 -9999 -9999 -9999 -9999 -9999
0.70 0.82 0.74 0.90 0.83 0.76 0.80 0.84 0.79 0.77 0.78 0.76 0.71 0.89 0.83 0.85 0.77 0.88 0.81 0.77 0.82 0.83 0.80 0.80 0.80 0.80 0.88 0.90 0.77 0.79 0.77 0.82 0.75 0.75 0.77 0.74 0.73 0.71 0.78 0.81 0.77 0.78 0.89 0.88 0.74 0.82 0.72 0.80 0.71 0.73 0.74 0.82 0.78 0.86 0.86 0.71 0.84 0.79 0.76 0.80 0.84 0.83 0.72 0.75 0.74 0.81 0.87 0.79 0.80 0.76 0.73 0.75 0.81 0.75 0.78 0.71 0.76 0.79 0.85 0.71 0.77 0.89 0.75 0.80 0.88 0.80 0.84 0.88 0.89 0.90 0.88 0.79 0.82 0.86 0.72 0.77 0.77 0.86 0.70 0.81 0.88 0.87 0.82 0.71 0.87 0.82 0.83 0.73 0.85 0.78 0.75 0.77 0.78 0.73 0.72 0.87 0.79 0.82 0.88 0.73 0.89 0.71 0.71 0.76 0.87 0.77 0.75 0.78 0.76 0.85 0.86 0.76 0.88 0.72 0.73 0.81 0.85 0.78 0.89 0.74 0.73 0.83 0.83 0.87 0.82 0.82 0.70 0.74 0.79 0.83 0.70 0.70 0.84 0.74 0.70 0.76 0.77 0.85 0.84 0.74 0.85 0.89 0.78 0.78 0.84 0.87 0.85 0.78 0.72 0.89 0.77 0.70 0.75 0.71 0.75 0.78 0.73 0.81 0.89 0.85 0.90 0.89 0.77 0.74 0.79 0.77 0.77 0.86 0.72 0.74 0.79 -9999 -9999 -9999 -9999 -9999 -9999 -9999 -9999 -9999 -9999 -9999 -9999 -9999 -9999 -9999 -9999 -9999 -9999 -9999 -9999 -9999 -9999 -9999 -9999
0.80 0.75 0.71 0.82 0.73 0.86 0.76 0.73 0.86 0.85 0.76 0.84 0.85 0.80 0.82 0.76 0.76 0.89 0.78 0.85 0.76 0.73 0.85 0.83 0.88 0.76 0.78 0.87 0.83 0.80 0.74 0.86 0.78 0.76 0.88 0.78 0.88 0.70 0.73 0.72 0.78 0.71 0.74 0.77 0.80 0.89 0.85 0.82 0.84 0.78 0.87 0.71 0.79 0.79 0.81 0.72 0.88 0.87 0.80 0.77 0.76 0.87 0.85 0.75 0.79 0.82 0.80 0.81 0.73 0.85 0.73 0.89 0.90 0.75 0.89 0.88 0.79 0.84 0.84 0.74 0.78 0.84 0.77 0.74 0.74 0.76 0.75 0.80 0.78 0.79 0.73 0.78 0.79 0.74 0.89 0.82 0.79 0.77 0.72 0.74 0.77 0.85 0.75 0.90 0.86 0.90 0.78 0.72 0.79 0.86 0.89 0.85 0.74 0.88 0.77 0.87 0.82 0.80 0.71 0.72 0.90 0.82 0.86 0.76 0.82 0.88 0.79 0.74 0.86 0.83 0.73 0.76 0.82 0.87 0.90 0.79 0.80 0.86 0.77 0.83 0.73 0.84 0.71 0.79 0.75 0.72 0.86 0.75 0.77 0.74 0.72 0.77 0.82 0.79 0.80 0.74 0.80 0.80 0.77 0.74 0.75 0.75 0.76 0.85 0.80 0.80 0.71 0.72 0.88 0.73 0.76 0.82 0.73 0.82 0.87 0.89 0.76 0.73 0.72 0.86 0.74 0.78 0.89 0.76 0.90 0.82 0.84 0.86 0.85 0.81 0.77 -9999 -9999 -9999 -9999 -9999 -9999 -9999 -9999 -9999 -9999 -9999 -9999 -9999 -9999 -9999 -9999 -9999 -9999 -9999 -9999 -9999 -9999 -9999 -9999
0.81 0.85 0.83 0.76 0.74 0.83 0.75 0.88 0.76 0.83 0.75 0.71 0.86 0.86 0.89 0.78 0.84 0.76 0.71 0.75 0.80 0.80 0.73 0.79 0.73 0.79 0.73 0.87 0.71 0.88 0.84 0.87 0.71 0.74 0.88 0.78 0.86 0.82 0.76 0.87 0.89 0.86 0.71 0.81 0.78 0.80 0.82 0.87 0.71 0.84 0.77 0.89 0.87 0.75 0.76 0.75 0.79 0.71 0.72 0.78 0.88 0.74 0.71 0.88 0.83 0.75 0.76 0.84 0.79 0.77 0.81 0.72 0.70 0.70 0.82 0.72 0.81 0.84 0.79 0.88 0.80 0.85 0.78 0.84 0.76 0.86 0.80 0.71 0.76 0.77 0.74 0.87 0.71 0.75 0.73 0.80 0.80 0.74 0.83 0.71 0.82 0.83 0.85 0.89 0.76 0.84 0.70 0.77 0.83 0.74 0.74 0.77 0.76 0.76 0.71 0.76 0.84 0.80 0.81 0.73 0.83 0.89 0.74 0.78 0.71 0.78 0.77 0.72 0.76 0.78 0.75 0.71 0.78 0.87 0.84 0.76 0.79 0.77 0.84 0.71 0.81 0.83 0.87 0.72 0.83 0.76 0.86 0.73 0.74 0.76 0.70 0.72 0.84 0.82 0.73 0.87 0.79 0.81 0.85 0.80 0.75 0.77 0.85 0.89 0.85 0.90 0.89 0.73 0.74 0.75 0.83 0.86 0.82 0.77 0.75 0.76 0.86 0.79 0.77 0.83 0.74 0.76 0.81 0.88 0.76 0.89 0.81 0.89 0.76 0.75 0.72 -9999 -9999 -9999 -9999 -9999 -9999 -9999 -9999 -9999 -9999 -9999 -9999 -9999 -9999 -9999 -9999 -9999 -9999 -9999 -9999 -9999 -9999 -9999 -9999
0.71 0.90 0.71 0.85 0.82 0.71 0.88 0.76 0.76 0.78 0.88 0.74 0.84 0.88 0.71 0.73 0.86 0.74 0.73 0.78 0.71 0.78 0.86 0.84 0.82 0.88 0.71 0.86 0.88 0.73 0.87 0.80 0.75 0.74 0.78 0.72 0.78 0.82 0.77 0.79 0.78 0.89 0.87 0.78 0.82 0.81 0.89 0.78 0.73 0.78 0.82 0.80 0.88 0.81 0.90 0.90 0.85 0.88 0.76 0.72 0.89 0.83 0.89 0.89 0.79 0.90 0.82 0.79 0.85 0.83 0.74 0.75 0.83 0.74 0.86 0.89 0.76 0.81 0.81 0.88 0.81 0.87 0.72 0.88 0.75 0.85 0.79 0.80 0.83 0.83 0.76 0.83 0.75 0.84 0.74 0.83 0.87 0.74 0.73 0.82 0.84 0.76 0.84 0.71 0.81 0.86 0.71 0.89 0.84 0.87 0.85 0.81 0.81 0.82 0.87 0.83 0.77 0.82 0.75 0.70 0.89 0.83 0.74 0.90 0.76 0.74 0.74 0.86 0.75 0.81 0.78 0.79 0.79 0.75 0.82 0.82 0.87 0.76 0.88 0.76 0.80 0.90 0.87 0.79 0.80 0.83 0.89 0.80 0.74 0.80 0.71 0.73 0.87 0.88 0.70 0.82 0.84 0.88 0.77 0.80 0.88 0.82 0.77 0.73 0.81 0.81 0.82 0.81 0.77 0.82 0.72 0.82 0.82 0.78 0.71 0.83 0.87 0.76 0.81 0.86 0.88 0.73 0.77 0.77 0.87 0.82 0.83 0.87 0.73 0.90 0.77 -9999 -9999 -9999 -9999 -9999 -9999 -9999 -9999 -9999 -9999 -9999 -9999 -9999 -9999 -9999 -9999 -9999 -9999 -9999 -9999 -9999 -9999 -9999 -9999
0.89 0.83 0.84 0.83 0.87 0.79 0.72 0.82 0.83 0.77 0.79 0.79 0.71 0.78 0.78 0.75 0.89 0.86 0.83 0.88 0.72 0.89 0.86 0.72 0.73 0.82 0.86 0.86 0.74 0.84 0.80 0.73 0.78 0.80 0.79 0.88 0.72 0.80 0.79 0.73 0.82 0.76 0.79 0.88 0.87 0.76 0.72 0.84 0.83 0.71 0.83 0.73 0.78 0.88 0.73 0.71 0.80 0.75 0.80 0.85 0.71 0.86 0.71 0.80 0.80 0.76 0.74 0.83 0.80 0.74 0.84 0.89 0.77 0.80 0.88 0.73 0.86 0.90 0.81 0.80 0.73 0.77 0.78 0.88 0.72 0.85 0.77 0.79 0.78 0.89 0.81 0.74 0.83 0.82 0.85 0.83 0.74 0.70 0.77 0.86 0.85 0.88 0.72 0.87 0.83 0.76 0.71 0.90 0.81 0.73 0.78 0.83 0.72 0.89 0.87 0.88 0.74 0.81 0.79 0.85 0.86 0.74 0.74 0.81 0.73 0.81 0.78 0.74 0.83 0.80 0.73 0.78 0.72 0.80 0.88 0.89 0.73 0.70 0.76 0.89 0.86 0.74 0.89 0.71 0.88 0.74 0.83 0.87 0.84 0.87 0.81 0.74 0.89 0.87 0.88 0.90 0.86 0.89 0.88 0.80 0.88 0.76 0.80 0.70 0.75 0.82 0.87 0.78 0.82 0.81 0.82 0.81 0.87 0.78 0.90 0.87 0.77 0.70 0.87 0.84 0.85 0.80 0.87 0.82 0.86 0.76 0.83 0.71 0.80 0.77 0.80 -9999 -9999 -9999 -9999 -9999 -9999 -9999 -9999 -9999 -9999 -9999 -9999 -9999 -9999 -9999 -9999 -9999 -9999 -9999 -9999 -9999 -9999 -9999 -9999
0.71 0.75 0.85 0.83 0.84 0.83 0.81 0.82 0.70 0.87 0.70 0.79 0.89 0.81 0.76 0.85 0.73 0.74 0.86 0.72 0.77 0.87 0.80 0.75 0.74 0.89 0.88 0.87 0.84 0.89 0.73 0.71 0.74 0.84 0.79 0.79 0.90 0.74 0.81 0.80 0.79 0.74 0.86 0.75 0.77 0.77 0.84 0.73 0.74 0.89 0.84 0.70 0.82 0.88 0.87 0.88 0.77 0.83 0.88 0.73 0.80 0.72 0.78 0.74 0.74 0.74 0.78 0.70 0.74 0.89 0.71 0.83 0.72 0.86 0.78 0.76 0.74 0.71 0.88 0.86 0.74 0.73 0.76 0.73 0.79 0.81 0.86 0.76 0.76 0.71 0.76 0.88 0.72 0.72 0.83 0.81 0.71 0.84 0.85 0.71 0.72 0.88 0.83 0.83 0.77 0.74 0.72 0.88 0.73 0.76 0.71 0.81 0.79 0.80 0.86 0.73 0.74 0.74 0.88 0.80 0.78 0.77 0.83 0.88 0.85 0.85 0.73 0.72 0.80 0.74 0.73 0.89 0.78 0.72 0.73 0.75 0.70 0.75 0.80 0.76 0.86 0.84 0.77 0.76 0.81 0.88 0.81 0.75 0.84 0.84 0.81 0.87 0.78 0.74 0.87 0.90 0.78 0.74 0.84 0.76 0.88 0.83 0.84 0.85 0.72 0.71 0.75 0.79 0.87 0.71 0.73 0.88 0.86 0.82 0.78 0.85 0.83 0.72 0.79 0.76 0.77 0.80 0.74 0.84 0.83 0.71 0.81 0.73 0.73 0.80 0.77 -9999 -9999 -9999 -9999 -9999 -9999 -9999 -9999 -9999 -9999 -9999 -9999 -9999 -9999 -9999 -9999 -9999 -9999 -9999 -9999 -9999 -9999 -9999 -9999
0.75 0.73 0.80 0.74 0.70 0.84 0.88 0.86 0.81 0.74 0.73 0.87 0.77 0.76 0.80 0.87 0.82 0.74 0.88 0.87 0.75 0.80 0.84 0.73 0.75 0.72 0.87 0.85 0.88 0.71 0.74 0.71 0.84 0.78 0.86 0.80 0.82 0.85 0.80 0.78 0.73 0.72 0.72 0.85 0.74 0.76 0.75 0.74 0.78 0.89 0.84 0.83 0.80 0.88 0.77 0.73 0.73 0.82 0.80 0.76 0.75 0.78 0.87 0.76 0.86 0.88 0.71 0.76 0.86 0.72 0.88 0.87 0.71 0.79 0.87 0.89 0.75 0.84 0.75 0.90 0.81 0.76 0.84 0.71 0.88 0.83 0.70 0.84 0.72 0.83 0.89 0.77 0.73 0.87 0.85 0.89 0.71 0.70 0.77 0.74 0.86 0.80 0.77 0.83 0.74 0.79 0.75 0.86 0.77 0.80 0.89 0.81 0.78 0.74 0.73 0.76 0.88 0.89 0.79 0.77 0.83 0.84 0.87 0.74 0.85 0.85 0.76 0.72 0.80 0.78 0.87 0.72 0.71 0.87 0.71 0.87 0.81 0.74 0.73 0.77 0.73 0.80 0.71 0.88 0.75 0.72 0.86 0.90 0.82 0.87 0.80 0.89 0.72 0.77 0.85 0.78 0.83 0.85 0.85 0.79 0.76 0.75 0.88 0.70 0.71 0.75 0.90 0.76 0.80 0.87 0.73 0.89 0.78 0.71 0.75 0.84 0.73 0.72 0.88 0.86 0.72 0.80 0.83 0.77 0.81 0.86 0.71 0.79 0.75 0.73 0.78 -9999 -9999 -9999 -9999 -9999 -9999 -9999 -9999 -9999 -9999 -9999 -9999 -9999 -9999 -9999 -9999 -9999 -9999 -9999 -9999 -9999 -9999 -9999 -9999
0.84 0.89 0.77 0.86 0.71 0.90 0.79 0.73 0.79 0.74 0.74 0.73 0.78 0.83 0.79 0.83 0.87 0.88 0.70 0.85 0.86 0.87 0.90 0.89 0.77 0.74 0.82 0.79 0.90 0.71 0.90 0.81 0.86 0.87 0.72 0.80 0.73 0.89 0.81 0.75 0.87 0.83 0.79 0.86 0.77 0.72 0.74 0.78 0.77 0.86 0.83 0.71 0.88 0.74 0.79 0.87 0.74 0.73 0.88 0.70 0.86 0.87 0.85 0.72 0.87 0.76 0.86 0.89 0.72 0.75 0.72 0.89 0.76 0.71 0.72 0.83 0.78 0.89 0.71 0.86 0.85 0.81 0.81 0.87 0.87 0.89 0.72 0.82 0.81 0.82 0.79 0.77 0.89 0.70 0.89 0.78 0.82 0.88 0.77 0.85 0.85 0.72 0.72 0.79 0.74 0.77 0.82 0.78 0.83 0.79 0.71 0.76 0.83 0.73 0.74 0.70 0.86 0.86 0.76 0.74 0.87 0.78 0.83 0.90 0.71 0.83 0.75 0.88 0.88 0.85 0.85 0.78 0.78 0.85 0.70 0.84 0.80 0.76 0.82 0.78 0.83 0.90 0.82 0.77 0.75 0.84 0.81 0.79 0.89 0.72 0.90 0.70 0.74 0.74 0.74 0.72 0.85 0.71 0.88 0.71 0.78 0.88 0.75 0.88 0.74 0.85 0.89 0.90 0.72 0.78 0.86 0.82 0.80 0.79 0.75 0.78 0.75 0.80 0.76 0.82 0.87 0.82 0.74 0.79 0.84 0.81 0.70 0.71 0.70 0.84 0.81 0.87 -9999 -9999 -9999 -9999 -9999 -9999 -9999 -9999 -9999 -9999 -9999 -9999 -9999 -9999 -9999 -9999 -9999 -9999 -9999 -9999 -9999 -9999 -9999
0.81 0.85 0.71 0.77 0.84 0.72 0.89 0.87 0.83 0.79 0.86 0.79 0.87 0.87 0.90 0.79 0.89 0.71 0.82 0.81 0.76 0.85 0.88 0.76 0.87 0.85 0.76 0.82 0.80 0.84 0.84 0.83 0.77 0.73 0.71 0.72 0.75 0.74 0.74 0.79 0.84 0.87 0.76 0.80 0.70 0.84 0.77 0.88 0.89 0.87 0.84 0.87 0.73 0.81 0.72 0.78 0.75 0.83 0.77 0.71 0.76 0.83 0.79 0.76 0.86 0.89 0.76 0.73 0.81 0.84 0.73 0.84 0.83 0.86 0.74 0.83 0.76 0.86 0.89 0.83 0.80 0.81 0.89 0.71 0.70 0.83 0.90 0.89 0.79 0.79 0.86 0.72 0.89 0.77 0.79 0.87 0.72 0.83 0.76 0.79 0.75 0.84 0.72 0.78 0.79 0.74 0.85 0.83 0.88 0.79 0.83 0.73 0.86 0.70 0.89 0.82 0.89 0.70 0.83 0.72 0.86 0.72 0.72 0.85 0.86 0.90 0.74 0.76 0.81 0.78 0.87 0.85 0.78 0.82 0.77 0.76 0.72 0.74 0.77 0.72 0.88 0.74 0.89 0.74 0.78 0.82 0.73 0.86 0.79 0.75 0.72 0.77 0.73 0.73 0.76 0.73 0.71 0.83 0.83 0.82 0.84 0.89 0.83 0.73 0.72 0.74 0.74 0.76 0.79 0.88 0.73 0.72 0.81 0.76 0.80 0.85 0.86 0.87 0.82 0.73 0.88 0.80 0.84 0.76 0.72 0.70 0.83 0.87 0.70 0.86 0.71 0.79 -9999 -9999 -9999 -9999 -9999 -9999 -9999 -9999 -9999 -9999 -9999 -9999 -9999 -9999 -9999 -9999 -9999 -9999 -9999 -9999 -9999 -9999 -9999
0.74 0.80 0.72 0.71 0.82 0.81 0.84 0.88 0.78 0.74 0.80 0.76 0.72 0.75 0.90 0.76 0.70 0.73 0.82 0.80 0.78 0.78 0.72 0.74 0.78 0.70 0.81 0.83 0.73 0.87 0.82 0.71 0.81 0.77 0.81 0.85 0.75 0.81 0.75 0.76 0.88 0.83 0.77 0.74 0.77 0.89 0.73 0.86 0.89 0.83 0.85 0.89 0.89 0.83 0.78 0.76 0.74 0.82 0.81 0.73 0.86 0.71 0.81 0.78 0.81 0.88 0.89 0.86 0.72 0.71 0.77 0.84 0.72 0.73 0.86 0.90 0.75 0.73 0.75 0.78 0.85 0.82 0.76 0.90 0.85 0.79 0.74 0.84 0.90 0.74 0.75 0.78 0.88 0.87 0.81 0.71 0.86 0.77 0.73 0.85 0.83 0.76 0.73 0.72 0.76 0.70 0.83 0.76 0.82 0.83 0.76 0.77 0.87 0.83 0.79 0.90 0.85 0.84 0.87 0.71 0.74 0.76 0.79 0.79 0.72 0.77 0.90 0.87 0.83 0.76 0.89 0.86 0.82 0.77 0.80 0.81 0.72 0.80 0.79 0.85 0.80 0.83 0.84 0.89 0.80 0.72 0.76 0.78 0.70 0.78 0.77 0.76 0.72 0.73 0.79 0.81 0.73 0.74 0.73 0.73 0.73 0.87 0.75 0.80 0.85 0.76 0.71 0.79 0.83 0.75 0.72 0.85 0.86 0.86 0.77 0.85 0.77 0.84 0.82 0.81 0.87 0.78 0.83 0.78 0.78 0.87 0.78 0.71 0.84 0.72 0.80 0.75 -9999 -9999 -9999 -9999 -9999 -9999 -9999 -9999 -9999 -9999 -9999 -9999 -9999 -9999 -9999 -9999 -9999 -9999 -9999 -9999 -9999 -9999 -9999
0.85 0.70 0.89 0.88 0.83 0.87 0.76 0.80 0.76 0.84 0.76 0.81 0.70 0.82 0.85 0.86 0.85 0.83 0.84 0.87 0.77 0.81 0.86 0.87 0.76 0.71 0.87 0.77 0.86 0.85 0.81 0.82 0.85 0.82 0.77 0.88 0.79 0.81 0.83 0.87 0.73 0.83 0.88 0.75 0.81 0.90 0.79 0.76 0.88 0.87 0.84 0.74 0.87 0.87 0.89 0.73 0.71 0.82 0.80 0.73 0.83 0.72 0.84 0.78 0.77 0.76 0.78 0.72 0.74 0.89 0.87 0.71 0.78 0.75 0.73 0.83 0.75 0.82 0.90 0.83 0.82 0.73 0.87 0.82 0.75 0.79 0.89 0.79 0.80 0.81 0.73 0.84 0.78 0.73 0.87 0.71 0.77 0.84 0.79 0.75 0.78 0.73 0.70 0.78 0.89 0.72 0.78 0.82 0.88 0.80 0.84 0.78 0.88 0.82 0.71 0.73 0.76 0.87 0.76 0.80 0.83 0.83 0.85 0.85 0.86 0.78 0.71 0.88 0.81 0.85 0.75 0.86 0.87 0.73 0.79 0.89 0.87 0.79 0.72 0.85 0.89 0.74 0.89 0.87 0.80 0.75 0.79 0.88 0.87 0.84 0.87 0.78 0.76 0.79 0.84 0.82 0.71 0.72 0.73 0.82 0.89 0.80 0.88 0.72 0.83 0.78 0.81 0.89 0.84 0.84 0.81 0.81 0.79 0.77 0.74 0.75 0.75 0.90 0.73 0.79 0.84 0.90 0.71 0.71 0.86 0.73 0.85 0.73 0.86 0.75 0.72 0.79 -9999 -9999 -9999 -9999 -9999 -9999 -9999 -9999 -9999 -9999 -9999 -9999 -9999 -9999 -9999 -9999 -9999 -9999 -9999 -9999 -9999 -9999 -9999
0.77 0.79 0.73 0.71 0.85 0.87 0.71 0.86 0.84 0.71 0.81 0.73 0.78 0.79 0.80 0.85 0.74 0.83 0.88 0.75 0.80 0.75 0.83 0.79 0.77 0.87 0.71 0.86 0.86 0.88 0.84 0.80 0.70 0.77 0.81 0.72 0.80 0.85 0.78 0.86 0.71 0.80 0.87 0.73 0.86 0.72 0.83 0.75 0.71 0.76 0.86 0.82 0.75 0.79 0.89 0.84 0.79 0.72 0.88 0.88 0.75 0.81 0.82 0.80 0.79 0.77 0.90 0.83 0.81 0.74 0.88 0.77 0.80 0.71 0.80 0.78 0.83 0.83 0.78 0.88 0.78 0.79 0.83 0.74 0.84 0.82 0.72 0.89 0.75 0.83 0.73 0.85 0.82 0.73 0.87 0.87 0.74 0.80 0.88 0.71 0.70 0.77 0.81 0.86 0.77 0.76 0.80 0.85 0.76 0.78 0.89 0.89 0.86 0.74 0.81 0.71 0.70 0.80 0.79 0.79 0.77 0.86 0.71 0.72 0.74 0.74 0.88 0.70 0.70 0.90 0.81 0.82 0.88 0.81 0.76 0.71 0.73 0.72 0.80 0.84 0.85 0.79 0.78 0.87 0.72 0.82 0.78 0.86 0.90 0.74 0.83 0.84 0.86 0.71 0.74 0.80 0.85 0.79 0.87 0.76 0.86 0.87 0.79 0.71 0.89 0.86 0.81 0.73 0.86 0.83 0.82 0.86 0.84 0.72 0.78 0.78 0.86 0.77 0.87 0.85 0.74 0.75 0.87 0.72 0.83 0.85 0.71 0.83 0.75 0.81 0.76 0.76 -9999 -9999 -9999 -9999 -9999 -9999 -9999 -9999 -9999 -9999 -9999 -9999 -9999 -9999 -9999 -9999 -9999 -9999 -9999 -9999 -9999 -9999 -9999
0.89 0.76 0.81 0.77 0.77 0.75 0.88 0.74 0.79 0.89 0.74 0.71 0.73 0.75 0.75 0.88 0.82 0.81 0.86 0.90 0.83 0.75 0.77 0.77 0.73 0.84 0.74 0.82 0.74 0.77 0.80 0.79 0.89 0.74 0.82 0.77 0.83 0.83 0.76 0.80 0.71 0.72 0.80 0.71 0.86 0.82 0.73 0.86 0.84 0.86 0.73 0.81 0.84 0.88 0.87 0.87 0.74 0.89 0.76 0.80 0.88 0.72 0.85 0.79 0.78 0.80 0.76 0.90 0.74 0.88 0.79 0.86 0.89 0.71 0.73 0.70 0.84 0.81 0.74 0.87 0.73 0.71 0.76 0.88 0.71 0.77 0.85 0.70 0.79 0.83 0.81 0.82 0.71 0.86 0.88 0.82 0.75 0.79 0.71 0.88 0.71 0.88 0.86 0.75 0.79 0.85 0.78 0.82 0.76 0.81 0.85 0.87 0.89 0.79 0.72 0.75 0.71 0.75 0.86 0.71 0.88 0.78 0.74 0.86 0.85 0.75 0.83 0.73 0.79 0.76 0.90 0.83 0.72 0.75 0.75 0.73 0.79 0.73 0.87 0.78 0.75 0.74 0.80 0.79 0.82 0.83 0.77 0.77 0.87 0.86 0.75 0.76 0.71 0.81 0.75 0.77 0.82 0.86 0.72 0.83 0.87 0.78 0.75 0.75 0.75 0.84 0.82 0.83 0.81 0.81 0.75 0.80 0.78 0.78 0.76 0.84 0.85 0.85 0.74 0.89 0.89 0.84 0.74 0.76 0.76 0.89 0.88 0.74 0.82 0.83 0.74 0.82 -9999 -9999 -9999 -9999 -9999 -9999 -9999 -9999 -9999 -9999 -9999 -9999 -9999 -9999 -9999 -9999 -9999 -9999 -9999 -9999 -9999 -9999 -9999
0.71 0.70 0.83 0.83 0.73 0.80 0.80 0.83 0.74 0.80 0.80 0.78 0.70 0.87 0.86 0.75 0.85 0.81 0.86 0.86 0.76 0.81 0.85 0.73 0.73 0.71 0.73 0.76 0.71 0.89 0.86 0.83 0.76 0.78 0.79 0.80 0.74 0.82 0.74 0.81 0.70 0.86 0.75 0.71 0.82 0.89 0.77 0.83 0.73 0.90 0.80 0.74 0.83 0.83 0.90 0.88 0.72 0.79 0.77 0.77 0.77 0.74 0.84 0.87 0.71 0.75 0.75 0.78 0.90 0.86 0.78 0.81 0.89 0.87 0.84 0.86 0.78 0.76 0.74 0.85 0.83 0.83 0.72 0.87 0.88 0.75 0.83 0.73 0.85 0.85 0.72 0.81 0.90 0.83 0.75 0.85 0.86 0.77 0.78 0.83 0.80 0.82 0.76 0.84 0.81 0.73 0.71 0.71 0.87 0.71 0.73 0.79 0.76 0.78 0.82 0.89 0.70 0.73 0.76 0.75 0.83 0.75 0.78 0.76 0.80 0.90 0.73 0.88 0.81 0.79 0.75 0.87 0.71 0.83 0.82 0.76 0.75 0.73 0.89 0.84 0.85 0.85 0.72 0.87 0.84 0.77 0.78 0.82 0.72 0.80 0.89 0.72 0.75 0.72 0.72 0.78 0.85 0.79 0.81 0.78 0.80 0.74 0.88 0.90 0.83 0.74 0.78 0.79 0.74 0.79 0.70 0.75 0.79 0.85 0.90 0.81 0.83 0.81 0.80 0.83 0.71 0.85 0.86 0.88 0.85 0.79 0.85 0.84 0.78 0.87 0.89 0.75 0.85 -9999 -9999 -9999 -9999 -9999 -9999 -9999 -9999 -9999 -9999 -9999 -9999 -9999 -9999 -9999 -9999 -9999 -9999 -9999 -9999 -9999 -9999
0.81 0.74 0.81 0.86 0.77 0.76 0.86 0.87 0.86 0.79 0.90 0.74 0.76 0.77 0.71 0.75 0.75 0.80 0.89 0.76 0.80 0.86 0.80 0.71 0.77 0.76 0.80 0.84 0.71 0.76 0.74 0.87 0.72 0.74 0.76 0.75 0.72 0.78 0.90 0.85 0.82 0.74 0.82 0.78 0.84 0.85 0.78 0.78 0.84 0.89 0.88 0.78 0.89 0.78 0.80 0.84 0.90 0.70 0.88 0.70 0.86 0.84 0.86 0.78 0.83 0.84 0.86 0.89 0.88 0.70 0.87 0.71 0.86 0.88 0.80 0.77 0.73 0.80 0.76 0.74 0.85 0.79 0.76 0.74 0.85 0.81 0.84 0.79 0.77 0.75 0.72 0.86 0.78 0.75 0.73 0.77 0.89 0.83 0.75 0.87 0.83 0.79 0.83 0.77 0.71 0.74 0.70 0.79 0.76 0.71 0.83 0.70 0.78 0.73 0.79 0.86 0.75 0.80 0.82 0.84 0.77 0.82 0.89 0.75 0.71 0.74 0.88 0.72 0.77 0.86 0.82 0.73 0.82 0.72 0.81 0.83 0.83 0.76 0.90 0.70 0.72 0.70 0.71 0.88 0.78 0.79 0.76 0.86 0.79 0.75 0.79 0.77 0.84 0.79 0.87 0.89 0.90 0.80 0.70 0.75 0.76 0.85 0.75 0.81 0.71 0.81 0.89 0.75 0.73 0.81 0.72 0.83 0.79 0.79 0.79 0.73 0.86 0.72 0.85 0.73 0.73 0.79 0.86 0.81 0.72 0.77 0.84 0.83 0.80 0.71 0.80 0.76 0.87 -9999 -9999 -9999 -9999 -9999 -9999 -9999 -9999 -9999 -9999 -9999 -9999 -9999 -9999 -9999 -9999 -9999 -9999 -9999 -9999 -9999 -9999
0.89 0.88 0.70 0.88 0.72 0.79 0.77 0.83 0.73 0.82 0.73 0.77 0.73 0.90 0.88 0.83 0.79 0.90 0.80 0.87 0.79 0.87 0.89 0.85 0.70 0.89 0.77 0.76 0.76 0.79 0.85 0.87 0.89 0.70 0.81 0.83 0.77 0.73 0.82 0.85 0.90 0.87 0.83 0.78 0.72 0.73 0.81 0.74 0.88 0.75 0.74 0.87 0.82 0.75 0.80 0.85 0.76 0.85 0.85 0.77 0.82 0.73 0.76 0.86 0.77 0.81 0.78 0.74 0.82 0.87 0.89 0.72 0.81 0.71 0.76 0.86 0.81 0.88 0.82 0.84 0.76 0.83 0.79 0.70 0.78 0.77 0.89 0.84 0.77 0.88 0.87 0.82 0.87 0.76 0.90 0.86 0.81 0.86 0.80 0.87 0.81 0.80 0.86 0.80 0.76 0.89 0.77 0.86 0.74 0.83 0.79 0.76 0.76 0.89 0.88 0.85 0.87 0.86 0.75 0.71 0.87 0.84 0.80 0.81 0.84 0.82 0.74 0.88 0.90 0.79 0.89 0.89 0.78 0.87 0.89 0.85 0.86 0.73 0.79 0.77 0.79 0.89 0.71 0.76 0.89 0.89 0.70 0.87 0.86 0.87 0.72 0.82 0.88 0.75 0.84 0.84 0.84 0.78 0.84 0.71 0.85 0.82 0.75 0.89 0.83 0.85 0.82 0.74 0.89 0.72 0.86 0.73 0.82 0.81 0.87 0.70 0.79 0.84 0.77 0.83 0.73 0.80 0.89 0.85 0.80 0.88 0.72 0.81 0.76 0.74 0.77 0.71 0.87 -9999 -9999 -9999 -9999 -9999 -9999 -9999 -9999 -9999 -9999 -9999 -9999 -9999 -9999 -9999 -9999 -9999 -9999 -9999 -9999 -9999 -9999
0.71 0.83 0.88 0.87 0.70 0.84 0.76 0.84 0.81 0.77 0.90 0.76 0.84 0.85 0.78 0.83 0.81 0.74 0.88 0.74 0.88 0.76 0.89 0.73 0.88 0.80 0.89 0.80 0.82 0.86 0.88 0.70 0.82 0.79 0.88 0.82 0.77 0.70 0.78 0.87 0.83 0.74 0.81 0.85 0.85 0.72 0.83 0.77 0.89 0.81 0.78 0.71 0.76 0.89 0.73 0.81 0.83 0.80 0.85 0.78 0.76 0.71 0.89 0.81 0.79 0.76 0.88 0.70 0.87 0.70 0.74 0.83 0.89 0.80 0.77 0.81 0.79 0.85 0.77 0.81 0.79 0.89 0.76 0.76 0.71 0.85 0.88 0.74 0.75 0.74 0.82 0.81 0.72 0.88 0.73 0.79 0.79 0.71 0.83 0.73 0.77 0.79 0.71 0.80 0.82 0.87 0.83 0.83 0.87 0.73 0.86 0.77 0.87 0.86 0.74 0.90 0.90 0.80 0.70 0.87 0.80 0.87 0.74 0.83 0.88 0.77 0.86 0.73 0.80 0.75 0.89 0.72 0.75 0.76 0.80 0.84 0.84 0.87 0.71 0.84 0.89 0.76 0.87 0.82 0.89 0.76 0.83 0.89 0.87 0.80 0.79 0.77 0.84 0.89 0.87 0.72 0.81 0.80 0.72 0.78 0.75 0.85 0.76 0.72 0.89 0.79 0.86 0.71 0.85 0.81 0.73 0.76 0.77 0.78 0.74 0.83 0.80 0.79 0.78 0.78 0.81 0.74 0.90 0.83 0.72 0.86 0.76 0.90 0.71 0.82 0.71 0.78 0.89 -9999 -9999 -9999 -9999 -9999 -9999 -9999 -9999 -9999 -9999 -9999 -9999 -9999 -9999 -9999 -9999 -9999 -9999 -9999 -9999 -9999 -9999
0.82 0.78 0.75 0.87 0.76 0.82 0.81 0.71 0.71 0.74 0.81 0.80 0.82 0.83 0.89 0.78 0.90 0.72 0.79 0.70 0.84 0.76 0.73 0.90 0.71 0.82 0.88 0.79 0.86 0.78 0.74 0.85 0.82 0.84 0.78 0.74 0.81 0.79 0.81 0.71 0.85 0.70 0.75 0.88 0.87 0.72 0.76 0.74 0.72 0.88 0.72 0.71 0.82 0.84 0.71 0.72 0.74 0.75 0.80 0.84 0.89 0.89 0.86 0.77 0.86 0.82 0.81 0.87 0.73 0.78 0.90 0.78 0.71 0.86 0.75 0.82 0.74 0.79 0.82 0.83 0.88 0.73 0.85 0.86 0.88 0.71 0.88 0.72 0.90 0.84 0.74 0.89 0.90 0.73 0.87 0.74 0.78 0.73 0.75 0.76 0.75 0.76 0.70 0.87 0.81 0.76 0.78 0.73 0.72 0.88 0.73 0.84 0.82 0.75 0.84 0.78 0.81 0.82 0.75 0.83 0.72 0.78 0.82 0.81 0.76 0.77 0.83 0.77 0.72 0.73 0.74 0.77 0.90 0.88 0.70 0.84 0.86 0.75 0.87 0.86 0.82 0.89 0.85 0.71 0.89 0.80 0.75 0.77 0.85 0.74 0.81 0.76 0.71 0.74 0.87 0.70 0.75 0.81 0.84 0.72 0.83 0.78 0.82 0.83 0.74 0.86 0.88 0.84 0.78 0.88 0.90 0.84 0.80 0.77 0.76 0.75 0.81 0.74 0.76 0.80 0.76 0.86 0.70 0.76 0.86 0.70 0.80 0.80 0.81 0.75 0.84 0.75 0.78 -9999 -9999 -9999 -9999 -9999 -9999 -9999 -9999 -9999 -9999 -9999 -9999 -9999 -9999 -9999 -9999 -9999 -9999 -9999 -9999 -9999 -9999
0.81 0.72 0.78 0.87 0.72 0.72 0.81 0.85 0.86 0.71 0.84 0.80 0.84 0.82 0.77 0.74 0.79 0.74 0.84 0.87 0.74 0.77 0.87 0.84 0.83 0.89 0.75 0.75 0.80 0.77 0.83 0.72 0.87 0.76 0.77 0.78 0.74 0.76 0.80 0.75 0.78 0.84 0.86 0.88 0.77 0.74 0.84 0.73 0.71 0.86 0.83 0.89 0.70 0.82 0.88 0.76 0.74 0.73 0.85 0.74 0.87 0.74 0.89 0.78 0.86 0.81 0.85 0.71 0.84 0.87 0.83 0.72 0.78 0.86 0.74 0.86 0.73 0.89 0.80 0.82 0.89 0.90 0.74 0.84 0.76 0.88 0.77 0.89 0.78 0.88 0.84 0.71 0.88 0.76 0.73 0.82 0.85 0.89 0.77 0.83 0.72 0.87 0.72 0.88 0.76 0.89 0.82 0.73 0.78 0.82 0.77 0.72 0.73 0.82 0.83 0.88 0.89 0.74 0.81 0.77 0.81 0.76 0.86 0.72 0.75 0.79 0.81 0.82 0.78 0.77 0.85 0.73 0.77 0.75 0.82 0.74 0.82 0.75 0.79 0.73 0.80 0.89 0.70 0.73 0.89 0.70 0.77 0.83 0.86 0.81 0.80 0.87 0.71 0.79 0.76 0.84 0.72 0.77 0.71 0.84 0.75 0.70 0.86 0.85 0.80 0.71 0.86 0.74 0.74 0.73 0.81 0.72 0.73 0.87 0.78 0.76 0.72 0.70 0.83 0.71 0.84 0.78 0.71 0.90 0.88 0.89 0.78 0.80 0.83 0.84 0.72 0.73 0.85 -9999 -9999 -9999 -9999 -9999 -9999 -9999 -9999 -9999 -9999 -9999 -9999 -9999 -9999 -9999 -9999 -9999 -9999 -9999 -9999 -9999 -9999
0.88 0.71 0.87 0.82 0.89 0.79 0.82 0.87 0.75 0.90 0.84 0.88 0.79 0.84 0.77 0.82 0.72 0.78 0.82 0.78 0.79 0.88 0.89 0.76 0.82 0.77 0.84 0.79 0.78 0.75 0.86 0.90 0.85 0.75 0.84 0.87 0.76 0.78 0.84 0.83 0.73 0.82 0.87 0.74 0.85 0.81 0.81 0.82 0.77 0.86 0.72 0.75 0.84 0.75 0.77 0.81 0.90 0.77 0.74 0.88 0.80 0.85 0.80 0.90 0.71 0.79 0.78 0.80 0.81 0.82 0.81 0.79 0.85 0.83 0.71 0.79 0.80 0.77 0.71 0.84 0.84 0.81 0.71 0.82 0.79 0.86 0.81 0.86 0.86 0.75 0.74 0.80 0.85 0.77 0.83 0.75 0.74 0.75 0.84 0.84 0.81 0.86 0.86 0.71 0.89 0.77 0.83 0.78 0.82 0.85 0.76 0.72 0.84 0.87 0.85 0.83 0.80 0.87 0.79 0.77 0.82 0.75 0.72 0.71 0.71 0.90 0.70 0.89 0.86 0.81 0.71 0.80 0.76 0.76 0.83 0.87 0.78 0.76 0.75 0.78 0.70 0.81 0.89 0.86 0.72 0.88 0.78 0.81 0.89 0.76 0.80 0.77 0.74 0.71 0.71 0.74 0.71 0.76 0.87 0.72 0.75 0.80 0.84 0.82 0.72 0.83 0.90 0.71 0.86 0.79 0.75 0.81 0.88 0.70 0.72 0.76 0.77 0.76 0.76 0.72 0.73 0.90 0.87 0.78 0.70 0.76 0.87 0.89 0.78 0.87 0.72 0.89 0.85 0.85 -9999 -9999 -9999 -9999 -9999 -9999 -9999 -9999 -9999 -9999 -9999 -9999 -9999 -9999 -9999 -9999 -9999 -9999 -9999 -9999 -9999
0.71 0.79 0.88 0.82 0.81 0.80 0.86 0.72 0.72 0.87 0.89 0.87 0.88 0.80 0.73 0.71 0.85 0.82 0.70 0.72 0.73 0.79 0.75 0.81 0.85 0.86 0.72 0.74 0.78 0.73 0.82 0.84 0.77 0.84 0.79 0.82 0.82 0.84 0.78 0.70 0.72 0.72 0.71 0.86 0.78 0.73 0.78 0.82 0.89 0.81 0.74 0.71 0.80 0.75 0.73 0.74 0.76 0.85 0.72 0.75 0.71 0.73 0.82 0.78 0.84 0.88 0.80 0.87 0.86 0.75 0.74 0.78 0.73 0.83 0.77 0.78 0.82 0.75 0.73 0.72 0.74 0.74 0.84 0.86 0.85 0.72 0.82 0.76 0.77 0.77 0.80 0.85 0.83 0.82 0.89 0.90 0.77 0.74 0.77 0.77 0.88 0.75 0.77 0.90 0.88 0.70 0.74 0.81 0.85 0.76 0.84 0.85 0.71 0.89 0.75 0.81 0.74 0.83 0.75 0.75 0.78 0.72 0.82 0.76 0.85 0.88 0.88 0.81 0.72 0.84 0.76 0.88 0.75 0.87 0.82 0.82 0.88 0.84 0.88 0.87 0.90 0.72 0.85 0.83 0.82 0.86 0.85 0.81 0.87 0.83 0.82 0.79 0.82 0.78 0.71 0.70 0.75 0.72 0.77 0.75 0.79 0.73 0.78 0.74 0.88 0.82 0.87 0.87 0.75 0.75 0.89 0.75 0.72 0.76 0.72 0.72 0.82 0.82 0.73 0.80 0.86 0.72 0.84 0.78 0.83 0.75 0.78 0.72 0.89 0.84 0.75 0.78 0.87 0.85 -9999 -9999 -9999 -9999 -9999 -9999 -9999 -9999 -9999 -9999 -9999 -9999 -9999 -9999 -9999 -9999 -9999 -9999 -9999 -9999 -9999
0.85 0.87 0.89 0.89 0.88 0.82 0.84 0.70 0.71 0.77 0.79 0.82 0.72 0.84 0.82 0.86 0.81 0.78 0.85 0.85 0.80 0.76 0.83 0.71 0.72 0.82 0.74 0.75 0.80 0.82 0.84 0.88 0.71 0.73 0.76 0.89 0.84 0.76 0.88 0.86 0.75 0.90 0.81 0.75 0.85 0.81 0.72 0.79 0.86 0.87 0.80 0.83 0.81 0.81 0.82 0.76 0.72 0.86 0.87 0.76 0.79 0.88 0.85 0.75 0.89 0.83 0.80 0.78 0.85 0.72 0.82 0.89 0.74 0.83 0.88 0.77 0.75 0.85 0.86 0.86 0.77 0.87 0.76 0.75 0.71 0.71 0.82 0.79 0.84 0.75 0.80 0.82 0.89 0.78 0.84 0.83 0.89 0.85 0.75 0.86 0.85 0.82 0.77 0.87 0.73 0.83 0.84 0.85 0.84 0.84 0.79 0.72 0.73 0.71 0.74 0.73 0.85 0.80 0.86 0.90 0.78 0.79 0.70 0.85 0.74 0.81 0.80 0.82 0.89 0.78 0.74 0.80 0.81 0.77 0.71 0.77 0.76 0.88 0.86 0.87 0.71 0.87 0.83 0.75 0.80 0.86 0.82 0.72 0.80 0.71 0.85 0.85 0.76 0.77 0.87 0.82 0.73 0.73 0.89 0.85 0.70 0.71 0.85 0.83 0.84 0.84 0.85 0.86 0.86 0.90 0.72 0.87 0.79 0.71 0.77 0.76 0.71 0.81 0.77 0.89 0.83 0.75 0.82 0.75 0.76 0.81 0.76 0.80 0.88 0.75 0.90 0.77 0.75 0.89 -9999 -9999 -9999 -9999 -9999 -9999 -9999 -9999 -9999 -9999 -9999 -9999 -9999 -9999 -9999 -9999 -9999 -9999 -9999 -9999 -9999
0.73 0.73 0.78 0.82 0.87 0.76 0.80 0.77 0.87 0.74 0.81 0.85 0.86 0.74 0.85 0.73 0.79 0.74 0.73 0.86 0.89 0.88 0.76 0.70 0.86 0.82 0.84 0.88 0.77 0.77 0.76 0.89 0.71 0.89 0.88 0.87 0.80 0.90 0.72 0.87 0.79 0.70 0.77 0.72 0.80 0.79 0.71 0.84 0.89 0.87 0.86 0.79 0.75 0.81 0.82 0.88 0.78 0.76 0.81 0.87 0.75 0.72 0.76 0.87 0.78 0.77 0.77 0.89 0.80 0.70 0.73 0.78 0.85 0.77 0.73 0.87 0.78 0.76 0.81 0.86 0.76 0.81 0.88 0.88 0.71 0.88 0.85 0.77 0.76 0.80 0.88 0.73 0.72 0.83 0.86 0.71 0.84 0.86 0.80 0.89 0.74 0.74 0.86 0.82 0.71 0.74 0.72 0.81 0.75 0.74 0.75 0.86 0.87 0.86 0.76 0.75 0.75 0.88 0.88 0.89 0.85 0.82 0.73 0.74 0.74 0.78 0.89 0.73 0.82 0.71 0.70 0.88 0.82 0.75 0.71 0.81 0.87 0.77 0.72 0.71 0.86 0.89 0.89 0.71 0.90 0.82 0.88 0.87 0.78 0.83 0.77 0.85 0.80 0.80 0.72 0.77 0.82 0.73 0.84 0.87 0.75 0.79 0.86 0.72 0.89 0.85 0.76 0.83 0.85 0.74 0.86 0.73 0.75 0.79 0.72 0.90 0.83 0.71 0.74 0.87 0.77 0.87 0.82 0.81 0.87 0.86 0.82 0.84 0.87 0.72 0.77 0.79 0.80 0.79 -9999 -9999 -9999 -9999 -9999 -9999 -9999 -9999 -9999 -9999 -9999 -9999 -9999 -9999 -9999 -9999 -9999 -9999 -9999 -9999 -9999
0.87 0.70 0.87 0.80 0.75 0.84 0.86 0.90 0.70 0.89 0.74 0.85 0.70 0.74 0.75 0.79 0.81 0.84 0.71 0.82 0.79 0.76 0.81 0.72 0.77 0.76 0.83 0.85 0.78 0.74 0.81 0.86 0.88 0.89 0.88 0.85 0.84 0.76 0.80 0.82 0.81 0.74 0.84 0.87 0.71 0.84 0.83 0.90 0.83 0.75 0.88 0.85 0.77 0.74 0.82 0.79 0.85 0.80 0.81 0.82 0.77 0.88 0.83 0.71 0.75 0.90 0.83 0.82 0.75 0.76 0.76 0.90 0.80 0.87 0.89 0.80 0.79 0.70 0.70 0.73 0.81 0.76 0.80 0.81 0.85 0.80 0.87 0.88 0.89 0.89 0.77 0.75 0.72 0.86 0.81 0.87 0.87 0.88 0.73 0.81 0.85 0.85 0.75 0.83 0.76 0.77 0.85 0.80 0.85 0.74 0.87 0.83 0.77 0.82 0.73 0.83 0.82 0.89 0.88 0.84 0.83 0.79 0.71 0.82 0.71 0.84 0.89 0.72 0.90 0.81 0.82 0.89 0.81 0.78 0.88 0.89 0.70 0.72 0.76 0.71 0.75 0.73 0.90 0.75 0.82 0.85 0.83 0.78 0.78 0.87 0.81 0.77 0.89 0.76 0.74 0.71 0.86 0.77 0.89 0.84 0.86 0.80 0.78 0.88 0.74 0.76 0.85 0.88 0.84 0.72 0.85 0.85 0.72 0.78 0.85 0.85 0.84 0.77 0.74 0.76 0.80 0.83 0.76 0.89 0.74 0.85 0.77 0.72 0.78 0.84 0.78 0.80 0.73 0.76 -9999 -9999 -9999 -9999 -9999 -9999 -9999 -9999 -9999 -9999 -9999 -9999 -9999 -9999 -9999 -9999 -9999 -9999 -9999 -9999 -9999
0.76 0.84 0.84 0.87 0.79 0.87 0.84 0.88 0.83 0.75 0.81 0.89 0.71 0.71 0.72 0.71 0.83 0.81 0.83 0.82 0.79 0.84 0.89 0.74 0.72 0.85 0.78 0.84 0.81 0.83 0.80 0.72 0.88 0.88 0.79 0.78 0.75 0.84 0.75 0.73 0.82 0.85 0.79 0.75 0.85 0.87 0.86 0.71 0.82 0.80 0.70 0.82 0.81 0.85 0.89 0.76 0.75 0.87 0.71 0.81 0.78 0.82 0.88 0.85 0.81 0.74 0.73 0.73 0.83 0.84 0.80 0.78 0.83 0.77 0.79 0.88 0.72 0.80 0.78 0.88 0.70 0.86 0.84 0.81 0.82 0.71 0.80 0.76 0.86 0.71 0.81 0.87 0.76 0.80 0.77 0.73 0.74 0.82 0.88 0.79 0.78 0.87 0.89 0.81 0.73 0.78 0.83 0.79 0.89 0.73 0.82 0.72 0.74 0.77 0.87 0.83 0.79 0.74 0.77 0.83 0.71 0.83 0.74 0.80 0.71 0.80 0.71 0.73 0.71 0.85 0.72 0.73 0.84 0.75 0.75 0.79 0.77 0.88 0.81 0.83 0.82 0.76 0.76 0.85 0.81 0.85 0.80 0.74 0.72 0.81 0.74 0.76 0.80 0.86 0.81 0.83 0.83 0.77 0.70 0.88 0.85 0.85 0.72 0.75 0.84 0.72 0.83 0.74 0.88 0.83 0.81 0.78 0.78 0.85 0.86 0.80 0.85 0.82 0.72 0.72 0.73 0.82 0.86 0.86 0.89 0.83 0.70 0.83 0.75 0.84 0.86 0.79 0.86 0.77 -9999 -9999 -9999 -9999 -9999 -9999 -9999 -9999 -9999 -9999 -9999 -9999 -9999 -9999 -9999 -9999 -9999 -9999 -9999 -9999 -9999
0.87 0.76 0.87 0.71 0.90 0.70 0.77 0.85 0.77 0.90 0.77 0.85 0.73 0.86 0.82 0.76 0.81 0.74 0.84 0.82 0.83 0.76 0.76 0.79 0.71 0.83 0.87 0.82 0.85 0.75 0.76 0.90 0.79 0.79 0.78 0.70 0.72 0.80 0.89 0.77 0.76 0.70 0.75 0.70 0.90 0.75 0.88 0.85 0.74 0.80 0.72 0.74 0.72 0.75 0.72 0.73 0.80 0.72 0.70 0.77 0.88 0.86 0.78 0.74 0.71 0.81 0.71 0.79 0.74 0.73 0.85 0.76 0.77 0.80 0.90 0.73 0.71 0.85 0.79 0.88 0.77 0.75 0.73 0.81 0.75 0.84 0.72 0.80 0.79 0.82 0.71 0.81 0.89 0.87 0.88 0.80 0.73 0.90 0.74 0.83 0.83 0.70 0.76 0.71 0.79 0.80 0.76 0.80 0.72 0.83 0.70 0.74 0.71 0.89 0.82 0.75 0.82 0.81 0.72 0.74 0.81 0.81 0.88 0.88 0.84 0.71 0.75 0.85 0.82 0.73 0.82 0.78 0.73 0.74 0.83 0.79 0.80 0.82 0.87 0.86 0.77 0.75 0.71 0.77 0.84 0.83 0.75 0.81 0.87 0.76 0.73 0.82 0.72 0.88 0.81 0.72 0.77 0.76 0.84 0.73 0.76 0.72 0.80 0.78 0.86 0.70 0.87 0.89 0.82 0.77 0.71 0.87 0.74 0.75 0.80 0.75 0.74 0.90 0.76 0.89 0.77 0.77 0.81 0.80 0.71 0.82 0.80 0.74 0.76 0.73 0.88 0.74 0.85 0.81 0.72 -9999 -9999 -9999 -9999 -9999 -9999 -9999 -9999 -9999 -9999 -9999 -9999 -9999 -9999 -9999 -9999 -9999 -9999 -9999 -9999
0.82 0.81 0.84 0.86 0.87 0.77 0.73 0.71 0.74 0.84 0.84 0.87 0.88 0.79 0.87 0.74 0.82 0.83 0.77 0.86 0.71 0.75 0.76 0.82 0.80 0.80 0.80 0.83 0.70 0.85 0.88 0.85 0.88 0.82 0.79 0.83 0.86 0.76 0.70 0.90 0.72 0.88 0.86 0.87 0.82 0.75 0.78 0.86 0.83 0.70 0.77 0.75 0.75 0.83 0.79 0.78 0.71 0.78 0.77 0.81 0.89 0.79 0.87 0.90 0.86 0.80 0.85 0.76 0.71 0.87 0.73 0.76 0.80 0.72 0.86 0.73 0.80 0.88 0.75 0.84 0.89 0.77 0.89 0.90 0.74 0.86 0.78 0.79 0.78 0.77 0.82 0.74 0.81 0.72 0.77 0.86 0.78 0.76 0.78 0.87 0.82 0.83 0.82 0.89 0.74 0.86 0.81 0.73 0.81 0.71 0.87 0.70 0.85 0.84 0.88 0.84 0.87 0.84 0.89 0.75 0.88 0.75 0.74 0.74 0.81 0.72 0.87 0.87 0.78 0.77 0.77 0.79 0.83 0.83 0.80 0.76 0.76 0.79 0.83 0.76 0.81 0.70 0.81 0.80 0.76 0.71 0.86 0.71 0.82 0.85 0.77 0.74 0.72 0.74 0.81 0.79 0.75 0.89 0.87 0.83 0.73 0.81 0.74 0.79 0.72 0.89 0.71 0.79 0.87 0.78 0.72 0.85 0.88 0.89 0.89 0.72 0.74 0.71 0.89 0.71 0.90 0.78 0.83 0.84 0.71 0.71 0.73 0.72 0.86 0.71 0.84 0.76 0.85 0.78 0.74 -9999 -9999 -9999 -9999 -9999 -9999 -9999 -9999 -9999 -9999 -9999 -9999 -9999 -9999 -9999 -9999 -9999 -9999 -9999 -9999
0.82 0.90 0.87 0.83 0.70 0.76 0.89 0.78 0.77 0.81 0.71 0.84 0.79 0.73 0.70 0.82 0.75 0.84 0.76 0.87 0.71 0.89 0.85 0.89 0.78 0.84 0.83 0.74 0.82 0.75 0.75 0.81 0.71 0.82 0.71 0.78 0.72 0.89 0.89 0.90 0.74 0.78 0.86 0.83 0.81 0.74 0.83 0.71 0.79 0.74 0.87 0.74 0.87 0.72 0.79 0.73 0.86 0.86 0.86 0.83 0.88 0.84 0.87 0.79 0.88 0.90 0.89 0.76 0.72 0.71 0.79 0.89 0.82 0.77 0.87 0.74 0.84 0.88 0.80 0.90 0.71 0.71 0.75 0.79 0.71 0.89 0.73 0.78 0.72 0.88 0.70 0.77 0.78 0.84 0.82 0.71 0.77 0.72 0.86 0.71 0.76 0.86 0.74 0.83 0.73 0.82 0.73 0.79 0.89 0.89 0.75 0.75 0.75 0.70 0.79 0.86 0.86 0.74 0.78 0.82 0.78 0.89 0.85 0.86 0.84 0.83 0.72 0.74 0.73 0.72 0.80 0.90 0.87 0.71 0.81 0.75 0.86 0.81 0.90 0.74 0.84 0.76 0.81 0.73 0.88 0.78 0.79 0.80 0.86 0.86 0.75 0.78 0.80 0.76 0.87 0.73 0.71 0.73 0.76 0.88 0.83 0.81 0.84 0.82 0.88 0.83 0.74 0.73 0.74 0.83 0.72 0.71 0.80 0.86 0.82 0.82 0.86 0.81 0.81 0.77 0.85 0.73 0.84 0.78 0.80 0.88 0.72 0.79 0.75 0.88 0.78 0.70 0.71 0.72 0.87 -9999 -9999 -9999 -9999 -9999 -9999 -9999 -9999 -9999 -9999 -9999 -9999 -9999 -9999 -9999 -9999 -9999 -9999 -9999 -9999
0.75 0.76 0.84 0.86 0.74 0.83 0.89 0.76 0.87 0.86 0.85 0.72 0.80 0.86 0.88 0.78 0.70 0.77 0.72 0.81 0.89 0.70 0.74 0.87 0.75 0.74 0.89 0.78 0.75 0.80 0.79 0.78 0.80 0.73 0.71 0.86 0.75 0.84 0.77 0.78 0.87 0.71 0.89 0.83 0.90 0.84 0.87 0.84 0.81 0.84 0.73 0.88 0.83 0.83 0.84 0.73 0.82 0.76 0.83 0.77 0.78 0.79 0.82 0.79 0.83 0.88 0.72 0.76 0.77 0.86 0.77 0.82 0.70 0.72 0.87 0.85 0.73 0.77 0.78 0.88 0.74 0.85 0.88 0.74 0.81 0.72 0.88 0.71 0.86 0.74 0.83 0.75 0.89 0.88 0.76 0.79 0.74 0.78 0.88 0.82 0.85 0.72 0.86 0.79 0.76 0.83 0.75 0.82 0.77 0.88 0.87 0.80 0.78 0.80 0.79 0.80 0.88 0.70 0.73 0.84 0.73 0.70 0.72 0.72 0.80 0.78 0.73 0.79 0.75 0.84 0.82 0.88 0.82 0.88 0.83 0.84 0.87 0.75 0.81 0.80 0.79 0.70 0.88 0.78 0.78 0.79 0.85 0.72 0.75 0.80 0.73 0.72 0.70 0.75 0.76 0.88 0.73 0.86 0.87 0.76 0.76 0.80 0.77 0.78 0.87 0.75 0.79 0.83 0.84 0.85 0.84 0.88 0.72 0.85 0.90 0.73 0.74 0.87 0.85 0.82 0.81 0.85 0.90 0.90 0.85 0.76 0.76 0.85 0.74 0.76 0.74 0.84 0.83 0.72 0.78 -9999 -9999 -9999 -9999 -9999 -9999 -9999 -9999 -9999 -9999 -9999 -9999 -9999 -9999 -9999 -9999 -9999 -9999 -9999 -9999
0.80 0.74 0.79 0.82 0.81 0.85 0.85 0.89 0.89 0.85 0.89 0.89 0.85 0.79 0.82 0.71 0.88 0.77 0.86 0.71 0.82 0.77 0.79 0.80 0.87 0.77 0.75 0.82 0.87 0.79 0.76 0.80 0.71 0.73 0.72 0.89 0.77 0.80 0.83 0.87 0.73 0.80 0.73 0.87 0.88 0.82 0.90 0.90 0.78 0.82 0.75 0.73 0.75 0.80 0.75 0.87 0.90 0.75 0.88 0.84 0.76 0.86 0.85 0.78 0.74 0.80 0.77 0.90 0.81 0.74 0.86 0.90 0.82 0.80 0.73 0.88 0.88 0.86 0.86 0.89 0.72 0.85 0.87 0.72 0.80 0.78 0.71 0.79 0.72 0.87 0.83 0.79 0.75 0.74 0.74 0.90 0.76 0.88 0.83 0.86 0.73 0.80 0.77 0.81 0.77 0.80 0.72 0.73 0.78 0.82 0.79 0.72 0.88 0.87 0.81 0.72 0.74 0.74 0.83 0.77 0.83 0.89 0.71 0.77 0.82 0.79 0.76 0.81 0.84 0.88 0.83 0.73 0.75 0.76 0.70 0.83 0.79 0.78 0.90 0.83 0.74 0.87 0.77 0.82 0.80 0.72 0.85 0.75 0.74 0.76 0.83 0.84 0.71 0.87 0.81 0.74 0.77 0.80 0.89 0.74 0.84 0.74 0.81 0.88 0.81 0.81 0.87 0.88 0.79 0.84 0.88 0.81 0.83 0.84 0.83 0.78 0.71 0.76 0.75 0.73 0.83 0.72 0.70 0.72 0.83 0.81 0.75 0.81 0.82 0.78 0.78 0.84 0.72 0.80 0.84 -9999 -9999 -9999 -9999 -9999 -9999 -9999 -9999 -9999 -9999 -9999 -9999 -9999 -9999 -9999 -9999 -9999 -9999 -9999 -9999
0.82 0.72 0.84 0.83 0.73 0.73 0.76 0.79 0.73 0.88 0.87 0.74 0.84 0.73 0.89 0.80 0.77 0.72 0.73 0.82 0.78 0.83 0.73 0.79 0.75 0.87 0.74 0.84 0.83 0.78 0.82 0.89 0.74 0.80 0.72 0.89 0.88 0.85 0.88 0.83 0.79 0.84 0.88 0.89 0.72 0.72 0.89 0.85 0.87 0.76 0.70 0.86 0.73 0.86 0.78 0.88 0.81 0.73 0.89 0.72 0.76 0.72 0.73 0.75 0.87 0.85 0.70 0.78 0.74 0.90 0.74 0.76 0.89 0.77 0.81 0.82 0.74 0.77 0.84 0.80 0.82 0.81 0.81 0.80 0.78 0.73 0.86 0.73 0.76 0.75 0.83 0.72 0.80 0.82 0.83 0.83 0.89 0.72 0.78 0.76 0.80 0.78 0.81 0.84 0.83 0.86 0.81 0.83 0.85 0.80 0.71 0.72 0.82 0.75 0.79 0.80 0.78 0.81 0.73 0.75 0.82 0.87 0.89 0.89 0.88 0.71 0.82 0.70 0.70 0.71 0.85 0.87 0.88 0.89 0.74 0.78 0.84 0.87 0.78 0.71 0.71 0.82 0.88 0.87 0.78 0.88 0.70 0.86 0.74 0.81 0.88 0.74 0.78 0.78 0.74 0.76 0.76 0.85 0.82 0.88 0.78 0.89 0.86 0.87 0.82 0.77 0.74 0.76 0.88 0.74 0.73 0.83 0.81 0.86 0.83 0.77 0.74 0.77 0.83 0.79 0.75 0.75 0.72 0.76 0.83 0.77 0.71 0.86 0.75 0.89 0.72 0.89 0.80 0.85 0.78 -9999 -9999 -9999 -9999 -9999 -9999 -9999 -9999 -9999 -9999 -9999 -9999 -9999 -9999 -9999 -9999 -9999 -9999 -9999 -9999
0.85 0.88 0.82 0.90 0.73 0.82 0.77 0.83 0.86 0.71 0.89 0.75 0.79 0.78 0.89 0.81 0.85 0.71 0.83 0.78 0.71 0.76 0.80 0.79 0.78 0.88 0.84 0.88 0.82 0.81 0.78 0.71 0.79 0.85 0.78 0.82 0.72 0.88 0.72 0.71 0.84 0.81 0.84 0.83 0.83 0.70 0.78 0.83 0.73 0.90 0.73 0.75 0.88 0.89 0.72 0.75 0.80 0.78 0.86 0.76 0.82 0.82 0.78 0.73 0.89 0.79 0.81 0.82 0.85 0.85 0.88 0.84 0.80 0.77 0.86 0.86 0.76 0.76 0.87 0.84 0.81 0.75 0.84 0.80 0.76 0.71 0.79 0.86 0.71 0.84 0.85 0.78 0.83 0.72 0.88 0.81 0.77 0.73 0.81 0.76 0.80 0.80 0.76 0.71 0.71 0.77 0.85 0.84 0.76 0.90 0.85 0.84 0.76 0.84 0.76 0.81 0.79 0.83 0.81 0.89 0.81 0.77 0.75 0.89 0.71 0.78 0.82 0.88 0.81 0.72 0.83 0.87 0.85 0.81 0.73 0.84 0.75 0.74 0.76 0.85 0.87 0.87 0.90 0.75 0.73 0.74 0.79 0.79 0.76 0.89 0.84 0.83 0.76 0.90 0.79 0.74 0.88 0.73 0.85 0.88 0.87 0.90 0.72 0.82 0.72 0.76 0.83 0.81 0.83 0.83 0.81 0.77 0.88 0.71 0.87 0.72 0.77 0.80 0.85 0.83 0.79 0.79 0.86 0.89 0.81 0.78 0.87 0.84 0.89 0.84 0.86 0.81 0.82 0.73 0.88 -9999 -9999 -9999 -9999 -9999 -9999 -9999 -9999 -9999 -9999 -9999 -9999 -9999 -9999 -9999 -9999 -9999 -9999 -9999 -9999
0.80 0.84 0.74 0.79 0.82 0.76 0.81 0.73 0.79 0.81 0.88 0.83 0.75 0.83 0.76 0.85 0.85 0.71 0.82 0.71 0.72 0.85 0.86 0.83 0.89 0.72 0.90 0.80 0.76 0.88 0.79 0.83 0.82 0.74 0.90 0.80 0.79 0.75 0.74 0.84 0.81 0.72 0.73 0.88 0.74 0.74 0.73 0.81 0.74 0.80 0.83 0.75 0.84 0.88 0.87 0.82 0.83 0.73 0.85 0.72 0.74 0.86 0.72 0.86 0.85 0.86 0.82 0.78 0.71 0.82 0.80 0.75 0.71 0.73 0.83 0.88 0.70 0.80 0.88 0.88 0.74 0.81 0.87 0.75 0.88 0.73 0.73 0.86 0.83 0.78 0.88 0.75 0.86 0.85 0.78 0.76 0.74 0.73 0.73 0.75 0.85 0.80 0.87 0.83 0.84 0.79 0.90 0.85 0.77 0.75 0.81 0.76 0.70 0.76 0.74 0.80 0.79 0.81 0.72 0.75 0.88 0.76 0.73 0.86 0.75 0.77 0.75 0.72 0.85 0.82 0.76 0.83 0.71 0.79 0.77 0.89 0.74 0.89 0.70 0.82 0.82 0.78 0.84 0.74 0.86 0.86 0.74 0.78 0.72 0.72 0.83 0.80 0.75 0.74 0.77 0.73 0.86 0.85 0.82 0.76 0.81 0.76 0.75 0.76 0.79 0.76 0.86 0.71 0.88 0.81 0.87 0.75 0.74 0.75 0.86 0.77 0.88 0.75 0.72 0.82 0.74 0.85 0.86 0.72 0.81 0.80 0.85 0.72 0.74 0.88 0.87 0.72 0.87 0.73 0.90 0.86 -9999 -9999 -9999 -9999 -9999 -9999 -9999 -9999 -9999 -9999 -9999 -9999 -9999 -9999 -9999 -9999 -9999 -9999 -9999
0.86 0.73 0.85 0.72 0.78 0.84 0.82 0.89 0.79 0.81 0.88 0.84 0.75 0.81 0.90 0.82 0.70 0.85 0.79 0.81 0.71 0.75 0.78 0.87 0.89 0.90 0.80 0.72 0.70 0.72 0.72 0.83 0.87 0.71 0.78 0.75 0.86 0.87 0.83 0.76 0.74 0.81 0.86 0.74 0.81 0.81 0.86 0.89 0.71 0.84 0.71 0.84 0.77 0.76 0.89 0.83 0.74 0.77 0.82 0.75 0.80 0.71 0.86 0.72 0.76 0.70 0.76 0.73 0.84 0.78 0.82 0.74 0.73 0.77 0.74 0.74 0.72 0.83 0.74 0.80 0.86 0.81 0.76 0.72 0.85 0.86 0.90 0.89 0.72 0.83 0.73 0.81 0.86 0.80 0.71 0.75 0.88 0.82 0.77 0.80 0.71 0.81 0.71 0.70 0.71 0.75 0.78 0.81 0.77 0.90 0.84 0.80 0.71 0.86 0.78 0.82 0.77 0.86 0.71 0.76 0.77 0.89 0.82 0.71 0.80 0.76 0.87 0.89 0.88 0.86 0.75 0.87 0.74 0.77 0.87 0.89 0.86 0.81 0.81 0.72 0.85 0.70 0.87 0.85 0.73 0.84 0.77 0.76 0.85 0.73 0.76 0.88 0.77 0.73 0.90 0.86 0.77 0.85 0.76 0.72 0.77 0.77 0.80 0.86 0.88 0.89 0.85 0.79 0.89 0.71 0.81 0.76 0.71 0.82 0.88 0.75 0.75 0.71 0.84 0.73 0.86 0.89 0.85 0.72 0.80 0.85 0.84 0.80 0.82 0.85 0.88 0.71 0.78 0.82 0.81 0.76 -9999 -9999 -9999 -9999 -9999 -9999 -9999 -9999 -9999 -9999 -9999 -9999 -9999 -9999 -9999 -9999 -9999 -9999 -9999
0.76 0.87 0.81 0.75 0.81 0.88 0.82 0.86 0.86 0.70 0.70 0.72 0.71 0.77 0.72 0.81 0.75 0.74 0.82 0.81 0.85 0.75 0.85 0.80 0.83 0.75 0.87 0.77 0.82 0.84 0.71 0.88 0.75 0.84 0.76 0.79 0.84 0.80 0.75 0.81 0.75 0.81 0.85 0.74 0.86 0.89 0.78 0.82 0.70 0.74 0.80 0.88 0.83 0.80 0.75 0.86 0.78 0.71 0.78 0.70 0.71 0.79 0.87 0.78 0.85 0.76 0.82 0.83 0.90 0.71 0.71 0.87 0.81 0.79 0.88 0.71 0.72 0.80 0.75 0.76 0.78 0.83 0.86 0.76 0.79 0.77 0.87 0.77 0.75 0.74 0.70 0.90 0.71 0.84 0.87 0.78 0.74 0.81 0.72 0.77 0.87 0.72 0.78 0.71 0.77 0.72 0.73 0.85 0.73 0.88 0.86 0.76 0.71 0.88 0.88 0.88 0.87 0.75 0.80 0.76 0.86 0.71 0.79 0.71 0.80 0.84 0.81 0.81 0.75 0.85 0.81 0.89 0.75 0.72 0.80 0.80 0.74 0.90 0.83 0.83 0.74 0.72 0.71 0.75 0.74 0.84 0.86 0.74 0.85 0.78 0.71 0.90 0.87 0.70 0.77 0.80 0.77 0.76 0.70 0.79 0.83 0.83 0.82 0.79 0.73 0.74 0.77 0.72 0.75 0.85 0.74 0.75 0.86 0.74 0.85 0.73 0.79 0.70 0.78 0.85 0.70 0.75 0.76 0.86 0.82 0.73 0.76 0.82 0.88 0.88 0.88 0.90 0.76 0.81 0.76 0.76 -9999 -9999 -9999 -9999 -9999 -9999 -9999 -9999 -9999 -9999 -9999 -9999 -9999 -9999 -9999 -9999 -9999 -9999 -9999
0.71 0.86 0.76 0.83 0.76 0.73 0.87 0.71 0.82 0.81 0.75 0.78 0.79 0.90 0.74 0.80 0.72 0.75 0.87 0.73 0.74 0.82 0.80 0.81 0.80 0.77 0.87 0.86 0.81 0.71 0.72 0.85 0.87 0.79 0.72 0.82 0.88 0.72 0.80 0.77 0.89 0.72 0.71 0.87 0.76 0.86 0.70 0.89 0.73 0.75 0.77 0.79 0.80 0.74 0.72 0.80 0.83 0.78 0.88 0.70 0.81 0.83 0.72 0.86 0.86 0.81 0.70 0.84 0.75 0.88 0.80 0.89 0.89 0.71 0.76 0.89 0.78 0.70 0.85 0.84 0.87 0.85 0.89 0.86 0.82 0.79 0.85 0.84 0.80 0.88 0.73 0.85 0.80 0.81 0.80 0.71 0.73 0.87 0.74 0.90 0.76 0.77 0.79 0.72 0.83 0.85 0.84 0.87 0.88 0.79 0.71 0.76 0.80 0.72 0.78 0.80 0.84 0.82 0.74 0.87 0.73 0.79 0.84 0.79 0.83 0.87 0.84 0.78 0.79 0.82 0.73 0.78 0.79 0.78 0.82 0.84 0.73 0.86 0.76 0.76 0.86 0.86 0.76 0.85 0.78 0.75 0.88 0.84 0.85 0.70 0.75 0.72 0.77 0.85 0.81 0.76 0.84 0.83 0.83 0.89 0.78 0.87 0.76 0.77 0.70 0.79 0.78 0.87 0.80 0.83 0.79 0.78 0.74 0.74 0.79 0.77 0.80 0.79 0.81 0.88 0.71 0.80 0.84 0.73 0.89 0.82 0.83 0.87 0.90 0.90 0.83 0.84 0.74 0.78 0.85 0.77 -9999 -9999 -9999 -9999 -9999 -9999 -9999 -9999 -9999 -9999 -9999 -9999 -9999 -9999 -9999 -9999 -9999 -9999 -9999
0.73 0.74 0.77 0.74 0.84 0.84 0.86 0.77 0.78 0.78 0.83 0.80 0.84 0.80 0.75 0.87 0.83 0.79 0.80 0.80 0.71 0.83 0.76 0.79 0.83 0.78 0.84 0.87 0.90 0.79 0.84 0.75 0.72 0.83 0.77 0.75 0.71 0.88 0.85 0.73 0.79 0.83 0.77 0.71 0.80 0.83 0.86 0.84 0.78 0.78 0.83 0.75 0.86 0.83 0.90 0.71 0.78 0.78 0.85 0.74 0.78 0.71 0.84 0.77 0.82 0.87 0.84 0.76 0.83 0.90 0.83 0.73 0.71 0.76 0.87 0.89 0.83 0.89 0.70 0.78 0.86 0.77 0.72 0.74 0.70 0.84 0.75 0.75 0.84 0.74 0.88 0.82 0.73 0.86 0.86 0.82 0.84 0.73 0.71 0.75 0.87 0.74 0.75 0.77 0.71 0.85 0.80 0.85 0.86 0.87 0.85 0.81 0.86 0.73 0.71 0.75 0.87 0.88 0.76 0.82 0.88 0.89 0.77 0.83 0.84 0.71 0.85 0.78 0.81 0.78 0.82 0.76 0.80 0.71 0.88 0.79 0.82 0.72 0.82 0.88 0.83 0.87 0.88 0.80 0.81 0.72 0.86 0.84 0.90 0.77 0.82 0.75 0.75 0.85 0.75 0.87 0.71 0.84 0.81 0.77 0.88 0.75 0.84 0.87 0.82 0.89 0.71 0.89 0.73 0.85 0.70 0.87 0.76 0.90 0.78 0.83 0.71 0.81 0.71 0.86 0.81 0.71 0.88 0.71 0.77 0.76 0.87 0.74 0.71 0.81 0.72 0.71 0.74 0.86 0.75 0.70 -9999 -9999 -9999 -9999 -9999 -9999 -9999 -9999 -9999 -9999 -9999 -9999 -9999 -9999 -9999 -9999 -9999 -9999 -9999
0.76 0.79 0.88 0.78 0.76 0.82 0.88 0.83 0.85 0.78 0.81 0.71 0.79 0.74 0.85 0.76 0.89 0.71 0.73 0.83 0.89 0.79 0.89 0.78 0.70 0.71 0.80 0.81 0.85 0.76 0.89 0.72 0.70 0.79 0.75 0.76 0.87 0.82 0.76 0.88 0.87 0.90 0.83 0.80 0.71 0.86 0.71 0.83 0.86 0.71 0.81 0.75 0.77 0.80 0.84 0.74 0.72 0.72 0.79 0.76 0.88 0.72 0.81 0.85 0.79 0.83 0.85 0.72 0.80 0.85 0.80 0.87 0.88 0.80 0.78 0.75 0.77 0.78 0.74 0.78 0.88 0.81 0.72 0.76 0.86 0.78 0.83 0.85 0.80 0.89 0.74 0.86 0.71 0.85 0.80 0.85 0.89 0.75 0.78 0.87 0.75 0.88 0.74 0.81 0.81 0.79 0.86 0.80 0.73 0.75 0.88 0.71 0.85 0.87 0.87 0.70 0.77 0.79 0.83 0.74 0.80 0.74 0.84 0.85 0.80 0.84 0.73 0.84 0.78 0.85 0.76 0.75 0.77 0.75 0.71 0.78 0.72 0.83 0.86 0.72 0.79 0.84 0.73 0.87 0.84 0.90 0.88 0.82 0.88 0.77 0.76 0.84 0.71 0.88 0.84 0.76 0.74 0.80 0.80 0.87 0.82 0.71 0.86 0.83 0.73 0.81 0.76 0.73 0.71 0.88 0.89 0.77 0.78 0.88 0.89 0.75 0.79 0.76 0.89 0.74 0.77 0.85 0.83 0.80 0.89 0.88 0.87 0.79 0.82 0.84 0.82 0.78 0.87 0.83 0.85 0.89 -9999 -9999 -9999 -9999 -9999 -9999 -9999 -9999 -9999 -9999 -9999 -9999 -9999 -9999 -9999 -9999 -9999 -9999 -9999
0.72 0.84 0.74 0.78 0.73 0.71 0.86 0.85 0.77 0.81 0.70 0.80 0.76 0.85 0.83 0.77 0.89 0.78 0.74 0.71 0.86 0.80 0.72 0.82 0.82 0.89 0.81 0.71 0.80 0.73 0.80 0.71 0.75 0.74 0.79 0.77 0.75 0.73 0.71 0.77 0.84 0.86 0.80 0.73 0.79 0.76 0.77 0.77 0.82 0.90 0.83 0.80 0.84 0.73 0.87 0.85 0.81 0.71 0.76 0.75 0.82 0.87 0.82 0.74 0.90 0.81 0.82 0.88 0.81 0.77 0.83 0.89 0.78 0.79 0.89 0.79 0.85 0.82 0.80 0.76 0.85 0.83 0.75 0.74 0.72 0.90 0.78 0.80 0.88 0.70 0.72 0.88 0.87 0.75 0.86 0.75 0.83 0.72 0.70 0.80 0.88 0.80 0.72 0.70 0.71 0.74 0.87 0.75 0.76 0.88 0.85 0.88 0.85 0.90 0.81 0.74 0.86 0.78 0.71 0.90 0.90 0.78 0.76 0.72 0.85 0.81 0.71 0.87 0.79 0.81 0.78 0.79 0.89 0.86 0.85 0.86 0.79 0.89 0.71 0.77 0.87 0.74 0.72 0.76 0.72 0.84 0.85 0.75 0.83 0.73 0.90 0.86 0.71 0.71 0.88 0.82 0.73 0.85 0.90 0.88 0.86 0.84 0.83 0.79 0.70 0.85 0.87 0.78 0.78 0.88 0.87 0.76 0.71 0.74 0.86 0.83 0.78 0.77 0.86 0.74 0.82 0.75 0.71 0.87 0.89 0.77 0.85 0.83 0.82 0.87 0.89 0.81 0.72 0.84 0.76 0.70 0.72 -9999 -9999 -9999 -9999 -9999 -9999 -9999 -9999 -9999 -9999 -9999 -9999 -9999 -9999 -9999 -9999 -9999 -9999
0.73 0.81 0.83 0.86 0.72 0.90 0.84 0.73 0.78 0.86 0.89 0.73 0.73 0.89 0.82 0.72 0.82 0.73 0.83 0.70 0.83 0.71 0.74 0.71 0.73 0.88 0.75 0.88 0.88 0.86 0.72 0.89 0.79 0.83 0.84 0.82 0.81 0.71 0.80 0.89 0.72 0.79 0.84 0.89 0.79 0.78 0.90 0.74 0.75 0.77 0.85 0.88 0.74 0.76 0.90 0.87 0.74 0.82 0.76 0.71 0.82 0.82 0.81 0.86 0.71 0.78 0.73 0.73 0.73 0.72 0.87 0.88 0.84 0.72 0.88 0.84 0.77 0.89 0.83 0.81 0.79 0.81 0.71 0.74 0.87 0.90 0.78 0.70 0.79 0.73 0.73 0.89 0.82 0.80 0.90 0.90 0.85 0.74 0.82 0.77 0.88 0.71 0.87 0.71 0.70 0.76 0.82 0.80 0.76 0.75 0.76 0.75 0.79 0.72 0.87 0.71 0.83 0.72 0.88 0.73 0.76 0.87 0.88 0.88 0.81 0.72 0.82 0.83 0.89 0.74 0.70 0.84 0.88 0.77 0.71 0.88 0.76 0.83 0.85 0.79 0.71 0.77 0.72 0.89 0.82 0.74 0.80 0.76 0.79 0.85 0.76 0.78 0.85 0.86 0.79 0.82 0.86 0.88 0.85 0.76 0.84 0.75 0.71 0.73 0.71 0.82 0.82 0.73 0.79 0.73 0.86 0.82 0.87 0.74 0.74 0.85 0.77 0.84 0.89 0.81 0.89 0.90 0.74 0.88 0.89 0.76 0.77 0.82 0.73 0.73 0.71 0.90 0.90 0.72 0.72 0.81 0.86 -9999 -9999 -9999 -9999 -9999 -9999 -9999 -9999 -9999 -9999 -9999 -9999 -9999 -9999 -9999 -9999 -9999 -9999
0.78 0.76 0.79 0.78 0.87 0.83 0.74 0.87 0.87 0.81 0.71 0.71 0.76 0.81 0.72 0.80 0.82 0.89 0.83 0.87 0.82 0.78 0.77 0.73 0.71 0.83 0.88 0.77 0.72 0.72 0.73 0.77 0.78 0.71 0.72 0.80 0.75 0.74 0.75 0.74 0.83 0.85 0.86 0.85 0.80 0.82 0.75 0.75 0.82 0.81 0.87 0.73 0.83 0.81 0.72 0.84 0.84 0.82 0.86 0.74 0.82 0.83 0.81 0.76 0.74 0.81 0.73 0.75 0.75 0.80 0.78 0.72 0.75 0.89 0.76 0.76 0.83 0.84 0.79 0.80 0.79 0.72 0.79 0.82 0.70 0.89 0.70 0.80 0.81 0.77 0.80 0.77 0.82 0.71 0.72 0.78 0.89 0.87 0.76 0.71 0.79 0.83 0.71 0.86 0.87 0.71 0.74 0.74 0.81 0.80 0.73 0.71 0.87 0.72 0.89 0.90 0.83 0.75 0.83 0.80 0.87 0.81 0.79 0.73 0.71 0.73 0.85 0.88 0.78 0.71 0.86 0.88 0.75 0.79 0.87 0.74 0.71 0.89 0.70 0.85 0.74 0.88 0.74 0.84 0.74 0.83 0.82 0.77 0.87 0.72 0.72 0.74 0.87 0.82 0.83 0.86 0.70 0.84 0.79 0.76 0.74 0.88 0.80 0.82 0.81 0.73 0.89 0.82 0.83 0.85 0.85 0.74 0.82 0.86 0.88 0.79 0.74 0.72 0.78 0.75 0.77 0.80 0.71 0.73 0.81 0.78 0.72 0.71 0.74 0.82 0.78 0.79 0.87 0.79 0.88 0.75 0.89 -9999 -9999 -9999 -9999 -9999 -9999 -9999 -9999 -9999 -9999 -9999 -9999 -9999 -9999 -9999 -9999 -9999 -9999
0.84 0.83 0.79 0.89 0.89 0.84 0.78 0.74 0.87 0.78 0.87 0.76 0.76 0.74 0.78 0.77 0.80 0.78 0.78 0.77 0.85 0.73 0.86 0.77 0.83 0.82 0.77 0.81 0.86 0.75 0.80 0.80 0.85 0.86 0.87 0.88 0.86 0.79 0.72 0.83 0.71 0.82 0.79 0.83 0.72 0.84 0.77 0.89 0.74 0.84 0.85 0.88 0.78 0.72 0.75 0.87 0.77 0.72 0.76 0.73 0.78 0.84 0.71 0.74 0.85 0.85 0.80 0.70 0.79 0.70 0.73 0.86 0.77 0.79 0.75 0.72 0.89 0.74 0.71 0.88 0.83 0.74 0.77 0.76 0.78 0.71 0.87 0.75 0.90 0.77 0.90 0.71 0.88 0.86 0.88 0.74 0.78 0.81 0.88 0.90 0.82 0.76 0.80 0.83 0.86 0.81 0.82 0.88 0.78 0.70 0.79 0.88 0.84 0.86 0.86 0.72 0.70 0.76 0.88 0.72 0.73 0.89 0.72 0.83 0.82 0.79 0.78 0.72 0.85 0.79 0.77 0.70 0.89 0.84 0.83 0.75 0.86 0.87 0.76 0.89 0.78 0.83 0.83 0.86 0.75 0.72 0.86 0.73 0.80 0.84 0.86 0.83 0.73 0.89 0.78 0.77 0.87 0.81 0.78 0.88 0.79 0.83 0.78 0.76 0.73 0.74 0.73 0.80 0.78 0.76 0.73 0.85 0.71 0.82 0.90 0.80 0.72 0.76 0.90 0.79 0.74 0.88 0.85 0.81 0.74 0.72 0.73 0.75 0.86 0.90 0.87 0.79 0.90 0.90 0.71 0.89 0.89 -9999 -9999 -9999 -9999 -9999 -9999 -9999 -9999 -9999 -9999 -9999 -9999 -9999 -9999 -9999 -9999 -9999 -9999
0.71 0.72 0.88 0.71 0.86 0.82 0.82 0.80 0.70 0.86 0.82 0.81 0.72 0.75 0.84 0.84 0.74 0.81 0.72 0.81 0.74 0.81 0.73 0.90 0.86 0.85 0.73 0.72 0.88 0.85 0.77 0.88 0.88 0.83 0.84 0.81 0.90 0.74 0.83 0.88 0.90 0.77 0.82 0.81 0.85 0.70 0.76 0.88 0.78 0.81 0.89 0.81 0.78 0.78 0.72 0.82 0.73 0.82 0.89 0.77 0.71 0.76 0.87 0.84 0.84 0.78 0.78 0.78 0.88 0.83 0.87 0.82 0.88 0.73 0.78 0.90 0.76 0.86 0.85 0.76 0.86 0.76 0.82 0.83 0.76 0.73 0.86 0.77 0.83 0.74 0.88 0.82 0.80 0.74 0.78 0.82 0.78 0.84 0.73 0.86 0.74 0.87 0.83 0.85 0.79 0.80 0.84 0.74 0.78 0.87 0.87 0.87 0.81 0.72 0.74 0.73 0.86 0.83 0.78 0.73 0.86 0.80 0.87 0.82 0.71 0.84 0.71 0.85 0.77 0.88 0.76 0.75 0.84 0.80 0.89 0.80 0.86 0.87 0.89 0.70 0.78 0.77 0.85 0.73 0.74 0.76 0.79 0.88 0.75 0.74 0.73 0.75 0.75 0.85 0.71 0.90 0.86 0.84 0.88 0.78 0.86 0.81 0.82 0.75 0.76 0.76 0.78 0.85 0.88 0.70 0.86 0.78 0.77 0.71 0.87 0.86 0.76 0.87 0.76 0.86 0.70 0.75 0.71 0.77 0.87 0.89 0.88 0.88 0.71 0.85 -9999 -9999 -9999 -9999 -9999 -9999 -9999 -9999 -9999 -9999 -9999 -9999 -9999 -9999 -9999 -9999 -9999 -9999 -9999 -9999 -9999 -9999 -9999 -9999 -9999
0.74 0.88 0.85 0.87 0.71 0.85 0.77 0.89 0.86 0.78 0.74 0.88 0.74 0.76 0.70 0.85 0.77 0.72 0.86 0.87 0.74 0.89 0.72 0.79 0.87 0.75 0.84 0.84 0.87 0.78 0.77 0.71 0.74 0.71 0.83 0.76 0.87 0.76 0.87 0.76 0.82 0.73 0.88 0.75 0.82 0.82 0.85 0.82 0.76 0.80 0.78 0.72 0.85 0.81 0.76 0.90 0.72 0.76 0.71 0.87 0.88 0.82 0.71 0.84 0.78 0.86 0.76 0.80 0.87 0.71 0.87 0.74 0.84 0.88 0.81 0.72 0.85 0.76 0.73 0.86 0.88 0.78 0.82 0.77 0.87 0.79 0.82 0.75 0.73 0.72 0.72 0.84 0.78 0.71 0.78 0.88 0.75 0.72 0.75 0.83 0.88 0.88 0.83 0.76 0.84 0.79 0.76 0.72 0.73 0.72 0.78 0.85 0.89 0.79 0.90 0.71 0.80 0.89 0.77 0.81 0.75 0.88 0.77 0.82 0.83 0.75 0.89 0.90 0.84 0.73 0.70 0.71 0.81 0.72 0.74 0.74 0.75 0.71 0.70 0.78 0.85 0.76 0.79 0.79 0.86 0.83 0.71 0.78 0.75 0.82 0.89 0.80 0.75 0.86 0.83 0.86 0.86 0.77 0.78 0.75 0.80 0.79 0.71 0.85 0.72 0.76 0.71 0.87 0.73 0.76 0.77 0.87 0.75 0.71 0.90 0.70 0.78 0.77 0.82 0.83 0.86 0.82 0.84 0.80 0.88 0.81 0.79 0.71 -9999 -9999 -9999 -9999 -9999 -9999 -9999 -9999 -9999 -9999 -9999 -9999 -9999 -9999 -9999 -9999 -9999 -9999 -9999 -9999 -9999 -9999 -9999 -9999 -9999 -9999 -9999
0.88 0.76 0.82 0.85 0.81 0.88 0.78 0.75 0.73 0.86 0.75 0.77 0.81 0.81 0.85 0.75 0.80 0.73 0.79 0.86 0.85 0.86 0.85 0.74 0.85 0.88 0.78 0.81 0.88 0.79 0.86 0.73 0.87 0.77 0.87 0.73 0.72 0.72 0.74 0.84 0.83 0.73 0.73 0.83 0.78 0.75 0.73 0.74 0.86 0.74 0.77 0.82 0.80 0.76 0.76 0.85 0.80 0.72 0.85 0.74 0.77 0.78 0.85 0.79 0.88 0.87 0.74 0.86 0.76 0.77 0.80 0.88 0.84 0.89 0.78 0.75 0.88 0.89 0.71 0.81 0.79 0.79 0.76 0.80 0.89 0.88 0.79 0.83 0.74 0.74 0.81 0.89 0.87 0.77 0.76 0.88 0.71 0.76 0.84 0.76 0.76 0.73 0.77 0.79 0.76 0.73 0.77 0.74 0.80 0.87 0.87 0.72 0.89 0.72 0.81 0.89 0.81 0.86 0.76 0.87 0.76 0.79 0.74 0.71 0.85 0.82 0.73 0.85 0.85 0.84 0.75 0.74 0.76 0.89 0.74 0.88 0.70 0.71 0.85 0.80 0.89 0.85 0.71 0.88 0.78 0.75 0.86 0.71 0.75 0.85 0.73 0.85 0.72 0.87 0.89 0.89 0.77 0.76 0.84 0.71 0.84 0.80 0.79 0.77 0.71 0.88 0.73 0.82 0.73 0.83 0.85 0.75 0.89 0.78 0.82 0.80 0.85 0.90 0.81 0.87 0.85 0.84 0.77 0.84 0.71 0.78 0.71 0.72 -9999 -9999 -9999 -9999 -9999 -9999 -9999 -9999 -9999 -9999 -9999 -9999 -9999 -9999 -9999 -9999 -9999 -9999 -9999 -9999 -9999 -9999 -9999 -9999 -9999 -9999 -9999
0.75 0.87 0.72 0.86 0.85 0.89 0.81 0.85 0.78 0.75 0.88 0.84 0.89 0.82 0.86 0.79 0.77 0.82 0.83 0.86 0.71 0.74 0.88 0.78 0.74 0.78 0.76 0.80 0.75 0.77 0.73 0.87 0.72 0.85 0.71 0.87 0.74 0.88 0.77 0.81 0.79 0.78 0.85 0.82 0.73 0.80 0.75 0.74 0.88 0.75 0.77 0.85 0.84 0.83 0.85 0.90 0.88 0.76 0.80 0.77 0.81 0.87 0.74 0.75 0.82 0.81 0.74 0.80 0.78 0.88 0.88 0.75 0.72 0.82 0.75 0.73 0.74 0.80 0.73 0.73 0.71 0.74 0.80 0.71 0.88 0.71 0.85 0.89 0.80 0.84 0.70 0.82 0.80 0.73 0.80 0.80 0.71 0.80 0.76 0.73 0.82 0.71 0.80 0.85 0.72 0.83 0.73 0.80 0.76 0.78 0.89 0.83 0.84 0.70 0.76 0.87 0.80 0.72 0.73 0.83 0.85 0.78 0.74 0.77 0.79 0.84 0.83 0.80 0.81 0.72 0.88 0.77 0.83 0.72 0.73 0.74 0.85 0.81 0.78 0.85 0.76 0.90 0.77 0.80 0.70 0.84 0.71 0.87 0.85 0.83 0.78 0.83 0.89 0.79 0.72 0.70 0.72 0.89 0.71 0.89 0.75 0.72 0.78 0.88 0.75 0.72 0.88 0.87 0.88 0.90 0.73 0.87 0.81 0.77 0.70 0.74 0.72 0.80 0.88 0.75 0.76 0.88 0.88 0.77 0.84 0.77 0.74 0.81 -9999 -9999 -9999 -9999 -9999 -9999 -9999 -9999 -9999 -9999 -9999 -9999 -9999 -9999 -9999 -9999 -9999 -9999 -9999 -9999 -9999 -9999 -9999 -9999 -9999 -9999 -9999
0.90 0.77 0.74 0.89 0.87 0.71 0.79 0.81 0.71 0.88 0.74 0.88 0.86 0.75 0.89 0.85 0.82 0.89 0.77 0.90 0.73 0.81 0.87 0.81 0.84 0.90 0.79 0.85 0.81 0.82 0.76 0.71 0.83 0.88 0.89 0.75 0.88 0.78 0.74 0.70 0.81 0.75 0.89 0.79 0.88 0.71 0.70 0.83 0.79 0.81 0.78 0.75 0.88 0.79 0.78 0.79 0.85 0.80 0.86 0.82 0.89 0.89 0.87 0.86 0.80 0.80 0.89 0.71 0.72 0.73 0.87 0.79 0.72 0.71 0.87 0.81 0.78 0.88 0.80 0.75 0.77 0.78 0.89 0.82 0.87 0.80 0.79 0.89 0.76 0.80 0.84 0.89 0.81 0.73 0.81 0.70 0.81 0.79 0.86 0.72 0.75 0.85 0.81 0.84 0.85 0.78 0.72 0.70 0.74 0.87 0.74 0.77 0.79 0.71 0.79 0.72 0.77 0.90 0.73 0.74 0.77 0.85 0.81 0.73 0.87 0.72 0.79 0.89 0.78 0.80 0.75 0.87 0.89 0.87 0.82 0.79 0.89 0.89 0.87 0.81 0.76 0.81 0.75 0.82 0.77 0.76 0.71 0.87 0.75 0.89 0.79 0.72 0.77 0.81 0.80 0.78 0.76 0.80 0.83 0.89 0.83 0.75 0.74 0.80 0.80 0.84 0.71 0.74 0.70 0.83 0.86 0.82 0.74 0.82 0.72 0.77 0.76 0.85 0.77 0.76 0.85 0.76 0.88 0.75 0.75 0.75 0.80 0.75 -9999 -9999 -9999 -9999 -9999 -9999 -9999 -9999 -9999 -9999 -9999 -9999 -9999 -9999 -9999 -9999 -9999 -9999 -9999 -9999 -9999 -9999 -9999 -9999 -9999 -9999 -9999
0.82 0.81 0.88 0.85 0.77 0.85 0.84 0.82 0.78 0.86 0.77 0.90 0.76 0.89 0.86 0.79 0.85 0.78 0.86 0.80 0.82 0.78 0.70 0.86 0.75 0.85 0.74 0.89 0.80 0.81 0.80 0.78 0.80 0.85 0.70 0.83 0.87 0.72 0.74 0.89 0.90 0.79 0.77 0.82 0.77 0.72 0.90 0.72 0.77 0.74 0.78 0.89 0.77 0.81 0.72 0.89 0.84 0.87 0.74 0.86 0.78 0.89 0.80 0.83 0.75 0.84 0.82 0.75 0.77 0.78 0.81 0.84 0.89 0.78 0.83 0.81 0.78 0.74 0.83 0.82 0.81 0.84 0.88 0.81 0.72 0.79 0.84 0.74 0.77 0.89 0.80 0.77 0.81 0.85 0.84 0.71 0.73 0.84 0.89 0.81 0.79 0.80 0.86 0.84 0.78 0.88 0.87 0.89 0.88 0.72 0.81 0.71 0.72 0.72 0.88 0.81 0.83 0.88 0.72 0.88 0.79 0.86 0.72 0.83 0.70 0.70 0.81 0.76 0.76 0.76 0.88 0.80 0.86 0.80 0.72 0.75 0.72 0.84 0.71 0.90 0.86 0.79 0.90 0.76 0.71 0.73 0.74 0.76 0.70 0.82 0.88 0.80 0.81 0.79 0.85 0.81 0.75 0.78 0.90 0.73 0.72 0.75 0.85 0.77 0.83 0.79 0.86 0.70 0.83 0.84 0.89 0.77 0.71 0.77 0.87 0.85 0.86 0.72 0.70 0.74 0.83 0.82 0.83 0.85 0.77 0.71 0.83 0.72 0.81 -9999 -9999 -9999 -9999 -9999 -9999 -9999 -9999 -9999 -9999 -9999 -9999 -9999 -9999 -9999 -9999 -9999 -9999 -9999 -9999 -9999 -9999 -9999 -9999 -9999 -9999
0.89 0.73 0.83 0.71 0.79 0.76 0.74 0.86 0.73 0.80 0.72 0.75 0.80 0.74 0.82 0.78 0.80 0.85 0.83 0.73 0.84 0.75 0.77 0.74 0.85 0.83 0.83 0.70 0.78 0.88 0.76 0.81 0.89 0.90 0.87 0.72 0.78 0.72 0.88 0.76 0.71 0.75 0.86 0.82 0.87 0.87 0.80 0.86 0.72 0.83 0.80 0.72 0.83 0.87 0.73 0.71 0.73 0.83 0.78 0.89 0.73 0.74 0.84 0.72 0.90 0.81 0.88 0.84 0.80 0.86 0.83 0.73 0.79 0.79 0.82 0.78 0.87 0.72 0.89 0.81 0.86 0.79 0.77 0.70 0.78 0.73 0.81 0.88 0.82 0.86 0.72 0.90 0.78 0.75 0.75 0.82 0.79 0.76 0.73 0.76 0.79 0.76 0.83 0.86 0.83 0.86 0.88 0.78 0.75 0.84 0.73 0.84 0.76 0.78 0.78 0.72 0.72 0.78 0.88 0.79 0.80 0.75 0.79 0.79 0.79 0.73 0.84 0.79 0.70 0.81 0.76 0.73 0.82 0.74 0.70 0.83 0.76 0.73 0.80 0.80 0.90 0.79 0.89 0.82 0.74 0.84 0.90 0.71 0.88 0.84 0.75 0.87 0.82 0.70 0.84 0.88 0.76 0.79 0.74 0.81 0.83 0.74 0.84 0.83 0.75 0.79 0.80 0.87 0.90 0.81 0.89 0.87 0.70 0.80 0.72 0.85 0.89 0.81 0.84 0.75 0.79 0.83 0.73 0.79 0.84 0.74 0.75 0.75 0.78 -9999 -9999 -9999 -9999 -9999 -9999 -9999 -9999 -9999 -9999 -9999 -9999 -9999 -9999 -9999 -9999 -9999 -9999 -9999 -9999 -9999 -9999 -9999 -9999 -9999 -9999
0.90 0.77 0.89 0.75 0.83 0.88 0.70 0.82 0.74 0.83 0.83 0.82 0.71 0.73 0.87 0.89 0.89 0.81 0.84 0.74 0.74 0.77 0.87 0.88 0.83 0.90 0.78 0.89 0.86 0.76 0.82 0.76 0.86 0.78 0.82 0.80 0.79 0.82 0.75 0.82 0.87 0.84 0.70 0.82 0.80 0.77 0.88 0.76 0.75 0.88 0.72 0.79 0.80 0.76 0.80 0.76 0.78 0.70 0.89 0.90 0.72 0.77 0.87 0.83 0.74 0.70 0.78 0.88 0.86 0.81 0.76 0.89 0.86 0.81 0.80 0.78 0.76 0.73 0.87 0.84 0.85 0.75 0.72 0.84 0.80 0.75 0.70 0.84 0.86 0.75 0.78 0.75 0.83 0.81 0.72 0.84 0.81 0.85 0.81 0.70 0.78 0.83 0.76 0.80 0.81 0.88 0.84 0.76 0.77 0.84 0.70 0.90 0.76 0.87 0.88 0.80 0.71 0.77 0.78 0.86 0.82 0.82 0.73 0.80 0.85 0.74 0.89 0.82 0.88 0.83 0.79 0.84 0.75 0.83 0.84 0.77 0.79 0.87 0.81 0.77 0.83 0.83 0.75 0.90 0.90 0.71 0.80 0.77 0.80 0.77 0.71 0.72 0.77 0.77 0.86 0.74 0.73 0.80 0.83 0.85 0.89 0.87 0.79 0.81 0.75 0.73 0.75 0.73 0.76 0.79 0.85 0.79 0.77 0.76 0.70 0.79 0.80 0.71 0.78 0.75 0.82 0.87 0.82 0.71 0.75 0.90 0.88 0.71 0.74 -9999 -9999 -9999 -9999 -9999 -9999 -9999 -9999 -9999 -9999 -9999 -9999 -9999 -9999 -9999 -9999 -9999 -9999 -9999 -9999 -9999 -9999 -9999 -9999 -9999 -9999
0.71 0.83 0.78 0.85 0.78 0.70 0.75 0.81 0.82 0.74 0.74 0.87 0.86 0.78 0.88 0.80 0.75 0.86 0.72 0.83 0.73 0.74 0.74 0.86 0.89 0.76 0.75 0.78 0.85 0.75 0.82 0.88 0.80 0.88 0.71 0.76 0.73 0.83 0.85 0.74 0.81 0.87 0.73 0.84 0.78 0.73 0.75 0.74 0.88 0.80 0.79 0.79 0.82 0.77 0.81 0.74 0.87 0.74 0.83 0.80 0.81 0.87 0.85 0.71 0.78 0.70 0.71 0.80 0.71 0.81 0.74 0.88 0.78 0.70 0.87 0.87 0.89 0.77 0.82 0.71 0.84 0.71 0.73 0.75 0.75 0.71 0.84 0.80 0.77 0.71 0.83 0.84 0.85 0.78 0.71 0.89 0.76 0.87 0.80 0.76 0.75 0.71 0.88 0.89 0.77 0.87 0.76 0.73 0.86 0.77 0.84 0.85 0.79 0.82 0.77 0.77 0.89 0.82 0.79 0.86 0.73 0.71 0.87 0.86 0.79 0.86 0.82 0.85 0.84 0.77 0.71 0.81 0.79 0.89 0.75 0.85 0.76 0.73 0.90 0.80 0.82 0.87 0.76 0.83 0.82 0.82 0.83 0.72 0.81 0.70 0.77 0.77 0.84 0.77 0.75 0.86 0.85 0.86 0.71 0.85 0.85 0.79 0.76 0.89 0.70 0.72 0.88 0.78 0.76 0.76 0.87 0.84 0.75 0.81 0.75 0.72 0.75 0.74 0.72 0.71 0.82 0.75 0.74 0.70 0.88 0.75 0.76 0.85 0.73 -9999 -9999 -9999 -9999 -9999 -9999 -9999 -9999 -9999 -9999 -9999 -9999 -9999 -9999 -9999 -9999 -9999 -9999 -9999 -9999 -9999 -9999 -9999 -9999 -9999 -9999
0.84 0.84 0.86 0.79 0.79 0.78 0.80 0.81 0.83 0.86 0.82 0.78 0.73 0.87 0.86 0.74 0.74 0.72 0.90 0.79 0.83 0.87 0.70 0.80 0.80 0.72 0.76 0.90 0.84 0.78 0.76 0.79 0.72 0.88 0.81 0.74 0.87 0.84 0.76 0.76 0.87 0.84 0.76 0.81 0.73 0.74 0.88 0.81 0.76 0.81 0.76 0.72 0.80 0.76 0.74 0.75 0.72 0.87 0.77 0.86 0.74 0.87 0.77 0.77 0.70 0.74 0.83 0.73 0.77 0.88 0.71 0.77 0.79 0.88 0.76 0.82 0.89 0.71 0.79 0.81 0.80 0.90 0.71 0.87 0.84 0.84 0.88 0.79 0.87 0.90 0.81 0.78 0.81 0.84 0.80 0.89 0.71 0.84 0.81 0.88 0.87 0.89 0.79 0.76 0.78 0.90 0.82 0.81 0.89 0.74 0.83 0.84 0.86 0.81 0.70 0.87 0.73 0.76 0.73 0.74 0.84 0.86 0.80 0.78 0.81 0.88 0.85 0.75 0.89 0.71 0.83 0.89 0.72 0.71 0.88 0.79 0.79 0.86 0.87 0.87 0.88 0.85 0.81 0.88 0.73 0.77 0.89 0.82 0.73 0.77 0.72 0.71 0.72 0.84 0.82 0.88 0.87 0.87 0.80 0.79 0.74 0.83 0.80 0.75 0.72 0.90 0.71 0.74 0.73 0.77 0.75 0.90 0.90 0.74 0.77 0.80 0.80 0.70 0.71 0.72 0.81 0.78 0.84 0.86 0.79 0.86 0.78 0.90 0.79 -9999 -9999 -9999 -9999 -9999 -9999 -9999 -9999 -9999 -9999 -9999 -9999 -9999 -9999 -9999 -9999 -9999 -9999 -9999 -9999 -9999 -9999 -9999 -9999 -9999 -9999
0.72 0.90 0.81 0.71 0.73 0.84 0.76 0.82 0.88 0.77 0.88 0.88 0.74 0.88 0.86 0.88 0.88 0.72 0.81 0.83 0.86 0.84 0.73 0.73 0.73 0.90 0.76 0.80 0.86 0.84 0.70 0.89 0.88 0.75 0.82 0.83 0.76 0.80 0.72 0.82 0.89 0.80 0.85 0.80 0.88 0.76 0.83 0.84 0.77 0.77 0.88 0.76 0.72 0.79 0.84 0.79 0.78 0.89 0.71 0.90 0.88 0.83 0.81 0.71 0.77 0.83 0.71 0.85 0.89 0.82 0.84 0.73 0.78 0.89 0.80 0.89 0.79 0.73 0.86 0.81 0.84 0.88 0.77 0.86 0.73 0.70 0.75 0.90 0.82 0.83 0.80 0.74 0.80 0.77 0.78 0.81 0.71 0.72 0.89 0.84 0.88 0.83 0.76 0.71 0.83 0.83 0.88 0.79 0.72 0.85 0.82 0.85 0.86 0.87 0.79 0.81 0.72 0.88 0.85 0.84 0.74 0.86 0.86 0.73 0.77 0.70 0.73 0.70 0.84 0.87 0.83 0.74 0.88 0.77 0.79 0.88 0.78 0.81 0.79 0.72 0.90 0.87 0.81 0.87 0.77 0.89 0.79 0.72 0.77 0.87 0.81 0.86 0.80 0.75 0.71 0.80 0.73 0.83 0.73 0.82 0.83 0.73 0.85 0.75 0.83 0.84 0.73 0.80 0.89 0.79 0.73 0.76 0.80 0.77 0.81 0.74 0.88 0.85 0.88 0.84 0.84 0.80 0.79 0.76 0.79 0.80 0.87 0.76 0.80 -9999 -9999 -9999 -9999 -9999 -9999 -9999 -9999 -9999 -9999 -9999 -9999 -9999 -9999 -9999 -9999 -9999 -9999 -9999 -9999 -9999 -9999 -9999 -9999 -9999 -9999
0.75 0.83 0.72 0.87 0.77 0.70 0.70 0.85 0.82 0.86 0.85 0.72 0.77 0.72 0.86 0.76 0.83 0.89 0.80 0.71 0.87 0.86 0.84 0.83 0.77 0.90 0.76 0.76 0.83 0.72 0.85 0.74 0.79 0.90 0.72 0.77 0.82 0.88 0.90 0.76 0.78 0.81 0.80 0.89 0.74 0.86 0.71 0.85 0.72 0.88 0.85 0.75 0.88 0.82 0.88 0.70 0.73 0.74 0.73 0.84 0.88 0.90 0.81 0.75 0.71 0.77 0.79 0.84 0.85 0.84 0.74 0.85 0.71 0.79 0.71 0.88 0.70 0.72 0.73 0.83 0.72 0.87 0.86 0.89 0.86 0.71 0.73 0.81 0.77 0.71 0.87 0.84 0.88 0.90 0.88 0.88 0.71 0.73 0.79 0.81 0.78 0.86 0.84 0.89 0.89 0.90 0.83 0.83 0.80 0.74 0.76 0.87 0.77 0.88 0.74 0.88 0.72 0.80 0.84 0.85 0.89 0.86 0.86 0.80 0.78 0.78 0.79 0.71 0.82 0.85 0.75 0.83 0.80 0.76 0.85 0.82 0.76 0.71 0.79 0.88 0.76 0.75 0.73 0.77 0.87 0.85 0.82 0.71 0.75 0.83 0.72 0.81 0.79 0.86 0.75 0.78 0.76 0.73 0.77 0.82 0.71 0.71 0.90 0.78 0.77 0.88 0.83 0.74 0.78 0.87 0.81 0.76 0.86 0.89 0.71 0.72 0.81 0.86 0.87 0.83 0.85 0.74 0.87 0.81 0.77 0.84 0.70 0.75 0.89 -9999 -9999 -9999 -9999 -9999 -9999 -9999 -9999 -9999 -9999 -9999 -9999 -9999 -9999 -9999 -9999 -9999 -9999 -9999 -9999 -9999 -9999 -9999 -9999 -9999 -9999
0.77 0.88 0.73 0.77 0.77 0.73 0.85 0.81 0.80 0.90 0.87 0.71 0.86 0.75 0.82 0.86 0.73 0.74 0.87 0.70 0.84 0.83 0.84 0.71 0.77 0.84 0.84 0.84 0.72 0.81 0.80 0.83 0.71 0.75 0.84 0.78 0.82 0.76 0.86 0.84 0.76 0.77 0.79 0.74 0.72 0.71 0.84 0.71 0.81 0.85 0.81 0.77 0.90 0.75 0.75 0.76 0.77 0.83 0.82 0.82 0.83 0.78 0.84 0.75 0.90 0.88 0.84 0.76 0.78 0.84 0.76 0.76 0.86 0.75 0.85 0.81 0.78 0.86 0.73 0.85 0.81 0.84 0.72 0.82 0.87 0.80 0.86 0.79 0.82 0.72 0.88 0.87 0.76 0.80 0.80 0.72 0.74 0.82 0.74 0.76 0.86 0.87 0.89 0.78 0.87 0.79 0.90 0.81 0.79 0.82 0.86 0.81 0.79 0.78 0.85 0.80 0.83 0.87 0.75 0.73 0.77 0.73 0.89 0.75 0.77 0.88 0.76 0.73 0.79 0.76 0.75 0.87 0.78 0.83 0.75 0.81 0.80 0.86 0.78 0.88 0.74 0.87 0.86 0.90 0.71 0.73 0.86 0.81 0.71 0.80 0.87 0.82 0.85 0.80 0.82 0.81 0.73 0.83 0.86 0.87 0.71 0.71 0.83 0.83 0.71 0.86 0.71 0.86 0.82 0.79 0.72 0.81 0.72 0.89 0.74 0.80 0.84 0.73 0.80 0.81 0.81 0.88 0.78 0.88 0.84 0.87 0.86 0.78 0.73 0.82 -9999 -9999 -9999 -9999 -9999 -9999 -9999 -9999 -9999 -9999 -9999 -9999 -9999 -9999 -9999 -9999 -9999 -9999 -9999 -9999 -9999 -9999 -9999 -9999 -9999
0.77 0.90 0.75 0.82 0.76 0.89 0.74 0.87 0.87 0.71 0.73 0.87 0.72 0.78 0.87 0.76 0.88 0.81 0.76 0.83 0.81 0.83 0.87 0.88 0.87 0.87 0.80 0.77 0.77 0.84 0.74 0.73 0.77 0.86 0.71 0.74 0.71 0.86 0.78 0.88 0.82 0.85 0.71 0.74 0.76 0.75 0.72 0.89 0.79 0.80 0.76 0.74 0.80 0.80 0.84 0.87 0.79 0.80 0.81 0.86 0.73 0.90 0.77 0.82 0.78 0.76 0.79 0.86 0.85 0.87 0.86 0.73 0.81 0.75 0.81 0.74 0.77 0.87 0.74 0.72 0.81 0.81 0.75 0.79 0.82 0.74 0.84 0.85 0.74 0.72 0.77 0.71 0.88 0.81 0.81 0.88 0.82 0.85 0.85 0.78 0.75 0.78 0.76 0.74 0.78 0.84 0.81 0.77 0.78 0.73 0.85 0.83 0.82 0.78 0.77 0.79 0.73 0.84 0.89 0.80 0.81 0.78 0.74 0.84 0.77 0.77 0.72 0.87 0.82 0.79 0.78 0.71 0.80 0.82 0.72 0.75 0.76 0.82 0.86 0.79 0.81 0.84 0.87 0.74 0.70 0.87 0.70 0.81 0.78 0.84 0.87 0.82 0.87 0.75 0.71 0.82 0.75 0.89 0.81 0.74 0.75 0.71 0.88 0.80 0.81 0.76 0.88 0.86 0.74 0.82 0.71 0.84 0.87 0.76 0.82 0.86 0.87 0.76 0.83 0.85 0.78 0.72 0.82 0.85 0.71 0.82 0.84 0.71 0.85 0.70 -9999 -9999 -9999 -9999 -9999 -9999 -9999 -9999 -9999 -9999 -9999 -9999 -9999 -9999 -9999 -9999 -9999 -9999 -9999 -9999 -9999 -9999 -9999 -9999 -9999
0.87 0.86 0.77 0.72 0.81 0.74 0.84 0.72 0.86 0.84 0.75 0.73 0.80 0.86 0.85 0.76 0.84 0.74 0.83 0.76 0.70 0.71 0.74 0.84 0.72 0.87 0.76 0.71 0.77 0.90 0.84 0.76 0.79 0.83 0.80 0.87 0.73 0.78 0.87 0.75 0.75 0.79 0.83 0.83 0.85 0.81 0.86 0.89 0.80 0.79 0.75 0.71 0.77 0.87 0.89 0.82 0.72 0.88 0.71 0.88 0.79 0.89 0.75 0.72 0.84 0.86 0.73 0.77 0.74 0.90 0.74 0.72 0.84 0.76 0.80 0.77 0.76 0.88 0.76 0.79 0.71 0.88 0.87 0.83 0.88 0.79 0.76 0.76 0.82 0.89 0.73 0.89 0.75 0.72 0.85 0.85 0.83 0.71 0.82 0.85 0.80 0.77 0.83 0.89 0.79 0.77 0.90 0.83 0.87 0.71 0.80 0.89 0.79 0.75 0.77 0.79 0.77 0.75 0.75 0.73 0.79 0.74 0.74 0.88 0.89 0.77 0.84 0.90 0.77 0.83 0.74 0.74 0.78 0.70 0.74 0.82 0.84 0.83 0.81 0.83 0.79 0.78 0.87 0.84 0.73 0.83 0.82 0.88 0.78 0.79 0.89 0.84 0.89 0.82 0.71 0.87 0.70 0.79 0.86 0.72 0.82 0.72 0.87 0.75 0.77 0.75 0.79 0.77 0.80 0.75 0.81 0.81 0.71 0.79 0.71 0.88 0.70 0.76 0.81 0.83 0.83 0.70 0.84 0.89 0.71 0.80 0.74 0.87 0.85 0.89 -9999 -9999 -9999 -9999 -9999 -9999 -9999 -9999 -9999 -9999 -9999 -9999 -9999 -9999 -9999 -9999 -9999 -9999 -9999 -9999 -9999 -9999 -9999 -9999 -9999
0.78 0.88 0.73 0.81 0.86 0.81 0.72 0.82 0.85 0.70 0.73 0.77 0.78 0.87 0.86 0.84 0.84 0.71 0.81 0.89 0.85 0.85 0.80 0.76 0.87 0.81 0.83 0.76 0.79 0.86 0.74 0.71 0.75 0.76 0.88 0.90 0.89 0.72 0.75 0.84 0.75 0.74 0.83 0.85 0.75 0.73 0.75 0.71 0.88 0.78 0.86 0.87 0.72 0.75 0.71 0.86 0.84 0.90 0.86 0.73 0.77 0.79 0.88 0.85 0.85 0.78 0.82 0.88 0.88 0.72 0.82 0.79 0.85 0.80 0.74 0.71 0.80 0.71 0.75 0.71 0.72 0.87 0.75 0.83 0.89 0.80 0.80 0.86 0.77 0.86 0.80 0.71 0.89 0.74 0.77 0.83 0.83 0.76 0.79 0.77 0.80 0.71 0.74 0.75 0.85 0.82 0.85 0.81 0.80 0.84 0.77 0.78 0.85 0.79 0.80 0.87 0.70 0.89 0.87 0.82 0.72 0.77 0.88 0.81 0.75 0.71 0.78 0.84 0.78 0.71 0.74 0.88 0.85 0.77 0.87 0.79 0.88 0.76 0.73 0.78 0.80 0.75 0.75 0.72 0.82 0.71 0.87 0.82 0.73 0.82 0.81 0.77 0.85 0.86 0.74 0.71 0.82 0.86 0.88 0.79 0.72 0.72 0.90 0.80 0.73 0.74 0.81 0.87 0.76 0.70 0.81 0.80 0.86 0.77 0.86 0.80 0.90 0.76 0.71 0.81 0.87 0.71 0.83 0.77 0.81 0.78 0.86 0.81 0.73 0.83 -9999 -9999 -9999 -9999 -9999 -9999 -9999 -9999 -9999 -9999 -9999 -9999 -9999 -9999 -9999 -9999 -9999 -9999 -9999 -9999 -9999 -9999 -9999 -9999 -9999
0.70 0.79 0.85 0.78 0.73 0.83 0.74 0.73 0.84 0.78 0.87 0.85 0.76 0.86 0.77 0.83 0.73 0.83 0.90 0.75 0.90 0.73 0.80 0.74 0.74 0.76 0.80 0.71 0.71 0.73 0.71 0.87 0.76 0.73 0.89 0.75 0.75 0.86 0.84 0.74 0.72 0.88 0.85 0.84 0.82 0.85 0.90 0.81 0.81 0.74 0.85 0.82 0.71 0.82 0.79 0.88 0.86 0.87 0.77 0.85 0.84 0.89 0.81 0.86 0.86 0.82 0.74 0.89 0.74 0.72 0.82 0.87 0.86 0.76 0.87 0.87 0.85 0.79 0.79 0.83 0.79 0.87 0.85 0.84 0.80 0.81 0.84 0.83 0.86 0.80 0.72 0.85 0.71 0.88 0.76 0.81 0.80 0.88 0.84 0.84 0.85 0.80 0.80 0.82 0.71 0.86 0.70 0.81 0.73 0.77 0.76 0.76 0.77 0.77 0.85 0.76 0.85 0.83 0.88 0.88 0.72 0.71 0.80 0.88 0.84 0.76 0.78 0.82 0.76 0.90 0.78 0.77 0.85 0.80 0.84 0.79 0.88 0.87 0.70 0.70 0.72 0.85 0.80 0.79 0.77 0.80 0.75 0.74 0.70 0.89 0.86 0.73 0.85 0.76 0.79 0.80 0.77 0.82 0.84 0.73 0.71 0.73 0.89 0.83 0.84 0.88 0.74 0.72 0.86 0.74 0.88 0.87 0.78 0.88 0.79 0.81 0.88 0.77 0.88 0.89 0.71 0.89 0.80 0.81 0.85 0.80 0.89 0.76 0.72 0.88 -9999 -9999 -9999 -9999 -9999 -9999 -9999 -9999 -9999 -9999 -9999 -9999 -9999 -9999 -9999 -9999 -9999 -9999 -9999 -9999 -9999 -9999 -9999 -9999 -9999
0.87 0.81 0.86 0.77 0.79 0.80 0.87 0.81 0.82 0.84 0.77 0.90 0.87 0.89 0.90 0.89 0.80 0.80 0.73 0.87 0.85 0.87 0.78 0.77 0.71 0.76 0.78 0.77 0.75 0.89 0.90 0.89 0.85 0.76 0.75 0.85 0.77 0.75 0.73 0.90 0.84 0.87 0.76 0.80 0.78 0.86 0.85 0.72 0.83 0.84 0.77 0.85 0.75 0.88 0.73 0.73 0.78 0.72 0.85 0.85 0.88 0.76 0.74 0.76 0.77 0.76 0.77 0.86 0.76 0.72 0.83 0.90 0.74 0.73 0.83 0.85 0.83 0.76 0.72 0.76 0.89 0.81 0.75 0.74 0.81 0.90 0.89 0.73 0.72 0.86 0.73 0.78 0.83 0.77 0.78 0.86 0.84 0.88 0.80 0.75 0.76 0.86 0.85 0.78 0.82 0.83 0.84 0.72 0.86 0.77 0.89 0.71 0.75 0.86 0.87 0.73 0.73 0.74 0.83 0.85 0.78 0.72 0.71 0.88 0.79 0.79 0.87 0.76 0.77 0.79 0.79 0.78 0.89 0.79 0.87 0.84 0.71 0.72 0.77 0.81 0.71 0.77 0.78 0.87 0.80 0.70 0.81 0.85 0.84 0.89 0.75 0.78 0.82 0.86 0.83 0.82 0.78 0.80 0.78 0.90 0.82 0.81 0.84 0.75 0.88 0.86 0.80 0.73 0.82 0.86 0.81 0.70 0.88 0.84 0.87 0.75 0.78 0.87 0.75 0.76 0.74 0.85 0.85 0.79 0.87 0.74 0.77 0.79 0.77 0.73 -9999 -9999 -9999 -9999 -9999 -9999 -9999 -9999 -9999 -9999 -9999 -9999 -9999 -9999 -9999 -9999 -9999 -9999 -9999 -9999 -9999 -9999 -9999 -9999 -9999
0.88 0.81 0.86 0.72 0.82 0.80 0.77 0.74 0.87 0.85 0.77 0.80 0.79 0.76 0.75 0.76 0.72 0.75 0.78 0.76 0.71 0.82 0.86 0.76 0.75 0.75 0.83 0.81 0.81 0.73 0.75 0.79 0.84 0.87 0.85 0.79 0.86 0.89 0.88 0.78 0.76 0.86 0.90 0.76 0.86 0.79 0.90 0.72 0.71 0.70 0.84 0.90 0.85 0.70 0.83 0.74 0.73 0.88 0.84 0.79 0.85 0.76 0.83 0.71 0.75 0.78 0.86 0.84 0.85 0.71 0.72 0.80 0.87 0.80 0.82 0.72 0.81 0.87 0.73 0.84 0.73 0.81 0.81 0.83 0.89 0.87 0.82 0.71 0.86 0.83 0.87 0.71 0.79 0.72 0.85 0.78 0.82 0.71 0.75 0.85 0.72 0.82 0.77 0.83 0.81 0.85 0.70 0.77 0.82 0.76 0.76 0.75 0.78 0.71 0.78 0.77 0.76 0.89 0.78 0.77 0.72 0.84 0.78 0.84 0.79 0.76 0.77 0.84 0.80 0.72 0.76 0.88 0.90 0.74 0.83 0.81 0.71 0.84 0.82 0.82 0.85 0.88 0.89 0.79 0.76 0.89 0.89 0.83 0.77 0.80 0.87 0.77 0.73 0.80 0.87 0.82 0.77 0.83 0.74 0.77 0.70 0.76 0.78 0.73 0.73 0.87 0.82 0.79 0.89 0.72 0.76 0.80 0.74 0.90 0.81 0.87 0.84 0.84 0.84 0.81 0.74 0.73 0.74 0.82 0.78 0.75 0.78 0.81 0.83 0.71 0.87 -9999 -9999 -9999 -9999 -9999 -9999 -9999 -9999 -9999 -9999 -9999 -9999 -9999 -9999 -9999 -9999 -9999 -9999 -9999 -9999 -9999 -9999 -9999 -9999
0.83 0.83 0.88 0.77 0.88 0.81 0.79 0.79 0.79 0.75 0.71 0.84 0.72 0.79 0.75 0.72 0.88 0.78 0.78 0.72 0.73 0.83 0.90 0.81 0.78 0.89 0.90 0.82 0.80 0.80 0.77 0.82 0.84 0.81 0.83 0.70 0.85 0.71 0.82 0.78 0.84 0.74 0.76 0.90 0.76 0.89 0.72 0.78 0.72 0.77 0.85 0.78 0.76 0.89 0.78 0.88 0.73 0.71 0.85 0.79 0.90 0.77 0.77 0.78 0.85 0.77 0.76 0.70 0.80 0.76 0.82 0.86 0.81 0.75 0.78 0.79 0.76 0.87 0.90 0.76 0.86 0.82 0.73 0.75 0.74 0.85 0.74 0.80 0.85 0.80 0.71 0.77 0.75 0.83 0.88 0.89 0.77 0.71 0.88 0.89 0.87 0.85 0.80 0.85 0.81 0.85 0.81 0.86 0.72 0.74 0.77 0.74 0.86 0.78 0.80 0.76 0.82 0.87 0.83 0.82 0.81 0.83 0.79 0.89 0.72 0.80 0.80 0.73 0.80 0.89 0.87 0.76 0.71 0.82 0.73 0.88 0.86 0.86 0.79 0.81 0.77 0.74 0.79 0.83 0.78 0.76 0.82 0.75 0.89 0.81 0.71 0.88 0.72 0.85 0.74 0.83 0.88 0.79 0.78 0.81 0.85 0.81 0.76 0.74 0.83 0.74 0.87 0.86 0.72 0.77 0.75 0.77 0.76 0.88 0.77 0.81 0.77 0.77 0.72 0.85 0.87 0.86 0.77 0.84 0.76 0.73 0.72 0.84 0.77 0.86 0.72 -9999 -9999 -9999 -9999 -9999 -9999 -9999 -9999 -9999 -9999 -9999 -9999 -9999 -9999 -9999 -9999 -9999 -9999 -9999 -9999 -9999 -9999 -9999 -9999
0.88 0.89 0.72 0.87 0.89 0.79 0.76 0.83 0.81 0.80 0.71 0.76 0.87 0.87 0.79 0.85 0.71 0.78 0.87 0.72 0.76 0.85 0.80 0.84 0.88 0.89 0.79 0.87 0.74 0.78 0.77 0.73 0.75 0.76 0.88 0.81 0.78 0.80 0.84 0.89 0.78 0.70 0.77 0.81 0.81 0.88 0.73 0.77 0.87 0.77 0.86 0.84 0.83 0.77 0.75 0.86 0.79 0.82 0.82 0.89 0.76 0.83 0.86 0.90 0.71 0.86 0.85 0.88 0.89 0.80 0.90 0.77 0.86 0.70 0.89 0.76 0.70 0.81 0.77 0.87 0.79 0.75 0.86 0.74 0.89 0.76 0.80 0.78 0.77 0.77 0.80 0.73 0.88 0.87 0.86 0.84 0.79 0.83 0.77 0.89 0.71 0.77 0.88 0.70 0.83 0.80 0.80 0.79 0.84 0.86 0.80 0.90 0.75 0.89 0.85 0.79 0.80 0.77 0.71 0.71 0.78 0.85 0.88 0.86 0.80 0.81 0.78 0.75 0.81 0.89 0.85 0.83 0.75 0.89 0.84 0.72 0.80 0.79 0.88 0.89 0.73 0.76 0.85 0.71 0.80 0.83 0.70 0.80 0.70 0.90 0.81 0.81 0.74 0.84 0.81 0.87 0.85 0.84 0.80 0.81 0.88 0.74 0.72 0.89 0.72 0.76 0.81 0.73 0.87 0.80 0.71 0.77 0.86 0.77 0.79 0.77 0.74 0.82 0.80 0.71 0.90 0.79 0.71 0.73 0.76 0.81 0.81 0.83 0.87 0.81 0.75 -9999 -9999 -9999 -9999 -9999 -9999 -9999 -9999 -9999 -9999 -9999 -9999 -9999 -9999 -9999 -9999 -9999 -9999 -9999 -9999 -9999 -9999 -9999 -9999
0.77 0.84 0.80 0.82 0.83 0.86 0.77 0.82 0.73 0.72 0.77 0.71 0.75 0.80 0.86 0.75 0.75 0.85 0.71 0.82 0.87 0.74 0.85 0.76 0.80 0.80 0.81 0.85 0.76 0.72 0.86 0.81 0.79 0.76 0.76 0.75 0.76 0.81 0.85 0.75 0.71 0.75 0.70 0.84 0.89 0.80 0.78 0.81 0.82 0.79 0.89 0.80 0.72 0.84 0.77 0.81 0.81 0.82 0.76 0.77 0.76 0.85 0.86 0.85 0.84 0.84 0.84 0.79 0.75 0.82 0.74 0.88 0.84 0.82 0.87 0.73 0.78 0.73 0.72 0.81 0.73 0.88 0.80 0.71 0.77 0.82 0.77 0.77 0.86 0.84 0.80 0.81 0.78 0.83 0.73 0.77 0.70 0.70 0.76 0.85 0.81 0.85 0.90 0.70 0.72 0.80 0.73 0.88 0.79 0.90 0.74 0.89 0.72 0.87 0.89 0.81 0.73 0.72 0.71 0.88 0.89 0.74 0.81 0.83 0.89 0.87 0.77 0.82 0.74 0.85 0.85 0.84 0.78 0.83 0.90 0.76 0.77 0.84 0.82 0.73 0.81 0.80 0.82 0.86 0.75 0.74 0.86 0.83 0.77 0.84 0.81 0.72 0.76 0.79 0.88 0.81 0.81 0.73 0.70 0.80 0.89 0.77 0.74 0.74 0.86 0.89 0.86 0.88 0.78 0.79 0.86 0.75 0.88 0.88 0.75 0.80 0.71 0.73 0.88 0.79 0.83 0.75 0.80 0.72 0.71 0.88 0.80 0.78 0.87 0.72 0.89 -9999 -9999 -9999 -9999 -9999 -9999 -9999 -9999 -9999 -9999 -9999 -9999 -9999 -9999 -9999 -9999 -9999 -9999 -9999 -9999 -9999 -9999 -9999 -9999
0.79 0.81 0.88 0.89 0.88 0.77 0.75 0.77 0.82 0.73 0.79 0.70 0.85 0.78 0.79 0.89 0.75 0.88 0.89 0.76 0.79 0.88 0.89 0.74 0.70 0.74 0.83 0.73 0.79 0.89 0.73 0.87 0.74 0.84 0.83 0.83 0.76 0.70 0.89 0.85 0.76 0.88 0.77 0.84 0.75 0.90 0.78 0.83 0.87 0.90 0.89 0.75 0.72 0.78 0.83 0.81 0.80 0.80 0.75 0.90 0.85 0.78 0.87 0.71 0.71 0.74 0.81 0.82 0.87 0.90 0.73 0.83 0.82 0.77 0.85 0.79 0.76 0.71 0.77 0.75 0.75 0.80 0.77 0.72 0.77 0.72 0.73 0.70 0.77 0.73 0.79 0.88 0.83 0.77 0.73 0.77 0.74 0.85 0.78 0.87 0.87 0.76 0.88 0.71 0.76 0.74 0.75 0.89 0.73 0.82 0.72 0.89 0.77 0.75 0.71 0.76 0.82 0.77 0.89 0.89 0.79 0.73 0.84 0.87 0.86 0.87 0.79 0.85 0.88 0.89 0.89 0.77 0.81 0.80 0.70 0.87 0.72 0.81 0.87 0.82 0.81 0.72 0.84 0.74 0.84 0.70 0.74 0.80 0.76 0.87 0.89 0.79 0.84 0.74 0.72 0.81 0.87 0.80 0.85 0.86 0.73 0.71 0.81 0.86 0.83 0.73 0.82 0.79 0.73 0.89 0.80 0.70 0.71 0.82 0.70 0.79 0.86 0.87 0.79 0.75 0.83 0.70 0.89 0.78 0.79 0.83 0.78 0.81 0.75 0.77 0.81 -9999 -9999 -9999 -9999 -9999 -9999 -9999 -9999 -9999 -9999 -9999 -9999 -9999 -9999 -9999 -9999 -9999 -9999 -9999 -9999 -9999 -9999 -9999 -9999
0.72 0.71 0.84 0.88 0.73 0.79 0.80 0.89 0.82 0.79 0.78 0.87 0.85 0.77 0.74 0.84 0.85 0.81 0.74 0.78 0.82 0.86 0.80 0.83 0.81 0.85 0.74 0.74 0.72 0.86 0.78 0.85 0.80 0.87 0.72 0.78 0.77 0.75 0.87 0.77 0.83 0.89 0.74 0.72 0.83 0.75 0.75 0.87 0.81 0.79 0.83 0.84 0.82 0.77 0.90 0.77 0.84 0.78 0.73 0.81 0.72 0.86 0.72 0.86 0.82 0.88 0.80 0.83 0.75 0.72 0.79 0.74 0.88 0.71 0.82 0.73 0.71 0.90 0.82 0.88 0.71 0.75 0.79 0.82 0.81 0.79 0.87 0.77 0.79 0.76 0.77 0.82 0.70 0.82 0.77 0.76 0.71 0.74 0.76 0.89 0.73 0.71 0.89 0.79 0.75 0.71 0.71 0.77 0.80 0.77 0.86 0.79 0.73 0.81 0.78 0.86 0.72 0.72 0.87 0.81 0.78 0.87 0.72 0.90 0.77 0.88 0.79 0.79 0.75 0.79 0.72 0.80 0.84 0.76 0.78 0.89 0.78 0.84 0.71 0.70 0.88 0.88 0.72 0.85 0.82 0.78 0.76 0.87 0.86 0.86 0.76 0.90 0.83 0.79 0.78 0.79 0.79 0.80 0.88 0.76 0.89 0.81 0.82 0.74 0.84 0.83 0.87 0.74 0.88 0.77 0.74 0.76 0.73 0.87 0.88 0.86 0.89 0.76 0.84 0.84 0.84 0.72 0.72 0.88 0.83 0.86 0.87 0.83 0.71 0.89 0.76 -9999 -9999 -9999 -9999 -9999 -9999 -9999 -9999 -9999 -9999 -9999 -9999 -9999 -9999 -9999 -9999 -9999 -9999 -9999 -9999 -9999 -9999 -9999 -9999
0.85 0.73 0.79 0.86 0.73 0.82 0.84 0.81 0.78 0.74 0.77 0.87 0.87 0.78 0.75 0.73 0.85 0.71 0.88 0.71 0.77 0.78 0.82 0.87 0.71 0.84 0.86 0.79 0.71 0.82 0.82 0.84 0.82 0.84 0.77 0.87 0.90 0.82 0.88 0.75 0.83 0.81 0.82 0.72 0.72 0.87 0.76 0.83 0.74 0.86 0.84 0.78 0.87 0.89 0.82 0.74 0.70 0.81 0.75 0.82 0.75 0.87 0.71 0.72 0.76 0.86 0.85 0.82 0.79 0.76 0.77 0.72 0.77 0.89 0.74 0.70 0.85 0.90 0.72 0.86 0.70 0.78 0.83 0.86 0.79 0.79 0.71 0.76 0.76 0.73 0.77 0.90 0.83 0.85 0.72 0.71 0.84 0.76 0.86 0.80 0.88 0.73 0.81 0.84 0.82 0.73 0.73 0.80 0.77 0.85 0.89 0.87 0.75 0.85 0.81 0.73 0.76 0.81 0.78 0.89 0.80 0.86 0.75 0.81 0.87 0.87 0.74 0.85 0.88 0.72 0.73 0.84 0.76 0.75 0.89 0.81 0.90 0.77 0.77 0.89 0.86 0.81 0.76 0.73 0.74 0.76 0.71 0.73 0.74 0.71 0.80 0.84 0.82 0.85 0.86 0.70 0.78 0.70 0.82 0.73 0.89 0.82 0.85 0.75 0.82 0.79 0.81 0.88 0.75 0.78 0.73 0.73 0.84 0.80 0.78 0.71 0.86 0.86 0.89 0.74 0.85 0.83 0.82 0.71 0.79 0.78 0.86 0.75 0.89 0.76 0.79 -9999 -9999 -9999 -9999 -9999 -9999 -9999 -9999 -9999 -9999 -9999 -9999 -9999 -9999 -9999 -9999 -9999 -9999 -9999 -9999 -9999 -9999 -9999 -9999
0.74 0.88 0.72 0.74 0.85 0.77 0.81 0.74 0.77 0.82 0.70 0.86 0.71 0.75 0.76 0.77 0.74 0.83 0.74 0.87 0.77 0.90 0.76 0.85 0.75 0.80 0.87 0.71 0.87 0.81 0.78 0.79 0.72 0.73 0.87 0.86 0.76 0.81 0.76 0.77 0.72 0.78 0.80 0.74 0.80 0.89 0.85 0.86 0.85 0.83 0.73 0.75 0.71 0.88 0.77 0.82 0.87 0.77 0.75 0.82 0.75 0.72 0.71 0.73 0.80 0.90 0.80 0.73 0.77 0.77 0.89 0.81 0.73 0.85 0.75 0.80 0.75 0.72 0.71 0.88 0.88 0.84 0.80 0.89 0.83 0.89 0.89 0.85 0.72 0.71 0.82 0.81 0.85 0.84 0.87 0.77 0.85 0.76 0.85 0.77 0.78 0.88 0.84 0.83 0.86 0.72 0.84 0.89 0.88 0.78 0.75 0.79 0.74 0.71 0.88 0.75 0.79 0.86 0.73 0.75 0.77 0.83 0.83 0.71 0.82 0.80 0.82 0.81 0.71 0.80 0.86 0.87 0.73 0.75 0.89 0.88 0.75 0.73 0.87 0.90 0.90 0.75 0.82 0.71 0.90 0.84 0.85 0.80 0.72 0.73 0.70 0.78 0.73 0.72 0.83 0.82 0.76 0.90 0.81 0.71 0.86 0.87 0.88 0.81 0.71 0.76 0.83 0.78 0.87 0.84 0.79 0.72 0.81 0.71 0.84 0.90 0.71 0.86 0.79 0.83 0.84 0.80 0.82 0.74 0.89 0.76 0.87 0.73 0.79 0.84 0.85 0.70 -9999 -9999 -9999 -9999 -9999 -9999 -9999 -9999 -9999 -9999 -9999 -9999 -9999 -9999 -9999 -9999 -9999 -9999 -9999 -9999 -9999 -9999 -9999
0.88 0.75 0.88 0.87 0.84 0.83 0.88 0.70 0.82 0.87 0.85 0.85 0.85 0.75 0.83 0.87 0.80 0.70 0.88 0.88 0.83 0.86 0.73 0.71 0.89 0.85 0.70 0.90 0.85 0.74 0.78 0.81 0.83 0.81 0.82 0.74 0.72 0.89 0.74 0.87 0.90 0.87 0.70 0.83 0.76 0.71 0.75 0.78 0.73 0.73 0.81 0.74 0.79 0.78 0.71 0.73 0.85 0.86 0.88 0.76 0.79 0.72 0.77 0.80 0.72 0.86 0.77 0.84 0.79 0.75 0.76 0.81 0.71 0.88 0.84 0.87 0.72 0.79 0.75 0.88 0.81 0.84 0.80 0.86 0.83 0.85 0.89 0.81 0.83 0.76 0.87 0.76 0.86 0.89 0.78 0.80 0.88 0.83 0.74 0.78 0.77 0.81 0.71 0.85 0.75 0.79 0.87 0.89 0.82 0.77 0.74 0.87 0.79 0.76 0.82 0.80 0.85 0.75 0.78 0.72 0.72 0.85 0.88 0.79 0.76 0.87 0.81 0.76 0.72 0.85 0.74 0.83 0.84 0.81 0.75 0.71 0.74 0.74 0.76 0.78 0.88 0.74 0.84 0.83 0.71 0.77 0.83 0.72 0.89 0.83 0.80 0.88 0.80 0.76 0.86 0.78 0.84 0.88 0.79 0.72 0.77 0.85 0.75 0.84 0.84 0.71 0.78 0.79 0.80 0.75 0.87 0.81 0.88 0.75 0.72 0.81 0.83 0.81 0.71 0.85 0.89 0.77 0.81 0.86 0.76 0.71 0.77 0.84 0.83 0.77 0.87 0.84 -9999 -9999 -9999 -9999 -9999 -9999 -9999 -9999 -9999 -9999 -9999 -9999 -9999 -9999 -9999 -9999 -9999 -9999 -9999 -9999 -9999 -9999 -9999
0.87 0.82 0.86 0.75 0.84 0.71 0.85 0.70 0.73 0.72 0.76 0.75 0.74 0.74 0.88 0.83 0.87 0.73 0.87 0.81 0.73 0.76 0.89 0.88 0.72 0.82 0.88 0.70 0.90 0.74 0.74 0.85 0.82 0.71 0.89 0.86 0.75 0.77 0.87 0.75 0.77 0.81 0.86 0.81 0.86 0.78 0.79 0.85 0.83 0.82 0.71 0.77 0.77 0.88 0.75 0.88 0.82 0.86 0.77 0.81 0.86 0.84 0.82 0.75 0.82 0.71 0.73 0.82 0.79 0.85 0.79 0.86 0.88 0.80 0.75 0.78 0.76 0.84 0.73 0.89 0.71 0.70 0.90 0.89 0.85 0.76 0.75 0.77 0.76 0.71 0.72 0.81 0.75 0.79 0.81 0.71 0.83 0.76 0.81 0.82 0.77 0.74 0.82 0.79 0.74 0.76 0.89 0.77 0.88 0.80 0.87 0.85 0.84 0.86 0.79 0.76 0.81 0.71 0.83 0.80 0.90 0.89 0.86 0.79 0.83 0.71 0.81 0.82 0.82 0.77 0.84 0.72 0.82 0.73 0.79 0.76 0.81 0.82 0.82 0.78 0.76 0.88 0.71 0.78 0.86 0.79 0.86 0.85 0.84 0.84 0.83 0.74 0.81 0.86 0.70 0.90 0.76 0.82 0.75 0.75 0.71 0.89 0.74 0.78 0.87 0.80 0.88 0.74 0.82 0.90 0.75 0.74 0.87 0.74 0.75 0.75 0.77 0.88 0.87 0.81 0.80 0.78 0.81 0.82 0.75 0.78 0.86 0.79 0.79 0.89 0.83 0.84 -9999 -9999 -9999 -9999 -9999 -9999 -9999 -9999 -9999 -9999 -9999 -9999 -9999 -9999 -9999 -9999 -9999 -9999 -9999 -9999 -9999 -9999 -9999
0.73 0.77 0.89 0.83 0.89 0.74 0.85 0.88 0.75 0.84 0.88 0.88 0.79 0.88 0.81 0.72 0.77 0.83 0.88 0.80 0.76 0.83 0.74 0.70 0.79 0.89 0.76 0.85 0.84 0.90 0.77 0.70 0.84 0.77 0.79 0.87 0.78 0.81 0.83 0.73 0.88 0.75 0.86 0.83 0.75 0.75 0.77 0.86 0.86 0.73 0.74 0.73 0.80 0.75 0.74 0.84 0.86 0.88 0.78 0.71 0.86 0.71 0.83 0.86 0.83 0.78 0.77 0.87 0.89 0.82 0.77 0.82 0.77 0.76 0.77 0.73 0.76 0.71 0.79 0.70 0.75 0.77 0.71 0.82 0.79 0.85 0.71 0.83 0.80 0.90 0.77 0.74 0.83 0.71 0.75 0.83 0.82 0.86 0.77 0.76 0.89 0.88 0.73 0.89 0.72 0.82 0.73 0.79 0.76 0.72 0.84 0.86 0.75 0.90 0.84 0.88 0.75 0.87 0.74 0.74 0.76 0.76 0.74 0.78 0.77 0.85 0.71 0.80 0.73 0.86 0.72 0.74 0.71 0.87 0.86 0.75 0.74 0.81 0.87 0.86 0.78 0.88 0.84 0.84 0.73 0.73 0.80 0.75 0.77 0.83 0.89 0.83 0.74 0.74 0.86 0.74 0.74 0.86 0.75 0.71 0.84 0.76 0.85 0.88 0.71 0.85 0.74 0.74 0.90 0.73 0.74 0.75 0.75 0.87 0.89 0.76 0.71 0.84 0.76 0.82 0.80 0.80 0.78 0.85 0.81 0.86 0.84 0.74 0.70 0.90 0.73 0.82 -9999 -9999 -9999 -9999 -9999 -9999 -9999 -9999 -9999 -9999 -9999 -9999 -9999 -9999 -9999 -9999 -9999 -9999 -9999 -9999 -9999 -9999 -9999
0.87 0.84 0.82 0.74 0.74 0.78 0.83 0.83 0.74 0.79 0.89 0.71 0.79 0.76 0.82 0.86 0.82 0.81 0.71 0.76 0.85 0.89 0.77 0.74 0.84 0.88 0.85 0.76 0.79 0.88 0.88 0.78 0.82 0.90 0.79 0.85 0.81 0.75 0.74 0.77 0.76 0.80 0.84 0.87 0.73 0.85 0.83 0.70 0.90 0.75 0.77 0.74 0.82 0.78 0.78 0.78 0.80 0.79 0.72 0.74 0.75 0.74 0.81 0.88 0.83 0.79 0.82 0.83 0.75 0.87 0.82 0.88 0.82 0.81 0.89 0.78 0.76 0.76 0.77 0.80 0.71 0.84 0.74 0.79 0.75 0.73 0.71 0.86 0.72 0.88 0.80 0.72 0.82 0.89 0.78 0.73 0.76 0.78 0.87 0.79 0.73 0.71 0.79 0.89 0.72 0.87 0.85 0.86 0.89 0.80 0.79 0.79 0.85 0.72 0.72 0.82 0.70 0.81 0.72 0.80 0.78 0.72 0.84 0.79 0.76 0.76 0.83 0.76 0.74 0.71 0.76 0.79 0.80 0.72 0.80 0.80 0.71 0.85 0.71 0.71 0.76 0.82 0.77 0.76 0.72 0.76 0.71 0.81 0.81 0.85 0.83 0.76 0.86 0.72 0.87 0.77 0.87 0.84 0.73 0.88 0.71 0.71 0.84 0.86 0.82 0.75 0.78 0.80 0.84 0.86 0.79 0.75 0.72 0.73 0.82 0.81 0.86 0.81 0.74 0.70 0.79 0.77 0.88 0.90 0.83 0.81 0.85 0.86 0.89 0.74 0.72 0.90 -9999 -9999 -9999 -9999 -9999 -9999 -9999 -9999 -9999 -9999 -9999 -9999 -9999 -9999 -9999 -9999 -9999 -9999 -9999 -9999 -9999 -9999 -9999
0.70 0.79 0.76 0.80 0.85 0.85 0.77 0.73 0.80 0.88 0.78 0.73 0.77 0.87 0.73 0.73 0.71 0.76 0.88 0.83 0.74 0.72 0.77 0.77 0.83 0.83 0.78 0.72 0.86 0.77 0.82 0.82 0.89 0.86 0.73 0.77 0.73 0.72 0.83 0.82 0.85 0.73 0.76 0.86 0.75 0.84 0.78 0.76 0.74 0.80 0.72 0.76 0.83 0.77 0.87 0.82 0.76 0.77 0.90 0.75 0.87 0.90 0.71 0.84 0.85 0.73 0.75 0.71 0.78 0.76 0.89 0.89 0.76 0.71 0.80 0.78 0.84 0.79 0.84 0.72 0.77 0.87 0.81 0.73 0.76 0.82 0.82 0.72 0.70 0.90 0.84 0.88 0.73 0.76 0.87 0.81 0.74 0.78 0.79 0.81 0.88 0.87 0.79 0.77 0.79 0.87 0.79 0.86 0.80 0.88 0.77 0.90 0.79 0.72 0.74 0.76 0.77 0.86 0.73 0.80 0.77 0.75 0.86 0.81 0.71 0.83 0.76 0.71 0.90 0.71 0.87 0.74 0.76 0.70 0.88 0.80 0.88 0.82 0.78 0.80 0.80 0.71 0.78 0.87 0.86 0.80 0.89 0.83 0.72 0.89 0.71 0.73 0.86 0.79 0.76 0.71 0.81 0.86 0.87 0.78 0.76 0.87 0.79 0.78 0.80 0.79 0.77 0.77 0.87 0.80 0.73 0.82 0.87 0.89 0.83 0.90 0.79 0.79 0.82 0.75 0.80 0.77 0.83 0.88 0.76 0.74 0.78 0.71 0.90 0.79 0.82 0.71 -9999 -9999 -9999 -9999 -9999 -9999 -9999 -9999 -9999 -9999 -9999 -9999 -9999 -9999 -9999 -9999 -9999 -9999 -9999 -9999 -9999 -9999 -9999
0.72 0.82 0.70 0.77 0.78 0.79 0.85 0.78 0.89 0.71 0.80 0.85 0.70 0.72 0.84 0.88 0.88 0.84 0.72 0.90 0.76 0.79 0.78 0.72 0.77 0.84 0.88 0.85 0.72 0.74 0.73 0.78 0.80 0.72 0.86 0.84 0.81 0.89 0.82 0.72 0.89 0.75 0.89 0.80 0.80 0.89 0.87 0.74 0.72 0.80 0.75 0.86 0.90 0.85 0.74 0.71 0.80 0.81 0.72 0.78 0.72 0.86 0.82 0.84 0.71 0.88 0.80 0.82 0.73 0.82 0.83 0.81 0.87 0.73 0.81 0.71 0.75 0.88 0.71 0.87 0.89 0.78 0.81 0.71 0.86 0.80 0.82 0.89 0.80 0.90 0.77 0.76 0.84 0.86 0.79 0.76 0.79 0.85 0.72 0.87 0.85 0.85 0.78 0.81 0.85 0.86 0.78 0.77 0.77 0.78 0.71 0.79 0.84 0.75 0.74 0.84 0.89 0.73 0.77 0.80 0.88 0.83 0.78 0.80 0.88 0.75 0.78 0.77 0.85 0.77 0.87 0.86 0.78 0.87 0.82 0.85 0.81 0.80 0.83 0.74 0.78 0.74 0.75 0.87 0.78 0.74 0.75 0.88 0.82 0.89 0.84 0.85 0.71 0.72 0.77 0.79 0.87 0.71 0.83 0.89 0.76 0.77 0.83 0.76 0.82 0.71 0.80 0.88 0.72 0.87 0.90 0.84 0.89 0.75 0.80 0.78 0.80 0.73 0.79 0.89 0.75 0.83 0.88 0.83 0.72 0.73 0.81 0.75 0.70 0.87 0.89 0.75 0.85 -9999 -9999 -9999 -9999 -9999 -9999 -9999 -9999 -9999 -9999 -9999 -9999 -9999 -9999 -9999 -9999 -9999 -9999 -9999 -9999 -9999 -9999
0.82 0.90 0.81 0.87 0.76 0.76 0.84 0.76 0.89 0.87 0.72 0.78 0.77 0.87 0.70 0.87 0.75 0.86 0.86 0.81 0.71 0.78 0.76 0.74 0.89 0.83 0.78 0.73 0.76 0.72 0.76 0.74 0.86 0.87 0.72 0.84 0.77 0.90 0.76 0.78 0.74 0.73 0.80 0.85 0.87 0.86 0.82 0.79 0.87 0.80 0.71 0.86 0.90 0.79 0.83 0.72 0.71 0.71 0.79 0.75 0.74 0.80 0.81 0.77 0.86 0.80 0.78 0.90 0.80 0.73 0.88 0.76 0.87 0.87 0.70 0.82 0.86 0.87 0.79 0.87 0.83 0.71 0.87 0.78 0.82 0.78 0.78 0.89 0.77 0.89 0.85 0.72 0.84 0.89 0.86 0.82 0.84 0.84 0.73 0.74 0.86 0.71 0.87 0.77 0.88 0.75 0.88 0.75 0.75 0.80 0.78 0.83 0.77 0.85 0.80 0.76 0.75 0.83 0.77 0.76 0.75 0.87 0.81 0.78 0.84 0.70 0.77 0.87 0.81 0.84 0.80 0.71 0.86 0.90 0.82 0.72 0.74 0.84 0.70 0.77 0.81 0.88 0.89 0.81 0.87 0.74 0.88 0.89 0.81 0.77 0.79 0.75 0.82 0.73 0.74 0.85 0.79 0.86 0.81 0.84 0.72 0.72 0.74 0.80 0.73 0.73 0.71 0.73 0.88 0.87 0.83 0.82 0.72 0.77 0.78 0.74 0.80 0.82 0.75 0.72 0.78 0.76 0.71 0.74 0.90 0.88 0.77 0.80 0.83 0.84 0.73 0.80 0.85 -9999 -9999 -9999 -9999 -9999 -9999 -9999 -9999 -9999 -9999 -9999 -9999 -9999 -9999 -9999 -9999 -9999 -9999 -9999 -9999 -9999 -9999
0.79 0.81 0.78 0.75 0.71 0.85 0.78 0.88 0.87 0.77 0.79 0.77 0.85 0.80 0.76 0.76 0.75 0.84 0.83 0.73 0.76 0.73 0.74 0.85 0.89 0.80 0.75 0.71 0.70 0.78 0.75 0.77 0.76 0.72 0.76 0.81 0.76 0.86 0.74 0.79 0.84 0.81 0.74 0.90 0.85 0.83 0.76 0.77 0.72 0.71 0.82 0.87 0.89 0.77 0.77 0.71 0.85 0.87 0.86 0.87 0.87 0.85 0.86 0.82 0.84 0.89 0.74 0.78 0.72 0.72 0.78 0.73 0.72 0.85 0.90 0.82 0.89 0.85 0.79 0.77 0.89 0.83 0.81 0.77 0.70 0.73 0.86 0.89 0.89 0.75 0.71 0.75 0.84 0.87 0.72 0.77 0.78 0.89 0.80 0.90 0.82 0.85 0.88 0.78 0.76 0.75 0.85 0.88 0.79 0.87 0.81 0.84 0.76 0.72 0.73 0.87 0.83 0.83 0.71 0.90 0.76 0.77 0.78 0.86 0.87 0.73 0.72 0.85 0.79 0.75 0.88 0.89 0.73 0.79 0.80 0.85 0.82 0.79 0.71 0.74 0.90 0.85 0.86 0.82 0.80 0.77 0.75 0.81 0.83 0.72 0.78 0.87 0.74 0.71 0.71 0.82 0.88 0.83 0.84 0.78 0.79 0.72 0.78 0.74 0.81 0.84 0.85 0.71 0.74 0.87 0.89 0.86 0.85 0.72 0.80 0.75 0.70 0.77 0.88 0.78 0.82 0.72 0.83 0.70 0.74 0.87 0.80 0.73 0.74 0.71 0.87 0.71 0.78 -9999 -9999 -9999 -9999 -9999 -9999 -9999 -9999 -9999 -9999 -9999 -9999 -9999 -9999 -9999 -9999 -9999 -9999 -9999 -9999 -9999 -9999
0.90 0.88 0.79 0.76 0.86 0.84 0.70 0.72 0.89 0.72 0.89 0.83 0.90 0.85 0.77 0.75 0.83 0.75 0.82 0.73 0.86 0.90 0.70 0.81 0.73 0.88 0.90 0.81 0.88 0.81 0.87 0.86 0.86 0.83 0.72 0.70 0.78 0.89 0.75 0.72 0.78 0.86 0.77 0.76 0.80 0.89 0.88 0.81 0.84 0.81 0.87 0.76 0.78 0.75 0.84 0.81 0.88 0.85 0.77 0.81 0.78 0.78 0.88 0.76 0.79 0.78 0.90 0.75 0.79 0.87 0.73 0.90 0.82 0.84 0.81 0.82 0.74 0.85 0.78 0.78 0.78 0.88 0.80 0.83 0.87 0.81 0.72 0.80 0.89 0.85 0.82 0.89 0.73 0.84 0.76 0.81 0.85 0.78 0.85 0.72 0.77 0.79 0.89 0.81 0.75 0.72 0.76 0.83 0.77 0.78 0.84 0.71 0.85 0.80 0.75 0.84 0.78 0.73 0.75 0.89 0.71 0.84 0.75 0.71 0.87 0.84 0.78 0.76 0.76 0.89 0.75 0.71 0.71 0.71 0.75 0.80 0.89 0.82 0.79 0.86 0.76 0.78 0.76 0.84 0.79 0.72 0.89 0.89 0.77 0.81 0.73 0.85 0.71 0.82 0.83 0.83 0.70 0.87 0.72 0.71 0.71 0.86 0.72 0.90 0.74 0.75 0.76 0.79 0.81 0.71 0.86 0.71 0.76 0.74 0.80 0.88 0.80 0.80 0.80 0.84 0.85 0.72 0.76 0.80 0.80 0.71 0.80 0.82 0.83 0.74 0.84 0.82 0.73 -9999 -9999 -9999 -9999 -9999 -9999 -9999 -9999 -9999 -9999 -9999 -9999 -9999 -9999 -9999 -9999 -9999 -9999 -9999 -9999 -9999 -9999
0.76 0.89 0.78 0.72 0.83 0.89 0.74 0.76 0.79 0.72 0.77 0.85 0.72 0.79 0.72 0.88 0.88 0.85 0.71 0.70 0.73 0.81 0.87 0.88 0.87 0.88 0.77 0.86 0.89 0.77 0.74 0.87 0.79 0.70 0.80 0.75 0.76 0.78 0.81 0.71 0.71 0.89 0.86 0.70 0.85 0.75 0.81 0.87 0.72 0.78 0.86 0.72 0.77 0.89 0.73 0.87 0.86 0.76 0.89 0.80 0.82 0.87 0.84 0.71 0.84 0.73 0.76 0.75 0.80 0.84 0.89 0.85 0.83 0.85 0.76 0.76 0.82 0.83 0.74 0.84 0.89 0.74 0.80 0.79 0.73 0.84 0.78 0.72 0.78 0.77 0.81 0.89 0.75 0.82 0.77 0.89 0.72 0.72 0.84 0.88 0.82 0.80 0.84 0.82 0.85 0.72 0.89 0.84 0.74 0.71 0.72 0.83 0.89 0.83 0.79 0.71 0.87 0.86 0.82 0.88 0.78 0.71 0.76 0.70 0.72 0.87 0.83 0.76 0.88 0.78 0.85 0.73 0.86 0.74 0.79 0.76 0.72 0.77 0.70 0.74 0.81 0.73 0.84 0.72 0.88 0.87 0.79 0.74 0.82 0.81 0.88 0.72 0.85 0.89 0.74 0.76 0.89 0.86 0.84 0.76 0.71 0.75 0.73 0.73 0.80 0.77 0.87 0.81 0.90 0.78 0.88 0.70 0.87 0.81 0.71 0.87 0.76 0.80 0.85 0.77 0.80 0.89 0.78 0.75 0.75 0.72 0.75 0.86 0.73 0.78 0.88 0.75 0.76 -9999 -9999 -9999 -9999 -9999 -9999 -9999 -9999 -9999 -9999 -9999 -9999 -9999 -9999 -9999 -9999 -9999 -9999 -9999 -9999 -9999 -9999
0.89 0.89 0.82 0.77 0.84 0.75 0.85 0.88 0.89 0.84 0.72 0.85 0.75 0.77 0.78 0.81 0.73 0.88 0.71 0.85 0.82 0.73 0.81 0.86 0.78 0.81 0.75 0.79 0.72 0.80 0.90 0.74 0.75 0.81 0.87 0.72 0.74 0.73 0.89 0.88 0.76 0.80 0.87 0.73 0.73 0.83 0.88 0.83 0.73 0.89 0.84 0.83 0.88 0.79 0.85 0.82 0.70 0.90 0.84 0.81 0.75 0.74 0.82 0.72 0.88 0.86 0.89 0.83 0.76 0.72 0.79 0.90 0.74 0.73 0.88 0.84 0.83 0.86 0.72 0.77 0.76 0.73 0.72 0.85 0.81 0.72 0.84 0.75 0.88 0.87 0.89 0.87 0.84 0.72 0.87 0.77 0.86 0.76 0.85 0.89 0.89 0.78 0.79 0.70 0.89 0.77 0.82 0.72 0.78 0.79 0.82 0.88 0.77 0.85 0.81 0.75 0.83 0.74 0.72 0.76 0.89 0.72 0.77 0.83 0.77 0.72 0.78 0.89 0.77 0.85 0.84 0.79 0.83 0.74 0.73 0.77 0.87 0.84 0.75 0.82 0.83 0.74 0.89 0.84 0.89 0.75 0.73 0.79 0.77 0.78 0.87 0.83 0.71 0.78 0.79 0.85 0.86 0.86 0.72 0.87 0.79 0.84 0.84 0.77 0.76 0.83 0.71 0.89 0.86 0.75 0.73 0.72 0.77 0.89 0.78 0.83 0.74 0.87 0.78 0.74 0.80 0.88 0.75 0.70 0.71 0.70 0.79 0.88 0.82 0.82 0.74 0.87 0.86 -9999 -9999 -9999 -9999 -9999 -9999 -9999 -9999 -9999 -9999 -9999 -9999 -9999 -9999 -9999 -9999 -9999 -9999 -9999 -9999 -9999 -9999
0.82 0.73 0.84 0.90 0.71 0.72 0.73 0.74 0.84 0.89 0.70 0.86 0.83 0.73 0.84 0.75 0.79 0.82 0.79 0.87 0.74 0.88 0.86 0.88 0.84 0.89 0.71 0.83 0.76 0.76 0.88 0.79 0.73 0.74 0.74 0.71 0.87 0.74 0.71 0.79 0.82 0.77 0.79 0.71 0.80 0.83 0.73 0.73 0.82 0.81 0.71 0.72 0.80 0.89 0.86 0.90 0.72 0.83 0.82 0.79 0.84 0.78 0.84 0.74 0.84 0.76 0.74 0.70 0.75 0.71 0.77 0.85 0.88 0.80 0.87 0.77 0.76 0.73 0.79 0.84 0.72 0.87 0.77 0.90 0.77 0.72 0.76 0.78 0.79 0.88 0.76 0.74 0.82 0.81 0.84 0.72 0.78 0.76 0.81 0.79 0.75 0.74 0.86 0.72 0.84 0.84 0.87 0.75 0.85 0.79 0.87 0.76 0.81 0.70 0.82 0.71 0.72 0.88 0.79 0.89 0.77 0.82 0.86 0.87 0.81 0.85 0.78 0.82 0.79 0.82 0.73 0.72 0.85 0.73 0.82 0.77 0.86 0.82 0.78 0.72 0.79 0.78 0.74 0.80 0.83 0.79 0.89 0.89 0.87 0.73 0.73 0.78 0.77 0.77 0.71 0.76 0.72 0.85 0.73 0.80 0.72 0.84 0.82 0.79 0.88 0.70 0.81 0.81 0.79 0.77 0.88 0.90 0.77 0.76 0.78 0.70 0.83 0.83 0.76 0.87 0.74 0.85 0.74 0.72 0.72 0.81 0.78 0.88 0.77 0.81 0.87 0.70 0.79 0.72 -9999 -9999 -9999 -9999 -9999 -9999 -9999 -9999 -9999 -9999 -9999 -9999 -9999 -9999 -9999 -9999 -9999 -9999 -9999 -9999 -9999
0.80 0.80 0.77 0.87 0.73 0.82 0.81 0.81 0.86 0.88 0.82 0.73 0.84 0.80 0.74 0.79 0.72 0.87 0.85 0.71 0.81 0.90 0.83 0.85 0.87 0.87 0.85 0.70 0.79 0.76 0.80 0.85 0.74 0.86 0.71 0.79 0.80 0.89 0.81 0.84 0.84 0.78 0.82 0.90 0.73 0.72 0.88 0.78 0.74 0.84 0.88 0.82 0.77 0.80 0.83 0.89 0.79 0.88 0.76 0.89 0.73 0.76 0.81 0.81 0.84 0.78 0.75 0.81 0.83 0.90 0.81 0.70 0.86 0.74 0.75 0.81 0.79 0.77 0.90 0.76 0.82 0.88 0.90 0.77 0.73 0.79 0.77 0.88 0.85 0.84 0.80 0.75 0.72 0.71 0.88 0.75 0.71 0.75 0.90 0.85 0.87 0.81 0.76 0.83 0.81 0.71 0.85 0.76 0.73 0.74 0.81 0.84 0.85 0.79 0.77 0.71 0.86 0.81 0.79 0.80 0.72 0.80 0.84 0.85 0.70 0.80 0.88 0.76 0.77 0.86 0.80 0.71 0.89 0.86 0.72 0.72 0.82 0.76 0.73 0.89 0.80 0.83 0.76 0.82 0.88 0.88 0.82 0.81 0.76 0.86 0.81 0.73 0.82 0.82 0.84 0.89 0.89 0.71 0.75 0.87 0.72 0.89 0.82 0.88 0.77 0.74 0.88 0.86 0.86 0.74 0.87 0.87 0.76 0.90 0.76 0.89 0.87 0.72 0.83 0.84 0.75 0.89 0.76 0.90 0.80 0.79 0.85 0.75 0.70 0.76 0.75 0.73 0.83 0.80 -9999 -9999 -9999 -9999 -9999 -9999 -9999 -9999 -9999 -9999 -9999 -9999 -9999 -9999 -9999 -9999 -9999 -9999 -9999 -9999 -9999
0.85 0.89 0.81 0.80 0.76 0.88 0.90 0.82 0.75 0.73 0.76 0.77 0.77 0.72 0.75 0.71 0.81 0.75 0.75 0.71 0.77 0.88 0.78 0.87 0.81 0.78 0.83 0.83 0.80 0.79 0.89 0.78 0.73 0.79 0.73 0.75 0.84 0.70 0.73 0.89 0.88 0.83 0.88 0.77 0.86 0.71 0.88 0.76 0.71 0.80 0.72 0.75 0.77 0.82 0.76 0.73 0.87 0.83 0.89 0.78 0.73 0.78 0.88 0.89 0.78 0.79 0.75 0.70 0.72 0.89 0.75 0.77 0.88 0.89 0.89 0.76 0.74 0.72 0.90 0.84 0.77 0.76 0.71 0.77 0.86 0.84 0.85 0.71 0.88 0.85 0.75 0.80 0.73 0.81 0.85 0.81 0.86 0.72 0.76 0.75 0.71 0.85 0.75 0.79 0.74 0.85 0.75 0.89 0.79 0.75 0.73 0.79 0.75 0.75 0.82 0.81 0.82 0.82 0.82 0.76 0.81 0.76 0.85 0.79 0.73 0.73 0.81 0.70 0.77 0.83 0.83 0.72 0.90 0.71 0.80 0.87 0.88 0.89 0.88 0.85 0.79 0.86 0.83 0.75 0.73 0.75 0.87 0.71 0.78 0.76 0.86 0.78 0.78 0.79 0.84 0.70 0.75 0.87 0.84 0.88 0.88 0.82 0.74 0.80 0.83 0.72 0.84 0.79 0.72 0.84 0.73 0.87 0.86 0.81 0.83 0.90 0.82 0.74 0.73 0.86 0.80 0.84 0.86 0.71 0.81 0.76 0.77 0.73 0.72 0.78 0.72 0.84 0.82 0.87 -9999 -9999 -9999 -9999 -9999 -9999 -9999 -9999 -9999 -9999 -9999 -9999 -9999 -9999 -9999 -9999 -9999 -9999 -9999 -9999 -9999
0.78 0.75 0.83 0.80 0.87 0.88 0.87 0.73 0.84 0.82 0.70 0.76 0.84 0.70 0.79 0.75 0.73 0.75 0.88 0.83 0.79 0.77 0.80 0.86 0.89 0.72 0.73 0.83 0.89 0.90 0.87 0.89 0.82 0.86 0.77 0.79 0.85 0.88 0.76 0.71 0.72 0.77 0.73 0.79 0.86 0.78 0.87 0.87 0.84 0.83 0.89 0.76 0.72 0.86 0.84 0.84 0.89 0.81 0.84 0.87 0.90 0.87 0.88 0.77 0.76 0.84 0.84 0.90 0.73 0.79 0.75 0.89 0.74 0.82 0.80 0.71 0.78 0.82 0.72 0.79 0.78 0.89 0.87 0.71 0.88 0.75 0.83 0.84 0.81 0.85 0.81 0.85 0.71 0.86 0.72 0.90 0.74 0.88 0.76 0.78 0.74 0.85 0.83 0.88 0.79 0.72 0.72 0.81 0.88 0.70 0.75 0.71 0.84 0.75 0.79 0.72 0.70 0.82 0.84 0.85 0.73 0.82 0.84 0.87 0.73 0.73 0.73 0.71 0.71 0.74 0.83 0.89 0.80 0.75 0.71 0.85 0.78 0.81 0.76 0.84 0.79 0.70 0.81 0.74 0.72 0.75 0.86 0.73 0.87 0.80 0.71 0.71 0.75 0.79 0.82 0.76 0.85 0.87 0.82 0.79 0.77 0.78 0.76 0.78 0.73 0.73 0.83 0.77 0.75 0.85 0.85 0.79 0.72 0.75 0.79 0.79 0.78 0.90 0.74 0.87 0.76 0.79 0.83 0.85 0.74 0.73 0.86 0.74 0.73 0.74 0.75 0.73 0.71 0.86 -9999 -9999 -9999 -9999 -9999 -9999 -9999 -9999 -9999 -9999 -9999 -9999 -9999 -9999 -9999 -9999 -9999 -9999 -9999 -9999 -9999
0.80 0.82 0.79 0.71 0.70 0.72 0.85 0.79 0.71 0.72 0.76 0.75 0.82 0.88 0.75 0.73 0.90 0.70 0.85 0.77 0.81 0.78 0.90 0.86 0.88 0.84 0.86 0.85 0.79 0.74 0.85 0.71 0.73 0.72 0.72 0.83 0.73 0.75 0.77 0.75 0.74 0.83 0.84 0.79 0.83 0.81 0.75 0.81 0.79 0.71 0.77 0.78 0.88 0.74 0.76 0.74 0.80 0.78 0.86 0.88 0.71 0.86 0.86 0.88 0.74 0.73 0.84 0.85 0.80 0.79 0.82 0.86 0.82 0.79 0.83 0.77 0.90 0.78 0.85 0.82 0.73 0.78 0.78 0.70 0.80 0.71 0.90 0.76 0.77 0.79 0.81 0.89 0.75 0.72 0.70 0.76 0.90 0.87 0.78 0.78 0.70 0.85 0.77 0.81 0.88 0.77 0.86 0.74 0.77 0.78 0.88 0.88 0.84 0.77 0.82 0.82 0.83 0.81 0.87 0.84 0.90 0.89 0.84 0.84 0.90 0.78 0.84 0.79 0.72 0.89 0.76 0.84 0.86 0.80 0.79 0.84 0.80 0.81 0.74 0.84 0.84 0.71 0.77 0.80 0.85 0.74 0.81 0.76 0.74 0.70 0.86 0.70 0.88 0.83 0.78 0.80 0.71 0.84 0.77 0.87 0.72 0.76 0.82 0.76 0.83 0.86 0.83 0.79 0.83 0.71 0.73 0.89 0.76 0.83 0.77 0.75 0.70 0.78 0.89 0.79 0.84 0.81 0.72 0.81 0.88 0.90 0.85 0.73 0.86 0.75 0.89 0.77 0.71 0.78 -9999 -9999 -9999 -9999 -9999 -9999 -9999 -9999 -9999 -9999 -9999 -9999 -9999 -9999 -9999 -9999 -9999 -9999 -9999 -9999 -9999
0.71 0.82 0.87 0.74 0.89 0.86 0.79 0.76 0.88 0.83 0.70 0.76 0.74 0.76 0.76 0.71 0.71 0.78 0.85 0.73 0.88 0.80 0.73 0.74 0.88 0.84 0.82 0.89 0.78 0.81 0.76 0.75 0.87 0.84 0.77 0.84 0.78 0.81 0.89 0.86 0.76 0.74 0.83 0.87 0.77 0.87 0.77 0.73 0.84 0.75 0.71 0.87 0.85 0.79 0.73 0.86 0.77 0.82 0.75 0.85 0.71 0.72 0.74 0.81 0.78 0.72 0.85 0.82 0.82 0.71 0.76 0.81 0.73 0.80 0.75 0.87 0.77 0.72 0.79 0.79 0.78 0.89 0.89 0.77 0.70 0.82 0.81 0.89 0.76 0.71 0.82 0.86 0.90 0.81 0.71 0.89 0.71 0.80 0.70 0.82 0.85 0.88 0.75 0.72 0.73 0.77 0.78 0.75 0.83 0.75 0.88 0.88 0.77 0.83 0.76 0.83 0.70 0.79 0.72 0.72 0.85 0.82 0.71 0.71 0.80 0.85 0.78 0.85 0.88 0.78 0.89 0.74 0.74 0.88 0.81 0.78 0.78 0.90 0.87 0.76 0.81 0.88 0.80 0.89 0.72 0.90 0.72 0.82 0.80 0.82 0.83 0.77 0.79 0.79 0.89 0.78 0.89 0.80 0.74 0.88 0.77 0.77 0.86 0.76 0.89 0.84 0.84 0.78 0.85 0.80 0.74 0.73 0.88 0.77 0.82 0.78 0.84 0.76 0.74 0.81 0.83 0.84 0.81 0.79 0.73 0.87 0.82 0.75 0.76 0.70 0.82 0.89 0.79 0.81 -9999 -9999 -9999 -9999 -9999 -9999 -9999 -9999 -9999 -9999 -9999 -9999 -9999 -9999 -9999 -9999 -9999 -9999 -9999 -9999 -9999
0.81 0.73 0.83 0.82 0.71 0.86 0.77 0.90 0.74 0.79 0.86 0.87 0.86 0.82 0.76 0.79 0.71 0.81 0.76 0.81 0.71 0.86 0.83 0.78 0.75 0.72 0.87 0.79 0.72 0.84 0.73 0.85 0.82 0.87 0.79 0.83 0.74 0.78 0.84 0.85 0.88 0.77 0.83 0.74 0.80 0.79 0.72 0.84 0.88 0.77 0.72 0.78 0.71 0.82 0.72 0.89 0.73 0.79 0.83 0.75 0.72 0.72 0.76 0.80 0.85 0.82 0.78 0.84 0.77 0.80 0.80 0.73 0.83 0.90 0.75 0.80 0.70 0.82 0.80 0.85 0.88 0.85 0.78 0.74 0.73 0.86 0.86 0.89 0.85 0.74 0.70 0.89 0.82 0.75 0.85 0.74 0.73 0.75 0.79 0.71 0.85 0.73 0.83 0.77 0.78 0.84 0.87 0.76 0.71 0.77 0.75 0.84 0.89 0.84 0.83 0.77 0.83 0.70 0.88 0.71 0.83 0.77 0.87 0.79 0.70 0.81 0.78 0.83 0.79 0.73 0.88 0.88 0.80 0.74 0.74 0.86 0.85 0.89 0.74 0.88 0.77 0.83 0.77 0.81 0.80 0.86 0.82 0.81 0.86 0.75 0.87 0.74 0.72 0.87 0.90 0.89 0.71 0.83 0.70 0.86 0.79 0.73 0.72 0.81 0.88 0.74 0.89 0.77 0.85 0.82 0.75 0.86 0.81 0.75 0.87 0.79 0.79 0.81 0.73 0.88 0.83 0.78 0.83 0.74 0.73 0.83 0.87 0.75 0.77 0.70 0.74 0.88 0.81 0.73 -9999 -9999 -9999 -9999 -9999 -9999 -9999 -9999 -9999 -9999 -9999 -9999 -9999 -9999 -9999 -9999 -9999 -9999 -9999 -9999 -9999
0.72 0.82 0.85 0.74 0.78 0.79 0.88 0.73 0.83 0.73 0.82 0.74 0.75 0.80 0.77 0.84 0.76 0.81 0.74 0.77 0.84 0.84 0.72 0.89 0.86 0.72 0.88 0.79 0.89 0.82 0.84 0.89 0.76 0.86 0.70 0.78 0.80 0.89 0.82 0.77 0.76 0.76 0.75 0.88 0.83 0.86 0.77 0.70 0.86 0.84 0.90 0.87 0.90 0.73 0.85 0.70 0.84 0.77 0.71 0.85 0.78 0.71 0.74 0.87 0.73 0.84 0.80 0.75 0.85 0.73 0.81 0.84 0.85 0.75 0.71 0.78 0.87 0.82 0.89 0.79 0.73 0.72 0.89 0.78 0.87 0.84 0.79 0.81 0.90 0.74 0.74 0.89 0.84 0.89 0.86 0.71 0.78 0.87 0.86 0.78 0.89 0.73 0.80 0.74 0.72 0.70 0.75 0.81 0.77 0.84 0.83 0.72 0.80 0.83 0.71 0.70 0.89 0.81 0.85 0.83 0.71 0.80 0.83 0.79 0.77 0.75 0.80 0.84 0.79 0.81 0.87 0.75 0.85 0.80 0.73 0.77 0.88 0.90 0.73 0.71 0.76 0.72 0.86 0.80 0.87 0.74 0.77 0.79 0.72 0.77 0.74 0.75 0.73 0.86 0.81 0.72 0.78 0.80 0.79 0.77 0.76 0.87 0.88 0.78 0.75 0.81 0.85 0.86 0.77 0.73 0.84 0.82 0.79 0.82 0.87 0.89 0.88 0.86 0.75 0.86 0.75 0.70 0.89 0.84 0.70 0.71 0.78 0.75 0.74 0.77 0.77 0.88 0.77 0.73 0.73 -9999 -9999 -9999 -9999 -9999 -9999 -9999 -9999 -9999 -9999 -9999 -9999 -9999 -9999 -9999 -9999 -9999 -9999 -9999 -9999
0.83 0.85 0.83 0.75 0.70 0.83 0.70 0.85 0.82 0.84 0.89 0.80 0.79 0.78 0.79 0.85 0.76 0.90 0.84 0.70 0.72 0.75 0.85 0.74 0.71 0.78 0.78 0.77 0.74 0.73 0.89 0.84 0.80 0.83 0.71 0.85 0.74 0.89 0.71 0.88 0.83 0.72 0.72 0.84 0.75 0.77 0.83 0.73 0.72 0.81 0.86 0.72 0.89 0.74 0.72 0.78 0.79 0.75 0.86 0.73 0.87 0.87 0.89 0.88 0.87 0.70 0.82 0.74 0.74 0.88 0.80 0.88 0.81 0.90 0.76 0.77 0.89 0.81 0.72 0.81 0.87 0.74 0.71 0.76 0.72 0.89 0.77 0.72 0.73 0.83 0.77 0.80 0.81 0.81 0.73 0.71 0.82 0.88 0.70 0.79 0.77 0.76 0.88 0.74 0.78 0.81 0.82 0.70 0.84 0.77 0.77 0.74 0.87 0.84 0.90 0.83 0.75 0.86 0.77 0.81 0.89 0.81 0.82 0.80 0.78 0.81 0.90 0.76 0.78 0.84 0.79 0.78 0.78 0.74 0.78 0.73 0.71 0.82 0.85 0.81 0.78 0.89 0.85 0.84 0.74 0.72 0.71 0.90 0.79 0.74 0.87 0.72 0.71 0.79 0.88 0.83 0.75 0.80 0.79 0.83 0.72 0.78 0.80 0.89 0.84 0.78 0.88 0.71 0.80 0.86 0.87 0.78 0.84 0.78 0.90 0.90 0.78 0.75 0.74 0.81 0.78 0.81 0.83 0.77 0.85 0.79 0.80 0.72 0.77 0.84 0.86 0.71 0.86 0.80 0.89 -9999 -9999 -9999 -9999 -9999 -9999 -9999 -9999 -9999 -9999 -9999 -9999 -9999 -9999 -9999 -9999 -9999 -9999 -9999 -9999
0.76 0.72 0.84 0.71 0.82 0.77 0.78 0.89 0.86 0.76 0.75 0.86 0.81 0.84 0.73 0.76 0.88 0.85 0.85 0.72 0.88 0.83 0.88 0.70 0.74 0.77 0.85 0.83 0.80 0.85 0.79 0.81 0.83 0.88 0.87 0.86 0.71 0.77 0.70 0.78 0.73 0.78 0.72 0.75 0.71 0.77 0.85 0.74 0.87 0.89 0.76 0.87 0.85 0.82 0.76 0.90 0.84 0.72 0.73 0.76 0.81 0.78 0.72 0.82 0.80 0.87 0.72 0.82 0.81 0.87 0.81 0.73 0.78 0.90 0.79 0.79 0.71 0.85 0.74 0.82 0.76 0.88 0.83 0.78 0.82 0.77 0.71 0.79 0.73 0.90 0.88 0.87 0.80 0.86 0.77 0.78 0.82 0.73 0.87 0.81 0.71 0.85 0.74 0.87 0.79 0.81 0.78 0.73 0.76 0.84 0.86 0.72 0.76 0.85 0.71 0.73 0.87 0.74 0.89 0.81 0.86 0.80 0.89 0.78 0.86 0.71 0.74 0.80 0.79 0.87 0.71 0.70 0.82 0.78 0.78 0.71 0.89 0.85 0.85 0.80 0.90 0.89 0.85 0.79 0.84 0.77 0.79 0.74 0.90 0.74 0.87 0.86 0.86 0.84 0.87 0.78 0.82 0.79 0.76 0.80 0.74 0.82 0.75 0.75 0.74 0.73 0.90 0.73 0.88 0.85 0.87 0.85 0.80 0.81 0.86 0.78 0.79 0.80 0.70 0.74 0.80 0.79 0.84 0.86 0.77 0.87 0.72 0.77 0.76 0.85 0.77 0.79 0.84 0.79 0.75 -9999 -9999 -9999 -9999 -9999 -9999 -9999 -9999 -9999 -9999 -9999 -9999 -9999 -9999 -9999 -9999 -9999 -9999 -9999 -9999
0.89 0.83 0.86 0.74 0.76 0.70 0.76 0.90 0.82 0.73 0.75 0.70 0.76 0.82 0.72 0.76 0.81 0.77 0.72 0.86 0.73 0.88 0.80 0.89 0.74 0.75 0.81 0.79 0.75 0.84 0.74 0.82 0.76 0.87 0.86 0.86 0.71 0.75 0.76 0.77 0.77 0.72 0.86 0.84 0.72 0.87 0.79 0.74 0.86 0.85 0.72 0.86 0.72 0.75 0.83 0.71 0.82 0.83 0.81 0.71 0.78 0.75 0.78 0.71 0.84 0.82 0.87 0.83 0.83 0.74 0.77 0.85 0.72 0.88 0.78 0.87 0.74 0.70 0.90 0.78 0.79 0.75 0.82 0.84 0.74 0.76 0.73 0.82 0.81 0.81 0.78 0.71 0.84 0.81 0.84 0.88 0.71 0.77 0.79 0.78 0.85 0.79 0.87 0.84 0.80 0.88 0.90 0.76 0.85 0.76 0.74 0.74 0.74 0.88 0.73 0.74 0.85 0.81 0.85 0.78 0.71 0.80 0.86 0.73 0.79 0.79 0.87 0.87 0.74 0.88 0.73 0.84 0.84 0.71 0.85 0.75 0.80 0.77 0.73 0.83 0.84 0.75 0.78 0.71 0.88 0.77 0.78 0.80 0.70 0.83 0.90 0.75 0.89 0.85 0.74 0.74 0.88 0.84 0.76 0.74 0.71 0.87 0.86 0.81 0.86 0.73 0.85 0.78 0.76 0.90 0.86 0.81 0.71 0.81 0.73 0.73 0.81 0.74 0.85 0.83 0.81 0.85 0.85 0.83 0.85 0.77 0.79 0.78 0.82 0.80 0.78 0.87 0.87 0.77 0.84 -9999 -9999 -9999 -9999 -9999 -9999 -9999 -9999 -9999 -9999 -9999 -9999 -9999 -9999 -9999 -9999 -9999 -9999 -9999 -9999
0.79 0.85 0.86 0.85 0.80 0.77 0.80 0.74 0.77 0.84 0.81 0.89 0.84 0.79 0.71 0.80 0.83 0.84 0.75 0.75 0.75 0.70 0.84 0.71 0.83 0.76 0.85 0.81 0.85 0.74 0.86 0.90 0.85 0.75 0.85 0.85 0.79 0.88 0.72 0.89 0.80 0.82 0.71 0.88 0.72 0.82 0.86 0.88 0.80 0.81 0.73 0.77 0.79 0.80 0.80 0.75 0.89 0.71 0.75 0.79 0.84 0.85 0.81 0.77 0.87 0.70 0.84 0.82 0.89 0.74 0.87 0.79 0.77 0.75 0.83 0.89 0.74 0.80 0.70 0.89 0.76 0.84 0.87 0.90 0.84 0.84 0.84 0.82 0.85 0.79 0.87 0.71 0.89 0.75 0.76 0.73 0.73 0.71 0.79 0.71 0.74 0.81 0.78 0.81 0.70 0.77 0.87 0.88 0.73 0.83 0.80 0.79 0.77 0.81 0.85 0.88 0.81 0.87 0.73 0.75 0.70 0.74 0.81 0.71 0.73 0.89 0.84 0.84 0.77 0.89 0.73 0.88 0.78 0.89 0.83 0.74 0.81 0.72 0.81 0.89 0.78 0.77 0.86 0.85 0.88 0.87 0.70 0.71 0.77 0.85 0.76 0.74 0.76 0.85 0.75 0.85 0.78 0.82 0.86 0.83 0.87 0.80 0.87 0.78 0.87 0.88 0.88 0.72 0.72 0.71 0.71 0.85 0.84 0.72 0.71 0.85 0.82 0.89 0.71 0.72 0.82 0.72 0.80 0.79 0.80 0.89 0.79 0.82 0.81 0.90 0.90 0.80 0.76 0.78 0.90 -9999 -9999 -9999 -9999 -9999 -9999 -9999 -9999 -9999 -9999 -9999 -9999 -9999 -9999 -9999 -9999 -9999 -9999 -9999 -9999
0.73 0.72 0.82 0.78 0.86 0.77 0.85 0.74 0.87 0.82 0.83 0.81 0.79 0.86 0.74 0.71 0.90 0.70 0.70 0.74 0.81 0.77 0.76 0.75 0.76 0.87 0.86 0.86 0.79 0.83 0.79 0.84 0.77 0.87 0.79 0.81 0.76 0.88 0.87 0.75 0.90 0.86 0.75 0.75 0.87 0.84 0.71 0.77 0.82 0.88 0.88 0.81 0.82 0.75 0.83 0.73 0.88 0.73 0.72 0.84 0.72 0.81 0.84 0.87 0.72 0.87 0.81 0.82 0.90 0.74 0.73 0.85 0.71 0.81 0.74 0.90 0.81 0.84 0.83 0.76 0.76 0.84 0.79 0.74 0.82 0.86 0.70 0.70 0.85 0.80 0.81 0.85 0.85 0.76 0.71 0.71 0.85 0.71 0.73 0.82 0.72 0.85 0.85 0.86 0.85 0.87 0.80 0.82 0.89 0.88 0.88 0.84 0.81 0.71 0.73 0.71 0.74 0.79 0.77 0.85 0.77 0.83 0.86 0.89 0.70 0.74 0.78 0.74 0.81 0.82 0.76 0.81 0.76 0.81 0.76 0.78 0.81 0.83 0.72 0.71 0.76 0.81 0.71 0.83 0.77 0.85 0.79 0.90 0.80 0.80 0.70 0.75 0.78 0.81 0.79 0.77 0.73 0.79 0.85 0.72 0.87 0.88 0.75 0.77 0.77 0.90 0.73 0.77 0.85 0.80 0.86 0.88 0.89 0.80 0.86 0.85 0.89 0.78 0.84 0.73 0.77 0.80 0.72 0.80 0.79 0.71 0.71 0.82 0.87 0.75 0.74 0.79 0.83 0.73 0.72 -9999 -9999 -9999 -9999 -9999 -9999 -9999 -9999 -9999 -9999 -9999 -9999 -9999 -9999 -9999 -9999 -9999 -9999 -9999 -9999
0.90 0.90 0.76 0.89 0.85 0.86 0.89 0.72 0.77 0.71 0.85 0.89 0.75 0.75 0.87 0.76 0.74 0.73 0.82 0.85 0.82 0.73 0.82 0.71 0.86 0.86 0.71 0.73 0.85 0.84 0.79 0.76 0.88 0.76 0.87 0.79 0.75 0.87 0.71 0.83 0.81 0.72 0.77 0.78 0.78 0.85 0.76 0.77 0.81 0.76 0.83 0.70 0.73 0.88 0.72 0.81 0.71 0.87 0.81 0.75 0.73 0.84 0.74 0.86 0.85 0.73 0.85 0.77 0.88 0.71 0.86 0.80 0.84 0.81 0.73 0.88 0.88 0.77 0.79 0.85 0.73 0.73 0.86 0.76 0.78 0.85 0.85 0.74 0.75 0.79 0.84 0.80 0.71 0.76 0.89 0.77 0.73 0.85 0.76 0.84 0.83 0.79 0.84 0.79 0.73 0.73 0.90 0.76 0.89 0.82 0.88 0.75 0.82 0.80 0.82 0.85 0.72 0.79 0.89 0.87 0.79 0.73 0.79 0.75 0.79 0.74 0.72 0.84 0.74 0.73 0.83 0.86 0.85 0.79 0.84 0.86 0.73 0.78 0.90 0.83 0.85 0.87 0.80 0.87 0.71 0.73 0.85 0.84 0.84 0.87 0.85 0.78 0.86 0.77 0.88 0.74 0.88 0.75 0.90 0.78 0.73 0.70 0.83 0.86 0.71 0.70 0.87 0.73 0.88 0.72 0.75 0.78 0.83 0.70 0.76 0.77 0.73 0.77 0.83 0.76 0.78 0.90 0.73 0.71 0.82 0.87 0.87 0.81 0.88 0.81 0.75 0.83 0.73 0.78 0.78 0.89 -9999 -9999 -9999 -9999 -9999 -9999 -9999 -9999 -9999 -9999 -9999 -9999 -9999 -9999 -9999 -9999 -9999 -9999 -9999
0.78 0.86 0.83 0.77 0.74 0.81 0.74 0.83 0.81 0.78 0.87 0.87 0.75 0.84 0.74 0.80 0.80 0.77 0.88 0.89 0.86 0.73 0.88 0.84 0.78 0.87 0.73 0.80 0.88 0.76 0.83 0.75 0.82 0.73 0.76 0.89 0.74 0.80 0.73 0.70 0.72 0.82 0.82 0.88 0.88 0.82 0.78 0.84 0.75 0.88 0.89 0.79 0.89 0.73 0.81 0.86 0.76 0.83 0.81 0.80 0.72 0.73 0.85 0.87 0.73 0.80 0.89 0.77 0.71 0.73 0.77 0.83 0.72 0.85 0.80 0.84 0.77 0.75 0.78 0.88 0.87 0.75 0.76 0.78 0.75 0.78 0.78 0.71 0.85 0.75 0.70 0.89 0.86 0.72 0.82 0.87 0.83 0.80 0.71 0.81 0.76 0.82 0.81 0.81 0.87 0.84 0.78 0.72 0.85 0.80 0.77 0.80 0.82 0.85 0.74 0.73 0.81 0.79 0.81 0.78 0.72 0.71 0.85 0.72 0.83 0.74 0.73 0.84 0.80 0.82 0.73 0.76 0.73 0.86 0.74 0.83 0.71 0.71 0.87 0.88 0.71 0.74 0.86 0.85 0.72 0.76 0.75 0.77 0.77 0.83 0.84 0.80 0.89 0.78 0.71 0.76 0.73 0.74 0.87 0.80 0.77 0.87 0.77 0.89 0.89 0.73 0.80 0.81 0.80 0.89 0.87 0.89 0.88 0.79 0.81 0.71 0.85 0.80 0.72 0.83 0.84 0.76 0.74 0.89 0.75 0.71 0.76 0.80 0.86 0.74 0.90 0.83 0.86 0.83 0.85 0.71 -9999 -9999 -9999 -9999 -9999 -9999 -9999 -9999 -9999 -9999 -9999 -9999 -9999 -9999 -9999 -9999 -9999 -9999 -9999
0.90 0.72 0.75 0.72 0.81 0.80 0.83 0.77 0.87 0.85 0.70 0.80 0.86 0.73 0.88 0.89 0.82 0.72 0.73 0.75 0.90 0.89 0.73 0.70 0.84 0.75 0.88 0.78 0.71 0.82 0.73 0.89 0.72 0.85 0.83 0.71 0.81 0.82 0.74 0.78 0.88 0.85 0.84 0.86 0.81 0.88 0.88 0.70 0.81 0.74 0.89 0.75 0.82 0.79 0.86 0.87 0.88 0.74 0.78 0.88 0.81 0.75 0.90 0.87 0.78 0.70 0.77 0.77 0.86 0.81 0.73 0.82 0.83 0.88 0.76 0.74 0.87 0.75 0.81 0.82 0.81 0.80 0.83 0.76 0.73 0.74 0.79 0.88 0.75 0.76 0.72 0.80 0.72 0.83 0.90 0.76 0.73 0.72 0.78 0.79 0.85 0.76 0.81 0.87 0.75 0.84 0.89 0.88 0.79 0.73 0.74 0.79 0.90 0.72 0.71 0.90 0.84 0.74 0.71 0.83 0.81 0.75 0.83 0.81 0.88 0.89 0.86 0.77 0.83 0.71 0.80 0.83 0.90 0.88 0.77 0.87 0.87 0.80 0.85 0.72 0.74 0.71 0.75 0.75 0.88 0.86 0.80 0.74 0.84 0.79 0.85 0.72 0.84 0.84 0.81 0.85 0.80 0.78 0.85 0.76 0.77 0.74 0.86 0.77 0.87 0.80 0.80 0.80 0.79 0.88 0.89 0.73 0.81 0.84 0.81 0.77 0.75 0.88 0.90 0.89 0.71 0.70 0.82 0.73 0.81 0.74 0.79 0.88 0.74 0.90 0.89 0.72 0.89 0.73 0.83 0.87 -9999 -9999 -9999 -9999 -9999 -9999 -9999 -9999 -9999 -9999 -9999 -9999 -9999 -9999 -9999 -9999 -9999 -9999 -9999
0.78 0.74 0.89 0.74 0.89 0.82 0.73 0.73 0.89 0.85 0.84 0.75 0.76 0.83 0.87 0.80 0.75 0.81 0.87 0.89 0.75 0.79 0.79 0.80 0.72 0.76 0.72 0.75 0.81 0.78 0.76 0.87 0.70 0.84 0.79 0.77 0.77 0.89 0.81 0.87 0.85 0.87 0.83 0.73 0.90 0.82 0.75 0.76 0.70 0.87 0.81 0.83 0.87 0.81 0.75 0.83 0.79 0.71 0.86 0.83 0.89 0.90 0.83 0.77 0.76 0.89 0.77 0.76 0.75 0.85 0.76 0.82 0.71 0.78 0.89 0.75 0.83 0.74 0.86 0.74 0.82 0.79 0.75 0.87 0.71 0.73 0.81 0.86 0.75 0.87 0.88 0.80 0.86 0.76 0.85 0.86 0.83 0.72 0.88 0.88 0.80 0.71 0.71 0.72 0.80 0.72 0.82 0.80 0.83 0.84 0.75 0.88 0.84 0.72 0.81 0.88 0.86 0.88 0.72 0.73 0.86 0.73 0.78 0.74 0.82 0.76 0.77 0.79 0.83 0.75 0.74 0.87 0.88 0.79 0.84 0.79 0.73 0.83 0.77 0.81 0.84 0.74 0.82 0.75 0.90 0.89 0.71 0.85 0.72 0.73 0.80 0.76 0.75 0.87 0.86 0.83 0.88 0.85 0.73 0.81 0.74 0.77 0.84 0.88 0.75 0.76 0.75 0.70 0.75 0.83 0.79 0.84 0.75 0.89 0.81 0.83 0.80 0.89 0.76 0.89 0.75 0.84 0.77 0.86 0.76 0.76 0.79 0.84 0.88 0.89 0.76 0.82 0.72 0.83 0.77 0.78 -9999 -9999 -9999 -9999 -9999 -9999 -9999 -9999 -9999 -9999 -9999 -9999 -9999 -9999 -9999 -9999 -9999 -9999 -9999
0.71 0.80 0.89 0.80 0.71 0.73 0.73 0.87 0.72 0.84 0.81 0.74 0.85 0.89 0.87 0.77 0.81 0.71 0.89 0.74 0.73 0.77 0.83 0.76 0.75 0.82 0.87 0.76 0.77 0.88 0.77 0.89 0.89 0.84 0.79 0.75 0.74 0.85 0.72 0.72 0.73 0.74 0.88 0.72 0.82 0.84 0.85 0.81 0.73 0.82 0.76 0.90 0.73 0.77 0.76 0.74 0.72 0.87 0.70 0.80 0.74 0.74 0.76 0.74 0.87 0.89 0.76 0.80 0.89 0.89 0.85 0.88 0.83 0.82 0.74 0.77 0.84 0.78 0.70 0.79 0.86 0.71 0.88 0.90 0.90 0.75 0.74 0.77 0.88 0.78 0.83 0.79 0.75 0.81 0.77 0.87 0.74 0.86 0.71 0.81 0.79 0.84 0.82 0.74 0.72 0.76 0.87 0.77 0.83 0.77 0.70 0.82 0.74 0.81 0.76 0.73 0.72 0.88 0.88 0.76 0.85 0.79 0.84 0.87 0.79 0.79 0.87 0.89 0.88 0.79 0.89 0.77 0.82 0.90 0.71 0.87 0.79 0.87 0.88 0.83 0.88 0.81 0.74 0.75 0.74 0.79 0.88 0.80 0.79 0.83 0.70 0.85 0.79 0.89 0.84 0.74 0.80 0.78 0.85 0.88 0.71 0.85 0.89 0.77 0.86 0.88 0.70 0.90 0.87 0.76 0.74 0.89 0.88 0.74 0.81 0.79 0.75 0.83 0.80 0.85 0.79 0.86 0.85 0.73 0.85 0.86 0.77 0.78 0.82 0.85 0.74 0.82 0.87 0.86 0.75 0.83 -9999 -9999 -9999 -9999 -9999 -9999 -9999 -9999 -9999 -9999 -9999 -9999 -9999 -9999 -9999 -9999 -9999 -9999 -9999
0.77 0.78 0.80 0.81 0.75 0.84 0.78 0.75 0.80 0.88 0.75 0.85 0.80 0.73 0.83 0.82 0.77 0.90 0.71 0.77 0.71 0.73 0.73 0.79 0.86 0.86 0.80 0.79 0.70 0.86 0.79 0.75 0.83 0.77 0.79 0.71 0.79 0.71 0.76 0.83 0.88 0.79 0.74 0.82 0.80 0.70 0.84 0.82 0.81 0.89 0.74 0.81 0.76 0.81 0.79 0.84 0.71 0.78 0.84 0.84 0.79 0.88 0.79 0.70 0.87 0.89 0.86 0.79 0.75 0.83 0.87 0.71 0.85 0.77 0.81 0.83 0.85 0.77 0.73 0.71 0.72 0.76 0.86 0.87 0.87 0.86 0.85 0.87 0.86 0.70 0.78 0.77 0.80 0.80 0.74 0.87 0.85 0.88 0.73 0.74 0.74 0.87 0.76 0.72 0.88 0.84 0.79 0.73 0.83 0.87 0.84 0.86 0.79 0.73 0.77 0.72 0.85 0.88 0.74 0.88 0.76 0.76 0.87 0.76 0.84 0.74 0.88 0.89 0.85 0.73 0.88 0.79 0.86 0.86 0.86 0.70 0.85 0.86 0.71 0.81 0.70 0.70 0.77 0.81 0.81 0.89 0.87 0.84 0.71 0.73 0.82 0.74 0.72 0.76 0.72 0.89 0.84 0.73 0.86 0.76 0.75 0.70 0.88 0.82 0.79 0.72 0.86 0.72 0.76 0.73 0.80 0.72 0.70 0.74 0.75 0.72 0.85 0.87 0.73 0.78 0.72 0.74 0.77 0.78 0.84 0.88 0.80 0.74 0.89 0.76 0.75 0.76 0.85 0.81 0.84 0.89 -9999 -9999 -9999 -9999 -9999 -9999 -9999 -9999 -9999 -9999 -9999 -9999 -9999 -9999 -9999 -9999 -9999 -9999 -9999
0.75 0.76 0.79 0.79 0.71 0.87 0.88 0.76 0.76 0.84 0.82 0.80 0.78 0.81 0.75 0.71 0.86 0.82 0.82 0.89 0.75 0.89 0.85 0.76 0.76 0.83 0.85 0.78 0.72 0.75 0.79 0.86 0.70 0.87 0.78 0.79 0.73 0.86 0.86 0.72 0.76 0.74 0.80 0.87 0.87 0.81 0.72 0.87 0.87 0.75 0.83 0.89 0.71 0.89 0.79 0.88 0.85 0.87 0.82 0.89 0.82 0.75 0.86 0.78 0.89 0.88 0.75 0.83 0.85 0.81 0.84 0.87 0.80 0.77 0.84 0.78 0.73 0.87 0.86 0.82 0.79 0.78 0.79 0.71 0.75 0.78 0.83 0.87 0.71 0.71 0.89 0.85 0.84 0.74 0.79 0.81 0.85 0.78 0.76 0.79 0.88 0.81 0.71 0.75 0.71 0.74 0.78 0.84 0.80 0.80 0.81 0.86 0.72 0.71 0.72 0.84 0.86 0.80 0.90 0.73 0.90 0.80 0.82 0.88 0.74 0.82 0.81 0.77 0.87 0.75 0.80 0.80 0.80 0.72 0.81 0.80 0.71 0.79 0.88 0.78 0.70 0.88 0.73 0.75 0.79 0.83 0.70 0.85 0.75 0.77 0.76 0.73 0.86 0.76 0.72 0.81 0.89 0.88 0.78 0.76 0.84 0.73 0.75 0.78 0.80 0.73 0.79 0.72 0.90 0.87 0.83 0.75 0.72 0.75 0.90 0.72 0.81 0.83 0.79 0.76 0.74 0.78 0.80 0.76 0.73 0.77 0.88 0.82 0.86 0.78 0.72 0.73 0.79 0.83 0.76 0.83 -9999 -9999 -9999 -9999 -9999 -9999 -9999 -9999 -9999 -9999 -9999 -9999 -9999 -9999 -9999 -9999 -9999 -9999 -9999
0.84 0.87 0.74 0.89 0.74 0.81 0.77 0.83 0.79 0.79 0.74 0.71 0.75 0.84 0.87 0.88 0.72 0.72 0.75 0.74 0.89 0.82 0.81 0.72 0.89 0.81 0.74 0.73 0.76 0.87 0.85 0.89 0.75 0.85 0.79 0.72 0.70 0.70 0.81 0.79 0.72 0.76 0.89 0.75 0.86 0.86 0.72 0.80 0.71 0.81 0.76 0.85 0.75 0.88 0.90 0.82 0.82 0.76 0.78 0.87 0.83 0.81 0.82 0.81 0.90 0.83 0.73 0.80 0.75 0.78 0.72 0.80 0.79 0.71 0.83 0.70 0.86 0.73 0.76 0.79 0.73 0.86 0.76 0.85 0.74 0.71 0.86 0.74 0.79 0.86 0.73 0.85 0.85 0.86 0.76 0.86 0.78 0.70 0.72 0.87 0.72 0.84 0.86 0.74 0.90 0.76 0.77 0.71 0.75 0.82 0.87 0.90 0.80 0.77 0.84 0.74 0.88 0.74 0.81 0.86 0.71 0.76 0.84 0.83 0.76 0.79 0.77 0.84 0.85 0.83 0.71 0.83 0.85 0.81 0.88 0.87 0.86 0.85 0.77 0.86 0.81 0.80 0.82 0.77 0.72 0.72 0.70 0.77 0.71 0.86 0.85 0.84 0.84 0.87 0.81 0.83 0.70 0.75 0.74 0.85 0.85 0.76 0.74 0.76 0.75 0.79 0.80 0.76 0.74 0.73 0.86 0.77 0.87 0.71 0.75 0.74 0.71 0.71 0.84 0.82 0.78 0.80 0.72 0.78 0.79 0.81 0.79 0.90 0.83 0.86 0.71 0.90 0.73 0.77 0.81 0.75 0.75 -9999 -9999 -9999 -9999 -9999 -9999 -9999 -9999 -9999 -9999 -9999 -9999 -9999 -9999 -9999 -9999 -9999 -9999
0.70 0.85 0.88 0.75 0.74 0.89 0.76 0.76 0.75 0.86 0.83 0.78 0.89 0.85 0.84 0.78 0.82 0.85 0.79 0.86 0.88 0.81 0.79 0.71 0.79 0.79 0.78 0.73 0.73 0.90 0.90 0.79 0.74 0.74 0.80 0.88 0.81 0.75 0.89 0.72 0.71 0.88 0.80 0.70 0.70 0.81 0.84 0.88 0.79 0.76 0.85 0.78 0.80 0.87 0.84 0.81 0.89 0.78 0.81 0.88 0.84 0.79 0.85 0.72 0.87 0.80 0.88 0.73 0.88 0.81 0.71 0.73 0.85 0.74 0.78 0.83 0.79 0.76 0.85 0.77 0.72 0.87 0.81 0.84 0.72 0.72 0.88 0.70 0.77 0.80 0.73 0.88 0.83 0.79 0.79 0.80 0.80 0.89 0.79 0.90 0.82 0.88 0.86 0.80 0.71 0.71 0.89 0.89 0.71 0.82 0.86 0.80 0.71 0.83 0.84 0.83 0.74 0.77 0.83 0.82 0.83 0.79 0.75 0.73 0.73 0.87 0.70 0.74 0.82 0.76 0.70 0.75 0.89 0.84 0.81 0.81 0.78 0.86 0.81 0.80 0.74 0.73 0.85 0.85 0.86 0.75 0.81 0.70 0.75 0.77 0.77 0.74 0.81 0.89 0.78 0.80 0.82 0.83 0.87 0.85 0.84 0.75 0.74 0.82 0.76 0.79 0.83 0.75 0.79 0.71 0.87 0.76 0.86 0.76 0.85 0.76 0.73 0.88 0.88 0.72 0.73 0.79 0.87 0.88 0.72 0.80 0.72 0.72 0.74 0.83 0.87 0.83 0.74 0.80 0.85 0.84 0.73 -9999 -9999 -9999 -9999 -9999 -9999 -9999 -9999 -9999 -9999 -9999 -9999 -9999 -9999 -9999 -9999 -9999 -9999
0.74 0.79 0.87 0.84 0.75 0.90 0.72 0.73 0.80 0.81 0.86 0.86 0.88 0.79 0.88 0.89 0.82 0.82 0.71 0.87 0.79 0.74 0.78 0.77 0.78 0.76 0.86 0.73 0.90 0.81 0.83 0.88 0.84 0.76 0.72 0.76 0.81 0.88 0.87 0.82 0.85 0.81 0.80 0.71 0.74 0.81 0.75 0.87 0.81 0.88 0.89 0.89 0.88 0.78 0.89 0.74 0.89 0.86 0.86 0.80 0.79 0.76 0.73 0.76 0.75 0.73 0.83 0.75 0.70 0.79 0.83 0.80 0.85 0.71 0.90 0.83 0.87 0.84 0.79 0.73 0.77 0.88 0.78 0.79 0.85 0.71 0.71 0.71 0.79 0.89 0.81 0.89 0.74 0.85 0.75 0.79 0.87 0.71 0.78 0.77 0.89 0.84 0.76 0.85 0.88 0.71 0.75 0.76 0.72 0.80 0.71 0.79 0.83 0.76 0.76 0.75 0.81 0.75 0.76 0.79 0.82 0.71 0.85 0.79 0.74 0.80 0.84 0.85 0.81 0.73 0.77 0.71 0.82 0.79 0.72 0.75 0.73 0.75 0.80 0.77 0.87 0.86 0.78 0.71 0.87 0.74 0.75 0.75 0.83 0.81 0.84 0.71 0.87 0.76 0.88 0.80 0.73 0.78 0.87 0.77 0.70 0.73 0.77 0.81 0.78 0.71 0.83 0.88 0.87 0.83 0.71 0.88 0.81 0.78 0.77 0.73 0.89 0.80 0.84 0.76 0.81 0.72 0.82 0.75 0.87 0.84 0.86 0.72 0.86 0.85 0.89 0.88 0.73 0.83 0.79 0.88 0.82 -9999 -9999 -9999 -9999 -9999 -9999 -9999 -9999 -9999 -9999 -9999 -9999 -9999 -9999 -9999 -9999 -9999 -9999
0.90 0.87 0.83 0.78 0.85 0.85 0.79 0.89 0.85 0.75 0.75 0.84 0.75 0.89 0.86 0.89 0.83 0.80 0.82 0.83 0.79 0.83 0.76 0.78 0.76 0.75 0.81 0.73 0.88 0.75 0.74 0.72 0.73 0.84 0.71 0.76 0.85 0.90 0.75 0.85 0.75 0.88 0.73 0.89 0.89 0.89 0.82 0.86 0.79 0.75 0.72 0.87 0.80 0.90 0.85 0.78 0.80 0.79 0.85 0.85 0.85 0.75 0.78 0.82 0.85 0.80 0.78 0.79 0.84 0.81 0.87 0.88 0.87 0.74 0.70 0.86 0.90 0.77 0.86 0.75 0.80 0.76 0.82 0.89 0.71 0.84 0.72 0.82 0.90 0.71 0.89 0.75 0.85 0.75 0.89 0.82 0.87 0.89 0.89 0.85 0.71 0.83 0.78 0.71 0.81 0.72 0.77 0.86 0.74 0.80 0.86 0.74 0.70 0.87 0.74 0.89 0.77 0.87 0.80 0.87 0.82 0.84 0.74 0.72 0.84 0.73 0.79 0.78 0.89 0.88 0.81 0.89 0.71 0.71 0.74 0.80 0.76 0.76 0.86 0.78 0.81 0.73 0.89 0.77 0.75 0.73 0.84 0.84 0.73 0.73 0.87 0.88 0.79 0.81 0.79 0.81 0.84 0.80 0.71 0.77 0.81 0.73 0.81 0.86 0.74 0.81 0.75 0.83 0.71 0.77 0.73 0.84 0.85 0.74 0.82 0.88 0.74 0.71 0.76 0.81 0.85 0.78 0.72 0.85 0.90 0.83 0.86 0.74 0.81 0.70 0.83 0.75 0.73 0.87 0.78 0.83 0.82 -9999 -9999 -9999 -9999 -9999 -9999 -9999 -9999 -9999 -9999 -9999 -9999 -9999 -9999 -9999 -9999 -9999 -9999
0.85 0.86 0.88 0.83 0.72 0.73 0.75 0.85 0.86 0.80 0.72 0.82 0.84 0.87 0.74 0.78 0.81 0.79 0.75 0.79 0.76 0.83 0.86 0.89 0.77 0.83 0.81 0.89 0.88 0.71 0.71 0.78 0.71 0.83 0.89 0.85 0.76 0.85 0.71 0.85 0.84 0.76 0.73 0.83 0.86 0.79 0.77 0.79 0.79 0.84 0.86 0.77 0.84 0.78 0.88 0.81 0.84 0.85 0.72 0.78 0.90 0.85 0.76 0.71 0.88 0.78 0.88 0.82 0.74 0.76 0.79 0.70 0.88 0.88 0.86 0.74 0.78 0.72 0.82 0.79 0.83 0.75 0.81 0.90 0.87 0.76 0.81 0.74 0.87 0.76 0.75 0.86 0.78 0.87 0.78 0.80 0.73 0.71 0.86 0.77 0.74 0.81 0.81 0.78 0.70 0.84 0.77 0.73 0.89 0.83 0.79 0.73 0.77 0.85 0.86 0.88 0.89 0.90 0.81 0.72 0.73 0.76 0.85 0.81 0.86 0.87 0.78 0.81 0.73 0.74 0.87 0.77 0.71 0.74 0.88 0.90 0.83 0.77 0.83 0.81 0.84 0.74 0.73 0.85 0.76 0.80 0.73 0.72 0.87 0.75 0.86 0.88 0.76 0.81 0.87 0.88 0.82 0.80 0.72 0.89 0.90 0.87 0.75 0.80 0.71 0.78 0.85 0.82 0.86 0.82 0.86 0.87 0.73 0.83 0.85 0.70 0.89 0.84 0.88 0.82 0.83 0.85 0.88 0.86 0.86 0.75 0.78 0.79 0.86 0.83 0.75 0.79 0.77 0.74 0.86 0.74 0.87 -9999 -9999 -9999 -9999 -9999 -9999 -9999 -9999 -9999 -9999 -9999 -9999 -9999 -9999 -9999 -9999 -9999 -9999
0.88 0.84 0.74 0.76 0.85 0.86 0.77 0.75 0.81 0.78 0.72 0.80 0.82 0.71 0.74 0.75 0.77 0.84 0.88 0.83 0.80 0.89 0.85 0.75 0.84 0.70 0.90 0.80 0.76 0.72 0.85 0.78 0.87 0.75 0.86 0.73 0.87 0.82 0.89 0.79 0.81 0.87 0.78 0.70 0.76 0.85 0.80 0.89 0.71 0.89 0.73 0.83 0.84 0.74 0.83 0.80 0.81 0.79 0.73 0.73 0.81 0.84 0.82 0.85 0.72 0.77 0.77 0.77 0.76 0.78 0.73 0.84 0.86 0.78 0.73 0.81 0.72 0.76 0.85 0.90 0.84 0.76 0.87 0.84 0.76 0.83 0.82 0.71 0.75 0.86 0.76 0.87 0.88 0.86 0.84 0.78 0.88 0.71 0.88 0.70 0.84 0.87 0.79 0.74 0.85 0.82 0.82 0.81 0.74 0.87 0.83 0.71 0.85 0.72 0.76 0.89 0.77 0.77 0.77 0.74 0.83 0.75 0.75 0.84 0.79 0.81 0.80 0.84 0.83 0.86 0.71 0.84 0.82 0.82 0.85 0.86 0.72 0.84 0.85 0.75 0.74 0.78 0.78 0.72 0.86 0.90 0.85 0.73 0.90 0.71 0.76 0.76 0.86 0.79 0.89 0.78 0.78 0.83 0.77 0.77 0.89 0.74 0.76 0.86 0.76 0.85 0.80 0.83 0.86 0.71 0.79 0.83 0.84 0.83 0.84 0.87 0.89 0.79 0.81 0.89 0.72 0.80 0.85 0.74 0.80 0.84 0.72 0.72 0.70 0.84 0.88 0.72 0.84 0.80 0.87 0.88 0.82 -9999 -9999 -9999 -9999 -9999 -9999 -9999 -9999 -9999 -9999 -9999 -9999 -9999 -9999 -9999 -9999 -9999 -9999
0.70 0.83 0.74 0.85 0.84 0.78 0.79 0.81 0.86 0.81 0.74 0.82 0.70 0.79 0.82 0.86 0.87 0.78 0.78 0.72 0.87 0.78 0.77 0.83 0.87 0.77 0.77 0.88 0.90 0.79 0.72 0.86 0.77 0.84 0.86 0.87 0.75 0.80 0.76 0.89 0.78 0.77 0.76 0.78 0.83 0.76 0.82 0.89 0.82 0.72 0.79 0.75 0.82 0.83 0.85 0.89 0.77 0.89 0.77 0.86 0.84 0.89 0.86 0.83 0.76 0.73 0.76 0.74 0.75 0.80 0.79 0.73 0.86 0.85 0.83 0.80 0.79 0.75 0.71 0.80 0.72 0.73 0.85 0.83 0.79 0.80 0.81 0.85 0.84 0.89 0.83 0.83 0.83 0.85 0.86 0.73 0.86 0.81 0.74 0.76 0.75 0.88 0.78 0.89 0.74 0.89 0.78 0.76 0.71 0.82 0.76 0.76 0.71 0.73 0.84 0.87 0.80 0.89 0.75 0.71 0.89 0.83 0.87 0.78 0.88 0.74 0.90 0.82 0.89 0.73 0.76 0.72 0.73 0.79 0.78 0.74 0.79 0.85 0.88 0.84 0.77 0.79 0.70 0.88 0.85 0.71 0.81 0.87 0.84 0.87 0.71 0.85 0.82 0.85 0.77 0.84 0.88 0.87 0.76 0.78 0.85 0.84 0.85 0.86 0.72 0.85 0.81 0.87 0.87 0.89 0.78 0.81 0.76 0.86 0.80 0.86 0.79 0.84 0.77 0.81 0.82 0.88 0.87 0.86 0.84 0.85 0.73 0.77 0.73 0.72 0.72 0.83 0.71 0.77 0.87 0.75 0.75 0.78 -9999 -9999 -9999 -9999 -9999 -9999 -9999 -9999 -9999 -9999 -9999 -9999 -9999 -9999 -9999 -9999 -9999
0.70 0.71 0.82 0.88 0.76 0.87 0.86 0.82 0.73 0.85 0.86 0.89 0.82 0.86 0.90 0.86 0.81 0.78 0.74 0.76 0.84 0.78 0.87 0.78 0.89 0.81 0.80 0.77 0.79 0.83 0.81 0.81 0.86 0.73 0.79 0.75 0.74 0.84 0.70 0.86 0.79 0.89 0.77 0.89 0.71 0.74 0.83 0.77 0.87 0.82 0.81 0.71 0.79 0.73 0.85 0.80 0.82 0.84 0.79 0.90 0.84 0.88 0.86 0.84 0.74 0.77 0.85 0.74 0.84 0.74 0.80 0.76 0.72 0.87 0.76 0.84 0.86 0.79 0.75 0.84 0.88 0.83 0.73 0.77 0.85 0.86 0.84 0.85 0.80 0.90 0.79 0.73 0.75 0.90 0.72 0.87 0.74 0.70 0.77 0.87 0.80 0.78 0.85 0.80 0.77 0.72 0.79 0.80 0.84 0.72 0.74 0.70 0.74 0.76 0.76 0.88 0.87 0.71 0.73 0.71 0.76 0.85 0.88 0.79 0.74 0.76 0.80 0.85 0.75 0.82 0.76 0.74 0.77 0.77 0.70 0.80 0.75 0.83 0.77 0.81 0.71 0.79 0.73 0.73 0.80 0.71 0.88 0.82 0.79 0.78 0.73 0.74 0.73 0.81 0.75 0.71 0.82 0.84 0.86 0.88 0.88 0.74 0.79 0.82 0.72 0.76 0.74 0.90 0.85 0.73 0.83 0.73 0.75 0.90 0.90 0.77 0.73 0.82 0.76 0.90 0.86 0.79 0.74 0.85 0.76 0.72 0.82 0.90 0.72 0.84 0.81 0.76 0.84 0.83 0.77 0.78 0.83 0.71 -9999 -9999 -9999 -9999 -9999 -9999 -9999 -9999 -9999 -9999 -9999 -9999 -9999 -9999 -9999 -9999 -9999
0.79 0.71 0.85 0.88 0.89 0.73 0.77 0.85 0.77 0.82 0.74 0.90 0.76 0.76 0.71 0.88 0.90 0.71 0.74 0.82 0.88 0.76 0.78 0.82 0.89 0.73 0.86 0.74 0.87 0.89 0.87 0.81 0.83 0.71 0.75 0.81 0.73 0.77 0.73 0.84 0.82 0.82 0.71 0.88 0.72 0.79 0.75 0.78 0.77 0.77 0.89 0.74 0.82 0.87 0.74 0.80 0.89 0.78 0.78 0.78 0.82 0.80 0.88 0.78 0.75 0.76 0.75 0.79 0.90 0.89 0.87 0.80 0.79 0.84 0.84 0.75 0.86 0.72 0.75 0.80 0.85 0.71 0.82 0.74 0.79 0.89 0.88 0.79 0.83 0.79 0.83 0.83 0.79 0.84 0.78 0.78 0.73 0.88 0.87 0.78 0.90 0.78 0.89 0.89 0.73 0.70 0.86 0.73 0.89 0.74 0.83 0.74 0.70 0.86 0.72 0.75 0.74 0.79 0.85 0.82 0.85 0.89 0.74 0.75 0.74 0.71 0.71 0.76 0.83 0.79 0.72 0.82 0.78 0.70 0.85 0.89 0.80 0.85 0.86 0.85 0.89 0.78 0.89 0.80 0.74 0.74 0.86 0.75 0.77 0.74 0.87 0.89 0.75 0.75 0.74 0.74 0.75 0.72 0.70 0.88 0.87 0.79 0.76 0.73 0.84 0.87 0.81 0.72 0.81 0.77 0.88 0.71 0.90 0.89 0.72 0.73 0.73 0.80 0.74 0.77 0.77 0.78 0.84 0.81 0.83 0.84 0.81 0.82 0.74 0.74 0.77 0.84 0.88 0.86 0.76 0.74 0.82 0.71 -9999 -9999 -9999 -9999 -9999 -9999 -9999 -9999 -9999 -9999 -9999 -9999 -9999 -9999 -9999 -9999 -9999
0.87 0.78 0.85 0.77 0.80 0.74 0.72 0.76 0.77 0.82 0.74 0.89 0.74 0.82 0.85 0.80 0.86 0.88 0.83 0.82 0.78 0.86 0.85 0.89 0.77 0.86 0.81 0.79 0.70 0.77 0.80 0.90 0.75 0.87 0.84 0.85 0.75 0.83 0.82 0.80 0.87 0.76 0.84 0.87 0.81 0.74 0.89 0.70 0.70 0.84 0.79 0.73 0.80 0.75 0.75 0.80 0.80 0.72 0.82 0.76 0.90 0.72 0.87 0.86 0.82 0.78 0.82 0.70 0.74 0.76 0.77 0.85 0.71 0.75 0.84 0.72 0.70 0.75 0.80 0.76 0.86 0.89 0.81 0.83 0.81 0.84 0.71 0.77 0.80 0.83 0.82 0.75 0.82 0.73 0.73 0.89 0.75 0.79 0.85 0.82 0.87 0.75 0.89 0.76 0.71 0.80 0.87 0.76 0.74 0.84 0.79 0.83 0.71 0.71 0.86 0.78 0.81 0.70 0.89 0.79 0.82 0.70 0.77 0.75 0.71 0.76 0.77 0.84 0.83 0.79 0.73 0.88 0.81 0.73 0.77 0.81 0.80 0.85 0.71 0.82 0.74 0.79 0.80 0.72 0.76 0.82 0.71 0.79 0.72 0.72 0.78 0.88 0.79 0.72 0.86 0.74 0.75 0.72 0.74 0.79 0.83 0.73 0.78 0.87 0.85 0.85 0.86 0.85 0.77 0.81 0.82 0.76 0.84 0.84 0.74 0.77 0.88 0.89 0.77 0.78 0.88 0.73 0.78 0.85 0.71 0.84 0.73 0.72 0.81 0.72 0.81 0.83 0.85 0.72 0.88 0.79 0.73 0.74 -9999 -9999 -9999 -9999 -9999 -9999 -9999 -9999 -9999 -9999 -9999 -9999 -9999 -9999 -9999 -9999 -9999
0.74 0.84 0.79 0.83 0.71 0.87 0.89 0.87 0.75 0.70 0.71 0.80 0.77 0.74 0.82 0.89 0.78 0.85 0.80 0.78 0.72 0.78 0.71 0.77 0.84 0.70 0.70 0.80 0.74 0.90 0.83 0.83 0.81 0.84 0.73 0.83 0.74 0.83 0.83 0.75 0.83 0.87 0.77 0.87 0.78 0.88 0.74 0.88 0.71 0.85 0.89 0.73 0.82 0.88 0.87 0.87 0.70 0.87 0.79 0.72 0.83 0.70 0.89 0.73 0.79 0.88 0.81 0.72 0.77 0.75 0.80 0.75 0.73 0.87 0.87 0.81 0.73 0.86 0.83 0.72 0.76 0.82 0.76 0.76 0.80 0.70 0.90 0.72 0.85 0.74 0.73 0.73 0.73 0.71 0.80 0.73 0.81 0.71 0.80 0.84 0.83 0.81 0.82 0.86 0.72 0.74 0.74 0.85 0.72 0.84 0.81 0.85 0.83 0.76 0.86 0.71 0.83 0.88 0.84 0.76 0.79 0.79 0.76 0.79 0.71 0.73 0.85 0.83 0.86 0.85 0.80 0.74 0.75 0.79 0.71 0.74 0.75 0.78 0.72 0.81 0.80 0.81 0.84 0.76 0.87 0.83 0.81 0.81 0.76 0.75 0.76 0.88 0.70 0.73 0.73 0.77 0.82 0.83 0.80 0.90 0.83 0.77 0.90 0.88 0.89 0.84 0.77 0.78 0.85 0.76 0.84 0.77 0.84 0.70 0.87 0.85 0.80 0.89 0.79 0.71 0.84 0.85 0.82 0.78 0.87 0.73 0.90 0.77 0.73 0.85 0.77 0.82 0.87 0.86 0.79 0.72 0.78 0.86 -9999 -9999 -9999 -9999 -9999 -9999 -9999 -9999 -9999 -9999 -9999 -9999 -9999 -9999 -9999 -9999 -9999
0.75 0.80 0.86 0.83 0.83 0.71 0.73 0.71 0.88 0.73 0.86 0.85 0.72 0.79 0.83 0.83 0.73 0.87 0.79 0.90 0.86 0.85 0.86 0.74 0.80 0.88 0.74 0.90 0.90 0.89 0.85 0.87 0.90 0.85 0.73 0.78 0.84 0.75 0.78 0.76 0.82 0.71 0.79 0.86 0.85 0.78 0.79 0.71 0.90 0.81 0.73 0.85 0.86 0.84 0.89 0.79 0.80 0.86 0.88 0.86 0.74 0.74 0.79 0.80 0.89 0.87 0.84 0.75 0.88 0.75 0.87 0.74 0.81 0.78 0.90 0.78 0.71 0.79 0.78 0.90 0.79 0.85 0.72 0.73 0.77 0.83 0.89 0.81 0.71 0.89 0.87 0.84 0.89 0.71 0.84 0.89 0.74 0.76 0.85 0.73 0.89 0.80 0.80 0.74 0.87 0.76 0.71 0.79 0.73 0.73 0.70 0.82 0.72 0.79 0.80 0.75 0.82 0.87 0.73 0.90 0.86 0.80 0.78 0.85 0.89 0.87 0.82 0.76 0.82 0.75 0.72 0.74 0.89 0.83 0.85 0.72 0.75 0.84 0.87 0.87 0.70 0.86 0.77 0.71 0.74 0.74 0.71 0.73 0.77 0.77 0.77 0.84 0.83 0.74 0.74 0.88 0.89 0.82 0.86 0.83 0.84 0.77 0.87 0.80 0.77 0.81 0.80 0.81 0.84 0.86 0.73 0.81 0.88 0.87 0.81 0.77 0.72 0.77 0.79 0.73 0.84 0.79 0.89 0.78 0.88 0.71 0.79 0.83 0.79 0.83 0.89 0.77 0.82 0.79 0.81 0.79 0.72 0.89 -9999 -9999 -9999 -9999 -9999 -9999 -9999 -9999 -9999 -9999 -9999 -9999 -9999 -9999 -9999 -9999 -9999
0.79 0.77 0.83 0.87 0.70 0.90 0.80 0.86 0.87 0.76 0.74 0.86 0.86 0.73 0.70 0.74 0.76 0.83 0.90 0.79 0.83 0.85 0.75 0.79 0.89 0.75 0.70 0.79 0.76 0.70 0.80 0.74 0.80 0.81 0.84 0.85 0.87 0.90 0.82 0.90 0.81 0.86 0.88 0.79 0.75 0.81 0.80 0.77 0.74 0.83 0.88 0.85 0.86 0.84 0.87 0.83 0.73 0.76 0.90 0.74 0.81 0.86 0.83 0.85 0.73 0.74 0.73 0.79 0.73 0.78 0.79 0.75 0.84 0.81 0.89 0.71 0.84 0.89 0.78 0.88 0.72 0.81 0.88 0.80 0.78 0.73 0.73 0.85 0.72 0.78 0.89 0.87 0.83 0.72 0.78 0.78 0.77 0.84 0.81 0.85 0.87 0.83 0.89 0.83 0.81 0.82 0.81 0.75 0.70 0.75 0.87 0.75 0.88 0.89 0.78 0.78 0.70 0.86 0.83 0.78 0.88 0.78 0.75 0.74 0.82 0.82 0.78 0.89 0.86 0.81 0.89 0.88 0.88 0.89 0.84 0.86 0.78 0.84 0.78 0.76 0.84 0.76 0.78 0.83 0.75 0.71 0.83 0.70 0.89 0.85 0.85 0.75 0.79 0.77 0.71 0.79 0.88 0.77 0.86 0.79 0.82 0.89 0.87 0.88 0.77 0.80 0.79 0.76 0.87 0.74 0.89 0.76 0.72 0.75 0.81 0.73 0.82 0.86 0.85 0.85 0.86 0.81 0.82 0.85 0.80 0.85 0.86 0.73 0.75 0.74 0.77 0.79 0.78 0.77 0.83 0.77 0.73 0.75 -9999 -9999 -9999 -9999 -9999 -9999 -9999 -9999 -9999 -9999 -9999 -9999 -9999 -9999 -9999 -9999 -9999
0.76 0.82 0.70 0.80 0.88 0.86 0.73 0.71 0.76 0.72 0.89 0.74 0.83 0.74 0.82 0.83 0.76 0.85 0.70 0.83 0.78 0.81 0.83 0.76 0.90 0.83 0.72 0.80 0.71 0.84 0.90 0.80 0.77 0.81 0.71 0.72 0.82 0.82 0.86 0.74 0.79 0.73 0.78 0.72 0.77 0.71 0.76 0.74 0.74 0.90 0.86 0.81 0.80 0.87 0.85 0.78 0.72 0.84 0.79 0.75 0.77 0.85 0.83 0.88 0.85 0.76 0.74 0.84 0.74 0.88 0.71 0.88 0.81 0.86 0.75 0.71 0.82 0.85 0.90 0.89 0.78 0.76 0.76 0.77 0.86 0.83 0.89 0.87 0.88 0.80 0.80 0.90 0.75 0.79 0.73 0.88 0.73 0.74 0.72 0.76 0.86 0.78 0.77 0.83 0.71 0.81 0.75 0.79 0.88 0.76 0.86 0.81 0.84 0.85 0.82 0.82 0.84 0.87 0.81 0.86 0.90 0.70 0.78 0.79 0.81 0.73 0.73 0.77 0.75 0.75 0.70 0.72 0.77 0.76 0.74 0.77 0.83 0.77 0.90 0.82 0.70 0.90 0.77 0.75 0.73 0.84 0.70 0.86 0.76 0.76 0.77 0.75 0.73 0.76 0.76 0.71 0.71 0.77 0.86 0.84 0.78 0.90 0.75 0.75 0.84 0.83 0.81 0.84 0.76 0.87 0.81 0.75 0.78 0.75 0.73 0.82 0.73 0.89 0.73 0.80 0.79 0.86 0.87 0.88 0.74 0.75 0.79 0.79 0.87 0.70 0.76 0.88 0.77 0.79 0.88 0.88 0.80 0.88 0.70 -9999 -9999 -9999 -9999 -9999 -9999 -9999 -9999 -9999 -9999 -9999 -9999 -9999 -9999 -9999 -9999
0.76 0.82 0.87 0.86 0.77 0.80 0.76 0.75 0.75 0.87 0.84 0.77 0.77 0.83 0.70 0.86 0.72 0.72 0.83 0.72 0.76 0.85 0.83 0.90 0.89 0.89 0.81 0.90 0.71 0.83 0.71 0.83 0.77 0.72 0.75 0.75 0.85 0.82 0.79 0.87 0.79 0.89 0.88 0.72 0.72 0.71 0.88 0.86 0.86 0.74 0.81 0.77 0.77 0.77 0.86 0.75 0.82 0.88 0.75 0.82 0.83 0.74 0.79 0.74 0.87 0.79 0.80 0.86 0.72 0.80 0.78 0.79 0.73 0.86 0.77 0.77 0.78 0.88 0.82 0.85 0.88 0.80 0.72 0.76 0.76 0.76 0.80 0.87 0.75 0.76 0.89 0.77 0.86 0.88 0.81 0.74 0.86 0.77 0.78 0.90 0.86 0.75 0.89 0.81 0.71 0.85 0.80 0.73 0.82 0.72 0.84 0.81 0.85 0.73 0.77 0.76 0.73 0.77 0.82 0.84 0.74 0.74 0.81 0.84 0.71 0.72 0.86 0.74 0.73 0.82 0.73 0.85 0.86 0.84 0.75 0.84 0.73 0.77 0.72 0.73 0.83 0.73 0.77 0.79 0.88 0.70 0.71 0.70 0.76 0.74 0.82 0.85 0.71 0.84 0.72 0.77 0.78 0.86 0.80 0.72 0.73 0.72 0.86 0.86 0.79 0.83 0.72 0.73 0.81 0.80 0.78 0.89 0.79 0.75 0.81 0.85 0.79 0.89 0.82 0.90 0.77 0.80 0.71 0.79 0.82 0.75 0.74 0.76 0.88 0.80 0.85 0.80 0.84 0.86 0.73 0.85 0.80 0.75 0.83 -9999 -9999 -9999 -9999 -9999 -9999 -9999 -9999 -9999 -9999 -9999 -9999 -9999 -9999 -9999 -9999
0.74 0.78 0.87 0.71 0.89 0.85 0.75 0.89 0.82 0.83 0.88 0.79 0.76 0.84 0.87 0.72 0.80 0.89 0.88 0.76 0.75 0.73 0.81 0.71 0.84 0.82 0.85 0.73 0.88 0.78 0.83 0.81 0.86 0.88 0.83 0.72 0.88 0.80 0.82 0.79 0.80 0.79 0.90 0.90 0.79 0.82 0.78 0.82 0.71 0.73 0.76 0.73 0.74 0.72 0.80 0.74 0.70 0.78 0.74 0.83 0.84 0.78 0.75 0.71 0.80 0.72 0.74 0.71 0.73 0.71 0.85 0.75 0.78 0.81 0.82 0.81 0.76 0.81 0.73 0.71 0.85 0.72 0.86 0.88 0.82 0.71 0.71 0.87 0.88 0.83 0.73 0.85 0.74 0.87 0.72 0.77 0.87 0.77 0.89 0.81 0.71 0.83 0.88 0.71 0.85 0.85 0.77 0.77 0.73 0.87 0.88 0.76 0.89 0.79 0.75 0.72 0.72 0.86 0.87 0.85 0.75 0.88 0.82 0.88 0.71 0.85 0.82 0.81 0.76 0.89 0.83 0.90 0.77 0.81 0.73 0.76 0.86 0.83 0.88 0.75 0.81 0.86 0.72 0.72 0.70 0.75 0.89 0.71 0.81 0.81 0.84 0.87 0.79 0.77 0.88 0.79 0.81 0.88 0.78 0.82 0.79 0.88 0.88 0.73 0.80 0.82 0.87 0.80 0.75 0.87 0.81 0.73 0.70 0.80 0.89 0.84 0.73 0.74 0.74 0.85 0.83 0.88 0.88 0.80 0.73 0.71 0.75 0.88 0.73 0.79 0.84 0.79 0.74 0.78 0.75 0.83 0.88 0.72 0.85 -9999 -9999 -9999 -9999 -9999 -9999 -9999 -9999 -9999 -9999 -9999 -9999 -9999 -9999 -9999 -9999
0.77 0.83 0.78 0.70 0.75 0.72 0.84 0.76 0.80 0.72 0.82 0.89 0.80 0.74 0.85 0.72 0.83 0.70 0.76 0.90 0.88 0.87 0.77 0.80 0.83 0.87 0.85 0.82 0.90 0.86 0.87 0.86 0.86 0.90 0.83 0.72 0.80 0.72 0.77 0.79 0.71 0.74 0.80 0.76 0.70 0.87 0.75 0.90 0.88 0.71 0.76 0.86 0.87 0.86 0.87 0.88 0.76 0.72 0.73 0.70 0.86 0.86 0.88 0.80 0.79 0.71 0.76 0.76 0.82 0.75 0.80 0.75 0.79 0.80 0.78 0.75 0.89 0.73 0.85 0.80 0.77 0.76 0.75 0.78 0.80 0.88 0.71 0.81 0.87 0.76 0.79 0.79 0.85 0.84 0.79 0.84 0.71 0.87 0.75 0.78 0.72 0.86 0.72 0.71 0.72 0.85 0.89 0.87 0.85 0.90 0.88 0.89 0.89 0.77 0.79 0.72 0.79 0.83 0.88 0.85 0.72 0.70 0.74 0.71 0.82 0.82 0.87 0.72 0.88 0.77 0.79 0.79 0.71 0.81 0.73 0.84 0.72 0.71 0.87 0.80 0.89 0.75 0.86 0.76 0.87 0.88 0.82 0.84 0.87 0.88 0.80 0.89 0.70 0.85 0.71 0.76 0.81 0.81 0.83 0.78 0.76 0.83 0.79 0.74 0.87 0.81 0.78 0.79 0.75 0.83 0.74 0.80 0.83 0.79 0.81 0.89 0.83 0.83 0.88 0.82 0.76 0.74 0.86 0.82 0.81 0.77 0.73 0.84 0.82 0.83 0.81 0.72 0.90 0.84 0.89 0.73 0.82 0.90 0.83 -9999 -9999 -9999 -9999 -9999 -9999 -9999 -9999 -9999 -9999 -9999 -9999 -9999 -9999 -9999 -9999
0.85 0.88 0.71 0.88 0.82 0.86 0.86 0.84 0.73 0.89 0.76 0.71 0.81 0.70 0.81 0.87 0.88 0.79 0.83 0.83 0.87 0.75 0.73 0.86 0.71 0.70 0.81 0.79 0.84 0.89 0.82 0.76 0.77 0.72 0.81 0.75 0.74 0.80 0.70 0.71 0.77 0.84 0.82 0.82 0.81 0.74 0.87 0.88 0.79 0.83 0.90 0.85 0.89 0.80 0.74 0.75 0.89 0.80 0.79 0.78 0.78 0.85 0.77 0.79 0.85 0.90 0.87 0.75 0.75 0.84 0.84 0.88 0.85 0.84 0.81 0.82 0.75 0.71 0.90 0.76 0.84 0.80 0.85 0.88 0.80 0.84 0.84 0.71 0.77 0.84 0.73 0.86 0.88 0.88 0.87 0.72 0.82 0.72 0.84 0.86 0.81 0.71 0.73 0.72 0.89 0.82 0.84 0.89 0.71 0.85 0.74 0.85 0.75 0.82 0.72 0.73 0.88 0.85 0.75 0.71 0.73 0.89 0.86 0.78 0.85 0.82 0.80 0.72 0.81 0.89 0.89 0.76 0.74 0.88 0.82 0.82 0.86 0.89 0.82 0.78 0.79 0.85 0.72 0.78 0.82 0.87 0.74 0.81 0.89 0.84 0.79 0.84 0.84 0.83 0.89 0.77 0.84 0.78 0.87 0.84 0.79 0.74 0.75 0.87 0.83 0.80 0.73 0.89 0.86 0.87 0.85 0.74 0.74 0.80 0.74 0.73 0.85 0.76 0.78 0.77 0.77 0.78 0.72 0.80 0.78 0.79 0.81 0.78 0.88 0.75 0.82 0.76 0.84 0.79 0.87 0.81 0.89 0.88 0.74 -9999 -9999 -9999 -9999 -9999 -9999 -9999 -9999 -9999 -9999 -9999 -9999 -9999 -9999 -9999 -9999
0.71 0.86 0.74 0.74 0.83 0.88 0.77 0.74 0.77 0.85 0.78 0.86 0.80 0.76 0.88 0.81 0.74 0.78 0.79 0.83 0.86 0.85 0.86 0.71 0.72 0.81 0.89 0.81 0.73 0.75 0.72 0.82 0.81 0.82 0.77 0.80 0.88 0.85 0.84 0.73 0.88 0.81 0.81 0.87 0.79 0.82 0.79 0.80 0.85 0.71 0.78 0.84 0.81 0.73 0.82 0.75 0.75 0.82 0.72 0.88 0.78 0.80 0.81 0.74 0.73 0.83 0.75 0.89 0.80 0.70 0.71 0.81 0.72 0.74 0.78 0.72 0.89 0.82 0.84 0.78 0.71 0.86 0.82 0.86 0.71 0.82 0.72 0.75 0.88 0.90 0.74 0.86 0.80 0.79 0.77 0.82 0.84 0.90 0.72 0.79 0.89 0.72 0.85 0.79 0.71 0.73 0.83 0.71 0.80 0.85 0.73 0.84 0.83 0.88 0.85 0.77 0.74 0.88 0.71 0.75 0.72 0.87 0.77 0.79 0.73 0.83 0.71 0.71 0.77 0.71 0.87 0.86 0.72 0.85 0.77 0.73 0.84 0.79 0.82 0.75 0.87 0.90 0.86 0.80 0.72 0.72 0.70 0.86 0.77 0.72 0.78 0.74 0.90 0.76 0.73 0.77 0.73 0.85 0.82 0.75 0.88 0.88 0.75 0.76 0.80 0.75 0.84 0.81 0.77 0.87 0.78 0.73 0.88 0.75 0.80 0.72 0.73 0.86 0.88 0.75 0.74 0.83 0.87 0.76 0.86 0.84 0.85 0.83 0.75 0.70 0.73 0.90 0.84 0.86 0.89 0.85 0.78 0.72 0.85 -9999 -9999 -9999 -9999 -9999 -9999 -9999 -9999 -9999 -9999 -9999 -9999 -9999 -9999 -9999 -9999
0.79 0.81 0.87 0.71 0.89 0.82 0.78 0.84 0.71 0.87 0.83 0.81 0.83 0.83 0.73 0.89 0.86 0.78 0.83 0.76 0.78 0.88 0.72 0.87 0.84 0.88 0.88 0.79 0.72 0.83 0.83 0.82 0.82 0.81 0.90 0.82 0.85 0.89 0.87 0.88 0.83 0.81 0.80 0.74 0.89 0.81 0.89 0.85 0.76 0.82 0.72 0.76 0.80 0.85 0.83 0.84 0.81 0.83 0.80 0.84 0.72 0.73 0.77 0.84 0.86 0.87 0.73 0.75 0.78 0.87 0.87 0.89 0.89 0.88 0.77 0.82 0.84 0.73 0.72 0.87 0.84 0.85 0.76 0.83 0.89 0.79 0.82 0.84 0.79 0.83 0.70 0.86 0.78 0.82 0.87 0.77 0.80 0.89 0.87 0.71 0.82 0.81 0.79 0.80 0.76 0.82 0.86 0.85 0.84 0.82 0.79 0.88 0.88 0.87 0.88 0.72 0.83 0.83 0.81 0.82 0.88 0.72 0.71 0.90 0.89 0.89 0.76 0.79 0.89 0.77 0.85 0.88 0.74 0.85 0.76 0.88 0.70 0.90 0.73 0.81 0.90 0.71 0.75 0.74 0.80 0.85 0.83 0.85 0.88 0.73 0.75 0.83 0.74 0.78 0.72 0.79 0.73 0.71 0.90 0.88 0.84 0.71 0.88 0.84 0.80 0.83 0.79 0.71 0.72 0.83 0.88 0.72 0.89 0.72 0.81 0.82 0.84 0.77 0.78 0.77 0.88 0.80 0.71 0.72 0.89 0.88 0.71 0.71 0.70 0.81 0.71 0.73 0.79 0.88 0.81 0.72 0.79 0.83 0.73 0.79 -9999 -9999 -9999 -9999 -9999 -9999 -9999 -9999 -9999 -9999 -9999 -9999 -9999 -9999 -9999
0.79 0.74 0.82 0.84 0.82 0.71 0.88 0.89 0.75 0.85 0.84 0.85 0.74 0.84 0.89 0.76 0.86 0.83 0.73 0.71 0.86 0.87 0.75 0.75 0.86 0.90 0.87 0.89 0.83 0.77 0.74 0.80 0.88 0.86 0.86 0.74 0.73 0.73 0.87 0.84 0.82 0.71 0.88 0.78 0.74 0.76 0.88 0.83 0.71 0.74 0.88 0.89 0.77 0.90 0.87 0.80 0.80 0.87 0.71 0.77 0.87 0.81 0.73 0.75 0.72 0.76 0.88 0.77 0.90 0.71 0.85 0.76 0.76 0.82 0.76 0.82 0.75 0.73 0.73 0.76 0.74 0.82 0.86 0.88 0.85 0.73 0.84 0.83 0.82 0.73 0.77 0.71 0.82 0.82 0.75 0.83 0.88 0.81 0.73 0.81 0.84 0.85 0.71 0.86 0.79 0.73 0.90 0.90 0.71 0.71 0.86 0.72 0.76 0.88 0.84 0.81 0.79 0.74 0.76 0.73 0.74 0.88 0.88 0.87 0.75 0.89 0.77 0.75 0.85 0.82 0.73 0.81 0.83 0.78 0.75 0.89 0.81 0.89 0.83 0.76 0.77 0.74 0.77 0.72 0.85 0.83 0.81 0.84 0.79 0.80 0.75 0.75 0.79 0.85 0.75 0.74 0.84 0.88 0.88 0.75 0.85 0.70 0.71 0.83 0.78 0.88 0.80 0.73 0.81 0.78 0.88 0.83 0.74 0.90 0.83 0.71 0.73 0.75 0.72 0.83 0.74 0.84 0.72 0.75 0.84 0.89 0.73 0.78 0.85 0.82 0.81 0.83 0.77 0.82 0.76 0.88 0.81 0.70 0.87 0.89 -9999 -9999 -9999 0.73 0.80 0.90 0.72 0.71 0.71 -9999 -9999 -9999 -9999 -9999 -9999
0.83 0.80 0.72 0.75 0.79 0.80 0.84 0.81 0.80 0.80 0.86 0.82 0.70 0.77 0.89 0.77 0.87 0.74 0.79 0.75 0.80 0.72 0.70 0.88 0.80 0.82 0.85 0.82 0.87 0.74 0.89 0.80 0.75 0.83 0.70 0.86 0.74 0.78 0.87 0.88 0.86 0.79 0.88 0.79 0.82 0.84 0.71 0.86 0.85 0.88 0.87 0.80 0.72 0.81 0.84 0.85 0.73 0.79 0.76 0.88 0.90 0.74 0.87 0.75 0.76 0.75 0.73 0.73 0.77 0.78 0.83 0.82 0.73 0.86 0.73 0.90 0.71 0.84 0.88 0.90 0.80 0.73 0.77 0.78 0.83 0.80 0.78 0.75 0.71 0.76 0.73 0.81 0.76 0.72 0.77 0.76 0.82 0.79 0.85 0.89 0.84 0.76 0.84 0.83 0.87 0.78 0.76 0.83 0.77 0.85 0.73 0.86 0.71 0.73 0.83 0.80 0.83 0.77 0.78 0.80 0.83 0.70 0.81 0.89 0.80 0.85 0.86 0.73 0.71 0.86 0.87 0.82 0.87 0.87 0.71 0.82 0.87 0.78 0.71 0.75 0.87 0.77 0.87 0.76 0.76 0.78 0.78 0.85 0.78 0.80 0.73 0.85 0.81 0.84 0.75 0.77 0.90 0.74 0.87 0.77 0.76 0.74 0.90 0.88 0.83 0.87 0.88 0.82 0.88 0.84 0.77 0.82 0.75 0.75 0.83 0.75 0.77 0.81 0.76 0.88 0.85 0.89 0.85 0.79 0.82 0.76 0.87 0.76 0.73 0.78 0.83 0.86 0.86 0.75 0.83 0.75 0.83 0.72 0.77 0.85 0.89 0.81 0.73 0.80 0.78 0.81 0.82 0.79 0.87 0.72 -9999 -9999 -9999 -9999 -9999
0.85 0.71 0.71 0.72 0.72 0.85 0.86 0.81 0.88 0.80 0.87 0.75 0.77 0.73 0.76 0.75 0.85 0.72 0.79 0.86 0.75 0.86 0.83 0.74 0.71 0.88 0.75 0.77 0.86 0.89 0.78 0.83 0.77 0.88 0.85 0.77 0.79 0.72 0.77 0.85 0.80 0.74 0.85 0.75 0.74 0.85 0.80 0.81 0.89 0.81 0.88 0.90 0.74 0.75 0.87 0.90 0.74 0.84 0.74 0.85 0.70 0.77 0.71 0.83 0.76 0.85 0.77 0.87 0.82 0.84 0.75 0.82 0.80 0.72 0.86 0.77 0.88 0.84 0.72 0.89 0.80 0.70 0.89 0.72 0.74 0.76 0.89 0.89 0.87 0.82 0.81 0.78 0.83 0.72 0.81 0.87 0.72 0.76 0.86 0.75 0.74 0.73 0.86 0.86 0.81 0.74 0.72 0.83 0.85 0.74 0.79 0.72 0.74 0.77 0.84 0.87 0.83 0.85 0.71 0.71 0.85 0.83 0.72 0.77 0.90 0.76 0.82 0.86 0.87 0.75 0.79 0.79 0.75 0.77 0.88 0.79 0.85 0.89 0.89 0.73 0.90 0.86 0.87 0.72 0.80 0.79 0.83 0.76 0.87 0.71 0.85 0.83 0.75 0.71 0.82 0.83 0.83 0.76 0.87 0.78 0.89 0.86 0.72 0.79 0.81 0.80 0.72 0.76 0.87 0.89 0.89 0.85 0.75 0.89 0.72 0.80 0.82 0.78 0.77 0.87 0.82 0.82 0.75 0.89 0.80 0.88 0.73 0.90 0.79 0.79 0.76 0.82 0.76 0.86 0.85 0.85 0.77 0.79 0.88 0.89 0.81 0.78 0.89 0.89 0.79 0.73 0.89 0.88 0.75 0.79 -9999 -9999 -9999 -9999 -9999
0.86 0.77 0.90 0.75 0.75 0.76 0.83 0.82 0.74 0.83 0.75 0.76 0.79 0.84 0.75 0.87 0.78 0.83 0.89 0.74 0.86 0.71 0.76 0.87 0.86 0.87 0.90 0.84 0.73 0.74 0.80 0.73 0.70 0.82 0.90 0.89 0.87 0.89 0.89 0.79 0.81 0.89 0.82 0.87 0.80 0.87 0.81 0.87 0.82 0.79 0.70 0.71 0.88 0.73 0.87 0.84 0.71 0.88 0.84 0.70 0.78 0.81 0.71 0.79 0.71 0.87 0.87 0.77 0.80 0.70 0.76 0.81 0.84 0.79 0.77 0.85 0.80 0.73 0.74 0.81 0.74 0.75 0.86 0.72 0.83 0.75 0.83 0.86 0.88 0.85 0.88 0.85 0.76 0.75 0.72 0.87 0.72 0.86 0.72 0.74 0.76 0.87 0.75 0.70 0.82 0.89 0.86 0.87 0.86 0.79 0.72 0.76 0.79 0.83 0.79 0.83 0.71 0.73 0.71 0.88 0.81 0.88 0.75 0.87 0.74 0.80 0.89 0.75 0.83 0.72 0.88 0.84 0.87 0.78 0.71 0.76 0.84 0.82 0.83 0.80 0.90 0.86 0.72 0.77 0.76 0.80 0.83 0.82 0.73 0.86 0.79 0.87 0.87 0.75 0.84 0.85 0.77 0.87 0.75 0.84 0.78 0.90 0.79 0.76 0.78 0.71 0.77 0.75 0.75 0.84 0.73 0.87 0.72 0.84 0.70 0.75 0.90 0.81 0.90 0.89 0.80 0.86 0.87 0.84 0.83 0.83 0.89 0.87 0.72 0.72 0.77 0.83 0.86 0.81 0.81 0.89 0.86 0.85 0.81 0.80 0.86 0.84 0.76 0.89 0.89 0.80 0.79 0.82 0.85 0.80 -9999 -9999 -9999 -9999 -9999
0.86 0.82 0.81 0.79 0.85 0.83 0.78 0.71 0.78 0.80 0.85 0.80 0.86 0.74 0.89 0.81 0.76 0.71 0.80 0.89 0.70 0.90 0.74 0.75 0.78 0.85 0.83 0.80 0.71 0.89 0.81 0.77 0.83 0.76 0.74 0.75 0.83 0.89 0.85 0.84 0.82 0.90 0.86 0.85 0.89 0.85 0.85 0.78 0.76 0.88 0.73 0.77 0.78 0.72 0.88 0.86 0.88 0.78 0.86 0.77 0.79 0.73 0.73 0.82 0.83 0.86 0.81 0.81 0.89 0.71 0.84 0.74 0.79 0.86 0.77 0.81 0.80 0.86 0.71 0.71 0.83 0.73 0.83 0.74 0.73 0.85 0.77 0.71 0.74 0.82 0.74 0.87 0.85 0.82 0.88 0.85 0.84 0.88 0.89 0.73 0.87 0.88 0.87 0.89 0.76 0.72 0.89 0.71 0.73 0.85 0.81 0.84 0.86 0.83 0.77 0.72 0.80 0.75 0.83 0.88 0.78 0.84 0.88 0.76 0.81 0.77 0.79 0.78 0.79 0.75 0.88 0.75 0.90 0.80 0.87 0.88 0.80 0.70 0.80 0.89 0.75 0.86 0.77 0.70 0.84 0.78 0.80 0.82 0.81 0.74 0.80 0.88 0.88 0.72 0.79 0.85 0.72 0.82 0.71 0.79 0.74 0.80 0.72 0.77 0.88 0.88 0.73 0.70 0.79 0.75 0.78 0.74 0.73 0.77 0.87 0.81 0.72 0.77 0.80 0.84 0.75 0.89 0.71 0.80 0.88 0.81 0.79 0.83 0.71 0.81 0.86 0.76 0.76 0.81 0.83 0.71 0.85 0.88 0.72 0.70 0.81 0.73 0.89 0.75 0.76 0.87 0.76 0.78 0.80 0.78 -9999 -9999 -9999 -9999 -9999
0.70 0.81 0.78 0.82 0.86 0.85 0.87 0.83 0.78 0.82 0.73 0.73 0.81 0.79 0.84 0.79 0.74 0.72 0.83 0.86 0.89 0.74 0.73 0.86 0.81 0.79 0.78 0.77 0.74 0.80 0.89 0.89 0.73 0.84 0.77 0.86 0.76 0.85 0.90 0.81 0.83 0.78 0.73 0.85 0.73 0.71 0.75 0.79 0.87 0.86 0.86 0.81 0.89 0.75 0.72 0.85 0.83 0.73 0.82 0.88 0.85 0.79 0.87 0.89 0.88 0.84 0.73 0.82 0.73 0.71 0.75 0.84 0.72 0.76 0.90 0.75 0.88 0.86 0.89 0.76 0.77 0.77 0.78 0.80 0.86 0.88 0.80 0.72 0.86 0.81 0.74 0.78 0.70 0.79 0.86 0.76 0.76 0.71 0.83 0.88 0.72 0.84 0.81 0.80 0.87 0.74 0.72 0.70 0.84 0.77 0.73 0.78 0.86 0.75 0.75 0.74 0.76 0.71 0.70 0.81 0.77 0.80 0.86 0.85 0.79 0.78 0.76 0.84 0.79 0.71 0.79 0.80 0.79 0.85 0.89 0.86 0.80 0.72 0.85 0.81 0.86 0.84 0.82 0.81 0.84 0.83 0.70 0.89 0.78 0.84 0.80 0.73 0.73 0.81 0.78 0.75 0.71 0.70 0.80 0.71 0.79 0.85 0.75 0.78 0.75 0.79 0.75 0.84 0.89 0.81 0.82 0.74 0.81 0.85 0.77 0.75 0.78 0.89 0.83 0.76 0.83 0.85 0.79 0.76 0.83 0.76 0.80 0.83 0.71 0.86 0.73 0.76 0.84 0.76 0.83 0.83 0.80 0.81 0.76 0.73 0.84 0.85 0.76 0.89 0.74 0.82 0.80 0.87 0.80 0.81 -9999 -9999 -9999 -9999 -9999
0.72 0.88 0.71 0.87 0.82 0.80 0.76 0.73 0.82 0.90 0.71 0.78 0.76 0.74 0.80 0.80 0.70 0.90 0.80 0.86 0.88 0.86 0.85 0.82 0.80 0.87 0.77 0.83 0.86 0.75 0.76 0.86 0.78 0.71 0.82 0.70 0.74 0.85 0.81 0.77 0.73 0.75 0.75 0.84 0.83 0.81 0.87 0.73 0.73 0.76 0.71 0.85 0.85 0.71 0.84 0.81 0.87 0.83 0.83 0.85 0.79 0.89 0.87 0.82 0.85 0.85 0.81 0.89 0.89 0.81 0.71 0.78 0.86 0.77 0.74 0.84 0.79 0.72 0.77 0.86 0.70 0.90 0.71 0.80 0.83 0.71 0.74 0.88 0.71 0.75 0.83 0.76 0.76 0.76 0.80 0.86 0.88 0.72 0.82 0.73 0.71 0.81 0.90 0.81 0.74 0.80 0.72 0.80 0.76 0.77 0.74 0.78 0.78 0.76 0.85 0.89 0.75 0.81 0.76 0.75 0.85 0.79 0.80 0.81 0.87 0.83 0.84 0.81 0.74 0.72 0.89 0.84 0.85 0.70 0.76 0.82 0.76 0.90 0.88 0.74 0.81 0.81 0.86 0.80 0.74 0.80 0.88 0.73 0.88 0.73 0.76 0.73 0.88 0.87 0.82 0.78 0.81 0.73 0.71 0.83 0.71 0.88 0.79 0.72 0.77 0.82 0.85 0.87 0.79 0.84 0.82 0.76 0.79 0.86 0.77 0.82 0.71 0.81 0.83 0.90 0.83 0.89 0.80 0.81 0.90 0.75 0.81 0.81 0.71 0.73 0.74 0.75 0.79 0.73 0.86 0.71 0.81 0.74 0.85 0.71 0.80 0.86 0.74 0.80 0.82 0.71 0.73 0.76 0.86 0.72 -9999 -9999 -9999 -9999 -9999
0.74 0.72 0.76 0.76 0.87 0.87 0.73 0.71 0.89 0.76 0.71 0.88 0.78 0.83 0.74 0.72 0.89 0.86 0.89 0.76 0.71 0.86 0.89 0.82 0.79 0.88 0.87 0.78 0.80 0.82 0.72 0.78 0.73 0.71 0.86 0.89 0.82 0.87 0.80 0.73 0.82 0.70 0.87 0.86 0.77 0.80 0.78 0.88 0.76 0.73 0.87 0.82 0.83 0.89 0.78 0.78 0.80 0.76 0.74 0.88 0.78 0.70 0.74 0.78 0.80 0.71 0.82 0.90 0.72 0.73 0.71 0.75 0.72 0.85 0.76 0.77 0.77 0.89 0.72 0.75 0.82 0.87 0.83 0.75 0.85 0.85 0.72 0.85 0.74 0.85 0.72 0.84 0.80 0.71 0.73 0.81 0.73 0.73 0.72 0.74 0.72 0.84 0.82 0.89 0.84 0.86 0.76 0.81 0.88 0.83 0.73 0.82 0.80 0.89 0.76 0.80 0.84 0.76 0.73 0.73 0.87 0.88 0.76 0.77 0.78 0.84 0.71 0.70 0.71 0.84 0.90 0.80 0.87 0.72 0.81 0.80 0.84 0.71 0.83 0.81 0.86 0.87 0.71 0.82 0.89 0.80 0.86 0.85 0.84 0.87 0.82 0.77 0.77 0.80 0.74 0.70 0.86 0.74 0.79 0.87 0.70 0.76 0.76 0.86 0.80 0.77 0.81 0.72 0.85 0.73 0.84 0.89 0.80 0.83 0.77 0.71 0.73 0.87 0.75 0.81 0.89 0.78 0.84 0.86 0.84 0.77 0.80 0.79 0.70 0.76 0.79 0.71 0.73 0.90 0.80 0.81 0.74 0.84 0.87 0.87 0.81 0.73 0.89 0.72 0.77 0.71 0.78 0.86 0.82 0.72 -9999 -9999 -9999 -9999 -9999
0.81 0.75 0.74 0.87 0.74 0.83 0.79 0.85 0.89 0.78 0.72 0.81 0.72 0.77 0.79 0.83 0.81 0.89 0.86 0.81 0.88 0.77 0.81 0.74 0.84 0.83 0.86 0.88 0.75 0.84 0.86 0.85 0.85 0.74 0.85 0.73 0.71 0.71 0.72 0.77 0.78 0.80 0.73 0.71 0.84 0.71 0.88 0.76 0.83 0.85 0.78 0.75 0.76 0.71 0.86 0.90 0.73 0.85 0.80 0.72 0.72 0.74 0.87 0.78 0.78 0.90 0.82 0.81 0.87 0.84 0.72 0.79 0.85 0.71 0.73 0.87 0.74 0.85 0.83 0.85 0.73 0.87 0.88 0.87 0.84 0.86 0.77 0.78 0.84 0.83 0.89 0.76 0.82 0.72 0.84 0.74 0.79 0.83 0.79 0.81 0.74 0.72 0.70 0.85 0.87 0.83 0.90 0.81 0.90 0.71 0.78 0.73 0.85 0.72 0.80 0.85 0.85 0.86 0.71 0.80 0.83 0.71 0.85 0.75 0.77 0.72 0.82 0.73 0.77 0.74 0.78 0.85 0.76 0.86 0.71 0.73 0.71 0.78 0.84 0.89 0.86 0.83 0.76 0.81 0.84 0.82 0.82 0.76 0.79 0.71 0.88 0.86 0.75 0.81 0.71 0.82 0.82 0.72 0.88 0.70 0.85 0.71 0.70 0.77 0.73 0.74 0.70 0.90 0.79 0.73 0.86 0.70 0.74 0.81 0.86 0.73 0.88 0.85 0.81 0.76 0.72 0.79 0.78 0.73 0.81 0.75 0.79 0.87 0.84 0.90 0.78 0.74 0.87 0.87 0.83 0.82 0.83 0.73 0.74 0.74 0.85 0.71 0.85 0.77 0.71 0.70 0.90 0.79 0.82 0.89 0.81 -9999 -9999 -9999 -9999
0.70 0.86 0.87 0.80 0.74 0.71 0.89 0.72 0.83 0.76 0.79 0.71 0.82 0.73 0.77 0.85 0.72 0.88 0.83 0.86 0.86 0.74 0.74 0.75 0.74 0.73 0.75 0.84 0.79 0.74 0.70 0.70 0.71 0.79 0.84 0.90 0.84 0.77 0.78 0.76 0.74 0.89 0.84 0.90 0.83 0.80 0.78 0.80 0.80 0.84 0.80 0.85 0.85 0.74 0.87 0.70 0.71 0.84 0.72 0.84 0.81 0.75 0.75 0.77 0.80 0.72 0.74 0.71 0.84 0.70 0.81 0.80 0.77 0.88 0.74 0.81 0.85 0.82 0.72 0.70 0.72 0.81 0.86 0.88 0.76 0.86 0.71 0.72 0.70 0.78 0.73 0.83 0.77 0.77 0.77 0.74 0.83 0.76 0.85 0.72 0.82 0.81 0.87 0.78 0.79 0.75 0.89 0.73 0.87 0.79 0.75 0.86 0.80 0.78 0.84 0.77 0.81 0.86 0.84 0.82 0.74 0.73 0.80 0.80 0.71 0.74 0.84 0.74 0.77 0.82 0.73 0.72 0.80 0.89 0.81 0.82 0.79 0.70 0.70 0.83 0.84 0.73 0.78 0.84 0.84 0.85 0.73 0.81 0.89 0.77 0.80 0.79 0.76 0.87 0.82 0.73 0.76 0.86 0.72 0.73 0.81 0.84 0.74 0.72 0.81 0.77 0.82 0.80 0.75 0.78 0.79 0.80 0.74 0.71 0.89 0.84 0.89 0.90 0.83 0.83 0.73 0.86 0.76 0.82 0.78 0.77 0.88 0.83 0.71 0.73 0.76 0.86 0.82 0.82 0.80 0.85 0.85 0.89 0.74 0.89 0.82 0.78 0.73 0.71 0.89 0.86 0.86 0.79 0.77 0.89 0.83 -9999 -9999 -9999 -9999
0.82 0.90 0.70 0.88 0.71 0.80 0.73 0.87 0.81 0.79 0.71 0.76 0.81 0.89 0.77 0.79 0.77 0.87 0.71 0.79 0.73 0.75 0.80 0.79 0.83 0.72 0.87 0.88 0.88 0.80 0.74 0.89 0.90 0.88 0.82 0.86 0.88 0.80 0.78 0.71 0.83 0.86 0.86 0.79 0.73 0.84 0.88 0.72 0.72 0.73 0.78 0.78 0.82 0.74 0.75 0.79 0.82 0.84 0.80 0.78 0.81 0.88 0.84 0.81 0.87 0.73 0.71 0.89 0.77 0.82 0.73 0.73 0.71 0.76 0.74 0.70 0.78 0.73 0.74 0.85 0.71 0.77 0.82 0.73 0.73 0.77 0.81 0.85 0.81 0.74 0.71 0.70 0.84 0.80 0.82 0.74 0.79 0.84 0.89 0.88 0.87 0.90 0.88 0.82 0.80 0.74 0.76 0.88 0.86 0.79 0.80 0.79 0.89 0.86 0.89 0.81 0.85 0.90 0.83 0.88 0.74 0.80 0.77 0.77 0.88 0.74 0.82 0.89 0.84 0.77 0.79 0.71 0.73 0.73 0.81 0.86 0.76 0.82 0.78 0.71 0.86 0.82 0.78 0.71 0.74 0.88 0.81 0.78 0.90 0.88 0.85 0.89 0.74 0.71 0.71 0.71 0.72 0.88 0.84 0.86 0.73 0.71 0.86 0.76 0.81 0.77 0.78 0.78 0.90 0.72 0.83 0.73 0.82 0.85 0.88 0.70 0.85 0.75 0.80 0.81 0.87 0.77 0.83 0.82 0.83 0.89 0.82 0.79 0.88 0.72 0.77 0.78 0.83 0.85 0.87 0.87 0.80 0.86 0.87 0.80 0.82 0.71 0.78 0.73 0.84 0.86 0.71 0.87 0.72 0.85 0.72 -9999 -9999 -9999 -9999
0.89 0.90 0.78 0.84 0.79 0.71 0.74 0.88 0.75 0.71 0.70 0.75 0.80 0.74 0.77 0.79 0.73 0.74 0.85 0.72 0.79 0.86 0.89 0.81 0.79 0.88 0.70 0.84 0.82 0.76 0.80 0.75 0.82 0.78 0.86 0.85 0.87 0.78 0.77 0.79 0.73 0.74 0.81 0.75 0.83 0.77 0.80 0.89 0.87 0.70 0.76 0.88 0.85 0.74 0.84 0.76 0.80 0.83 0.77 0.75 0.77 0.75 0.70 0.75 0.76 0.75 0.71 0.86 0.72 0.85 0.81 0.83 0.72 0.71 0.82 0.80 0.80 0.75 0.73 0.85 0.77 0.86 0.71 0.84 0.84 0.73 0.88 0.75 0.73 0.88 0.70 0.86 0.74 0.84 0.78 0.74 0.80 0.87 0.85 0.88 0.79 0.79 0.85 0.75 0.75 0.71 0.74 0.81 0.72 0.73 0.75 0.82 0.84 0.87 0.81 0.82 0.89 0.83 0.77 0.85 0.85 0.87 0.76 0.76 0.70 0.81 0.77 0.80 0.82 0.71 0.86 0.86 0.75 0.70 0.79 0.84 0.86 0.77 0.74 0.75 0.85 0.77 0.74 0.81 0.78 0.83 0.77 0.85 0.85 0.80 0.80 0.83 0.74 0.84 0.79 0.72 0.82 0.88 0.90 0.77 0.73 0.88 0.71 0.83 0.84 0.72 0.78 0.77 0.90 0.90 0.75 0.82 0.81 0.85 0.90 0.72 0.88 0.77 0.85 0.79 0.79 0.90 0.78 0.71 0.75 0.79 0.80 0.84 0.73 0.80 0.88 0.78 0.71 0.81 0.75 0.73 0.87 0.84 0.75 0.86 0.78 0.77 0.76 0.73 0.74 0.75 0.76 0.78 0.80 0.81 0.87 -9999 -9999 -9999 -9999
0.71 0.82 0.83 0.77 0.88 0.86 0.75 0.72 0.84 0.88 0.83 0.71 0.73 0.81 0.75 0.80 0.86 0.84 0.83 0.86 0.78 0.85 0.75 0.89 0.74 0.80 0.79 0.86 0.88 0.74 0.74 0.87 0.90 0.74 0.70 0.71 0.73 0.82 0.70 0.70 0.80 0.83 0.87 0.83 0.83 0.79 0.74 0.71 0.88 0.70 0.87 0.75 0.87 0.70 0.87 0.75 0.90 0.83 0.83 0.70 0.79 0.87 0.89 0.79 0.81 0.78 0.76 0.87 0.72 0.75 0.75 0.81 0.70 0.71 0.78 0.89 0.71 0.75 0.86 0.81 0.78 0.87 0.73 0.70 0.81 0.73 0.78 0.80 0.82 0.89 0.80 0.72 0.88 0.71 0.76 0.85 0.81 0.75 0.78 0.85 0.72 0.76 0.78 0.89 0.73 0.77 0.71 0.89 0.78 0.89 0.80 0.88 0.76 0.89 0.78 0.80 0.71 0.77 0.81 0.86 0.72 0.86 0.80 0.71 0.70 0.73 0.89 0.83 0.82 0.89 0.72 0.82 0.77 0.77 0.79 0.80 0.84 0.74 0.85 0.80 0.74 0.87 0.83 0.71 0.88 0.89 0.71 0.74 0.77 0.89 0.83 0.81 0.90 0.80 0.86 0.88 0.78 0.74 0.83 0.70 0.80 0.85 0.73 0.90 0.73 0.86 0.84 0.77 0.72 0.72 0.79 0.88 0.72 0.77 0.76 0.84 0.74 0.73 0.72 0.86 0.76 0.85 0.85 0.90 0.76 0.80 0.71 0.72 0.74 0.72 0.81 0.89 0.79 0.71 0.81 0.85 0.88 0.75 0.80 0.87 0.85 0.88 0.83 0.79 0.80 0.82 0.72 0.78 0.90 0.73 0.78 -9999 -9999 -9999 -9999
0.73 0.83 0.79 0.80 0.87 0.75 0.76 0.86 0.74 0.81 0.85 0.78 0.70 0.73 0.70 0.75 0.85 0.71 0.84 0.75 0.85 0.73 0.76 0.87 0.78 0.75 0.74 0.76 0.71 0.83 0.87 0.86 0.82 0.76 0.71 0.70 0.83 0.73 0.83 0.72 0.82 0.73 0.85 0.82 0.89 0.71 0.84 0.83 0.74 0.73 0.83 0.89 0.89 0.89 0.71 0.76 0.75 0.79 0.84 0.82 0.81 0.79 0.88 0.89 0.71 0.84 0.74 0.70 0.87 0.82 0.79 0.81 0.88 0.84 0.79 0.75 0.75 0.80 0.78 0.79 0.88 0.74 0.80 0.75 0.84 0.86 0.83 0.73 0.76 0.87 0.81 0.71 0.76 0.76 0.70 0.72 0.90 0.81 0.88 0.83 0.87 0.78 0.89 0.88 0.72 0.71 0.90 0.84 0.78 0.79 0.84 0.80 0.85 0.80 0.70 0.77 0.86 0.77 0.86 0.84 0.80 0.83 0.81 0.86 0.76 0.89 0.82 0.85 0.81 0.77 0.89 0.85 0.72 0.83 0.88 0.74 0.71 0.82 0.79 0.70 0.89 0.72 0.79 0.74 0.86 0.75 0.72 0.70 0.81 0.83 0.81 0.85 0.85 0.82 0.81 0.84 0.83 0.71 0.79 0.89 0.83 0.90 0.74 0.89 0.71 0.80 0.82 0.71 0.70 0.70 0.87 0.84 0.85 0.71 0.76 0.84 0.87 0.71 0.72 0.77 0.85 0.72 0.85 0.87 0.72 0.83 0.86 0.89 0.75 0.71 0.77 0.72 0.87 0.84 0.79 0.84 0.87 0.71 0.77 0.76 0.79 0.73 0.78 0.71 0.73 0.74 0.88 0.88 0.77 0.75 0.81 -9999 -9999 -9999 -9999
0.86 0.86 0.72 0.88 0.71 0.75 0.75 0.88 0.82 0.72 0.78 0.80 0.79 0.74 0.73 0.83 0.80 0.83 0.74 0.76 0.79 0.88 0.79 0.89 0.87 0.82 0.73 0.81 0.75 0.71 0.79 0.82 0.72 0.71 0.88 0.78 0.73 0.79 0.77 0.73 0.84 0.76 0.90 0.84 0.88 0.72 0.83 0.87 0.85 0.77 0.79 0.82 0.84 0.74 0.72 0.76 0.72 0.76 0.86 0.85 0.83 0.78 0.86 0.72 0.74 0.89 0.83 0.87 0.72 0.80 0.90 0.86 0.72 0.86 0.85 0.75 0.78 0.72 0.87 0.86 0.80 0.88 0.88 0.77 0.77 0.85 0.73 0.70 0.87 0.88 0.87 0.74 0.88 0.82 0.75 0.70 0.71 0.88 0.85 0.77 0.84 0.87 0.86 0.84 0.89 0.80 0.73 0.89 0.90 0.80 0.89 0.81 0.75 0.82 0.84 0.79 0.74 0.70 0.83 0.87 0.87 0.83 0.84 0.71 0.77 0.71 0.89 0.80 0.84 0.81 0.70 0.75 0.83 0.82 0.77 0.78 0.78 0.83 0.73 0.81 0.79 0.85 0.78 0.86 0.77 0.81 0.73 0.88 0.87 0.83 0.79 0.70 0.89 0.88 0.74 0.78 0.85 0.75 0.81 0.86 0.78 0.76 0.72 0.89 0.84 0.71 0.75 0.79 0.77 0.72 0.89 0.82 0.86 0.80 0.85 0.86 0.79 0.74 0.79 0.78 0.85 0.79 0.85 0.74 0.74 0.74 0.82 0.85 0.90 0.74 0.86 0.88 0.82 0.71 0.72 0.82 0.77 0.87 0.84 0.86 0.80 0.78 0.79 0.78 0.87 0.86 0.81 0.85 0.85 0.89 0.85 0.70 -9999 -9999 -9999
0.84 0.82 0.88 0.82 0.89 0.87 0.78 0.84 0.76 0.88 0.86 0.73 0.84 0.86 0.74 0.79 0.86 0.84 0.70 0.74 0.75 0.85 0.73 0.75 0.85 0.78 0.76 0.79 0.85 0.76 0.72 0.71 0.84 0.71 0.79 0.85 0.85 0.71 0.74 0.80 0.71 0.80 0.77 0.87 0.89 0.80 0.71 0.72 0.75 0.75 0.86 0.74 0.70 0.89 0.82 0.86 0.88 0.76 0.78 0.83 0.84 0.74 0.77 0.71 0.71 0.88 0.83 0.71 0.83 0.88 0.75 0.70 0.83 0.74 0.72 0.77 0.90 0.78 0.81 0.82 0.75 0.81 0.82 0.78 0.72 0.83 0.80 0.79 0.83 0.90 0.80 0.73 0.88 0.78 0.73 0.71 0.78 0.70 0.85 0.73 0.88 0.88 0.81 0.81 0.72 0.75 0.74 0.83 0.86 0.83 0.70 0.83 0.79 0.78 0.70 0.86 0.90 0.83 0.84 0.84 0.73 0.73 0.82 0.85 0.70 0.87 0.83 0.88 0.88 0.78 0.75 0.88 0.88 0.73 0.77 0.72 0.71 0.75 0.70 0.86 0.80 0.80 0.82 0.80 0.77 0.87 0.81 0.81 0.83 0.87 0.82 0.76 0.90 0.83 0.83 0.86 0.82 0.78 0.80 0.87 0.83 0.87 0.87 0.82 0.88 0.85 0.76 0.81 0.85 0.77 0.72 0.90 0.87 0.71 0.73 0.72 0.86 0.76 0.75 0.73 0.88 0.87 0.80 0.88 0.71 0.80 0.89 0.81 0.75 0.80 0.74 0.75 0.87 0.85 0.80 0.73 0.72 0.80 0.70 0.71 0.74 0.76 0.82 0.70 0.77 0.82 0.72 0.86 0.78 0.88 0.78 0.84 -9999 -9999 -9999
0.81 0.81 0.90 0.83 0.72 0.84 0.88 0.77 0.83 0.86 0.75 0.82 0.89 0.84 0.90 0.77 0.80 0.83 0.74 0.81 0.73 0.89 0.84 0.78 0.73 0.78 0.76 0.88 0.80 0.87 0.84 0.80 0.82 0.73 0.89 0.88 0.85 0.84 0.82 0.84 0.75 0.81 0.82 0.84 0.84 0.77 0.82 0.83 0.71 0.86 0.86 0.79 0.74 0.84 0.79 0.89 0.90 0.80 0.84 0.84 0.76 0.79 0.73 0.79 0.87 0.84 0.76 0.86 0.87 0.87 0.78 0.77 0.72 0.72 0.71 0.82 0.75 0.82 0.81 0.76 0.84 0.82 0.86 0.86 0.81 0.80 0.86 0.88 0.88 0.77 0.89 0.77 0.81 0.73 0.70 0.90 0.72 0.70 0.89 0.87 0.87 0.74 0.77 0.86 0.79 0.88 0.73 0.83 0.83 0.82 0.77 0.73 0.86 0.79 0.73 0.82 0.71 0.79 0.78 0.71 0.84 0.89 0.73 0.71 0.70 0.72 0.76 0.84 0.80 0.81 0.72 0.76 0.82 0.88 0.86 0.71 0.75 0.83 0.86 0.76 0.81 0.81 0.85 0.70 0.72 0.84 0.82 0.89 0.79 0.85 0.70 0.79 0.83 0.81 0.78 0.77 0.73 0.85 0.89 0.82 0.85 0.85 0.75 0.74 0.86 0.88 0.83 0.82 0.87 0.84 0.79 0.79 0.86 0.81 0.81 0.83 0.78 0.72 0.73 0.80 0.89 0.86 0.87 0.80 0.85 0.79 0.85 0.88 0.89 0.72 0.89 0.79 0.71 0.88 0.73 0.86 0.84 0.79 0.79 0.77 0.89 0.76 0.73 0.81 0.76 0.84 0.78 0.81 0.78 0.70 0.77 0.80 -9999 -9999 -9999
0.87 0.82 0.72 0.79 0.90 0.87 0.76 0.73 0.84 0.76 0.81 0.84 0.77 0.77 0.78 0.79 0.85 0.72 0.82 0.90 0.81 0.78 0.90 0.80 0.80 0.76 0.87 0.78 0.75 0.88 0.84 0.77 0.80 0.85 0.73 0.85 0.87 0.85 0.87 0.86 0.81 0.82 0.79 0.74 0.75 0.88 0.82 0.75 0.86 0.83 0.78 0.83 0.71 0.84 0.86 0.72 0.73 0.88 0.87 0.85 0.81 0.78 0.71 0.79 0.74 0.71 0.80 0.88 0.71 0.71 0.71 0.90 0.71 0.74 0.73 0.86 0.79 0.82 0.77 0.71 0.84 0.81 0.86 0.83 0.76 0.82 0.82 0.76 0.71 0.81 0.72 0.87 0.77 0.70 0.76 0.81 0.77 0.88 0.84 0.72 0.72 0.84 0.83 0.87 0.89 0.78 0.71 0.72 0.85 0.76 0.82 0.72 0.74 0.76 0.71 0.89 0.87 0.85 0.82 0.89 0.81 0.73 0.70 0.82 0.79 0.83 0.82 0.85 0.89 0.86 0.82 0.87 0.84 0.79 0.80 0.70 0.86 0.82 0.73 0.74 0.79 0.89 0.81 0.86 0.77 0.70 0.75 0.82 0.79 0.79 0.72 0.82 0.81 0.71 0.86 0.75 0.84 0.75 0.74 0.75 0.87 0.89 0.76 0.76 0.83 0.79 0.76 0.88 0.81 0.72 0.86 0.79 0.90 0.78 0.88 0.75 0.86 0.72 0.83 0.74 0.84 0.82 0.89 0.73 0.87 0.77 0.88 0.75 0.79 0.80 0.77 0.79 0.78 0.76 0.84 0.88 0.89 0.72 0.70 0.71 0.77 0.81 0.88 0.80 0.77 0.85 0.87 0.86 0.83 0.77 0.78 0.74 -9999 -9999 -9999
0.76 0.89 0.84 0.70 0.78 0.74 0.81 0.84 0.78 0.80 0.78 0.75 0.75 0.86 0.88 0.83 0.80 0.75 0.71 0.74 0.82 0.82 0.71 0.86 0.78 0.76 0.83 0.74 0.79 0.76 0.86 0.89 0.73 0.72 0.71 0.86 0.79 0.74 0.82 0.84 0.75 0.82 0.79 0.72 0.87 0.74 0.85 0.74 0.74 0.78 0.89 0.84 0.83 0.77 0.89 0.83 0.72 0.80 0.78 0.84 0.72 0.82 0.77 0.84 0.70 0.81 0.88 0.82 0.70 0.78 0.89 0.76 0.71 0.90 0.71 0.73 0.83 0.78 0.85 0.87 0.75 0.74 0.80 0.81 0.75 0.71 0.72 0.71 0.89 0.79 0.74 0.74 0.89 0.82 0.85 0.81 0.80 0.72 0.70 0.71 0.77 0.81 0.88 0.83 0.84 0.82 0.87 0.77 0.78 0.78 0.89 0.73 0.75 0.80 0.78 0.72 0.89 0.87 0.72 0.71 0.87 0.84 0.75 0.71 0.81 0.90 0.84 0.84 0.81 0.87 0.89 0.83 0.82 0.80 0.84 0.83 0.86 0.84 0.74 0.76 0.83 0.80 0.86 0.89 0.73 0.87 0.73 0.73 0.75 0.82 0.71 0.81 0.77 0.74 0.78 0.74 0.71 0.88 0.75 0.83 0.73 0.74 0.87 0.83 0.85 0.75 0.74 0.75 0.72 0.88 0.83 0.85 0.87 0.79 0.85 0.90 0.74 0.78 0.86 0.88 0.82 0.84 0.83 0.80 0.75 0.73 0.81 0.83 0.79 0.77 0.78 0.89 0.74 0.74 0.90 0.71 0.89 0.75 0.80 0.87 0.80 0.85 0.79 0.78 0.80 0.74 0.75 0.74 0.71 0.82 0.79 0.73 -9999 -9999 -9999
0.87 0.71 0.85 0.78 0.84 0.81 0.73 0.80 0.71 0.77 0.84 0.72 0.88 0.78 0.81 0.70 0.73 0.82 0.84 0.70 0.83 0.77 0.71 0.74 0.85 0.80 0.76 0.75 0.84 0.85 0.81 0.79 0.76 0.85 0.89 0.82 0.88 0.87 0.86 0.74 0.70 0.82 0.72 0.75 0.86 0.88 0.84 0.78 0.83 0.88 0.82 0.86 0.84 0.78 0.71 0.75 0.84 0.77 0.81 0.88 0.74 0.83 0.72 0.81 0.83 0.76 0.78 0.83 0.83 0.85 0.85 0.77 0.89 0.81 0.82 0.72 0.87 0.86 0.78 0.84 0.70 0.72 0.89 0.83 0.90 0.70 0.87 0.85 0.80 0.90 0.80 0.79 0.78 0.80 0.79 0.87 0.85 0.84 0.88 0.76 0.76 0.78 0.81 0.77 0.90 0.87 0.84 0.80 0.85 0.78 0.80 0.72 0.88 0.87 0.90 0.77 0.87 0.73 0.70 0.78 0.82 0.81 0.86 0.75 0.79 0.88 0.85 0.84 0.86 0.89 0.75 0.74 0.73 0.85 0.83 0.81 0.85 0.80 0.84 0.82 0.79 0.85 0.88 0.72 0.72 0.74 0.80 0.72 0.85 0.83 0.75 0.78 0.77 0.72 0.76 0.88 0.76 0.83 0.86 0.81 0.84 0.84 0.89 0.81 0.70 0.79 0.87 0.71 0.85 0.85 0.86 0.82 0.86 0.85 0.72 0.85 0.83 0.70 0.72 0.71 0.72 0.76 0.79 0.82 0.84 0.74 0.89 0.73 0.78 0.88 0.84 0.83 0.70 0.76 0.86 0.85 0.81 0.85 0.79 0.79 0.75 0.75 0.87 0.78 0.87 0.72 0.90 0.86 0.78 0.89 0.71 0.90 -9999 -9999 -9999
0.83 0.90 0.77 0.83 0.71 0.78 0.78 0.82 0.76 0.81 0.82 0.80 0.74 0.85 0.77 0.85 0.82 0.74 0.85 0.81 0.86 0.88 0.77 0.90 0.88 0.76 0.71 0.79 0.79 0.84 0.83 0.83 0.89 0.88 0.79 0.88 0.77 0.86 0.70 0.71 0.83 0.82 0.72 0.72 0.89 0.74 0.76 0.83 0.71 0.75 0.84 0.72 0.82 0.79 0.75 0.76 0.87 0.81 0.80 0.74 0.77 0.87 0.85 0.74 0.85 0.84 0.82 0.88 0.72 0.82 0.74 0.82 0.70 0.86 0.88 0.87 0.88 0.74 0.77 0.85 0.75 0.79 0.85 0.87 0.77 0.86 0.85 0.74 0.75 0.71 0.72 0.70 0.79 0.87 0.84 0.83 0.79 0.88 0.89 0.78 0.86 0.87 0.77 0.89 0.87 0.79 0.74 0.83 0.74 0.87 0.83 0.77 0.80 0.86 0.73 0.74 0.87 0.88 0.72 0.73 0.80 0.81 0.79 0.74 0.78 0.72 0.75 0.79 0.79 0.87 0.80 0.77 0.72 0.72 0.87 0.90 0.72 0.73 0.75 0.82 0.77 0.83 0.84 0.73 0.77 0.76 0.86 0.74 0.90 0.88 0.89 0.87 0.88 0.74 0.87 0.79 0.77 0.71 0.72 0.76 0.79 0.73 0.83 0.73 0.88 0.79 0.78 0.84 0.78 0.90 0.90 0.81 0.70 0.86 0.80 0.88 0.79 0.88 0.81 0.78 0.78 0.86 0.84 0.79 0.86 0.77 0.89 0.84 0.73 0.84 0.76 0.70 0.82 0.86 0.86 0.73 0.76 0.75 0.80 0.75 0.85 0.74 0.87 0.71 0.73 0.88 0.79 0.76 0.70 0.77 0.79 0.86 0.77 -9999 -9999
0.85 0.75 0.76 0.79 0.90 0.90 0.84 0.89 0.87 0.78 0.85 0.75 0.90 0.78 0.87 0.81 0.76 0.77 0.88 0.71 0.84 0.74 0.81 0.81 0.78 0.76 0.89 0.71 0.79 0.90 0.84 0.77 0.78 0.82 0.80 0.89 0.76 0.72 0.86 0.73 0.74 0.88 0.89 0.87 0.88 0.88 0.89 0.88 0.82 0.90 0.81 0.79 0.82 0.84 0.86 0.70 0.89 0.83 0.72 0.73 0.75 0.88 0.86 0.89 0.85 0.72 0.84 0.82 0.82 0.73 0.90 0.84 0.78 0.80 0.85 0.78 0.70 0.87 0.84 0.71 0.86 0.77 0.81 0.90 0.87 0.75 0.83 0.87 0.81 0.78 0.86 0.72 0.78 0.88 0.70 0.77 0.78 0.73 0.85 0.87 0.74 0.72 0.87 0.89 0.79 0.88 0.76 0.89 0.83 0.79 0.85 0.74 0.78 0.73 0.87 0.81 0.79 0.82 0.76 0.81 0.80 0.81 0.79 0.77 0.79 0.82 0.83 0.79 0.81 0.75 0.80 0.84 0.71 0.84 0.77 0.82 0.71 0.81 0.81 0.85 0.72 0.90 0.81 0.80 0.85 0.85 0.78 0.78 0.83 0.82 0.90 0.87 0.72 0.84 0.82 0.85 0.71 0.71 0.87 0.85 0.86 0.71 0.81 0.80 0.71 0.90 0.81 0.76 0.79 0.73 0.89 0.81 0.73 0.76 0.71 0.76 0.84 0.77 0.88 0.83 0.77 0.85 0.89 0.85 0.76 0.76 0.80 0.82 0.80 0.88 0.85 0.89 0.80 0.89 0.90 0.81 0.81 0.85 0.82 0.75 0.85 0.87 0.85 0.74 0.76 0.81 0.71 0.83 0.89 0.89 0.88 0.89 0.86 -9999 -9999
0.83 0.90 0.79 0.75 0.74 0.79 0.88 0.72 0.87 0.73 0.81 0.82 0.80 0.82 0.73 0.70 0.76 0.78 0.81 0.81 0.87 0.76 0.77 0.72 0.78 0.85 0.89 0.73 0.86 0.78 0.74 0.77 0.88 0.78 0.85 0.78 0.76 0.81 0.84 0.79 0.80 0.90 0.71 0.87 0.89 0.84 0.72 0.86 0.74 0.73 0.80 0.81 0.75 0.80 0.78 0.88 0.74 0.85 0.76 0.80 0.85 0.85 0.76 0.73 0.88 0.89 0.87 0.74 0.83 0.81 0.81 0.70 0.78 0.76 0.90 0.75 0.82 0.70 0.90 0.74 0.80 0.87 0.83 0.81 0.85 0.76 0.74 0.80 0.85 0.82 0.80 0.74 0.79 0.84 0.85 0.81 0.90 0.88 0.72 0.76 0.87 0.78 0.71 0.90 0.82 0.74 0.84 0.71 0.75 0.73 0.72 0.77 0.84 0.84 0.79 0.71 0.84 0.89 0.90 0.83 0.74 0.88 0.84 0.89 0.72 0.86 0.82 0.84 0.86 0.79 0.90 0.85 0.79 0.71 0.74 0.89 0.76 0.90 0.79 0.86 0.90 0.74 0.74 0.80 0.88 0.75 0.84 0.70 0.85 0.89 0.84 0.78 0.86 0.81 0.77 0.72 0.90 0.71 0.84 0.89 0.81 0.78 0.80 0.74 0.84 0.82 0.87 0.81 0.81 0.81 0.86 0.75 0.89 0.72 0.79 0.84 0.89 0.73 0.75 0.71 0.77 0.80 0.88 0.82 0.83 0.73 0.89 0.82 0.89 0.73 0.76 0.83 0.83 0.77 0.87 0.79 0.83 0.81 0.80 0.88 0.86 0.78 0.81 0.89 0.72 0.82 0.76 0.84 0.79 0.86 0.75 0.83 0.81 -9999 -9999
0.75 0.81 0.71 0.75 0.76 0.80 0.75 0.81 0.70 0.87 0.70 0.74 0.71 0.81 0.77 0.71 0.71 0.82 0.74 0.75 0.70 0.79 0.84 0.88 0.87 0.76 0.82 0.80 0.79 0.74 0.71 0.87 0.78 0.89 0.86 0.85 0.71 0.88 0.87 0.70 0.89 0.89 0.78 0.79 0.76 0.89 0.70 0.87 0.75 0.71 0.84 0.71 0.79 0.87 0.82 0.76 0.74 0.70 0.71 0.77 0.78 0.87 0.75 0.84 0.75 0.85 0.84 0.77 0.72 0.77 0.84 0.79 0.81 0.73 0.73 0.83 0.75 0.75 0.79 0.84 0.73 0.88 0.70 0.90 0.81 0.72 0.76 0.83 0.74 0.86 0.78 0.85 0.84 0.73 0.77 0.75 0.75 0.80 0.77 0.78 0.87 0.76 0.89 0.78 0.77 0.76 0.85 0.88 0.74 0.71 0.88 0.82 0.87 0.70 0.76 0.71 0.80 0.72 0.76 0.86 0.88 0.87 0.74 0.75 0.83 0.77 0.79 0.75 0.90 0.87 0.85 0.86 0.79 0.83 0.85 0.78 0.76 0.82 0.74 0.84 0.73 0.86 0.73 0.80 0.77 0.74 0.86 0.70 0.78 0.85 0.87 0.74 0.75 0.86 0.79 0.88 0.86 0.78 0.89 0.71 0.86 0.82 0.84 0.73 0.86 0.90 0.86 0.86 0.72 0.70 0.74 0.80 0.79 0.78 0.74 0.81 0.86 0.74 0.76 0.78 0.75 0.90 0.77 0.88 0.90 0.79 0.85 0.76 0.88 0.79 0.73 0.73 0.78 0.83 0.88 0.82 0.87 0.73 0.87 0.81 0.77 0.71 0.86 0.81 0.87 0.87 0.72 0.82 0.74 0.74 0.71 0.82 0.87 -9999 -9999
0.76 0.90 0.72 0.75 0.83 0.90 0.81 0.75 0.76 0.89 0.73 0.89 0.86 0.72 0.82 0.73 0.82 0.78 0.75 0.74 0.73 0.87 0.88 0.88 0.86 0.84 0.73 0.79 0.75 0.89 0.71 0.86 0.86 0.80 0.73 0.87 0.77 0.74 0.77 0.80 0.72 0.84 0.76 0.71 0.83 0.80 0.89 0.71 0.90 0.88 0.77 0.89 0.89 0.78 0.86 0.73 0.77 0.74 0.87 0.72 0.83 0.74 0.81 0.80 0.72 0.75 0.87 0.74 0.79 0.74 0.85 0.81 0.87 0.87 0.83 0.75 0.77 0.85 0.84 0.88 0.71 0.89 0.76 0.83 0.71 0.86 0.72 0.87 0.82 0.81 0.76 0.89 0.81 0.79 0.74 0.71 0.82 0.80 0.80 0.78 0.74 0.86 0.74 0.82 0.87 0.78 0.83 0.78 0.89 0.86 0.75 0.79 0.81 0.71 0.86 0.73 0.71 0.72 0.82 0.71 0.88 0.82 0.74 0.76 0.85 0.89 0.77 0.87 0.80 0.71 0.83 0.73 0.71 0.84 0.89 0.82 0.79 0.78 0.80 0.79 0.76 0.75 0.84 0.80 0.75 0.89 0.82 0.85 0.77 0.72 0.84 0.76 0.80 0.83 0.88 0.87 0.72 0.82 0.80 0.84 0.86 0.70 0.89 0.87 0.71 0.70 0.88 0.75 0.72 0.77 0.77 0.87 0.78 0.79 0.76 0.89 0.85 0.76 0.73 0.80 0.72 0.83 0.76 0.73 0.76 0.87 0.79 0.77 0.80 0.89 0.84 0.73 0.83 0.75 0.89 0.75 0.81 0.70 0.83 0.74 0.84 0.79 0.81 0.88 0.79 0.74 0.70 0.75 0.75 0.81 0.78 0.85 0.89 -9999 -9999
0.71 0.81 0.74 0.83 0.72 0.80 0.86 0.78 0.85 0.89 0.74 0.89 0.76 0.74 0.82 0.88 0.87 0.90 0.84 0.84 0.71 0.80 0.88 0.81 0.89 0.81 0.86 0.73 0.81 0.86 0.72 0.79 0.84 0.82 0.78 0.81 0.77 0.79 0.75 0.74 0.71 0.81 0.74 0.70 0.77 0.89 0.74 0.86 0.88 0.77 0.83 0.81 0.74 0.70 0.77 0.88 0.82 0.86 0.77 0.74 0.70 0.89 0.75 0.85 0.85 0.90 0.75 0.75 0.82 0.80 0.74 0.73 0.75 0.89 0.71 0.73 0.84 0.82 0.74 0.83 0.88 0.86 0.75 0.75 0.81 0.78 0.77 0.77 0.70 0.86 0.81 0.81 0.78 0.77 0.82 0.83 0.84 0.87 0.75 0.85 0.84 0.88 0.89 0.73 0.78 0.77 0.85 0.71 0.78 0.83 0.78 0.79 0.74 0.88 0.80 0.85 0.72 0.77 0.87 0.76 0.87 0.79 0.88 0.82 0.76 0.76 0.78 0.85 0.85 0.87 0.72 0.88 0.70 0.87 0.74 0.89 0.72 0.71 0.86 0.87 0.75 0.86 0.77 0.74 0.76 0.84 0.84 0.89 0.80 0.87 0.87 0.81 0.78 0.88 0.76 0.79 0.76 0.79 0.71 0.81 0.78 0.72 0.89 0.73 0.76 0.81 0.87 0.72 0.81 0.76 0.72 0.83 0.88 0.87 0.87 0.73 0.83 0.73 0.78 0.71 0.75 0.71 0.88 0.80 0.76 0.73 0.72 0.73 0.83 0.86 0.73 0.90 0.81 0.76 0.73 0.85 0.79 0.80 0.85 0.71 0.83 0.87 0.86 0.89 0.73 0.75 0.70 0.74 0.85 0.76 0.74 0.86 0.78 -9999 -9999
0.81 0.82 0.71 0.80 0.71 0.73 0.73 0.76 0.80 0.77 0.73 0.80 0.77 0.77 0.78 0.75 0.81 0.81 0.81 0.75 0.75 0.84 0.82 0.89 0.73 0.82 0.83 0.70 0.75 0.77 0.73 0.72 0.76 0.73 0.77 0.87 0.81 0.77 0.84 0.79 0.76 0.81 0.83 0.81 0.84 0.89 0.77 0.86 0.86 0.88 0.82 0.71 0.80 0.82 0.88 0.89 0.70 0.88 0.89 0.73 0.70 0.72 0.72 0.83 0.71 0.75 0.87 0.79 0.89 0.73 0.79 0.71 0.81 0.88 0.71 0.71 0.73 0.73 0.74 0.79 0.85 0.75 0.84 0.84 0.75 0.71 0.88 0.81 0.74 0.77 0.86 0.88 0.75 0.90 0.74 0.75 0.72 0.85 0.86 0.79 0.72 0.89 0.81 0.73 0.79 0.80 0.72 0.86 0.89 0.72 0.71 0.89 0.82 0.79 0.90 0.70 0.87 0.81 0.75 0.84 0.70 0.79 0.73 0.79 0.75 0.82 0.84 0.71 0.88 0.85 0.79 0.75 0.78 0.85 0.81 0.71 0.89 0.82 0.85 0.87 0.87 0.88 0.84 0.73 0.81 0.87 0.72 0.70 0.79 0.84 0.78 0.74 0.80 0.71 0.75 0.72 0.75 0.74 0.85 0.76 0.79 0.84 0.78 0.73 0.76 0.81 0.71 0.82 0.83 0.85 0.70 0.79 0.84 0.76 0.72 0.70 0.71 0.86 0.80 0.75 0.78 0.90 0.82 0.71 0.74 0.84 0.71 0.72 0.86 0.82 0.85 0.89 0.82 0.80 0.78 0.75 0.71 0.80 0.90 0.76 0.76 0.77 0.86 0.79 0.80 0.79 0.86 0.88 0.85 0.87 0.75 0.84 0.83 -9999 -9999
0.71 0.74 0.76 0.82 0.85 0.73 0.73 0.88 0.87 0.75 0.75 0.77 0.89 0.74 0.89 0.73 0.77 0.85 0.74 0.84 0.79 0.78 0.80 0.80 0.85 0.77 0.74 0.74 0.77 0.71 0.81 0.77 0.81 0.70 0.87 0.72 0.73 0.81 0.79 0.89 0.85 0.86 0.81 0.88 0.87 0.76 0.85 0.72 0.89 0.75 0.72 0.80 0.73 0.77 0.77 0.72 0.85 0.87 0.80 0.81 0.83 0.77 0.78 0.85 0.76 0.82 0.86 0.81 0.72 0.72 0.83 0.73 0.86 0.77 0.77 0.82 0.79 0.84 0.79 0.73 0.80 0.79 0.85 0.81 0.87 0.85 0.84 0.70 0.88 0.84 0.81 0.79 0.86 0.77 0.85 0.72 0.84 0.83 0.72 0.82 0.72 0.88 0.80 0.78 0.72 0.78 0.71 0.83 0.73 0.87 0.88 0.80 0.84 0.75 0.86 0.81 0.75 0.72 0.89 0.85 0.76 0.85 0.86 0.80 0.85 0.82 0.76 0.76 0.71 0.75 0.70 0.86 0.76 0.85 0.89 0.71 0.86 0.86 0.78 0.87 0.88 0.72 0.78 0.82 0.70 0.87 0.88 0.76 0.77 0.84 0.74 0.81 0.89 0.81 0.73 0.73 0.73 0.84 0.85 0.73 0.80 0.82 0.77 0.73 0.81 0.82 0.81 0.88 0.80 0.82 0.84 0.83 0.74 0.84 0.79 0.74 0.88 0.84 0.71 0.83 0.79 0.70 0.86 0.79 0.71 0.89 0.85 0.72 0.84 0.73 0.78 0.83 0.81 0.81 0.79 0.73 0.90 0.79 0.73 0.87 0.73 0.71 0.76 0.82 0.76 0.89 0.89 0.75 0.74 0.70 0.85 -9999 -9999 -9999 -9999
0.75 0.77 0.83 0.77 0.89 0.80 0.80 0.78 0.80 0.80 0.86 0.83 0.78 0.87 0.79 0.71 0.73 0.82 0.86 0.76 0.78 0.77 0.72 0.76 0.78 0.72 0.74 0.84 0.70 0.87 0.90 0.75 0.89 0.86 0.71 0.73 0.85 0.74 0.80 0.83 0.89 0.88 0.88 0.86 0.79 0.72 0.78 0.77 0.79 0.80 0.73 0.73 0.82 0.87 0.81 0.74 0.73 0.77 0.81 0.85 0.88 0.71 0.86 0.82 0.88 0.81 0.78 0.77 0.80 0.76 0.84 0.85 0.75 0.83 0.88 0.73 0.73 0.76 0.81 0.86 0.75 0.75 0.73 0.86 0.85 0.88 0.87 0.85 0.89 0.76 0.81 0.70 0.77 0.82 0.74 0.80 0.82 0.86 0.76 0.78 0.89 0.83 0.77 0.79 0.85 0.77 0.73 0.72 0.84 0.73 0.89 0.79 0.73 0.73 0.70 0.89 0.80 0.90 0.84 0.73 0.74 0.74 0.79 0.79 0.78 0.77 0.85 0.87 0.70 0.71 0.89 0.71 0.71 0.72 0.84 0.73 0.85 0.81 0.80 0.81 0.84 0.71 0.76 0.76 0.81 0.85 0.83 0.90 0.89 0.84 0.84 0.83 0.86 0.77 0.83 0.88 0.83 0.80 0.78 0.74 0.86 0.74 0.78 0.73 0.79 0.74 0.86 0.88 0.80 0.74 0.76 0.83 0.81 0.78 0.81 0.82 0.80 0.73 0.73 0.88 0.73 0.72 0.84 0.76 0.86 0.81 0.76 0.80 0.86 0.72 0.85 0.73 0.88 0.71 0.78 0.82 0.78 0.73 0.73 0.89 0.83 0.82 0.80 0.80 -9999 -9999 -9999 -9999 -9999 -9999 -9999 -9999 -9999 -9999 -9999
0.78 0.71 0.72 0.84 0.72 0.79 0.72 0.73 0.81 0.87 0.85 0.72 0.75 0.77 0.90 0.71 0.80 0.85 0.80 0.71 0.75 0.83 0.87 0.75 0.76 0.78 0.82 0.84 0.80 0.77 0.89 0.75 0.81 0.75 0.81 0.73 0.83 0.89 0.78 0.73 0.77 0.81 0.86 0.81 0.76 0.85 0.82 0.80 0.86 0.80 0.89 0.70 0.79 0.77 0.84 0.80 0.88 0.85 0.87 0.80 0.80 0.83 0.78 0.81 0.79 0.90 0.82 0.87 0.87 0.74 0.81 0.88 0.82 0.88 0.87 0.84 0.81 0.82 0.79 0.84 0.77 0.84 0.72 0.82 0.83 0.80 0.86 0.80 0.77 0.82 0.89 0.71 0.70 0.77 0.88 0.72 0.77 0.72 0.71 0.87 0.70 0.70 0.83 0.71 0.78 0.83 0.79 0.89 0.75 0.89 0.79 0.80 0.71 0.86 0.77 0.74 0.78 0.71 0.89 0.79 0.85 0.78 0.87 0.81 0.81 0.85 0.79 0.85 0.82 0.71 0.77 0.80 0.90 0.70 0.86 0.80 0.86 0.87 0.79 0.73 0.81 0.75 0.77 0.88 0.78 0.83 0.73 0.86 0.86 0.75 0.87 0.80 0.81 0.81 0.84 0.81 0.86 0.77 0.72 0.77 0.73 0.82 0.87 0.74 0.79 0.82 0.76 0.82 0.86 0.72 0.73 0.78 0.70 0.87 0.74 0.72 0.79 0.74 0.78 0.70 0.80 0.78 0.89 0.87 0.73 0.85 0.81 0.72 0.83 0.79 0.81 0.84 0.81 0.82 0.80 0.90 0.84 0.81 -9999 -9999 -9999 -9999 -9999 -9999 -9999 -9999 -9999 -9999 -9999 -9999 -9999 -9999 -9999 -9999 -9999
0.82 0.76 0.88 0.80 0.79 0.72 0.75 0.77 0.90 0.79 0.71 0.72 0.76 0.76 0.73 0.84 0.86 0.71 0.79 0.85 0.89 0.83 0.72 0.83 0.81 0.84 0.86 0.80 0.70 0.86 0.89 0.83 0.83 0.72 0.86 0.89 0.88 0.83 0.90 0.74 0.86 0.87 0.83 0.77 0.83 0.81 0.87 0.84 0.81 0.87 0.83 0.85 0.88 0.82 0.82 0.72 0.84 0.87 0.73 0.79 0.78 0.83 0.76 0.83 0.70 0.89 0.75 0.87 0.79 0.72 0.85 0.80 0.74 0.79 0.76 0.74 0.78 0.89 0.74 0.77 0.85 0.81 0.75 0.75 0.78 0.72 0.81 0.88 0.82 0.87 0.85 0.86 0.78 0.86 0.74 0.80 0.77 0.87 0.73 0.88 0.88 0.72 0.85 0.84 0.86 0.85 0.71 0.71 0.72 0.76 0.88 0.71 0.81 0.84 0.81 0.89 0.75 0.71 0.80 0.83 0.89 0.80 0.82 0.86 0.74 0.90 0.86 0.88 0.78 0.86 0.70 0.87 0.84 0.72 0.72 0.88 0.88 0.73 0.79 0.72 0.71 0.79 0.88 0.82 0.76 0.89 0.82 0.87 0.88 0.85 0.71 0.85 0.70 0.76 0.84 0.85 0.79 0.86 0.81 0.81 0.78 0.86 0.77 0.77 0.87 0.78 0.87 0.77 0.74 0.86 0.75 0.87 0.83 0.78 0.80 0.76 0.77 0.81 0.89 0.88 0.85 0.88 0.90 0.73 0.85 0.85 0.81 0.81 0.80 0.86 0.79 -9999 -9999 -9999 -9999 -9999 -9999 -9999 -9999 -9999 -9999 -9999 -9999 -9999 -9999 -9999 -9999 -9999 -9999 -9999 -9999 -9999 -9999 -9999 -9999
0.79 0.90 0.79 0.78 0.70 0.87 0.82 0.82 0.73 0.70 0.83 0.85 0.82 0.87 0.71 0.85 0.70 0.75 0.75 0.80 0.74 0.79 0.84 0.88 0.79 0.78 0.90 0.78 0.76 0.79 0.71 0.72 0.72 0.80 0.77 0.77 0.80 0.80 0.82 0.74 0.87 0.85 0.85 0.70 0.86 0.90 0.73 0.79 0.88 0.87 0.77 0.88 0.72 0.75 0.80 0.74 0.80 0.74 0.87 0.81 0.85 0.75 0.83 0.87 0.83 0.81 0.90 0.77 0.86 0.74 0.83 0.76 0.70 0.81 0.89 0.76 0.78 0.84 0.74 0.86 0.85 0.76 0.86 0.76 0.79 0.83 0.81 0.87 0.83 0.70 0.89 0.70 0.82 0.87 0.76 0.79 0.70 0.73 0.77 0.86 0.85 0.86 0.83 0.75 0.77 0.82 0.73 0.83 0.80 0.75 0.70 0.77 0.86 0.78 0.86 0.90 0.73 0.88 0.72 0.80 0.78 0.74 0.72 0.70 0.74 0.76 0.70 0.85 0.76 0.74 0.83 0.83 0.76 0.85 0.83 0.72 0.75 0.83 0.86 0.83 0.78 0.76 0.83 0.83 0.71 0.75 0.80 0.83 0.88 0.72 0.72 0.82 0.74 0.74 0.76 0.79 0.75 0.85 0.85 0.71 0.73 0.88 0.73 0.83 0.81 0.87 0.84 0.80 0.73 0.79 0.77 0.76 0.85 0.90 0.79 0.81 0.77 0.85 0.77 0.77 0.83 0.81 0.90 0.81 -9999 -9999 -9999 -9999 -9999 -9999 -9999 -9999 -9999 -9999 -9999 -9999 -9999 -9999 -9999 -9999 -9999 -9999 -9999 -9999 -9999 -9999 -9999 -9999 -9999 -9999 -9999 -9999 -9999 -9999 -9999
0.79 0.84 0.70 0.74 0.82 0.76 0.78 0.81 0.76 0.84 0.81 0.71 0.73 0.89 0.87 0.86 0.84 0.88 0.84 0.81 0.80 0.88 0.79 0.77 0.86 0.90 0.77 0.86 0.75 0.89 0.90 0.79 0.88 0.77 0.84 0.72 0.76 0.90 0.73 0.84 0.79 0.76 0.77 0.89 0.84 0.79 0.71 0.78 0.90 0.78 0.70 0.72 0.77 0.76 0.89 0.78 0.79 0.74 0.86 0.73 0.83 0.78 0.75 0.78 0.87 0.75 0.82 0.75 0.81 0.89 0.70 0.73 0.82 0.88 0.87 0.84 0.71 0.90 0.80 0.76 0.86 0.82 0.83 0.80 0.87 0.77 0.77 0.75 0.74 0.78 0.74 0.82 0.79 0.87 0.75 0.70 0.71 0.88 0.78 0.78 0.85 0.86 0.74 0.74 0.76 0.86 0.81 0.86 0.86 0.81 0.84 0.81 0.76 0.88 0.83 0.70 0.77 0.85 0.82 0.74 0.71 0.81 0.75 0.83 0.82 0.82 0.90 0.87 0.86 0.75 0.84 0.76 0.85 0.71 0.82 0.87 0.79 0.79 0.72 0.85 0.82 0.82 0.84 0.84 0.76 0.87 0.73 0.75 0.84 0.87 0.80 0.79 0.83 0.71 0.80 0.87 0.73 0.80 0.84 0.78 0.81 0.88 0.73 0.83 0.70 0.77 0.76 0.74 0.80 0.89 0.88 0.77 0.75 0.76 0.80 0.85 0.74 -9999 -9999 -9999 -9999 -9999 -9999 -9999 -9999 -9999 -9999 -9999 -9999 -9999 -9999 -9999 -9999 -9999 -9999 -9999 -9999 -9999 -9999 -9999 -9999 -9999 -9999 -9999 -9999 -9999 -9999 -9999 -9999 -9999 -9999 -9999 -9999 -9999 -9999
0.71 0.84 0.71 0.83 0.79 0.87 0.88 0.74 0.84 0.77 0.75 0.84 0.78 0.81 0.73 0.77 0.78 0.85 0.82 0.86 0.75 0.80 0.82 0.83 0.90 0.81 0.77 0.72 0.81 0.79 0.86 0.82 0.72 0.82 0.70 0.82 0.73 0.90 0.87 0.76 0.81 0.79 0.90 0.81 0.85 0.81 0.82 0.74 0.70 0.79 0.86 0.85 0.79 0.73 0.85 0.86 0.83 0.89 0.71 0.78 0.85 0.80 0.78 0.80 0.71 0.81 0.75 0.89 0.79 0.86 0.76 0.87 0.76 0.70 0.88 0.89 0.77 0.77 0.82 0.85 0.78 0.80 0.76 0.84 0.85 0.75 0.79 0.82 0.72 0.82 0.80 0.83 0.74 0.85 0.88 0.75 0.83 0.87 0.76 0.84 0.83 0.86 0.85 0.73 0.87 0.75 0.88 0.70 0.85 0.79 0.83 0.75 0.89 0.88 0.83 0.79 0.73 0.82 0.89 0.71 0.73 0.89 0.80 0.81 0.86 0.88 0.79 0.89 0.72 0.75 0.84 0.76 0.74 0.71 0.72 0.80 0.73 0.76 0.77 0.74 0.76 0.89 0.84 0.86 0.79 0.75 0.88 0.76 0.82 0.83 0.75 0.76 0.90 0.80 0.74 0.84 0.86 0.75 0.84 0.78 0.79 0.83 0.80 0.85 0.87 0.90 0.88 0.87 0.77 0.79 -9999 -9999 -9999 -9999 -9999 -9999 -9999 -9999 -9999 -9999 -9999 -9999 -9999 -9999 -9999 -9999 -9999 -9999 -9999 -9999 -9999 -9999 -9999 -9999 -9999 -9999 -9999 -9999 -9999 -9999 -9999 -9999 -9999 -9999 -9999 -9999 -9999 -9999 -9999 -9999 -9999 -9999 -9999 -9999 -9999
0.84 0.75 0.87 0.78 0.76 0.73 0.76 0.77 0.85 0.77 0.75 0.72 0.79 0.85 0.83 0.85 0.79 0.75 0.87 0.71 0.85 0.79 0.86 0.75 0.84 0.84 0.83 0.88 0.82 0.71 0.72 0.72 0.82 0.78 0.87 0.80 0.85 0.87 0.87 0.79 0.75 0.81 0.71 0.87 0.88 0.84 0.81 0.86 0.83 0.87 0.84 0.71 0.86 0.81 0.80 0.87 0.73 0.75 0.76 0.88 0.73 0.83 0.71 0.73 0.75 0.80 0.85 0.72 0.83 0.88 0.78 0.88 0.74 0.77 0.75 0.74 0.81 0.88 0.89 0.75 0.80 0.84 0.87 0.72 0.75 0.85 0.85 0.86 0.82 0.85 0.73 0.76 0.90 0.76 0.75 0.78 0.88 0.75 0.84 0.74 0.74 0.86 0.89 0.89 0.89 0.84 0.73 0.72 0.87 0.82 0.78 0.78 0.85 0.79 0.77 0.72 0.83 0.73 0.84 0.75 0.81 0.75 0.71 0.76 0.75 0.86 0.74 0.88 0.84 0.90 0.79 0.89 0.85 0.88 0.79 0.71 0.70 0.76 0.89 0.76 0.85 0.85 0.83 0.87 0.88 0.82 0.80 0.82 0.90 0.72 0.84 0.85 0.75 0.85 0.87 0.82 0.89 0.83 0.78 0.84 0.73 0.74 0.77 0.72 0.79 0.90 0.72 0.86 0.80 -9999 -9999 -9999 -9999 -9999 -9999 -9999 -9999 -9999 -9999 -9999 -9999 -9999 -9999 -9999 -9999 -9999 -9999 -9999 -9999 -9999 -9999 -9999 -9999 -9999 -9999 -9999 -9999 -9999 -9999 -9999 -9999 -9999 -9999 -9999 -9999 -9999 -9999 -9999 -9999 -9999 -9999 -9999 -9999 -9999 -9999
0.78 0.75 0.83 0.81 0.80 0.83 0.85 0.89 0.71 0.86 0.85 0.77 0.78 0.89 0.71 0.77 0.72 0.77 0.74 0.77 0.83 0.72 0.81 0.71 0.83 0.73 0.80 0.84 0.83 0.84 0.85 0.89 0.82 0.72 0.72 0.88 0.81 0.77 0.78 0.75 0.77 0.80 0.76 0.76 0.79 0.82 0.77 0.71 0.76 0.76 0.76 0.77 0.76 0.84 0.88 0.86 0.74 0.77 0.71 0.85 0.74 0.82 0.89 0.83 0.76 0.71 0.80 0.77 0.78 0.75 0.87 0.76 0.70 0.83 0.70 0.81 0.86 0.85 0.82 0.78 0.79 0.87 0.73 0.71 0.89 0.79 0.71 0.87 0.87 0.90 0.83 0.72 0.87 0.83 0.84 0.88 0.88 0.76 0.83 0.90 0.89 0.75 0.75 0.80 0.77 0.90 0.86 0.76 0.83 0.84 0.77 0.81 0.90 0.74 0.78 0.71 0.89 0.72 0.78 0.90 0.85 0.85 0.72 0.77 0.82 0.76 0.76 0.89 0.72 0.79 0.83 0.82 0.76 0.90 0.83 0.78 0.76 0.71 0.83 0.90 0.89 0.88 0.84 0.86 0.71 0.72 0.89 0.80 0.70 0.76 0.84 0.80 0.78 0.74 0.76 0.84 0.76 0.90 0.74 0.78 0.85 0.86 0.83 0.88 0.84 0.74 0.74 0.82 0.75 0.85 -9999 -9999 -9999 -9999 -9999 -9999 -9999 -9999 -9999 -9999 -9999 -9999 -9999 -9999 -9999 -9999 -9999 -9999 -9999 -9999 -9999 -9999 -9999 -9999 -9999 -9999 -9999 -9999 -9999 -9999 -9999 -9999 -9999 -9999 -9999 -9999 -9999 -9999 -9999 -9999 -9999 -9999 -9999 -9999 -9999
0.83 0.71 0.83 0.83 0.88 0.84 0.88 0.72 0.79 0.89 0.90 0.84 0.88 0.71 0.87 0.84 0.76 0.83 0.83 0.87 0.80 0.73 0.82 0.79 0.88 0.73 0.80 0.81 0.71 0.78 0.78 0.87 0.80 0.71 0.85 0.72 0.86 0.82 0.77 0.90 0.79 0.87 0.85 0.84 0.88 0.71 0.71 0.89 0.86 0.86 0.85 0.87 0.89 0.79 0.78 0.83 0.76 0.89 0.71 0.71 0.77 0.71 0.82 0.80 0.80 0.88 0.87 0.73 0.84 0.86 0.71 0.84 0.78 0.87 0.71 0.76 0.75 0.81 0.72 0.81 0.89 0.87 0.87 0.75 0.71 0.75 0.81 0.86 0.87 0.78 0.87 0.85 0.86 0.85 0.81 0.88 0.90 0.77 0.88 0.73 0.81 0.77 0.84 0.81 0.85 0.82 0.75 0.81 0.70 0.84 0.81 0.79 0.86 0.72 0.87 0.80 0.73 0.76 0.70 0.83 0.73 0.78 0.76 0.81 0.71 0.84 0.75 0.79 0.77 0.78 0.86 0.86 0.85 0.89 0.81 0.84 0.88 0.83 0.78 0.90 0.75 0.87 0.79 0.83 0.77 0.89 0.76 0.80 0.83 0.75 0.72 0.88 0.72 0.84 0.86 0.73 0.80 0.70 0.75 0.81 0.73 0.73 0.79 0.82 0.76 0.87 0.87 0.73 0.73 0.86 -9999 -9999 -9999 -9999 -9999 -9999 -9999 -9999 -9999 -9999 -9999 -9999 -9999 -9999 -9999 -9999 -9999 -9999 -9999 -9999 -9999 -9999 -9999 -9999 -9999 -9999 -9999 -9999 -9999 -9999 -9999 -9999 -9999 -9999 -9999 -9999 -9999 -9999 -9999 -9999 -9999 -9999 -9999 -9999 -9999
0.72 0.86 0.84 0.80 0.90 0.87 0.87 0.80 0.80 0.82 0.86 0.87 0.78 0.82 0.73 0.88 0.72 0.84 0.77 0.87 0.71 0.81 0.82 0.83 0.73 0.85 0.85 0.86 0.81 0.89 0.70 0.72 0.85 0.72 0.73 0.83 0.73 0.83 0.76 0.84 0.88 0.85 0.81 0.75 0.87 0.76 0.79 0.75 0.70 0.77 0.81 0.85 0.80 0.84 0.87 0.73 0.89 0.80 0.84 0.80 0.70 0.84 0.77 0.89 0.74 0.89 0.76 0.75 0.70 0.83 0.74 0.80 0.76 0.90 0.76 0.80 0.78 0.86 0.82 0.70 0.77 0.87 0.84 0.73 0.71 0.84 0.74 0.86 0.86 0.85 0.72 0.82 0.71 0.89 0.73 0.89 0.71 0.82 0.87 0.88 0.86 0.80 0.75 0.73 0.74 0.87 0.70 0.75 0.89 0.73 0.87 0.74 0.79 0.88 0.78 0.78 0.88 0.80 0.76 0.83 0.81 0.75 0.78 0.86 0.78 0.74 0.84 0.86 0.75 0.87 0.76 0.74 0.85 0.73 0.78 0.83 0.73 0.77 0.86 0.72 0.81 0.77 0.84 0.76 0.85 0.87 0.72 0.87 0.75 0.80 0.84 0.76 0.72 0.83 0.73 0.84 0.83 0.85 0.76 0.90 0.89 0.82 0.82 0.71 0.89 0.85 0.87 0.72 0.75 0.74 -9999 -9999 -9999 -9999 -9999 -9999 -9999 -9999 -9999 -9999 -9999 -9999 -9999 -9999 -9999 -9999 -9999 -9999 -9999 -9999 -9999 -9999 -9999 -9999 -9999 -9999 -9999 -9999 -9999 -9999 -9999 -9999 -9999 -9999 -9999 -9999 -9999 -9999 -9999 -9999 -9999 -9999 -9999 -9999 -9999
0.80 0.70 0.81 0.81 0.86 0.71 0.79 0.84 0.88 0.80 0.83 0.72 0.80 0.75 0.71 0.86 0.77 0.82 0.89 0.85 0.89 0.70 0.74 0.86 0.77 0.81 0.76 0.89 0.79 0.73 0.77 0.80 0.83 0.88 0.75 0.75 0.86 0.77 0.81 0.71 0.83 0.87 0.71 0.85 0.89 0.78 0.84 0.81 0.78 0.74 0.80 0.87 0.87 0.87 0.88 0.80 0.79 0.79 0.71 0.88 0.76 0.87 0.71 0.84 0.72 0.70 0.71 0.89 0.87 0.75 0.79 0.74 0.84 0.89 0.82 0.75 0.74 0.77 0.80 0.75 0.88 0.88 0.77 0.86 0.81 0.76 0.73 0.87 0.78 0.74 0.82 0.79 0.78 0.81 0.76 0.74 0.86 0.76 0.80 0.82 0.83 0.86 0.82 0.86 0.79 0.84 0.85 0.89 0.90 0.76 0.81 0.75 0.73 0.83 0.76 0.80 0.75 0.87 0.89 0.88 0.76 0.79 0.76 0.71 0.83 0.86 0.76 0.73 0.75 0.79 0.81 0.87 0.90 0.84 0.80 0.88 0.88 0.75 0.74 0.79 0.78 0.78 0.84 0.71 0.89 0.84 0.75 0.86 0.78 0.90 0.84 0.90 0.76 0.73 0.77 0.75 0.78 0.85 0.84 0.71 0.80 0.78 0.87 0.79 0.87 0.71 0.86 0.85 0.86 0.89 -9999 -9999 -9999 -9999 -9999 -9999 -9999 -9999 -9999 -9999 -9999 -9999 -9999 -9999 -9999 -9999 -9999 -9999 -9999 -9999 -9999 -9999 -9999 -9999 -9999 -9999 -9999 -9999 -9999 -9999 -9999 -9999 -9999 -9999 -9999 -9999 -9999 -9999 -9999 -9999 -9999 -9999 -9999 -9999 -9999
0.76 0.83 0.76 0.89 0.71 0.79 0.89 0.88 0.77 0.89 0.90 0.77 0.78 0.70 0.76 0.76 0.78 0.76 0.87 0.84 0.86 0.87 0.71 0.85 0.72 0.84 0.72 0.75 0.74 0.85 0.76 0.71 0.84 0.87 0.84 0.78 0.71 0.80 0.75 0.83 0.79 0.80 0.81 0.85 0.75 0.85 0.88 0.77 0.86 0.79 0.71 0.87 0.86 0.80 0.85 0.88 0.85 0.74 0.75 0.87 0.74 0.75 0.76 0.83 0.79 0.82 0.70 0.81 0.86 0.81 0.81 0.78 0.73 0.89 0.76 0.71 0.74 0.73 0.85 0.73 0.78 0.73 0.80 0.79 0.86 0.83 0.74 0.71 0.84 0.70 0.86 0.72 0.84 0.75 0.85 0.76 0.87 0.74 0.88 0.89 0.86 0.86 0.81 0.72 0.88 0.79 0.74 0.75 0.88 0.83 0.84 0.75 0.86 0.84 0.90 0.84 0.82 0.72 0.82 0.72 0.83 0.72 0.88 0.84 0.88 0.84 0.87 0.88 0.86 0.70 0.73 0.90 0.80 0.71 0.84 0.73 0.79 0.76 0.80 0.73 0.86 0.75 0.86 0.76 0.79 0.70 0.83 0.77 0.73 0.82 0.81 0.77 0.78 0.82 0.85 0.75 0.70 0.79 0.80 0.89 0.73 0.87 0.76 0.86 0.89 0.77 0.75 0.86 0.88 0.89 -9999 -9999 -9999 -9999 -9999 -9999 -9999 -9999 -9999 -9999 -9999 -9999 -9999 -9999 -9999 -9999 -9999 -9999 -9999 -9999 -9999 -9999 -9999 -9999 -9999 -9999 -9999 -9999 -9999 -9999 -9999 -9999 -9999 -9999 -9999 -9999 -9999 -9999 -9999 -9999 -9999 -9999 -9999 -9999 -9999
0.79 0.83 0.70 0.85 0.85 0.79 0.76 0.72 0.84 0.73 0.81 0.72 0.79 0.79 0.84 0.88 0.77 0.85 0.81 0.70 0.86 0.84 0.81 0.75 0.70 0.84 0.72 0.88 0.73 0.81 0.80 0.82 0.85 0.75 0.86 0.78 0.78 0.78 0.82 0.78 0.82 0.74 0.76 0.71 0.87 0.73 0.74 0.82 0.77 0.74 0.84 0.84 0.85 0.89 0.75 0.73 0.84 0.79 0.85 0.80 0.76 0.79 0.90 0.88 0.70 0.75 0.89 0.90 0.75 0.85 0.85 0.74 0.82 0.74 0.75 0.78 0.90 0.80 0.86 0.83 0.90 0.79 0.88 0.85 0.80 0.70 0.86 0.74 0.81 0.75 0.74 0.70 0.85 0.77 0.86 0.87 0.72 0.75 0.73 0.86 0.71 0.76 0.72 0.79 0.88 0.76 0.76 0.79 0.74 0.75 0.73 0.79 0.90 0.83 0.90 0.84 0.87 0.77 0.74 0.73 0.85 0.89 0.85 0.74 0.73 0.74 0.89 0.84 0.87 0.75 0.79 0.89 0.74 0.84 0.81 0.85 0.70 0.73 0.84 0.89 0.72 0.87 0.70 0.73 0.71 0.80 0.76 0.80 0.73 0.81 0.76 0.88 0.86 0.76 0.82 0.88 0.79 0.85 0.73 0.75 0.79 0.75 0.71 0.77 0.77 0.86 0.74 0.83 0.83 0.89 -9999 -9999 -9999 -9999 -9999 -9999 -9999 -9999 -9999 -9999 -9999 -9999 -9999 -9999 -9999 -9999 -9999 -9999 -9999 -9999 -9999 -9999 -9999 -9999 -9999 -9999 -9999 -9999 -9999 -9999 -9999 -9999 -9999 -9999 -9999 -9999 -9999 -9999 -9999 -9999 -9999 -9999 -9999 -9999 -9999
0.71 0.81 0.71 0.82 0.78 0.83 0.74 0.82 0.87 0.85 0.83 0.76 0.87 0.82 0.70 0.72 0.81 0.74 0.90 0.76 0.79 0.83 0.77 0.83 0.71 0.81 0.72 0.76 0.83 0.82 0.81 0.85 0.85 0.89 0.72 0.79 0.80 0.74 0.79 0.87 0.81 0.89 0.87 0.75 0.70 0.80 0.78 0.89 0.77 0.80 0.75 0.74 0.84 0.86 0.86 0.80 0.81 0.73 0.70 0.81 0.79 0.83 0.76 0.70 0.78 0.82 0.78 0.89 0.79 0.70 0.77 0.85 0.88 0.89 0.81 0.73 0.73 0.88 0.79 0.80 0.82 0.83 0.74 0.84 0.81 0.85 0.74 0.81 0.77 0.88 0.86 0.71 0.73 0.85 0.80 0.84 0.70 0.87 0.89 0.84 0.87 0.84 0.76 0.88 0.72 0.76 0.87 0.80 0.78 0.89 0.72 0.73 0.80 0.70 0.75 0.82 0.75 0.81 0.71 0.88 0.77 0.89 0.87 0.81 0.87 0.85 0.81 0.87 0.89 0.83 0.79 0.76 0.76 0.85 0.78 0.71 0.70 0.89 0.72 0.84 0.82 0.80 0.88 0.85 0.76 0.81 0.86 0.87 0.82 0.75 0.73 0.90 0.84 0.77 0.70 0.71 0.90 0.85 0.73 0.75 0.74 0.76 0.72 0.72 0.76 0.88 0.78 0.75 0.72 0.80 -9999 -9999 -9999 -9999 -9999 -9999 -9999 -9999 -9999 -9999 -9999 -9999 -9999 -9999 -9999 -9999 -9999 -9999 -9999 -9999 -9999 -9999 -9999 -9999 -9999 -9999 -9999 -9999 -9999 -9999 -9999 -9999 -9999 -9999 -9999 -9999 -9999 -9999 -9999 -9999 -9999 -9999 -9999 -9999 -9999
0.86 0.73 0.89 0.89 0.88 0.72 0.73 0.77 0.74 0.71 0.74 0.86 0.84 0.84 0.86 0.89 0.79 0.86 0.89 0.73 0.84 0.90 0.73 0.75 0.83 0.82 0.86 0.85 0.72 0.74 0.74 0.82 0.83 0.82 0.82 0.74 0.80 0.85 0.86 0.74 0.76 0.88 0.76 0.88 0.74 0.82 0.85 0.89 0.90 0.87 0.87 0.77 0.77 0.85 0.82 0.74 0.85 0.77 0.84 0.74 0.83 0.79 0.83 0.74 0.78 0.75 0.77 0.76 0.71 0.85 0.85 0.72 0.83 0.87 0.89 0.70 0.75 0.82 0.73 0.84 0.72 0.83 0.74 0.71 0.82 0.71 0.70 0.87 0.86 0.77 0.72 0.74 0.82 0.79 0.82 0.72 0.80 0.87 0.83 0.71 0.78 0.83 0.87 0.77 0.79 0.83 0.77 0.71 0.85 0.74 0.72 0.85 0.71 0.82 0.88 0.89 0.84 0.83 0.87 0.76 0.70 0.81 0.74 0.72 0.84 0.73 0.72 0.77 0.82 0.76 0.79 0.89 0.74 0.84 0.71 0.70 0.80 0.71 0.87 0.77 0.82 0.75 0.71 0.89 0.89 0.74 0.83 0.85 0.87 0.88 0.83 0.80 0.78 0.87 0.76 0.84 0.82 0.86 0.84 0.84 0.81 0.71 0.79 0.88 0.88 0.73 0.88 0.77 0.72 0.77 0.77 -9999 -9999 -9999 -9999 -9999 -9999 -9999 -9999 -9999 -9999 -9999 -9999 -9999 -9999 -9999 -9999 -9999 -9999 -9999 -9999 -9999 -9999 -9999 -9999 -9999 -9999 -9999 -9999 -9999 -9999 -9999 -9999 -9999 -9999 -9999 -9999 -9999 -9999 -9999 -9999 -9999 -9999 -9999 -9999
0.71 0.86 0.79 0.88 0.82 0.76 0.89 0.84 0.82 0.77 0.79 0.83 0.83 0.90 0.70 0.73 0.87 0.78 0.82 0.86 0.76 0.88 0.84 0.83 0.76 0.82 0.75 0.83 0.82 0.82 0.82 0.88 0.74 0.81 0.85 0.83 0.76 0.88 0.74 0.83 0.74 0.79 0.78 0.90 0.89 0.85 0.86 0.89 0.81 0.80 0.81 0.87 0.85 0.72 0.74 0.72 0.73 0.78 0.72 0.86 0.84 0.83 0.81 0.70 0.83 0.82 0.84 0.74 0.71 0.75 0.89 0.73 0.85 0.87 0.75 0.75 0.78 0.85 0.82 0.83 0.90 0.88 0.88 0.77 0.88 0.84 0.77 0.83 0.80 0.86 0.71 0.79 0.75 0.88 0.77 0.78 0.82 0.73 0.87 0.85 0.71 0.87 0.85 0.81 0.75 0.74 0.76 0.84 0.84 0.84 0.82 0.84 0.80 0.78 0.77 0.77 0.81 0.77 0.72 0.87 0.72 0.83 0.79 0.75 0.72 0.90 0.77 0.86 0.70 0.81 0.90 0.74 0.77 0.71 0.86 0.85 0.89 0.89 0.88 0.87 0.77 0.80 0.87 0.72 0.89 0.88 0.84 0.76 0.75 0.77 0.79 0.80 0.81 0.75 0.72 0.75 0.87 0.86 0.85 0.79 0.85 0.90 0.85 0.88 0.81 0.86 0.77 0.75 0.83 0.74 0.79 -9999 -9999 -9999 -9999 -9999 -9999 -9999 -9999 -9999 -9999 -9999 -9999 -9999 -9999 -9999 -9999 -9999 -9999 -9999 -9999 -9999 -9999 -9999 -9999 -9999 -9999 -9999 -9999 -9999 -9999 -9999 -9999 -9999 -9999 -9999 -9999 -9999 -9999 -9999 -9999 -9999 -9999 -9999 -9999
0.79 0.77 0.83 0.88 0.85 0.75 0.89 0.87 0.83 0.90 0.72 0.74 0.78 0.84 0.87 0.75 0.86 0.70 0.88 0.72 0.73 0.78 0.90 0.78 0.85 0.75 0.83 0.71 0.84 0.78 0.86 0.70 0.80 0.85 0.84 0.85 0.80 0.88 0.72 0.73 0.86 0.88 0.86 0.87 0.72 0.73 0.79 0.77 0.89 0.71 0.81 0.76 0.75 0.73 0.71 0.88 0.90 0.86 0.71 0.71 0.80 0.75 0.83 0.88 0.87 0.71 0.73 0.74 0.79 0.71 0.82 0.75 0.79 0.87 0.89 0.84 0.72 0.85 0.82 0.75 0.85 0.78 0.74 0.89 0.72 0.72 0.72 0.73 0.86 0.87 0.75 0.80 0.83 0.79 0.77 0.80 0.84 0.90 0.72 0.72 0.88 0.82 0.90 0.84 0.78 0.76 0.72 0.74 0.80 0.77 0.82 0.87 0.71 0.78 0.86 0.74 0.87 0.71 0.87 0.79 0.83 0.81 0.85 0.80 0.75 0.76 0.74 0.78 0.76 0.80 0.72 0.81 0.78 0.84 0.71 0.75 0.86 0.85 0.83 0.76 0.71 0.81 0.86 0.73 0.75 0.83 0.87 0.79 0.81 0.76 0.73 0.80 0.76 0.73 0.82 0.74 0.89 0.71 0.70 0.87 0.80 0.72 0.82 0.83 0.83 0.72 0.84 0.86 0.70 0.88 0.89 -9999 -9999 -9999 -9999 -9999 -9999 -9999 -9999 -9999 -9999 -9999 -9999 -9999 -9999 -9999 -9999 -9999 -9999 -9999 -9999 -9999 -9999 -9999 -9999 -9999 -9999 -9999 -9999 -9999 -9999 -9999 -9999 -9999 -9999 -9999 -9999 -9999 -9999 -9999 -9999 -9999 -9999 -9999 -9999
0.79 0.78 0.83 0.78 0.78 0.89 0.84 0.71 0.71 0.76 0.78 0.88 0.82 0.87 0.83 0.83 0.76 0.74 0.86 0.88 0.77 0.87 0.85 0.89 0.86 0.82 0.71 0.72 0.76 0.89 0.76 0.78 0.85 0.75 0.72 0.88 0.78 0.87 0.80 0.73 0.72 0.78 0.80 0.88 0.71 0.73 0.84 0.87 0.73 0.79 0.73 0.70 0.83 0.72 0.81 0.83 0.90 0.78 0.80 0.78 0.81 0.83 0.70 0.87 0.71 0.84 0.90 0.75 0.75 0.89 0.85 0.80 0.70 0.88 0.87 0.77 0.88 0.85 0.87 0.88 0.74 0.80 0.85 0.83 0.76 0.84 0.83 0.80 0.78 0.74 0.81 0.75 0.74 0.72 0.72 0.74 0.74 0.75 0.79 0.82 0.71 0.75 0.87 0.80 0.82 0.84 0.84 0.87 0.84 0.89 0.71 0.80 0.74 0.73 0.78 0.77 0.86 0.70 0.78 0.73 0.88 0.83 0.72 0.76 0.79 0.71 0.71 0.85 0.87 0.77 0.80 0.86 0.87 0.81 0.88 0.87 0.89 0.84 0.76 0.78 0.84 0.83 0.72 0.71 0.87 0.71 0.78 0.73 0.79 0.75 0.88 0.84 0.87 0.73 0.73 0.84 0.89 0.74 0.81 0.73 0.85 0.80 0.80 0.79 0.73 0.89 0.70 0.87 0.75 0.81 0.72 -9999 -9999 -9999 -9999 -9999 -9999 -9999 -9999 -9999 -9999 -9999 -9999 -9999 -9999 -9999 -9999 -9999 -9999 -9999 -9999 -9999 -9999 -9999 -9999 -9999 -9999 -9999 -9999 -9999 -9999 -9999 -9999 -9999 -9999 -9999 -9999 -9999 -9999 -9999 -9999 -9999 -9999 -9999 -9999
0.77 0.70 0.85 0.71 0.87 0.78 0.75 0.86 0.81 0.75 0.82 0.90 0.73 0.84 0.77 0.79 0.80 0.82 0.76 0.87 0.71 0.82 0.82 0.75 0.76 0.86 0.79 0.84 0.70 0.86 0.78 0.83 0.75 0.83 0.88 0.90 0.78 0.82 0.70 0.90 0.79 0.84 0.70 0.73 0.87 0.76 0.79 0.81 0.71 0.76 0.82 0.84 0.89 0.78 0.85 0.89 0.78 0.70 0.82 0.90 0.79 0.87 0.71 0.71 0.82 0.89 0.80 0.71 0.80 0.79 0.73 0.84 0.85 0.71 0.86 0.86 0.82 0.75 0.74 0.90 0.70 0.83 0.78 0.86 0.73 0.76 0.79 0.81 0.72 0.81 0.82 0.74 0.86 0.76 0.86 0.88 0.79 0.80 0.78 0.78 0.85 0.75 0.86 0.87 0.83 0.90 0.72 0.83 0.90 0.73 0.79 0.87 0.73 0.80 0.72 0.86 0.85 0.83 0.88 0.88 0.79 0.82 0.88 0.75 0.85 0.82 0.80 0.85 0.88 0.82 0.81 0.89 0.78 0.79 0.80 0.85 0.80 0.84 0.85 0.77 0.80 0.70 0.73 0.83 0.74 0.72 0.79 0.85 0.83 0.81 0.89 0.84 0.76 0.85 0.88 0.79 0.83 0.74 0.74 0.78 0.79 0.78 0.84 0.77 0.86 0.89 0.74 0.70 0.82 0.80 0.74 -9999 -9999 -9999 -9999 -9999 -9999 -9999 -9999 -9999 -9999 -9999 -9999 -9999 -9999 -9999 -9999 -9999 -9999 -9999 -9999 -9999 -9999 -9999 -9999 -9999 -9999 -9999 -9999 -9999 -9999 -9999 -9999 -9999 -9999 -9999 -9999 -9999 -9999 -9999 -9999 -9999 -9999 -9999 -9999
0.77 0.80 0.87 0.89 0.89 0.88 0.87 0.78 0.87 0.89 0.89 0.84 0.72 0.88 0.84 0.76 0.90 0.83 0.86 0.83 0.70 0.77 0.89 0.84 0.75 0.74 0.74 0.86 0.83 0.89 0.88 0.74 0.84 0.84 0.76 0.80 0.74 0.86 0.83 0.75 0.87 0.72 0.74 0.73 0.83 0.78 0.79 0.86 0.85 0.83 0.81 0.82 0.71 0.90 0.76 0.85 0.86 0.82 0.80 0.71 0.74 0.88 0.73 0.72 0.73 0.81 0.88 0.76 0.78 0.83 0.83 0.81 0.83 0.70 0.80 0.81 0.79 0.85 0.72 0.74 0.70 0.82 0.79 0.83 0.85 0.86 0.71 0.88 0.77 0.79 0.89 0.87 0.75 0.80 0.85 0.80 0.86 0.90 0.85 0.74 0.82 0.86 0.81 0.84 0.80 0.75 0.81 0.75 0.85 0.81 0.88 0.71 0.71 0.74 0.78 0.74 0.76 0.83 0.80 0.85 0.76 0.80 0.85 0.81 0.78 0.87 0.81 0.79 0.82 0.85 0.81 0.74 0.84 0.87 0.81 0.89 0.84 0.76 0.72 0.70 0.83 0.78 0.79 0.72 0.84 0.74 0.83 0.87 0.79 0.84 0.80 0.79 0.72 0.81 0.83 0.81 0.87 0.80 0.73 0.77 0.76 0.73 0.90 0.85 0.85 0.82 0.78 0.83 0.88 0.72 0.72 -9999 -9999 -9999 -9999 -9999 -9999 -9999 -9999 -9999 -9999 -9999 -9999 -9999 -9999 -9999 -9999 -9999 -9999 -9999 -9999 -9999 -9999 -9999 -9999 -9999 -9999 -9999 -9999 -9999 -9999 -9999 -9999 -9999 -9999 -9999 -9999 -9999 -9999 -9999 -9999 -9999 -9999 -9999 -9999
0.76 0.71 0.71 0.80 0.70 0.87 0.79 0.89 0.79 0.78 0.75 0.88 0.79 0.73 0.74 0.71 0.71 0.86 0.83 0.88 0.74 0.85 0.81 0.87 0.81 0.77 0.84 0.87 0.73 0.73 0.80 0.70 0.81 0.81 0.75 0.81 0.78 0.85 0.88 0.71 0.78 0.87 0.77 0.85 0.87 0.78 0.88 0.82 0.82 0.89 0.86 0.72 0.86 0.81 0.75 0.88 0.72 0.70 0.76 0.89 0.80 0.88 0.78 0.71 0.88 0.88 0.82 0.81 0.81 0.80 0.87 0.84 0.89 0.81 0.73 0.77 0.82 0.70 0.73 0.78 0.86 0.79 0.83 0.72 0.83 0.78 0.71 0.74 0.82 0.72 0.80 0.90 0.72 0.85 0.82 0.80 0.82 0.72 0.72 0.83 0.72 0.75 0.84 0.80 0.74 0.82 0.78 0.81 0.83 0.89 0.86 0.77 0.78 0.77 0.80 0.79 0.78 0.81 0.83 0.85 0.72 0.70 0.79 0.81 0.79 0.90 0.88 0.86 0.75 0.86 0.85 0.71 0.77 0.87 0.79 0.82 0.72 0.72 0.78 0.82 0.87 0.84 0.86 0.83 0.87 0.71 0.82 0.76 0.78 0.74 0.79 0.82 0.75 0.87 0.88 0.78 0.89 0.71 0.84 0.76 0.89 0.80 0.84 0.88 0.75 0.74 0.75 0.84 0.70 0.73 0.71 -9999 -9999 -9999 -9999 -9999 -9999 -9999 -9999 -9999 -9999 -9999 -9999 -9999 -9999 -9999 -9999 -9999 -9999 -9999 -9999 -9999 -9999 -9999 -9999 -9999 -9999 -9999 -9999 -9999 -9999 -9999 -9999 -9999 -9999 -9999 -9999 -9999 -9999 -9999 -9999 -9999 -9999 -9999 -9999
0.73 0.81 0.84 0.74 0.84 0.82 0.88 0.81 0.88 0.83 0.80 0.79 0.75 0.84 0.87 0.78 0.83 0.80 0.83 0.83 0.73 0.75 0.84 0.88 0.82 0.83 0.81 0.75 0.88 0.83 0.71 0.77 0.89 0.82 0.82 0.84 0.89 0.82 0.75 0.87 0.81 0.73 0.78 0.76 0.81 0.88 0.81 0.86 0.82 0.73 0.79 0.82 0.76 0.86 0.80 0.73 0.75 0.75 0.86 0.74 0.87 0.78 0.87 0.88 0.76 0.82 0.90 0.77 0.77 0.77 0.82 0.87 0.87 0.84 0.72 0.76 0.80 0.81 0.76 0.88 0.87 0.87 0.78 0.74 0.84 0.71 0.71 0.70 0.74 0.79 0.85 0.89 0.75 0.75 0.76 0.83 0.75 0.87 0.86 0.90 0.88 0.73 0.83 0.74 0.83 0.77 0.78 0.81 0.73 0.82 0.76 0.74 0.87 0.87 0.82 0.84 0.89 0.84 0.81 0.78 0.75 0.73 0.71 0.85 0.78 0.84 0.82 0.89 0.80 0.81 0.78 0.84 0.71 0.76 0.86 0.86 0.85 0.74 0.79 0.82 0.76 0.86 0.80 0.72 0.73 0.78 0.72 0.72 0.82 0.78 0.80 0.83 0.87 0.88 0.77 0.77 0.77 0.84 0.74 0.85 0.75 0.79 0.78 0.85 0.88 0.77 0.88 0.83 0.87 0.72 0.82 0.79 -9999 -9999 -9999 -9999 -9999 -9999 -9999 -9999 -9999 -9999 -9999 -9999 -9999 -9999 -9999 -9999 -9999 -9999 -9999 -9999 -9999 -9999 -9999 -9999 -9999 -9999 -9999 -9999 -9999 -9999 -9999 -9999 -9999 -9999 -9999 -9999 -9999 -9999 -9999 -9999 -9999 -9999 -9999
0.84 0.73 0.74 0.88 0.73 0.87 0.79 0.76 0.84 0.77 0.78 0.79 0.76 0.82 0.86 0.71 0.75 0.87 0.72 0.89 0.75 0.78 0.73 0.78 0.74 0.71 0.81 0.73 0.89 0.88 0.89 0.86 0.83 0.84 0.84 0.71 0.82 0.76 0.89 0.87 0.76 0.87 0.80 0.87 0.86 0.84 0.84 0.73 0.77 0.78 0.76 0.76 0.82 0.88 0.74 0.73 0.74 0.76 0.86 0.71 0.85 0.82 0.73 0.79 0.88 0.87 0.85 0.88 0.83 0.90 0.81 0.72 0.86 0.75 0.78 0.80 0.80 0.75 0.89 0.86 0.77 0.74 0.78 0.71 0.70 0.87 0.82 0.85 0.76 0.76 0.73 0.88 0.79 0.84 0.71 0.86 0.88 0.87 0.77 0.73 0.76 0.80 0.74 0.87 0.81 0.71 0.85 0.85 0.75 0.71 0.89 0.86 0.81 0.87 0.82 0.76 0.77 0.84 0.81 0.89 0.76 0.79 0.86 0.76 0.82 0.89 0.72 0.82 0.75 0.77 0.73 0.84 0.89 0.85 0.89 0.86 0.81 0.82 0.83 0.79 0.89 0.71 0.85 0.90 0.88 0.83 0.70 0.82 0.78 0.82 0.75 0.78 0.72 0.86 0.87 0.73 0.87 0.83 0.73 0.73 0.88 0.88 0.83 0.75 0.83 0.79 0.88 0.85 0.84 0.85 0.83 0.72 -9999 -9999 -9999 -9999 -9999 -9999 -9999 -9999 -9999 -9999 -9999 -9999 -9999 -9999 -9999 -9999 -9999 -9999 -9999 -9999 -9999 -9999 -9999 -9999 -9999 -9999 -9999 -9999 -9999 -9999 -9999 -9999 -9999 -9999 -9999 -9999 -9999 -9999 -9999 -9999 -9999 -9999 -9999
0.82 0.72 0.82 0.87 0.72 0.90 0.82 0.84 0.76 0.70 0.77 0.75 0.81 0.81 0.77 0.70 0.78 0.71 0.70 0.85 0.70 0.86 0.80 0.84 0.84 0.90 0.79 0.73 0.77 0.85 0.79 0.72 0.72 0.87 0.90 0.89 0.85 0.79 0.85 0.76 0.86 0.90 0.86 0.84 0.76 0.77 0.75 0.73 0.86 0.76 0.85 0.81 0.84 0.78 0.82 0.81 0.86 0.78 0.76 0.76 0.75 0.87 0.77 0.75 0.90 0.77 0.74 0.76 0.90 0.87 0.73 0.89 0.87 0.90 0.79 0.71 0.78 0.85 0.76 0.88 0.83 0.70 0.86 0.78 0.86 0.89 0.89 0.88 0.78 0.87 0.80 0.86 0.88 0.71 0.73 0.87 0.74 0.85 0.76 0.79 0.82 0.74 0.80 0.75 0.76 0.73 0.74 0.71 0.86 0.81 0.86 0.83 0.76 0.71 0.70 0.73 0.87 0.84 0.84 0.77 0.74 0.89 0.82 0.77 0.88 0.83 0.86 0.73 0.81 0.86 0.79 0.88 0.84 0.72 0.84 0.84 0.88 0.73 0.83 0.89 0.83 0.84 0.84 0.74 0.72 0.80 0.81 0.74 0.71 0.70 0.81 0.76 0.86 0.77 0.72 0.73 0.78 0.80 0.82 0.81 0.85 0.78 0.76 0.87 0.82 0.86 0.72 0.88 0.73 0.79 0.79 0.75 -9999 -9999 -9999 -9999 -9999 -9999 -9999 -9999 -9999 -9999 -9999 -9999 -9999 -9999 -9999 -9999 -9999 -9999 -9999 -9999 -9999 -9999 -9999 -9999 -9999 -9999 -9999 -9999 -9999 -9999 -9999 -9999 -9999 -9999 -9999 -9999 -9999 -9999 -9999 -9999 -9999 -9999 -9999
0.76 0.84 0.77 0.88 0.81 0.80 0.79 0.82 0.86 0.84 0.81 0.83 0.85 0.83 0.83 0.75 0.89 0.75 0.81 0.80 0.78 0.77 0.81 0.83 0.75 0.80 0.83 0.79 0.90 0.74 0.71 0.77 0.71 0.77 0.88 0.74 0.75 0.71 0.71 0.76 0.79 0.87 0.81 0.86 0.75 0.80 0.78 0.84 0.71 0.73 0.83 0.73 0.75 0.71 0.75 0.75 0.80 0.86 0.82 0.73 0.75 0.79 0.74 0.84 0.89 0.89 0.83 0.85 0.87 0.88 0.86 0.73 0.87 0.83 0.81 0.71 0.74 0.82 0.82 0.75 0.74 0.78 0.72 0.90 0.80 0.71 0.83 0.78 0.80 0.70 0.86 0.83 0.73 0.72 0.86 0.88 0.73 0.86 0.75 0.72 0.86 0.77 0.79 0.78 0.77 0.87 0.79 0.73 0.87 0.89 0.88 0.83 0.78 0.81 0.89 0.79 0.71 0.78 0.87 0.71 0.80 0.78 0.80 0.78 0.82 0.78 0.78 0.81 0.81 0.78 0.87 0.90 0.76 0.78 0.76 0.86 0.78 0.85 0.83 0.74 0.71 0.83 0.87 0.77 0.73 0.77 0.79 0.88 0.87 0.70 0.86 0.71 0.70 0.75 0.83 0.79 0.78 0.78 0.82 0.83 0.83 0.90 0.74 0.76 0.88 0.80 0.75 0.73 0.72 0.85 0.82 0.74 -9999 -9999 -9999 -9999 -9999 -9999 -9999 -9999 -9999 -9999 -9999 -9999 -9999 -9999 -9999 -9999 -9999 -9999 -9999 -9999 -9999 -9999 -9999 -9999 -9999 -9999 -9999 -9999 -9999 -9999 -9999 -9999 -9999 -9999 -9999 -9999 -9999 -9999 -9999 -9999 -9999 -9999 -9999
0.83 0.77 0.87 0.84 0.89 0.72 0.71 0.89 0.78 0.88 0.86 0.85 0.77 0.72 0.80 0.77 0.72 0.82 0.85 0.87 0.75 0.78 0.88 0.89 0.88 0.86 0.78 0.85 0.84 0.72 0.82 0.81 0.81 0.74 0.74 0.75 0.79 0.74 0.78 0.75 0.81 0.86 0.74 0.72 0.81 0.84 0.74 0.90 0.72 0.80 0.74 0.89 0.70 0.78 0.72 0.75 0.79 0.78 0.82 0.83 0.83 0.72 0.81 0.85 0.87 0.72 0.72 0.89 0.80 0.86 0.89 0.78 0.84 0.77 0.75 0.75 0.90 0.87 0.84 0.85 0.78 0.82 0.81 0.88 0.77 0.74 0.90 0.87 0.89 0.72 0.76 0.73 0.89 0.76 0.78 0.86 0.79 0.81 0.76 0.80 0.87 0.86 0.79 0.89 0.72 0.75 0.71 0.71 0.70 0.71 0.83 0.88 0.80 0.79 0.79 0.83 0.79 0.84 0.76 0.79 0.89 0.77 0.83 0.73 0.87 0.78 0.72 0.86 0.83 0.79 0.79 0.84 0.79 0.90 0.80 0.74 0.77 0.83 0.73 0.83 0.77 0.84 0.83 0.82 0.85 0.73 0.74 0.70 0.90 0.87 0.89 0.81 0.80 0.81 0.82 0.80 0.81 0.77 0.84 0.75 0.79 0.71 0.88 0.70 0.86 0.87 0.89 0.77 0.90 0.83 0.77 0.86 -9999 -9999 -9999 -9999 -9999 -9999 -9999 -9999 -9999 -9999 -9999 -9999 -9999 -9999 -9999 -9999 -9999 -9999 -9999 -9999 -9999 -9999 -9999 -9999 -9999 -9999 -9999 -9999 -9999 -9999 -9999 -9999 -9999 -9999 -9999 -9999 -9999 -9999 -9999 -9999 -9999 -9999 -9999
0.90 0.83 0.74 0.81 0.83 0.82 0.85 0.71 0.80 0.78 0.79 0.76 0.75 0.70 0.87 0.86 0.75 0.80 0.80 0.87 0.71 0.86 0.81 0.85 0.77 0.79 0.77 0.76 0.78 0.74 0.74 0.79 0.70 0.75 0.86 0.85 0.83 0.85 0.70 0.82 0.70 0.83 0.79 0.70 0.71 0.76 0.80 0.82 0.75 0.80 0.87 0.77 0.81 0.88 0.90 0.88 0.84 0.79 0.81 0.82 0.70 0.86 0.84 0.77 0.86 0.72 0.83 0.75 0.80 0.84 0.84 0.90 0.84 0.78 0.71 0.80 0.77 0.80 0.75 0.83 0.83 0.75 0.82 0.83 0.70 0.77 0.86 0.72 0.79 0.77 0.71 0.84 0.90 0.83 0.84 0.82 0.85 0.87 0.82 0.89 0.83 0.79 0.86 0.81 0.85 0.77 0.74 0.78 0.75 0.84 0.83 0.87 0.73 0.83 0.74 0.79 0.88 0.83 0.71 0.89 0.77 0.79 0.83 0.85 0.78 0.85 0.71 0.71 0.75 0.86 0.84 0.85 0.81 0.80 0.71 0.72 0.80 0.89 0.89 0.82 0.81 0.85 0.83 0.85 0.73 0.86 0.76 0.89 0.77 0.81 0.82 0.74 0.80 0.74 0.75 0.82 0.85 0.80 0.85 0.79 0.83 0.85 0.89 0.76 0.76 0.77 0.70 0.72 0.71 0.89 0.86 0.81 -9999 -9999 -9999 -9999 -9999 -9999 -9999 -9999 -9999 -9999 -9999 -9999 -9999 -9999 -9999 -9999 -9999 -9999 -9999 -9999 -9999 -9999 -9999 -9999 -9999 -9999 -9999 -9999 -9999 -9999 -9999 -9999 -9999 -9999 -9999 -9999 -9999 -9999 -9999 -9999 -9999 -9999 -9999
0.87 0.71 0.73 0.86 0.85 0.86 0.78 0.70 0.80 0.74 0.86 0.84 0.90 0.77 0.89 0.88 0.87 0.75 0.75 0.84 0.74 0.83 0.87 0.82 0.74 0.81 0.83 0.70 0.70 0.74 0.78 0.72 0.82 0.90 0.73 0.71 0.74 0.86 0.83 0.74 0.72 0.71 0.74 0.76 0.86 0.73 0.87 0.74 0.76 0.84 0.86 0.72 0.88 0.88 0.77 0.78 0.74 0.86 0.86 0.86 0.80 0.75 0.90 0.73 0.83 0.89 0.72 0.84 0.77 0.77 0.84 0.83 0.90 0.79 0.82 0.71 0.87 0.83 0.88 0.89 0.87 0.75 0.79 0.87 0.79 0.85 0.81 0.84 0.86 0.73 0.77 0.75 0.75 0.75 0.83 0.89 0.75 0.78 0.76 0.74 0.77 0.86 0.83 0.83 0.89 0.79 0.84 0.81 0.75 0.76 0.80 0.87 0.79 0.89 0.80 0.90 0.81 0.78 0.88 0.78 0.70 0.78 0.70 0.79 0.72 0.72 0.81 0.74 0.89 0.72 0.76 0.90 0.81 0.80 0.77 0.84 0.88 0.86 0.86 0.86 0.80 0.72 0.75 0.78 0.87 0.86 0.82 0.83 0.70 0.81 0.81 0.74 0.81 0.88 0.79 0.88 0.79 0.83 0.73 0.81 0.74 0.79 0.89 0.79 0.84 0.83 0.83 0.75 0.77 0.72 0.78 0.73 0.76 -9999 -9999 -9999 -9999 -9999 -9999 -9999 -9999 -9999 -9999 -9999 -9999 -9999 -9999 -9999 -9999 -9999 -9999 -9999 -9999 -9999 -9999 -9999 -9999 -9999 -9999 -9999 -9999 -9999 -9999 -9999 -9999 -9999 -9999 -9999 -9999 -9999 -9999 -9999 -9999 -9999 -9999
0.75 0.71 0.87 0.89 0.77 0.72 0.87 0.78 0.74 0.81 0.89 0.86 0.81 0.83 0.74 0.79 0.71 0.76 0.74 0.84 0.78 0.74 0.89 0.83 0.79 0.86 0.80 0.79 0.79 0.85 0.87 0.85 0.81 0.79 0.89 0.74 0.90 0.86 0.85 0.85 0.72 0.84 0.70 0.81 0.73 0.73 0.85 0.82 0.75 0.83 0.79 0.75 0.86 0.72 0.89 0.73 0.71 0.86 0.78 0.73 0.83 0.73 0.73 0.85 0.84 0.75 0.78 0.85 0.72 0.74 0.85 0.76 0.78 0.82 0.74 0.73 0.81 0.88 0.86 0.73 0.90 0.86 0.83 0.85 0.83 0.88 0.83 0.81 0.82 0.87 0.80 0.90 0.85 0.84 0.80 0.82 0.89 0.85 0.87 0.76 0.74 0.88 0.77 0.89 0.85 0.84 0.89 0.78 0.86 0.76 0.83 0.79 0.74 0.87 0.86 0.90 0.80 0.76 0.76 0.88 0.83 0.79 0.85 0.73 0.77 0.86 0.87 0.86 0.74 0.83 0.90 0.74 0.72 0.82 0.81 0.78 0.79 0.88 0.89 0.81 0.88 0.85 0.89 0.71 0.85 0.75 0.85 0.74 0.82 0.73 0.71 0.83 0.78 0.78 0.84 0.88 0.87 0.85 0.77 0.78 0.74 0.82 0.89 0.71 0.72 0.88 0.77 0.87 0.80 0.78 0.85 0.87 0.87 -9999 -9999 -9999 -9999 -9999 -9999 -9999 -9999 -9999 -9999 -9999 -9999 -9999 -9999 -9999 -9999 -9999 -9999 -9999 -9999 -9999 -9999 -9999 -9999 -9999 -9999 -9999 -9999 -9999 -9999 -9999 -9999 -9999 -9999 -9999 -9999 -9999 -9999 -9999 -9999 -9999 -9999
0.73 0.71 0.85 0.88 0.76 0.81 0.86 0.78 0.80 0.80 0.84 0.72 0.83 0.78 0.74 0.77 0.77 0.88 0.76 0.80 0.88 0.89 0.86 0.75 0.85 0.70 0.83 0.86 0.75 0.77 0.84 0.76 0.71 0.90 0.89 0.82 0.72 0.81 0.85 0.79 0.82 0.87 0.74 0.82 0.78 0.73 0.75 0.76 0.78 0.81 0.87 0.84 0.85 0.89 0.71 0.84 0.75 0.77 0.84 0.77 0.74 0.70 0.84 0.70 0.80 0.77 0.90 0.83 0.86 0.71 0.88 0.74 0.79 0.72 0.81 0.86 0.89 0.80 0.72 0.89 0.82 0.84 0.82 0.71 0.70 0.72 0.75 0.86 0.70 0.83 0.76 0.74 0.74 0.90 0.80 0.82 0.71 0.83 0.80 0.70 0.83 0.71 0.78 0.75 0.73 0.74 0.84 0.79 0.84 0.79 0.87 0.77 0.71 0.84 0.71 0.77 0.76 0.80 0.76 0.80 0.85 0.77 0.75 0.78 0.80 0.77 0.86 0.79 0.73 0.83 0.76 0.86 0.80 0.80 0.73 0.84 0.87 0.76 0.79 0.74 0.81 0.74 0.89 0.74 0.81 0.89 0.76 0.76 0.71 0.86 0.88 0.77 0.86 0.71 0.84 0.85 0.85 0.77 0.74 0.78 0.80 0.84 0.74 0.87 0.77 0.76 0.79 0.81 0.75 0.78 0.70 0.80 0.82 -9999 -9999 -9999 -9999 -9999 -9999 -9999 -9999 -9999 -9999 -9999 -9999 -9999 -9999 -9999 -9999 -9999 -9999 -9999 -9999 -9999 -9999 -9999 -9999 -9999 -9999 -9999 -9999 -9999 -9999 -9999 -9999 -9999 -9999 -9999 -9999 -9999 -9999 -9999 -9999 -9999 -9999
0.83 0.78 0.89 0.73 0.73 0.79 0.81 0.84 0.82 0.73 0.81 0.74 0.82 0.81 0.71 0.77 0.81 0.79 0.78 0.76 0.83 0.84 0.79 0.79 0.75 0.78 0.74 0.75 0.85 0.83 0.74 0.74 0.74 0.86 0.79 0.90 0.70 0.77 0.75 0.70 0.72 0.87 0.74 0.84 0.81 0.89 0.73 0.89 0.77 0.82 0.84 0.86 0.72 0.80 0.76 0.79 0.75 0.73 0.74 0.88 0.87 0.70 0.89 0.72 0.76 0.85 0.87 0.72 0.77 0.80 0.77 0.84 0.86 0.73 0.82 0.90 0.76 0.84 0.89 0.78 0.71 0.85 0.81 0.85 0.81 0.85 0.83 0.81 0.83 0.86 0.78 0.79 0.88 0.83 0.86 0.78 0.74 0.87 0.81 0.90 0.84 0.87 0.89 0.86 0.82 0.76 0.83 0.74 0.86 0.83 0.81 0.81 0.83 0.86 0.75 0.74 0.86 0.83 0.84 0.86 0.83 0.87 0.86 0.86 0.90 0.80 0.75 0.76 0.80 0.87 0.70 0.70 0.82 0.76 0.73 0.72 0.74 0.87 0.70 0.73 0.83 0.76 0.72 0.71 0.77 0.71 0.88 0.87 0.73 0.71 0.73 0.85 0.72 0.78 0.76 0.80 0.73 0.85 0.90 0.79 0.80 0.84 0.74 0.78 0.71 0.76 0.83 0.73 0.78 0.87 0.73 0.78 0.74 -9999 -9999 -9999 -9999 -9999 -9999 -9999 -9999 -9999 -9999 -9999 -9999 -9999 -9999 -9999 -9999 -9999 -9999 -9999 -9999 -9999 -9999 -9999 -9999 -9999 -9999 -9999 -9999 -9999 -9999 -9999 -9999 -9999 -9999 -9999 -9999 -9999 -9999 -9999 -9999 -9999 -9999
0.82 0.77 0.81 0.85 0.88 0.78 0.79 0.84 0.86 0.74 0.84 0.75 0.88 0.77 0.71 0.75 0.76 0.73 0.86 0.85 0.78 0.70 0.73 0.85 0.88 0.84 0.85 0.78 0.78 0.84 0.88 0.84 0.78 0.73 0.76 0.79 0.81 0.80 0.86 0.76 0.81 0.75 0.81 0.88 0.89 0.85 0.89 0.82 0.80 0.80 0.90 0.89 0.86 0.83 0.84 0.89 0.80 0.88 0.84 0.72 0.78 0.86 0.80 0.90 0.78 0.83 0.71 0.84 0.84 0.80 0.74 0.88 0.74 0.71 0.76 0.86 0.87 0.89 0.84 0.79 0.75 0.86 0.73 0.74 0.83 0.80 0.85 0.80 0.80 0.79 0.81 0.84 0.84 0.82 0.77 0.72 0.77 0.83 0.76 0.86 0.79 0.77 0.83 0.70 0.76 0.78 0.89 0.84 0.81 0.82 0.77 0.74 0.75 0.87 0.80 0.78 0.72 0.82 0.89 0.85 0.73 0.79 0.86 0.89 0.87 0.88 0.82 0.78 0.90 0.80 0.85 0.75 0.79 0.87 0.87 0.75 0.80 0.72 0.72 0.90 0.76 0.78 0.82 0.80 0.86 0.80 0.85 0.71 0.81 0.73 0.75 0.86 0.83 0.78 0.80 0.75 0.76 0.88 0.83 0.76 0.76 0.90 0.85 0.82 0.85 0.89 0.88 0.70 0.84 0.82 0.74 0.71 0.76 -9999 -9999 -9999 -9999 -9999 -9999 -9999 -9999 -9999 -9999 -9999 -9999 -9999 -9999 -9999 -9999 -9999 -9999 -9999 -9999 -9999 -9999 -9999 -9999 -9999 -9999 -9999 -9999 -9999 -9999 -9999 -9999 -9999 -9999 -9999 -9999 -9999 -9999 -9999 -9999 -9999 -9999
0.76 0.89 0.75 0.70 0.88 0.82 0.90 0.71 0.87 0.80 0.74 0.70 0.74 0.79 0.73 0.85 0.74 0.76 0.73 0.86 0.72 0.78 0.73 0.79 0.89 0.71 0.85 0.90 0.85 0.86 0.85 0.89 0.81 0.89 0.73 0.75 0.85 0.77 0.77 0.83 0.89 0.84 0.77 0.70 0.89 0.81 0.88 0.78 0.88 0.73 0.89 0.89 0.86 0.81 0.81 0.87 0.75 0.81 0.75 0.85 0.82 0.78 0.71 0.87 0.83 0.71 0.86 0.85 0.85 0.78 0.77 0.71 0.71 0.73 0.77 0.84 0.81 0.84 0.75 0.88 0.70 0.76 0.71 0.74 0.73 0.70 0.74 0.81 0.80 0.82 0.89 0.80 0.71 0.86 0.83 0.89 0.73 0.76 0.74 0.72 0.73 0.84 0.83 0.84 0.82 0.72 0.72 0.74 0.76 0.86 0.83 0.83 0.89 0.72 0.88 0.81 0.73 0.79 0.78 0.86 0.78 0.78 0.82 0.87 0.72 0.82 0.81 0.76 0.87 0.74 0.88 0.84 0.86 0.88 0.74 0.75 0.77 0.88 0.86 0.75 0.81 0.73 0.70 0.83 0.88 0.83 0.74 0.73 0.73 0.73 0.74 0.72 0.77 0.81 0.70 0.78 0.77 0.87 0.83 0.74 0.80 0.81 0.74 0.80 0.80 0.78 0.74 0.86 0.79 0.84 0.88 0.74 0.75 -9999 -9999 -9999 -9999 -9999 -9999 -9999 -9999 -9999 -9999 -9999 -9999 -9999 -9999 -9999 -9999 -9999 -9999 -9999 -9999 -9999 -9999 -9999 -9999 -9999 -9999 -9999 -9999 -9999 -9999 -9999 -9999 -9999 -9999 -9999 -9999 -9999 -9999 -9999 -9999 -9999 -9999
0.88 0.82 0.80 0.88 0.79 0.74 0.82 0.85 0.70 0.81 0.83 0.72 0.85 0.73 0.78 0.84 0.72 0.90 0.85 0.77 0.75 0.84 0.77 0.73 0.77 0.82 0.79 0.70 0.87 0.78 0.74 0.89 0.72 0.79 0.88 0.71 0.83 0.75 0.77 0.84 0.73 0.87 0.79 0.75 0.80 0.76 0.70 0.73 0.80 0.89 0.81 0.84 0.71 0.77 0.90 0.87 0.84 0.83 0.76 0.77 0.75 0.90 0.74 0.89 0.85 0.83 0.78 0.84 0.80 0.82 0.84 0.83 0.84 0.85 0.86 0.88 0.82 0.79 0.73 0.76 0.75 0.76 0.83 0.73 0.88 0.76 0.85 0.87 0.85 0.89 0.84 0.84 0.86 0.90 0.87 0.84 0.72 0.74 0.78 0.84 0.89 0.89 0.79 0.89 0.72 0.71 0.74 0.77 0.74 0.72 0.71 0.79 0.88 0.88 0.73 0.79 0.88 0.87 0.73 0.70 0.73 0.78 0.85 0.88 0.72 0.72 0.77 0.88 0.89 0.75 0.84 0.74 0.71 0.89 0.86 0.78 0.84 0.75 0.82 0.71 0.79 0.82 0.73 0.73 0.72 0.72 0.81 0.83 0.78 0.79 0.86 0.78 0.82 0.72 0.73 0.72 0.84 0.72 0.71 0.72 0.81 0.72 0.84 0.71 0.78 0.73 0.87 0.87 0.71 0.72 0.77 0.87 0.81 -9999 -9999 -9999 -9999 -9999 -9999 -9999 -9999 -9999 -9999 -9999 -9999 -9999 -9999 -9999 -9999 -9999 -9999 -9999 -9999 -9999 -9999 -9999 -9999 -9999 -9999 -9999 -9999 -9999 -9999 -9999 -9999 -9999 -9999 -9999 -9999 -9999 -9999 -9999 -9999 -9999 -9999
0.82 0.90 0.82 0.83 0.89 0.89 0.88 0.85 0.90 0.83 0.82 0.77 0.77 0.89 0.77 0.87 0.72 0.85 0.88 0.72 0.87 0.78 0.72 0.71 0.89 0.83 0.87 0.82 0.71 0.85 0.76 0.81 0.75 0.87 0.89 0.86 0.78 0.74 0.79 0.84 0.89 0.85 0.71 0.81 0.89 0.84 0.88 0.76 0.71 0.81 0.74 0.83 0.87 0.72 0.84 0.83 0.73 0.82 0.76 0.87 0.77 0.81 0.90 0.80 0.79 0.72 0.73 0.71 0.72 0.89 0.76 0.75 0.73 0.79 0.75 0.88 0.89 0.73 0.75 0.80 0.74 0.82 0.87 0.81 0.77 0.71 0.79 0.83 0.80 0.86 0.80 0.71 0.83 0.81 0.72 0.84 0.81 0.79 0.89 0.75 0.82 0.84 0.82 0.73 0.78 0.87 0.90 0.70 0.74 0.89 0.82 0.71 0.85 0.76 0.74 0.73 0.81 0.82 0.78 0.81 0.71 0.81 0.85 0.78 0.72 0.81 0.80 0.85 0.85 0.87 0.84 0.82 0.81 0.75 0.88 0.88 0.79 0.77 0.80 0.71 0.85 0.87 0.80 0.73 0.89 0.74 0.82 0.73 0.76 0.87 0.80 0.73 0.73 0.85 0.76 0.83 0.82 0.81 0.72 0.85 0.79 0.78 0.86 0.88 0.70 0.77 0.76 0.85 0.73 0.77 0.87 0.72 0.76 0.83 -9999 -9999 -9999 -9999 -9999 -9999 -9999 -9999 -9999 -9999 -9999 -9999 -9999 -9999 -9999 -9999 -9999 -9999 -9999 -9999 -9999 -9999 -9999 -9999 -9999 -9999 -9999 -9999 -9999 -9999 -9999 -9999 -9999 -9999 -9999 -9999 -9999 -9999 -9999 -9999 -9999
0.77 0.80 0.74 0.83 0.75 0.85 0.89 0.86 0.76 0.87 0.88 0.79 0.71 0.87 0.78 0.79 0.85 0.79 0.84 0.83 0.72 0.76 0.78 0.89 0.71 0.71 0.89 0.72 0.81 0.82 0.70 0.77 0.73 0.79 0.79 0.83 0.90 0.82 0.71 0.78 0.84 0.84 0.74 0.70 0.75 0.80 0.71 0.86 0.75 0.77 0.75 0.79 0.84 0.85 0.89 0.88 0.87 0.89 0.71 0.80 0.78 0.72 0.75 0.72 0.84 0.80 0.81 0.90 0.79 0.71 0.77 0.90 0.85 0.82 0.87 0.82 0.85 0.86 0.78 0.77 0.87 0.79 0.73 0.80 0.79 0.79 0.86 0.72 0.80 0.77 0.82 0.85 0.73 0.89 0.71 0.84 0.88 0.80 0.79 0.77 0.84 0.85 0.70 0.81 0.74 0.78 0.86 0.74 0.71 0.88 0.75 0.83 0.71 0.76 0.75 0.85 0.85 0.76 0.89 0.73 0.73 0.82 0.72 0.78 0.77 0.73 0.75 0.73 0.85 0.89 0.80 0.76 0.88 0.84 0.87 0.80 0.76 0.76 0.81 0.86 0.79 0.81 0.75 0.76 0.79 0.72 0.85 0.84 0.88 0.77 0.90 0.88 0.81 0.73 0.85 0.79 0.80 0.84 0.76 0.77 0.89 0.76 0.86 0.76 0.85 0.83 0.77 0.76 0.71 0.84 0.79 0.74 0.70 0.83 -9999 -9999 -9999 -9999 -9999 -9999 -9999 -9999 -9999 -9999 -9999 -9999 -9999 -9999 -9999 -9999 -9999 -9999 -9999 -9999 -9999 -9999 -9999 -9999 -9999 -9999 -9999 -9999 -9999 -9999 -9999 -9999 -9999 -9999 -9999 -9999 -9999 -9999 -9999 -9999 -9999
0.83 0.72 0.74 0.79 0.85 0.80 0.89 0.75 0.81 0.83 0.83 0.78 0.84 0.75 0.84 0.82 0.80 0.76 0.82 0.76 0.81 0.89 0.80 0.73 0.88 0.79 0.88 0.87 0.81 0.74 0.87 0.76 0.72 0.81 0.79 0.87 0.74 0.71 0.77 0.79 0.70 0.71 0.85 0.87 0.80 0.87 0.81 0.84 0.85 0.89 0.74 0.87 0.82 0.83 0.90 0.71 0.78 0.80 0.72 0.85 0.75 0.77 0.88 0.85 0.72 0.82 0.83 0.78 0.79 0.89 0.87 0.84 0.82 0.88 0.73 0.74 0.74 0.86 0.80 0.74 0.84 0.71 0.73 0.88 0.84 0.87 0.73 0.89 0.71 0.85 0.83 0.72 0.70 0.75 0.75 0.86 0.79 0.74 0.83 0.89 0.72 0.88 0.75 0.81 0.70 0.79 0.82 0.83 0.76 0.77 0.74 0.83 0.71 0.72 0.71 0.89 0.82 0.75 0.76 0.73 0.85 0.83 0.77 0.88 0.83 0.89 0.82 0.73 0.70 0.77 0.76 0.84 0.71 0.76 0.74 0.71 0.87 0.73 0.73 0.73 0.81 0.74 0.80 0.88 0.88 0.85 0.85 0.71 0.70 0.71 0.83 0.88 0.86 0.74 0.75 0.74 0.84 0.80 0.84 0.86 0.75 0.86 0.74 0.70 0.73 0.88 0.80 0.85 0.78 0.82 0.82 0.87 0.78 0.87 -9999 -9999 -9999 -9999 -9999 -9999 -9999 -9999 -9999 -9999 -9999 -9999 -9999 -9999 -9999 -9999 -9999 -9999 -9999 -9999 -9999 -9999 -9999 -9999 -9999 -9999 -9999 -9999 -9999 -9999 -9999 -9999 -9999 -9999 -9999 -9999 -9999 -9999 -9999 -9999 -9999
0.71 0.87 0.74 0.76 0.74 0.83 0.78 0.73 0.75 0.87 0.82 0.77 0.81 0.84 0.79 0.73 0.76 0.87 0.85 0.80 0.79 0.76 0.85 0.88 0.71 0.76 0.78 0.84 0.77 0.85 0.72 0.83 0.73 0.90 0.79 0.76 0.70 0.83 0.89 0.83 0.71 0.89 0.81 0.84 0.88 0.77 0.72 0.71 0.70 0.78 0.81 0.87 0.75 0.82 0.74 0.70 0.81 0.72 0.76 0.88 0.75 0.88 0.90 0.86 0.87 0.76 0.80 0.77 0.78 0.79 0.88 0.90 0.88 0.90 0.72 0.74 0.75 0.88 0.74 0.74 0.85 0.74 0.75 0.81 0.84 0.71 0.85 0.72 0.74 0.87 0.84 0.83 0.79 0.77 0.84 0.83 0.73 0.73 0.86 0.82 0.82 0.79 0.89 0.73 0.90 0.73 0.87 0.79 0.74 0.71 0.73 0.85 0.87 0.84 0.85 0.80 0.79 0.72 0.89 0.72 0.79 0.82 0.73 0.88 0.74 0.85 0.71 0.83 0.82 0.85 0.74 0.87 0.90 0.72 0.73 0.89 0.73 0.89 0.83 0.87 0.74 0.78 0.76 0.74 0.79 0.78 0.87 0.83 0.71 0.86 0.84 0.88 0.87 0.75 0.87 0.79 0.84 0.86 0.84 0.74 0.84 0.85 0.78 0.80 0.75 0.78 0.77 0.73 0.72 0.74 0.87 0.73 0.85 0.88 -9999 -9999 -9999 -9999 -9999 -9999 -9999 -9999 -9999 -9999 -9999 -9999 -9999 -9999 -9999 -9999 -9999 -9999 -9999 -9999 -9999 -9999 -9999 -9999 -9999 -9999 -9999 -9999 -9999 -9999 -9999 -9999 -9999 -9999 -9999 -9999 -9999 -9999 -9999 -9999 -9999
0.83 0.86 0.74 0.71 0.87 0.75 0.85 0.73 0.86 0.74 0.89 0.85 0.75 0.85 0.89 0.85 0.78 0.80 0.71 0.72 0.74 0.86 0.77 0.75 0.74 0.79 0.74 0.87 0.87 0.88 0.81 0.84 0.76 0.77 0.87 0.77 0.87 0.81 0.88 0.87 0.80 0.88 0.87 0.81 0.84 0.85 0.85 0.86 0.88 0.76 0.86 0.89 0.85 0.82 0.85 0.74 0.87 0.85 0.75 0.77 0.79 0.88 0.81 0.86 0.77 0.74 0.70 0.88 0.89 0.77 0.87 0.88 0.77 0.71 0.83 0.79 0.85 0.85 0.71 0.88 0.82 0.79 0.76 0.70 0.87 0.72 0.84 0.77 0.81 0.84 0.77 0.89 0.73 0.74 0.75 0.86 0.73 0.82 0.76 0.77 0.76 0.72 0.83 0.90 0.75 0.77 0.72 0.75 0.85 0.74 0.76 0.82 0.89 0.81 0.81 0.81 0.72 0.72 0.70 0.83 0.75 0.85 0.77 0.83 0.88 0.89 0.82 0.83 0.86 0.90 0.86 0.73 0.76 0.77 0.89 0.82 0.77 0.86 0.82 0.86 0.85 0.72 0.86 0.77 0.85 0.72 0.87 0.76 0.79 0.76 0.81 0.80 0.78 0.80 0.81 0.76 0.79 0.75 0.74 0.89 0.74 0.85 0.75 0.88 0.80 0.77 0.90 0.78 0.86 0.79 0.80 0.88 0.79 0.89 -9999 -9999 -9999 -9999 -9999 -9999 -9999 -9999 -9999 -9999 -9999 -9999 -9999 -9999 -9999 -9999 -9999 -9999 -9999 -9999 -9999 -9999 -9999 -9999 -9999 -9999 -9999 -9999 -9999 -9999 -9999 -9999 -9999 -9999 -9999 -9999 -9999 -9999 -9999 -9999 -9999
0.78 0.82 0.70 0.79 0.82 0.79 0.83 0.84 0.74 0.89 0.80 0.82 0.77 0.82 0.78 0.78 0.75 0.83 0.78 0.73 0.84 0.73 0.85 0.87 0.82 0.87 0.84 0.79 0.74 0.86 0.89 0.85 0.80 0.72 0.83 0.84 0.75 0.88 0.78 0.74 0.74 0.86 0.83 0.90 0.78 0.84 0.80 0.85 0.84 0.76 0.72 0.78 0.73 0.72 0.86 0.75 0.89 0.80 0.81 0.89 0.82 0.86 0.89 0.79 0.90 0.78 0.79 0.83 0.72 0.87 0.87 0.87 0.90 0.73 0.88 0.72 0.78 0.71 0.87 0.87 0.77 0.77 0.75 0.86 0.90 0.72 0.72 0.76 0.88 0.86 0.80 0.70 0.87 0.70 0.72 0.83 0.83 0.88 0.87 0.81 0.88 0.86 0.79 0.78 0.90 0.78 0.70 0.87 0.84 0.77 0.81 0.81 0.87 0.83 0.76 0.89 0.89 0.89 0.80 0.73 0.84 0.78 0.78 0.74 0.88 0.82 0.77 0.75 0.89 0.79 0.77 0.74 0.84 0.80 0.74 0.75 0.73 0.87 0.82 0.70 0.89 0.74 0.75 0.80 0.70 0.79 0.85 0.74 0.78 0.79 0.84 0.88 0.74 0.73 0.78 0.75 0.88 0.83 0.74 0.71 0.72 0.86 0.74 0.83 0.88 0.77 0.71 0.80 0.73 0.82 0.71 0.79 0.89 0.76 -9999 -9999 -9999 -9999 -9999 -9999 -9999 -9999 -9999 -9999 -9999 -9999 -9999 -9999 -9999 -9999 -9999 -9999 -9999 -9999 -9999 -9999 -9999 -9999 -9999 -9999 -9999 -9999 -9999 -9999 -9999 -9999 -9999 -9999 -9999 -9999 -9999 -9999 -9999 -9999 -9999
0.84 0.76 0.71 0.84 0.75 0.88 0.83 0.83 0.79 0.81 0.82 0.75 0.85 0.73 0.85 0.73 0.72 0.74 0.79 0.79 0.82 0.78 0.78 0.83 0.89 0.76 0.86 0.88 0.80 0.76 0.88 0.80 0.72 0.78 0.76 0.83 0.83 0.81 0.82 0.83 0.75 0.83 0.70 0.76 0.88 0.83 0.73 0.81 0.82 0.83 0.71 0.72 0.90 0.89 0.75 0.72 0.86 0.81 0.89 0.72 0.81 0.75 0.88 0.70 0.90 0.84 0.86 0.73 0.87 0.74 0.83 0.77 0.77 0.81 0.85 0.79 0.88 0.74 0.86 0.80 0.90 0.84 0.86 0.71 0.72 0.71 0.87 0.71 0.78 0.72 0.74 0.89 0.74 0.82 0.71 0.78 0.89 0.89 0.84 0.86 0.74 0.89 0.74 0.88 0.74 0.71 0.84 0.81 0.85 0.79 0.74 0.74 0.82 0.70 0.73 0.89 0.88 0.75 0.71 0.88 0.79 0.88 0.74 0.89 0.77 0.89 0.80 0.71 0.82 0.85 0.74 0.74 0.76 0.78 0.89 0.74 0.79 0.83 0.89 0.88 0.83 0.88 0.74 0.82 0.79 0.87 0.73 0.80 0.76 0.76 0.77 0.77 0.79 0.84 0.74 0.77 0.88 0.79 0.79 0.73 0.76 0.73 0.79 0.73 0.75 0.74 0.72 0.72 0.72 0.82 0.85 0.84 0.70 0.85 -9999 -9999 -9999 -9999 -9999 -9999 -9999 -9999 -9999 -9999 -9999 -9999 -9999 -9999 -9999 -9999 -9999 -9999 -9999 -9999 -9999 -9999 -9999 -9999 -9999 -9999 -9999 -9999 -9999 -9999 -9999 -9999 -9999 -9999 -9999 -9999 -9999 -9999 -9999 -9999 -9999
0.73 0.71 0.86 0.74 0.74 0.79 0.84 0.77 0.77 0.83 0.89 0.89 0.83 0.83 0.89 0.83 0.78 0.75 0.84 0.73 0.90 0.83 0.88 0.80 0.80 0.87 0.84 0.87 0.79 0.72 0.75 0.79 0.75 0.89 0.73 0.73 0.85 0.82 0.73 0.81 0.84 0.73 0.73 0.80 0.72 0.73 0.89 0.85 0.81 0.82 0.71 0.85 0.71 0.75 0.73 0.86 0.82 0.73 0.76 0.78 0.81 0.88 0.78 0.76 0.86 0.86 0.85 0.74 0.85 0.76 0.79 0.73 0.76 0.78 0.79 0.82 0.80 0.85 0.78 0.89 0.84 0.87 0.74 0.76 0.78 0.74 0.84 0.84 0.82 0.82 0.83 0.80 0.74 0.72 0.82 0.77 0.79 0.81 0.80 0.72 0.84 0.80 0.74 0.76 0.73 0.90 0.81 0.83 0.84 0.85 0.74 0.82 0.71 0.80 0.74 0.82 0.74 0.90 0.90 0.84 0.74 0.89 0.72 0.82 0.83 0.74 0.84 0.75 0.84 0.83 0.84 0.70 0.80 0.82 0.87 0.80 0.88 0.73 0.72 0.71 0.77 0.77 0.87 0.76 0.76 0.90 0.86 0.74 0.86 0.82 0.88 0.90 0.75 0.72 0.71 0.89 0.73 0.86 0.89 0.89 0.85 0.71 0.81 0.74 0.81 0.81 0.74 0.82 0.87 0.86 0.81 0.73 0.71 0.85 0.83 -9999 -9999 -9999 -9999 -9999 -9999 -9999 -9999 -9999 -9999 -9999 -9999 -9999 -9999 -9999 -9999 -9999 -9999 -9999 -9999 -9999 -9999 -9999 -9999 -9999 -9999 -9999 -9999 -9999 -9999 -9999 -9999 -9999 -9999 -9999 -9999 -9999 -9999 -9999 -9999
0.85 0.72 0.74 0.89 0.85 0.76 0.86 0.86 0.81 0.82 0.77 0.85 0.89 0.88 0.82 0.87 0.83 0.81 0.79 0.81 0.80 0.89 0.81 0.81 0.76 0.81 0.85 0.85 0.73 0.72 0.89 0.88 0.73 0.78 0.83 0.90 0.82 0.79 0.86 0.75 0.90 0.80 0.81 0.80 0.71 0.73 0.86 0.86 0.88 0.78 0.82 0.71 0.74 0.70 0.72 0.71 0.85 0.73 0.89 0.80 0.89 0.71 0.89 0.83 0.71 0.88 0.83 0.87 0.80 0.82 0.88 0.88 0.78 0.71 0.82 0.78 0.73 0.72 0.81 0.86 0.72 0.72 0.73 0.84 0.82 0.72 0.89 0.82 0.85 0.81 0.71 0.83 0.87 0.74 0.71 0.81 0.72 0.89 0.74 0.76 0.78 0.81 0.74 0.84 0.85 0.85 0.75 0.81 0.72 0.82 0.73 0.74 0.72 0.72 0.76 0.88 0.74 0.86 0.78 0.76 0.74 0.77 0.75 0.75 0.85 0.85 0.80 0.78 0.83 0.84 0.83 0.86 0.72 0.73 0.75 0.80 0.83 0.73 0.75 0.82 0.88 0.88 0.81 0.83 0.72 0.76 0.79 0.87 0.78 0.74 0.70 0.88 0.79 0.71 0.88 0.76 0.83 0.76 0.71 0.77 0.73 0.81 0.70 0.76 0.80 0.88 0.86 0.71 0.73 0.87 0.72 0.85 0.75 0.81 0.82 -9999 -9999 -9999 -9999 -9999 -9999 -9999 -9999 -9999 -9999 -9999 -9999 -9999 -9999 -9999 -9999 -9999 -9999 -9999 -9999 -9999 -9999 -9999 -9999 -9999 -9999 -9999 -9999 -9999 -9999 -9999 -9999 -9999 -9999 -9999 -9999 -9999 -9999 -9999 -9999
0.76 0.73 0.84 0.81 0.74 0.83 0.84 0.83 0.73 0.82 0.75 0.88 0.87 0.77 0.78 0.88 0.86 0.86 0.86 0.89 0.71 0.88 0.86 0.87 0.89 0.81 0.72 0.77 0.76 0.86 0.72 0.74 0.86 0.83 0.89 0.75 0.81 0.79 0.88 0.76 0.79 0.77 0.85 0.74 0.90 0.73 0.74 0.88 0.85 0.71 0.84 0.72 0.75 0.80 0.73 0.89 0.72 0.90 0.86 0.79 0.80 0.73 0.90 0.85 0.82 0.74 0.87 0.90 0.76 0.84 0.81 0.71 0.70 0.79 0.85 0.84 0.77 0.73 0.79 0.75 0.71 0.78 0.86 0.87 0.78 0.85 0.79 0.88 0.89 0.88 0.75 0.76 0.76 0.71 0.75 0.72 0.73 0.82 0.82 0.71 0.81 0.81 0.74 0.77 0.75 0.72 0.79 0.79 0.76 0.88 0.83 0.80 0.72 0.73 0.72 0.70 0.81 0.86 0.86 0.84 0.89 0.80 0.80 0.87 0.85 0.89 0.73 0.85 0.89 0.77 0.86 0.71 0.76 0.74 0.78 0.80 0.90 0.72 0.80 0.70 0.72 0.87 0.75 0.76 0.85 0.74 0.75 0.82 0.71 0.89 0.86 0.72 0.88 0.84 0.79 0.85 0.75 0.75 0.79 0.73 0.83 0.74 0.84 0.88 0.70 0.82 0.71 0.81 0.77 0.84 0.88 0.75 0.84 0.87 0.85 -9999 -9999 -9999 -9999 -9999 -9999 -9999 -9999 -9999 -9999 -9999 -9999 -9999 -9999 -9999 -9999 -9999 -9999 -9999 -9999 -9999 -9999 -9999 -9999 -9999 -9999 -9999 -9999 -9999 -9999 -9999 -9999 -9999 -9999 -9999 -9999 -9999 -9999 -9999 -9999
0.75 0.81 0.86 0.73 0.84 0.83 0.71 0.76 0.75 0.74 0.72 0.84 0.84 0.71 0.90 0.79 0.89 0.77 0.78 0.70 0.84 0.80 0.72 0.75 0.86 0.86 0.82 0.90 0.89 0.71 0.78 0.85 0.87 0.71 0.90 0.78 0.74 0.71 0.72 0.79 0.74 0.72 0.70 0.85 0.76 0.77 0.89 0.82 0.88 0.73 0.89 0.70 0.88 0.73 0.88 0.88 0.78 0.77 0.86 0.74 0.73 0.87 0.77 0.72 0.80 0.81 0.71 0.70 0.75 0.83 0.74 0.86 0.90 0.74 0.70 0.81 0.79 0.87 0.75 0.86 0.86 0.82 0.79 0.88 0.73 0.72 0.83 0.73 0.75 0.84 0.86 0.82 0.79 0.77 0.87 0.70 0.71 0.88 0.88 0.86 0.76 0.78 0.84 0.88 0.73 0.81 0.79 0.73 0.79 0.75 0.72 0.83 0.75 0.77 0.80 0.88 0.76 0.73 0.71 0.85 0.80 0.87 0.71 0.73 0.75 0.72 0.81 0.73 0.74 0.78 0.72 0.79 0.72 0.75 0.86 0.77 0.77 0.83 0.78 0.71 0.79 0.87 0.71 0.85 0.84 0.85 0.82 0.79 0.77 0.90 0.74 0.84 0.90 0.81 0.71 0.79 0.71 0.86 0.86 0.79 0.70 0.81 0.90 0.78 0.85 0.74 0.87 0.82 0.86 0.75 0.75 0.81 0.84 0.87 0.75 -9999 -9999 -9999 -9999 -9999 -9999 -9999 -9999 -9999 -9999 -9999 -9999 -9999 -9999 -9999 -9999 -9999 -9999 -9999 -9999 -9999 -9999 -9999 -9999 -9999 -9999 -9999 -9999 -9999 -9999 -9999 -9999 -9999 -9999 -9999 -9999 -9999 -9999 -9999 -9999
0.90 0.73 0.78 0.74 0.87 0.84 0.75 0.75 0.73 0.76 0.89 0.78 0.86 0.82 0.88 0.78 0.77 0.78 0.80 0.80 0.72 0.86 0.87 0.81 0.81 0.83 0.72 0.89 0.87 0.72 0.72 0.88 0.82 0.74 0.82 0.87 0.76 0.88 0.72 0.82 0.85 0.71 0.73 0.74 0.74 0.75 0.88 0.73 0.70 0.75 0.75 0.76 0.83 0.71 0.77 0.84 0.71 0.89 0.82 0.74 0.78 0.76 0.89 0.74 0.75 0.85 0.87 0.89 0.86 0.89 0.80 0.71 0.88 0.87 0.79 0.73 0.90 0.81 0.85 0.86 0.78 0.71 0.87 0.86 0.88 0.89 0.80 0.80 0.78 0.70 0.89 0.86 0.88 0.85 0.70 0.78 0.71 0.84 0.86 0.73 0.89 0.90 0.75 0.75 0.79 0.80 0.75 0.84 0.77 0.83 0.87 0.77 0.73 0.79 0.75 0.75 0.77 0.74 0.75 0.75 0.77 0.84 0.81 0.73 0.84 0.89 0.72 0.81 0.74 0.78 0.72 0.75 0.81 0.77 0.74 0.82 0.79 0.75 0.75 0.71 0.72 0.71 0.71 0.88 0.75 0.76 0.75 0.79 0.82 0.82 0.76 0.73 0.89 0.73 0.80 0.71 0.72 0.75 0.80 0.82 0.74 0.85 0.85 0.77 0.80 0.85 0.80 0.86 0.89 0.88 0.72 0.77 0.79 0.77 0.89 -9999 -9999 -9999 -9999 -9999 -9999 -9999 -9999 -9999 -9999 -9999 -9999 -9999 -9999 -9999 -9999 -9999 -9999 -9999 -9999 -9999 -9999 -9999 -9999 -9999 -9999 -9999 -9999 -9999 -9999 -9999 -9999 -9999 -9999 -9999 -9999 -9999 -9999 -9999 -9999
0.72 0.79 0.76 0.77 0.90 0.84 0.83 0.80 0.72 0.77 0.85 0.86 0.82 0.76 0.73 0.73 0.81 0.77 0.85 0.79 0.78 0.82 0.76 0.72 0.77 0.87 0.80 0.83 0.88 0.71 0.74 0.80 0.76 0.88 0.75 0.79 0.82 0.76 0.75 0.82 0.75 0.85 0.89 0.78 0.71 0.82 0.80 0.76 0.78 0.77 0.76 0.87 0.86 0.80 0.90 0.71 0.73 0.72 0.83 0.80 0.88 0.80 0.85 0.82 0.75 0.71 0.74 0.77 0.84 0.71 0.73 0.80 0.79 0.75 0.86 0.81 0.72 0.82 0.88 0.82 0.74 0.83 0.85 0.78 0.79 0.74 0.88 0.83 0.77 0.73 0.73 0.86 0.76 0.74 0.85 0.78 0.82 0.88 0.73 0.70 0.74 0.71 0.90 0.76 0.81 0.81 0.77 0.79 0.75 0.71 0.75 0.82 0.74 0.72 0.82 0.87 0.88 0.90 0.81 0.79 0.76 0.76 0.89 0.76 0.79 0.77 0.73 0.82 0.71 0.77 0.81 0.85 0.72 0.82 0.86 0.72 0.77 0.72 0.72 0.71 0.86 0.90 0.83 0.78 0.80 0.81 0.83 0.81 0.87 0.77 0.76 0.75 0.77 0.77 0.88 0.82 0.76 0.73 0.72 0.86 0.82 0.83 0.75 0.74 0.71 0.79 0.82 0.80 0.86 0.75 0.78 0.70 0.87 0.88 0.85 -9999 -9999 -9999 -9999 -9999 -9999 -9999 -9999 -9999 -9999 -9999 -9999 -9999 -9999 -9999 -9999 -9999 -9999 -9999 -9999 -9999 -9999 -9999 -9999 -9999 -9999 -9999 -9999 -9999 -9999 -9999 -9999 -9999 -9999 -9999 -9999 -9999 -9999 -9999 -9999
0.87 0.90 0.86 0.82 0.70 0.75 0.79 0.87 0.81 0.74 0.81 0.74 0.82 0.85 0.90 0.84 0.72 0.74 0.79 0.78 0.77 0.86 0.85 0.88 0.78 0.88 0.74 0.73 0.75 0.86 0.71 0.81 0.83 0.87 0.75 0.87 0.80 0.85 0.76 0.82 0.85 0.72 0.79 0.71 0.74 0.82 0.72 0.89 0.81 0.80 0.86 0.86 0.79 0.82 0.84 0.75 0.80 0.86 0.75 0.79 0.88 0.83 0.83 0.83 0.86 0.70 0.81 0.78 0.82 0.70 0.87 0.73 0.72 0.71 0.70 0.83 0.87 0.84 0.79 0.82 0.74 0.75 0.81 0.73 0.77 0.78 0.71 0.79 0.77 0.81 0.79 0.82 0.71 0.82 0.81 0.78 0.74 0.80 0.87 0.75 0.80 0.71 0.72 0.78 0.85 0.81 0.75 0.71 0.88 0.79 0.81 0.81 0.71 0.75 0.88 0.79 0.84 0.90 0.79 0.71 0.77 0.85 0.72 0.80 0.76 0.72 0.71 0.86 0.85 0.74 0.72 0.83 0.73 0.90 0.90 0.88 0.89 0.89 0.83 0.80 0.79 0.80 0.74 0.88 0.73 0.80 0.89 0.87 0.73 0.70 0.85 0.74 0.86 0.87 0.79 0.77 0.84 0.82 0.78 0.82 0.89 0.76 0.88 0.87 0.89 0.77 0.72 0.75 0.84 0.80 0.86 0.80 0.78 0.71 0.75 -9999 -9999 -9999 -9999 -9999 -9999 -9999 -9999 -9999 -9999 -9999 -9999 -9999 -9999 -9999 -9999 -9999 -9999 -9999 -9999 -9999 -9999 -9999 -9999 -9999 -9999 -9999 -9999 -9999 -9999 -9999 -9999 -9999 -9999 -9999 -9999 -9999 -9999 -9999 -9999
0.85 0.90 0.78 0.77 0.85 0.84 0.85 0.79 0.75 0.89 0.86 0.86 0.82 0.75 0.77 0.79 0.78 0.82 0.90 0.82 0.88 0.88 0.81 0.70 0.84 0.89 0.85 0.80 0.82 0.87 0.87 0.74 0.76 0.81 0.77 0.81 0.72 0.82 0.76 0.78 0.84 0.75 0.71 0.78 0.76 0.76 0.84 0.83 0.80 0.80 0.73 0.90 0.75 0.75 0.71 0.79 0.84 0.81 0.77 0.72 0.74 0.80 0.87 0.74 0.90 0.73 0.84 0.71 0.77 0.89 0.75 0.77 0.76 0.76 0.89 0.80 0.90 0.72 0.74 0.79 0.87 0.72 0.77 0.75 0.73 0.85 0.87 0.74 0.83 0.88 0.83 0.70 0.73 0.71 0.72 0.71 0.80 0.76 0.73 0.88 0.76 0.76 0.72 0.76 0.79 0.79 0.81 0.86 0.73 0.80 0.78 0.77 0.77 0.70 0.80 0.84 0.86 0.89 0.84 0.75 0.86 0.88 0.73 0.89 0.84 0.73 0.77 0.78 0.88 0.85 0.82 0.88 0.79 0.76 0.71 0.85 0.86 0.81 0.89 0.74 0.76 0.71 0.86 0.87 0.82 0.73 0.85 0.90 0.80 0.80 0.74 0.70 0.84 0.86 0.90 0.83 0.75 0.77 0.81 0.81 0.71 0.77 0.80 0.90 0.87 0.74 0.86 0.87 0.84 0.85 0.89 0.72 0.84 0.87 0.85 0.77 -9999 -9999 -9999 -9999 -9999 -9999 -9999 -9999 -9999 -9999 -9999 -9999 -9999 -9999 -9999 -9999 -9999 -9999 -9999 -9999 -9999 -9999 -9999 -9999 -9999 -9999 -9999 -9999 -9999 -9999 -9999 -9999 -9999 -9999 -9999 -9999 -9999 -9999 -9999
0.81 0.84 0.88 0.72 0.84 0.75 0.75 0.71 0.80 0.83 0.89 0.84 0.82 0.72 0.89 0.80 0.83 0.88 0.86 0.78 0.75 0.87 0.79 0.73 0.73 0.85 0.79 0.84 0.71 0.85 0.87 0.83 0.84 0.84 0.82 0.89 0.83 0.77 0.84 0.76 0.75 0.83 0.78 0.73 0.82 0.79 0.85 0.75 0.76 0.86 0.80 0.86 0.77 0.85 0.83 0.89 0.79 0.85 0.71 0.85 0.89 0.72 0.90 0.77 0.74 0.88 0.87 0.85 0.87 0.85 0.85 0.79 0.71 0.73 0.71 0.85 0.73 0.74 0.74 0.78 0.87 0.82 0.72 0.90 0.75 0.85 0.89 0.74 0.74 0.79 0.70 0.82 0.80 0.90 0.86 0.85 0.87 0.78 0.74 0.75 0.75 0.76 0.80 0.87 0.74 0.82 0.83 0.74 0.70 0.83 0.72 0.89 0.86 0.90 0.83 0.74 0.72 0.83 0.80 0.72 0.88 0.74 0.88 0.74 0.85 0.82 0.77 0.82 0.73 0.80 0.79 0.78 0.77 0.79 0.71 0.83 0.75 0.85 0.76 0.84 0.77 0.83 0.88 0.88 0.80 0.76 0.79 0.80 0.87 0.89 0.90 0.78 0.73 0.84 0.73 0.87 0.71 0.82 0.87 0.74 0.83 0.82 0.81 0.71 0.86 0.80 0.87 0.79 0.76 0.88 0.74 0.72 0.81 0.85 0.86 0.87 -9999 -9999 -9999 -9999 -9999 -9999 -9999 -9999 -9999 -9999 -9999 -9999 -9999 -9999 -9999 -9999 -9999 -9999 -9999 -9999 -9999 -9999 -9999 -9999 -9999 -9999 -9999 -9999 -9999 -9999 -9999 -9999 -9999 -9999 -9999 -9999 -9999 -9999 -9999
0.76 0.78 0.83 0.72 0.79 0.87 0.89 0.87 0.89 0.83 0.71 0.82 0.78 0.82 0.85 0.73 0.83 0.81 0.74 0.85 0.84 0.77 0.77 0.70 0.90 0.85 0.83 0.84 0.83 0.84 0.88 0.74 0.74 0.81 0.78 0.84 0.75 0.90 0.85 0.77 0.79 0.88 0.82 0.81 0.90 0.86 0.89 0.82 0.75 0.82 0.78 0.79 0.84 0.85 0.88 0.83 0.70 0.80 0.79 0.85 0.72 0.72 0.71 0.79 0.90 0.86 0.82 0.76 0.84 0.89 0.71 0.76 0.86 0.89 0.85 0.77 0.81 0.75 0.71 0.87 0.86 0.77 0.90 0.71 0.82 0.78 0.89 0.77 0.76 0.87 0.86 0.80 0.78 0.78 0.87 0.86 0.85 0.86 0.84 0.72 0.73 0.88 0.76 0.72 0.80 0.85 0.70 0.77 0.83 0.81 0.77 0.78 0.72 0.74 0.77 0.75 0.77 0.75 0.89 0.79 0.80 0.72 0.73 0.72 0.86 0.81 0.88 0.82 0.72 0.78 0.86 0.80 0.72 0.76 0.73 0.87 0.77 0.75 0.71 0.78 0.88 0.74 0.79 0.84 0.83 0.82 0.74 0.84 0.72 0.82 0.72 0.76 0.84 0.79 0.78 0.86 0.73 0.88 0.74 0.73 0.82 0.74 0.80 0.86 0.80 0.87 0.74 0.90 0.85 0.86 0.79 -9999 -9999 -9999 -9999 -9999 -9999 -9999 -9999 -9999 -9999 -9999 -9999 -9999 -9999 -9999 -9999 -9999 -9999 -9999 -9999 -9999 -9999 -9999 -9999 -9999 -9999 -9999 -9999 -9999 -9999 -9999 -9999 -9999 -9999 -9999 -9999 -9999 -9999 -9999 -9999 -9999 -9999 -9999 -9999
0.73 0.79 0.81 0.75 0.84 0.88 0.74 0.77 0.84 0.70 0.72 0.83 0.74 0.79 0.84 0.73 0.82 0.88 0.87 0.81 0.71 0.77 0.77 0.84 0.72 0.89 0.75 0.85 0.89 0.81 0.70 0.75 0.75 0.79 0.87 0.76 0.76 0.85 0.89 0.79 0.85 0.82 0.88 0.76 0.70 0.74 0.78 0.79 0.86 0.89 0.73 0.86 0.78 0.72 0.81 0.71 0.80 0.71 0.77 0.85 0.81 0.75 0.74 0.83 0.87 0.78 0.86 0.77 0.87 0.83 0.72 0.73 0.84 0.84 0.83 0.71 0.76 0.84 0.71 0.79 0.78 0.82 0.71 0.78 0.88 0.87 0.88 0.85 0.81 0.87 0.71 0.78 0.76 0.87 0.75 0.77 0.70 0.76 0.75 0.77 0.74 0.77 0.75 0.88 0.80 0.86 0.85 0.77 0.81 0.89 0.80 0.84 0.79 0.90 0.79 0.82 0.81 0.85 0.86 0.76 0.71 0.86 0.84 0.78 0.79 0.79 0.86 0.84 0.86 0.79 0.75 0.87 0.71 0.86 0.74 0.79 0.74 0.75 0.76 0.86 0.72 0.84 0.72 0.86 0.78 0.80 0.72 0.84 0.77 0.84 0.71 0.75 0.87 0.71 0.87 0.72 0.82 0.87 0.79 0.71 0.73 0.78 0.72 0.88 -9999 -9999 -9999 -9999 -9999 -9999 -9999 -9999 -9999 -9999 -9999 -9999 -9999 -9999 -9999 -9999 -9999 -9999 -9999 -9999 -9999 -9999 -9999 -9999 -9999 -9999 -9999 -9999 -9999 -9999 -9999 -9999 -9999 -9999 -9999 -9999 -9999 -9999 -9999 -9999 -9999 -9999 -9999 -9999 -9999 -9999 -9999 -9999 -9999 -9999 -9999
0.85 0.78 0.89 0.76 0.77 0.72 0.71 0.84 0.89 0.86 0.77 0.81 0.74 0.83 0.70 0.82 0.73 0.87 0.83 0.88 0.75 0.83 0.72 0.83 0.86 0.82 0.74 0.78 0.73 0.78 0.74 0.70 0.90 0.88 0.85 0.72 0.76 0.89 0.75 0.71 0.84 0.85 0.74 0.82 0.87 0.90 0.74 0.76 0.82 0.88 0.82 0.75 0.90 0.71 0.76 0.87 0.71 0.73 0.84 0.82 0.75 0.81 0.75 0.81 0.71 0.78 0.85 0.81 0.82 0.88 0.88 0.73 0.84 0.89 0.80 0.84 0.83 0.85 0.77 0.83 0.76 0.88 0.78 0.74 0.71 0.80 0.82 0.76 0.73 0.85 0.87 0.86 0.76 0.83 0.77 0.86 0.88 0.76 0.75 0.71 0.88 0.81 0.72 0.77 0.89 0.73 0.86 0.77 0.81 0.80 0.74 0.75 0.83 0.77 0.75 0.82 0.82 0.84 0.88 0.87 0.71 0.86 0.88 0.88 0.88 0.79 0.72 0.73 0.89 0.73 0.89 0.84 0.86 0.87 0.74 0.70 0.71 0.86 0.84 0.84 0.76 0.85 0.87 0.89 0.87 0.73 0.83 0.82 0.85 0.83 0.80 0.87 0.79 0.71 0.70 0.83 -9999 -9999 -9999 -9999 -9999 -9999 -9999 -9999 -9999 -9999 -9999 -9999 -9999 -9999 -9999 -9999 -9999 -9999 -9999 -9999 -9999 -9999 -9999 -9999 -9999 -9999 -9999 -9999 -9999 -9999 -9999 -9999 -9999 -9999 -9999 -9999 -9999 -9999 -9999 -9999 -9999 -9999 -9999 -9999 -9999 -9999 -9999 -9999 -9999 -9999 -9999 -9999 -9999 -9999 -9999 -9999 -9999 -9999 -9999
0.78 0.76 0.75 0.73 0.80 0.87 0.70 0.72 0.83 0.84 0.75 0.89 0.75 0.89 0.72 0.76 0.86 0.73 0.81 0.76 0.85 0.76 0.70 0.73 0.85 0.85 0.82 0.77 0.71 0.80 0.87 0.78 0.79 0.90 0.80 0.73 0.72 0.74 0.75 0.78 0.82 0.72 0.82 0.90 0.70 0.89 0.85 0.71 0.72 0.83 0.73 0.86 0.72 0.86 0.87 0.75 0.87 0.76 0.88 0.85 0.76 0.84 0.74 0.87 0.85 0.78 0.78 0.76 0.87 0.86 0.71 0.72 0.74 0.85 0.78 0.77 0.81 0.90 0.73 0.80 0.80 0.88 0.85 0.90 0.79 0.75 0.87 0.80 0.76 0.73 0.83 0.87 0.81 0.83 0.79 0.73 0.82 0.88 0.82 0.77 0.80 0.78 0.89 0.74 0.71 0.84 0.73 0.75 0.70 0.82 0.81 0.89 0.72 0.81 0.88 0.72 0.90 0.89 0.70 0.75 0.83 0.72 0.70 0.86 0.82 0.79 0.80 0.84 0.88 0.87 0.71 0.76 0.77 0.83 0.83 0.86 0.86 0.72 0.71 0.88 0.70 0.78 0.88 0.82 0.73 0.87 0.86 0.74 0.78 -9999 -9999 -9999 -9999 -9999 -9999 -9999 -9999 -9999 -9999 -9999 -9999 -9999 -9999 -9999 -9999 -9999 -9999 -9999 -9999 -9999 -9999 -9999 -9999 -9999 -9999 -9999 -9999 -9999 -9999 -9999 -9999 -9999 -9999 -9999 -9999 -9999 -9999 -9999 -9999 -9999 -9999 -9999 -9999 -9999 -9999 -9999 -9999 -9999 -9999 -9999 -9999 -9999 -9999 -9999 -9999 -9999 -9999 -9999 -9999 -9999 -9999 -9999 -9999 -9999 -9999
0.78 0.88 0.83 0.81 0.84 0.76 0.83 0.78 0.76 0.84 0.75 0.76 0.79 0.72 0.84 0.90 0.72 0.78 0.84 0.76 0.73 0.87 0.89 0.76 0.86 0.75 0.76 0.76 0.83 0.89 0.87 0.74 0.73 0.82 0.90 0.74 0.87 0.86 0.71 0.88 0.79 0.76 0.84 0.84 0.75 0.78 0.80 0.88 0.82 0.75 0.85 0.78 0.73 0.87 0.88 0.79 0.88 0.71 0.90 0.75 0.84 0.79 0.86 0.81 0.73 0.74 0.81 0.84 0.74 0.73 0.80 0.75 0.80 0.85 0.80 0.88 0.81 0.82 0.85 0.90 0.86 0.81 0.88 0.75 0.72 0.76 0.78 0.76 0.75 0.75 0.74 0.88 0.75 0.76 0.87 0.79 0.77 0.80 0.83 0.80 0.82 0.71 0.75 0.79 0.79 0.74 0.79 0.74 0.83 0.88 0.89 0.76 0.83 0.79 0.73 0.83 0.75 0.78 0.73 0.85 0.80 0.80 0.83 0.86 0.76 0.72 0.80 0.89 0.74 0.84 0.79 0.86 0.77 0.86 0.77 0.72 0.70 0.74 0.85 0.73 0.89 0.82 0.70 0.83 -9999 -9999 -9999 -9999 -9999 -9999 -9999 -9999 -9999 -9999 -9999 -9999 -9999 -9999 -9999 -9999 -9999 -9999 -9999 -9999 -9999 -9999 -9999 -9999 -9999 -9999 -9999 -9999 -9999 -9999 -9999 -9999 -9999 -9999 -9999 -9999 -9999 -9999 -9999 -9999 -9999 -9999 -9999 -9999 -9999 -9999 -9999 -9999 -9999 -9999 -9999 -9999 -9999 -9999 -9999 -9999 -9999 -9999 -9999 -9999 -9999 -9999 -9999 -9999 -9999 -9999 -9999 -9999 -9999 -9999 -9999
0.79 0.80 0.79 0.71 0.88 0.87 0.76 0.83 0.84 0.74 0.89 0.87 0.84 0.87 0.83 0.81 0.80 0.74 0.82 0.75 0.88 0.71 0.88 0.82 0.85 0.90 0.83 0.79 0.82 0.71 0.86 0.80 0.74 0.88 0.71 0.74 0.74 0.81 0.71 0.87 0.79 0.76 0.83 0.84 0.75 0.78 0.70 0.80 0.84 0.85 0.83 0.76 0.87 0.89 0.89 0.77 0.79 0.73 0.75 0.89 0.85 0.84 0.82 0.89 0.87 0.85 0.90 0.77 0.81 0.71 0.85 0.86 0.90 0.81 0.89 0.76 0.82 0.71 0.82 0.82 0.74 0.88 0.86 0.75 0.70 0.78 0.90 0.76 0.83 0.84 0.83 0.76 0.87 0.86 0.73 0.84 0.74 0.75 0.74 0.83 0.88 0.81 0.82 0.71 0.71 0.73 0.79 0.74 0.76 0.79 0.83 0.89 0.86 0.89 0.70 0.87 0.88 0.85 0.85 0.73 0.81 0.86 0.74 0.73 0.72 0.77 0.74 0.87 0.76 0.81 0.78 0.75 0.80 0.75 0.89 0.74 0.71 0.83 0.84 0.86 0.89 0.78 0.79 0.88 -9999 -9999 -9999 -9999 -9999 -9999 -9999 -9999 -9999 -9999 -9999 -9999 -9999 -9999 -9999 -9999 -9999 -9999 -9999 -9999 -9999 -9999 -9999 -9999 -9999 -9999 -9999 -9999 -9999 -9999 -9999 -9999 -9999 -9999 -9999 -9999 -9999 -9999 -9999 -9999 -9999 -9999 -9999 -9999 -9999 -9999 -9999 -9999 -9999 -9999 -9999 -9999 -9999 -9999 -9999 -9999 -9999 -9999 -9999 -9999 -9999 -9999 -9999 -9999 -9999 -9999 -9999 -9999 -9999 -9999 -9999
0.70 0.77 0.79 0.89 0.75 0.81 0.89 0.82 0.78 0.82 0.86 0.85 0.82 0.85 0.77 0.73 0.74 0.78 0.78 0.77 0.88 0.80 0.87 0.79 0.85 0.73 0.75 0.84 0.83 0.90 0.85 0.82 0.84 0.79 0.80 0.71 0.72 0.86 0.81 0.75 0.87 0.74 0.74 0.78 0.71 0.85 0.80 0.71 0.76 0.84 0.89 0.82 0.73 0.86 0.86 0.75 0.80 0.74 0.86 0.89 0.78 0.83 0.84 0.81 0.84 0.88 0.73 0.85 0.87 0.86 0.73 0.70 0.83 0.88 0.83 0.77 0.88 0.75 0.76 0.72 0.71 0.71 0.70 0.78 0.75 0.81 0.73 0.70 0.77 0.83 0.84 0.75 0.86 0.86 0.71 0.72 0.80 0.73 0.78 0.81 0.85 0.76 0.77 0.89 0.85 0.89 0.74 0.72 0.84 0.81 0.77 0.80 0.84 0.83 0.76 0.76 0.80 0.84 0.74 0.83 0.87 0.80 0.90 0.72 0.70 0.84 0.76 0.90 0.77 0.77 0.88 0.86 0.73 0.83 0.81 0.86 0.78 0.86 0.87 0.87 0.75 0.76 0.74 0.75 -9999 -9999 -9999 -9999 -9999 -9999 -9999 -9999 -9999 -9999 -9999 -9999 -9999 -9999 -9999 -9999 -9999 -9999 -9999 -9999 -9999 -9999 -9999 -9999 -9999 -9999 -9999 -9999 -9999 -9999 -9999 -9999 -9999 -9999 -9999 -9999 -9999 -9999 -9999 -9999 -9999 -9999 -9999 -9999 -9999 -9999 -9999 -9999 -9999 -9999 -9999 -9999 -9999 -9999 -9999 -9999 -9999 -9999 -9999 -9999 -9999 -9999 -9999 -9999 -9999 -9999 -9999 -9999 -9999 -9999 -9999
0.88 0.71 0.76 0.83 0.84 0.73 0.79 0.86 0.76 0.80 0.79 0.81 0.73 0.72 0.74 0.86 0.87 0.71 0.79 0.76 0.84 0.76 0.81 0.80 0.90 0.84 0.77 0.85 0.84 0.86 0.77 0.89 0.87 0.76 0.82 0.76 0.88 0.79 0.89 0.71 0.70 0.78 0.85 0.71 0.72 0.81 0.78 0.79 0.77 0.86 0.89 0.81 0.76 0.75 0.85 0.87 0.80 0.78 0.77 0.75 0.82 0.86 0.87 0.88 0.85 0.82 0.83 0.79 0.80 0.75 0.86 0.73 0.84 0.85 0.79 0.79 0.71 0.80 0.83 0.75 0.85 0.74 0.70 0.72 0.88 0.85 0.86 0.82 0.71 0.75 0.87 0.89 0.73 0.70 0.85 0.77 0.84 0.76 0.79 0.76 0.74 0.73 0.79 0.86 0.75 0.85 0.84 0.72 0.84 0.74 0.73 0.72 0.77 0.75 0.88 0.72 0.75 0.77 0.70 0.85 0.77 0.85 0.85 0.82 0.83 0.85 0.83 0.85 0.82 0.79 0.85 0.72 0.72 0.76 0.88 0.90 0.86 0.76 0.90 0.73 0.76 0.84 0.78 0.79 -9999 -9999 -9999 -9999 -9999 -9999 -9999 -9999 -9999 -9999 -9999 -9999 -9999 -9999 -9999 -9999 -9999 -9999 -9999 -9999 -9999 -9999 -9999 -9999 -9999 -9999 -9999 -9999 -9999 -9999 -9999 -9999 -9999 -9999 -9999 -9999 -9999 -9999 -9999 -9999 -9999 -9999 -9999 -9999 -9999 -9999 -9999 -9999 -9999 -9999 -9999 -9999 -9999 -9999 -9999 -9999 -9999 -9999 -9999 -9999 -9999 -9999 -9999 -9999 -9999 -9999 -9999 -9999 -9999 -9999 -9999
0.80 0.84 0.73 0.75 0.78 0.81 0.77 0.82 0.89 0.74 0.84 0.88 0.83 0.74 0.73 0.89 0.75 0.86 0.77 0.80 0.89 0.77 0.86 0.75 0.78 0.87 0.85 0.71 0.74 0.89 0.84 0.82 0.75 0.75 0.84 0.89 0.82 0.75 0.88 0.84 0.89 0.76 0.80 0.88 0.84 0.80 0.86 0.73 0.87 0.88 0.90 0.89 0.86 0.76 0.82 0.88 0.77 0.83 0.85 0.75 0.72 0.85 0.81 0.71 0.78 0.83 0.78 0.85 0.78 0.77 0.89 0.73 0.87 0.85 0.84 0.78 0.83 0.84 0.70 0.79 0.86 0.71 0.89 0.86 0.75 0.87 0.84 0.84 0.81 0.82 0.83 0.88 0.71 0.72 0.73 0.79 0.72 0.76 0.72 0.78 0.81 0.85 0.75 0.84 0.81 0.90 0.89 0.80 0.78 0.76 0.78 0.89 0.83 0.84 0.79 0.78 0.87 0.88 0.86 0.77 0.74 0.73 0.89 0.82 0.89 0.77 0.78 0.88 0.82 0.74 0.80 0.80 0.88 0.70 0.78 0.84 0.82 0.71 0.77 0.74 0.88 0.73 0.76 0.70 -9999 -9999 -9999 -9999 -9999 -9999 -9999 -9999 -9999 -9999 -9999 -9999 -9999 -9999 -9999 -9999 -9999 -9999 -9999 -9999 -9999 -9999 -9999 -9999 -9999 -9999 -9999 -9999 -9999 -9999 -9999 -9999 -9999 -9999 -9999 -9999 -9999 -9999 -9999 -9999 -9999 -9999 -9999 -9999 -9999 -9999 -9999 -9999 -9999 -9999 -9999 -9999 -9999 -9999 -9999 -9999 -9999 -9999 -9999 -9999 -9999 -9999 -9999 -9999 -9999 -9999 -9999 -9999 -9999 -9999 -9999
0.74 0.79 0.79 0.90 0.85 0.76 0.80 0.77 0.78 0.82 0.88 0.80 0.76 0.83 0.89 0.71 0.85 0.72 0.84 0.75 0.85 0.74 0.72 0.88 0.75 0.86 0.84 0.79 0.80 0.73 0.75 0.73 0.78 0.72 0.84 0.80 0.81 0.85 0.74 0.79 0.77 0.86 0.79 0.81 0.90 0.83 0.82 0.83 0.89 0.81 0.85 0.74 0.72 0.87 0.74 0.78 0.89 0.78 0.89 0.88 0.71 0.72 0.76 0.89 0.73 0.86 0.79 0.85 0.87 0.70 0.77 0.70 0.82 0.86 0.76 0.80 0.84 0.84 0.82 0.84 0.90 0.87 0.86 0.81 0.73 0.77 0.87 0.80 0.80 0.81 0.88 0.75 0.78 0.88 0.76 0.73 0.83 0.90 0.76 0.83 0.80 0.86 0.85 0.72 0.84 0.72 0.88 0.81 0.82 0.72 0.85 0.76 0.88 0.85 0.85 0.82 0.82 0.72 0.81 0.74 0.90 0.75 0.72 0.74 0.71 0.72 0.76 0.80 0.77 0.81 0.77 0.71 0.83 0.76 0.74 0.83 0.88 0.76 0.89 0.81 0.75 0.75 0.80 0.85 0.73 -9999 -9999 -9999 -9999 -9999 -9999 -9999 -9999 -9999 -9999 -9999 -9999 -9999 -9999 -9999 -9999 -9999 -9999 -9999 -9999 -9999 -9999 -9999 -9999 -9999 -9999 -9999 -9999 -9999 -9999 -9999 -9999 -9999 -9999 -9999 -9999 -9999 -9999 -9999 -9999 -9999 -9999 -9999 -9999 -9999 -9999 -9999 -9999 -9999 -9999 -9999 -9999 -9999 -9999 -9999 -9999 -9999 -9999 -9999 -9999 -9999 -9999 -9999 -9999 -9999 -9999 -9999 -9999 -9999 -9999
0.72 0.74 0.73 0.90 0.79 0.78 0.84 0.82 0.75 0.81 0.76 0.73 0.83 0.75 0.79 0.88 0.74 0.71 0.72 0.89 0.81 0.78 0.77 0.74 0.85 0.82 0.86 0.74 0.83 0.85 0.77 0.74 0.90 0.88 0.73 0.86 0.78 0.75 0.87 0.76 0.71 0.81 0.72 0.76 0.89 0.78 0.76 0.75 0.84 0.83 0.79 0.80 0.90 0.75 0.85 0.87 0.89 0.84 0.71 0.70 0.86 0.88 0.71 0.80 0.83 0.76 0.84 0.77 0.90 0.81 0.88 0.80 0.88 0.77 0.74 0.75 0.87 0.83 0.90 0.84 0.75 0.77 0.85 0.86 0.85 0.75 0.78 0.71 0.73 0.73 0.83 0.73 0.73 0.71 0.74 0.77 0.88 0.78 0.86 0.85 0.80 0.74 0.80 0.76 0.73 0.86 0.88 0.88 0.74 0.79 0.85 0.78 0.76 0.81 0.87 0.76 0.75 0.89 0.81 0.84 0.76 0.89 0.80 0.76 0.80 0.70 0.88 0.77 0.77 0.79 0.76 0.75 0.89 0.80 0.71 0.82 0.85 0.88 0.89 0.80 0.77 0.78 0.75 0.76 0.84 -9999 -9999 -9999 -9999 -9999 -9999 -9999 -9999 -9999 -9999 -9999 -9999 -9999 -9999 -9999 -9999 -9999 -9999 -9999 -9999 -9999 -9999 -9999 -9999 -9999 -9999 -9999 -9999 -9999 -9999 -9999 -9999 -9999 -9999 -9999 -9999 -9999 -9999 -9999 -9999 -9999 -9999 -9999 -9999 -9999 -9999 -9999 -9999 -9999 -9999 -9999 -9999 -9999 -9999 -9999 -9999 -9999 -9999 -9999 -9999 -9999 -9999 -9999 -9999 -9999 -9999 -9999 -9999 -9999 -9999
0.74 0.84 0.76 0.74 0.78 0.90 0.75 0.78 0.84 0.87 0.74 0.85 0.73 0.76 0.73 0.73 0.86 0.83 0.84 0.87 0.83 0.77 0.83 0.80 0.78 0.75 0.86 0.72 0.88 0.80 0.76 0.89 0.84 0.74 0.72 0.71 0.71 0.82 0.77 0.85 0.80 0.78 0.88 0.90 0.80 0.81 0.89 0.83 0.83 0.83 0.86 0.89 0.73 0.73 0.89 0.73 0.72 0.73 0.83 0.88 0.88 0.72 0.74 0.84 0.80 0.87 0.74 0.85 0.82 0.78 0.72 0.73 0.74 0.82 0.75 0.87 0.86 0.89 0.79 0.76 0.88 0.82 0.87 0.80 0.71 0.70 0.75 0.78 0.72 0.77 0.75 0.79 0.88 0.85 0.84 0.77 0.74 0.73 0.89 0.72 0.82 0.81 0.74 0.74 0.76 0.82 0.83 0.79 0.80 0.81 0.87 0.88 0.87 0.83 0.86 0.80 0.82 0.81 0.82 0.83 0.73 0.84 0.78 0.81 0.78 0.77 0.84 0.82 0.74 0.73 0.81 0.73 0.76 0.71 0.71 0.88 0.76 0.79 0.84 0.85 0.84 0.81 0.80 0.77 0.77 -9999 -9999 -9999 -9999 -9999 -9999 -9999 -9999 -9999 -9999 -9999 -9999 -9999 -9999 -9999 -9999 -9999 -9999 -9999 -9999 -9999 -9999 -9999 -9999 -9999 -9999 -9999 -9999 -9999 -9999 -9999 -9999 -9999 -9999 -9999 -9999 -9999 -9999 -9999 -9999 -9999 -9999 -9999 -9999 -9999 -9999 -9999 -9999 -9999 -9999 -9999 -9999 -9999 -9999 -9999 -9999 -9999 -9999 -9999 -9999 -9999 -9999 -9999 -9999 -9999 -9999 -9999 -9999 -9999 -9999
0.73 0.81 0.70 0.83 0.89 0.85 0.80 0.72 0.78 0.79 0.87 0.81 0.71 0.76 0.74 0.74 0.72 0.89 0.85 0.74 0.83 0.72 0.79 0.87 0.83 0.87 0.79 0.88 0.76 0.83 0.73 0.87 0.75 0.88 0.90 0.74 0.80 0.74 0.73 0.81 0.70 0.88 0.72 0.75 0.88 0.79 0.86 0.90 0.87 0.73 0.73 0.71 0.78 0.83 0.84 0.79 0.87 0.78 0.75 0.71 0.87 0.75 0.82 0.73 0.78 0.80 0.74 0.78 0.90 0.77 0.82 0.77 0.71 0.76 0.87 0.71 0.74 0.74 0.82 0.90 0.83 0.70 0.82 0.81 0.83 0.84 0.90 0.86 0.85 0.76 0.86 0.83 0.78 0.79 0.87 0.74 0.81 0.88 0.84 0.87 0.83 0.89 0.89 0.80 0.71 0.79 0.74 0.80 0.88 0.89 0.81 0.85 0.78 0.85 0.86 0.84 0.83 0.77 0.72 0.76 0.72 0.81 0.79 0.73 0.83 0.76 0.88 0.73 0.85 0.87 0.85 0.84 0.71 0.79 0.72 0.90 0.86 0.87 0.88 0.82 0.71 0.84 0.86 0.84 0.82 -9999 -9999 -9999 -9999 -9999 -9999 -9999 -9999 -9999 -9999 -9999 -9999 -9999 -9999 -9999 -9999 -9999 -9999 -9999 -9999 -9999 -9999 -9999 -9999 -9999 -9999 -9999 -9999 -9999 -9999 -9999 -9999 -9999 -9999 -9999 -9999 -9999 -9999 -9999 -9999 -9999 -9999 -9999 -9999 -9999 -9999 -9999 -9999 -9999 -9999 -9999 -9999 -9999 -9999 -9999 -9999 -9999 -9999 -9999 -9999 -9999 -9999 -9999 -9999 -9999 -9999 -9999 -9999 -9999 -9999
0.71 0.89 0.90 0.87 0.76 0.81 0.75 0.72 0.83 0.74 0.84 0.88 0.80 0.73 0.71 0.80 0.84 0.86 0.80 0.85 0.78 0.74 0.88 0.88 0.80 0.72 0.75 0.86 0.81 0.78 0.80 0.78 0.88 0.80 0.71 0.79 0.77 0.87 0.82 0.81 0.74 0.87 0.87 0.79 0.73 0.80 0.71 0.75 0.77 0.86 0.70 0.72 0.76 0.88 0.75 0.78 0.76 0.72 0.81 0.71 0.78 0.79 0.81 0.81 0.81 0.81 0.84 0.79 0.84 0.87 0.81 0.89 0.83 0.87 0.87 0.75 0.78 0.76 0.80 0.83 0.82 0.72 0.79 0.70 0.83 0.82 0.72 0.72 0.78 0.82 0.74 0.78 0.79 0.77 0.90 0.85 0.87 0.81 0.71 0.73 0.84 0.87 0.86 0.83 0.90 0.84 0.90 0.71 0.75 0.79 0.72 0.80 0.88 0.82 0.74 0.79 0.73 0.84 0.85 0.84 0.75 0.89 0.77 0.85 0.75 0.78 0.73 0.72 0.72 0.90 0.82 0.78 0.72 0.75 0.86 0.85 0.75 0.87 0.71 0.79 0.80 0.75 0.90 0.84 0.86 -9999 -9999 -9999 -9999 -9999 -9999 -9999 -9999 -9999 -9999 -9999 -9999 -9999 -9999 -9999 -9999 -9999 -9999 -9999 -9999 -9999 -9999 -9999 -9999 -9999 -9999 -9999 -9999 -9999 -9999 -9999 -9999 -9999 -9999 -9999 -9999 -9999 -9999 -9999 -9999 -9999 -9999 -9999 -9999 -9999 -9999 -9999 -9999 -9999 -9999 -9999 -9999 -9999 -9999 -9999 -9999 -9999 -9999 -9999 -9999 -9999 -9999 -9999 -9999 -9999 -9999 -9999 -9999 -9999 -9999
0.70 0.73 0.76 0.78 0.85 0.74 0.74 0.74 0.84 0.82 0.80 0.89 0.85 0.74 0.74 0.82 0.71 0.72 0.82 0.78 0.72 0.76 0.74 0.87 0.81 0.86 0.83 0.88 0.81 0.88 0.78 0.84 0.83 0.73 0.83 0.72 0.79 0.86 0.81 0.71 0.85 0.70 0.87 0.71 0.81 0.79 0.75 0.71 0.89 0.81 0.70 0.89 0.79 0.72 0.87 0.72 0.71 0.89 0.75 0.88 0.74 0.70 0.71 0.78 0.74 0.83 0.72 0.84 0.90 0.82 0.81 0.90 0.83 0.73 0.72 0.82 0.73 0.72 0.83 0.70 0.73 0.86 0.85 0.80 0.79 0.88 0.82 0.77 0.80 0.85 0.82 0.78 0.90 0.81 0.75 0.87 0.75 0.77 0.89 0.81 0.81 0.75 0.73 0.89 0.74 0.83 0.74 0.87 0.86 0.78 0.72 0.73 0.83 0.88 0.89 0.73 0.74 0.74 0.75 0.71 0.75 0.89 0.76 0.82 0.73 0.78 0.78 0.89 0.87 0.86 0.76 0.82 0.74 0.89 0.76 0.71 0.90 0.71 0.77 0.85 0.83 0.78 0.77 0.80 0.77 -9999 -9999 -9999 -9999 -9999 -9999 -9999 -9999 -9999 -9999 -9999 -9999 -9999 -9999 -9999 -9999 -9999 -9999 -9999 -9999 -9999 -9999 -9999 -9999 -9999 -9999 -9999 -9999 -9999 -9999 -9999 -9999 -9999 -9999 -9999 -9999 -9999 -9999 -9999 -9999 -9999 -9999 -9999 -9999 -9999 -9999 -9999 -9999 -9999 -9999 -9999 -9999 -9999 -9999 -9999 -9999 -9999 -9999 -9999 -9999 -9999 -9999 -9999 -9999 -9999 -9999 -9999 -9999 -9999 -9999
0.88 0.89 0.89 0.73 0.79 0.87 0.77 0.78 0.79 0.86 0.84 0.72 0.71 0.80 0.73 0.85 0.87 0.70 0.79 0.74 0.77 0.75 0.88 0.86 0.73 0.73 0.72 0.78 0.78 0.73 0.72 0.77 0.72 0.83 0.84 0.82 0.80 0.73 0.86 0.75 0.78 0.86 0.86 0.80 0.77 0.89 0.71 0.87 0.89 0.75 0.75 0.81 0.85 0.78 0.78 0.89 0.77 0.72 0.90 0.78 0.77 0.72 0.71 0.80 0.75 0.81 0.89 0.85 0.80 0.84 0.80 0.74 0.70 0.76 0.82 0.79 0.83 0.90 0.75 0.77 0.86 0.75 0.82 0.82 0.73 0.70 0.85 0.71 0.83 0.76 0.77 0.79 0.71 0.90 0.87 0.86 0.73 0.88 0.84 0.78 0.87 0.82 0.86 0.71 0.82 0.81 0.76 0.87 0.79 0.83 0.70 0.74 0.76 0.72 0.90 0.90 0.89 0.77 0.88 0.83 0.78 0.87 0.73 0.85 0.78 0.70 0.88 0.71 0.73 0.73 0.76 0.81 0.86 0.85 0.75 0.83 0.85 0.81 0.76 0.72 0.83 0.71 0.88 0.72 -9999 -9999 -9999 -9999 -9999 -9999 -9999 -9999 -9999 -9999 -9999 -9999 -9999 -9999 -9999 -9999 -9999 -9999 -9999 -9999 -9999 -9999 -9999 -9999 -9999 -9999 -9999 -9999 -9999 -9999 -9999 -9999 -9999 -9999 -9999 -9999 -9999 -9999 -9999 -9999 -9999 -9999 -9999 -9999 -9999 -9999 -9999 -9999 -9999 -9999 -9999 -9999 -9999 -9999 -9999 -9999 -9999 -9999 -9999 -9999 -9999 -9999 -9999 -9999 -9999 -9999 -9999 -9999 -9999 -9999 -9999
0.73 0.82 0.86 0.76 0.79 0.72 0.82 0.77 0.78 0.88 0.78 0.83 0.84 0.77 0.83 0.86 0.70 0.89 0.86 0.73 0.90 0.89 0.73 0.83 0.84 0.85 0.84 0.78 0.87 0.84 0.88 0.73 0.87 0.86 0.82 0.70 0.71 0.75 0.90 0.73 0.71 0.74 0.88 0.83 0.79 0.82 0.82 0.81 0.76 0.76 0.80 0.73 0.76 0.79 0.76 0.78 0.79 0.83 0.72 0.72 0.75 0.74 0.79 0.90 0.75 0.77 0.87 0.87 0.79 0.77 0.83 0.82 0.74 0.90 0.78 0.86 0.81 0.87 0.76 0.81 0.88 0.77 0.87 0.77 0.77 0.89 0.70 0.76 0.74 0.83 0.77 0.76 0.76 0.75 0.72 0.83 0.77 0.84 0.79 0.78 0.75 0.77 0.87 0.84 0.79 0.79 0.70 0.78 0.75 0.76 0.75 0.76 0.82 0.70 0.88 0.84 0.71 0.90 0.80 0.83 0.86 0.71 0.84 0.90 0.76 0.81 0.86 0.74 0.87 0.77 0.73 0.72 0.74 0.71 0.84 0.74 -9999 -9999 -9999 -9999 -9999 -9999 -9999 -9999 -9999 -9999 -9999 -9999 -9999 -9999 -9999 -9999 -9999 -9999 -9999 -9999 -9999 -9999 -9999 -9999 -9999 -9999 -9999 -9999 -9999 -9999 -9999 -9999 -9999 -9999 -9999 -9999 -9999 -9999 -9999 -9999 -9999 -9999 -9999 -9999 -9999 -9999 -9999 -9999 -9999 -9999 -9999 -9999 -9999 -9999 -9999 -9999 -9999 -9999 -9999 -9999 -9999 -9999 -9999 -9999 -9999 -9999 -9999 -9999 -9999 -9999 -9999 -9999 -9999 -9999 -9999 -9999 -9999 -9999 -9999
0.77 0.84 0.78 0.77 0.75 0.73 0.80 0.80 0.76 0.80 0.81 0.90 0.85 0.88 0.83 0.86 0.79 0.89 0.85 0.89 0.75 0.89 0.90 0.70 0.82 0.80 0.75 0.71 0.74 0.72 0.88 0.86 0.89 0.77 0.74 0.78 0.86 0.88 0.86 0.73 0.86 0.75 0.81 0.84 0.83 0.80 0.88 0.77 0.87 0.71 0.90 0.81 0.89 0.89 0.78 0.74 0.85 0.84 0.82 0.83 0.77 0.76 0.70 0.71 0.84 0.87 0.73 0.73 0.88 0.77 0.71 0.86 0.90 0.79 0.87 0.86 0.85 0.90 0.81 0.74 0.79 0.87 0.78 0.84 0.76 0.89 0.81 0.79 0.75 0.85 0.75 0.75 0.78 0.82 0.71 0.86 0.77 0.75 0.78 0.76 0.82 0.82 0.82 0.84 0.81 0.87 0.73 0.80 0.87 0.75 0.78 0.89 0.83 0.75 0.71 0.89 0.73 0.74 0.82 0.89 0.84 0.74 0.87 0.85 0.86 0.79 0.76 0.70 0.82 -9999 -9999 -9999 -9999 -9999 -9999 -9999 -9999 -9999 -9999 -9999 -9999 -9999 -9999 -9999 -9999 -9999 -9999 -9999 -9999 -9999 -9999 -9999 -9999 -9999 -9999 -9999 -9999 -9999 -9999 -9999 -9999 -9999 -9999 -9999 -9999 -9999 -9999 -9999 -9999 -9999 -9999 -9999 -9999 -9999 -9999 -9999 -9999 -9999 -9999 -9999 -9999 -9999 -9999 -9999 -9999 -9999 -9999 -9999 -9999 -9999 -9999 -9999 -9999 -9999 -9999 -9999 -9999 -9999 -9999 -9999 -9999 -9999 -9999 -9999 -9999 -9999 -9999 -9999 -9999 -9999 -9999 -9999 -9999 -9999 -9999
0.71 0.71 0.89 0.87 0.89 0.86 0.70 0.87 0.79 0.84 0.79 0.72 0.74 0.72 0.89 0.75 0.86 0.88 0.73 0.72 0.85 0.84 0.88 0.88 0.78 0.86 0.88 0.84 0.87 0.73 0.73 0.79 0.83 0.78 0.85 0.88 0.78 0.86 0.75 0.84 0.75 0.78 0.83 0.75 0.78 0.85 0.74 0.71 0.88 0.89 0.78 0.72 0.80 0.71 0.73 0.87 0.76 0.87 0.87 0.72 0.86 0.74 0.89 0.76 0.76 0.84 0.88 0.72 0.81 0.77 0.73 0.74 0.81 0.82 0.77 0.78 0.75 0.82 0.84 0.75 0.74 0.77 0.73 0.87 0.89 0.86 0.75 0.89 0.74 0.77 0.75 0.75 0.86 0.79 0.77 0.78 0.71 0.84 0.88 0.80 0.85 0.80 0.74 0.88 0.85 0.77 0.84 0.89 0.79 0.87 0.84 0.74 0.86 0.70 0.77 0.78 0.82 0.70 0.90 0.82 0.70 -9999 -9999 -9999 -9999 -9999 -9999 -9999 -9999 -9999 -9999 -9999 -9999 -9999 -9999 -9999 -9999 -9999 -9999 -9999 -9999 -9999 -9999 -9999 -9999 -9999 -9999 -9999 -9999 -9999 -9999 -9999 -9999 -9999 -9999 -9999 -9999 -9999 -9999 -9999 -9999 -9999 -9999 -9999 -9999 -9999 -9999 -9999 -9999 -9999 -9999 -9999 -9999 -9999 -9999 -9999 -9999 -9999 -9999 -9999 -9999 -9999 -9999 -9999 -9999 -9999 -9999 -9999 -9999 -9999 -9999 -9999 -9999 -9999 -9999 -9999 -9999 -9999 -9999 -9999 -9999 -9999 -9999 -9999 -9999 -9999 -9999 -9999 -9999 -9999 -9999 -9999 -9999 -9999 -9999
0.86 0.86 0.81 0.78 0.76 0.87 0.84 0.85 0.74 0.74 0.70 0.74 0.75 0.80 0.88 0.89 0.82 0.88 0.81 0.82 0.82 0.83 0.71 0.73 0.72 0.87 0.71 0.89 0.81 0.89 0.90 0.82 0.89 0.82 0.78 0.78 0.84 0.76 0.83 0.85 0.78 0.79 0.89 0.84 0.81 0.70 0.73 0.74 0.77 0.87 0.86 0.80 0.82 0.86 0.79 0.88 0.71 0.89 0.71 0.78 0.83 0.89 0.80 0.89 0.90 0.76 0.77 0.77 0.90 0.72 0.74 0.85 0.88 0.77 0.84 0.89 0.73 0.73 0.70 0.84 0.79 0.85 0.76 0.88 0.81 0.86 0.86 0.81 0.71 0.80 0.85 0.71 0.77 0.74 0.89 0.70 0.73 0.74 0.85 0.78 0.76 0.86 0.81 0.80 0.72 0.90 0.77 0.86 0.76 0.76 0.76 0.77 0.74 0.72 -9999 -9999 -9999 -9999 -9999 -9999 -9999 -9999 -9999 -9999 -9999 -9999 -9999 -9999 -9999 -9999 -9999 -9999 -9999 -9999 -9999 -9999 -9999 -9999 -9999 -9999 -9999 -9999 -9999 -9999 -9999 -9999 -9999 -9999 -9999 -9999 -9999 -9999 -9999 -9999 -9999 -9999 -9999 -9999 -9999 -9999 -9999 -9999 -9999 -9999 -9999 -9999 -9999 -9999 -9999 -9999 -9999 -9999 -9999 -9999 -9999 -9999 -9999 -9999 -9999 -9999 -9999 -9999 -9999 -9999 -9999 -9999 -9999 -9999 -9999 -9999 -9999 -9999 -9999 -9999 -9999 -9999 -9999 -9999 -9999 -9999 -9999 -9999 -9999 -9999 -9999 -9999 -9999 -9999 -9999 -9999 -9999 -9999 -9999 -9999 -9999
0.77 0.74 0.79 0.84 0.71 0.80 0.73 0.79 0.75 0.84 0.85 0.85 0.85 0.71 0.88 0.78 0.72 0.84 0.88 0.80 0.90 0.78 0.77 0.76 0.78 0.74 0.85 0.76 0.72 0.72 0.78 0.77 0.78 0.85 0.82 0.72 0.79 0.80 0.78 0.87 0.74 0.79 0.86 0.71 0.86 0.79 0.70 0.76 0.86 0.87 0.79 0.73 0.89 0.86 0.82 0.77 0.81 0.71 0.80 0.87 0.83 0.87 0.82 0.84 0.88 0.85 0.78 0.71 0.84 0.83 0.75 0.88 0.86 0.87 0.76 0.79 0.89 0.77 0.76 0.80 0.82 0.86 0.76 0.71 0.85 0.89 0.78 0.73 0.80 0.79 0.82 0.80 0.77 0.80 0.71 0.79 0.84 0.89 0.89 0.89 0.71 0.81 0.73 0.86 0.78 0.90 -9999 -9999 -9999 -9999 -9999 -9999 -9999 -9999 -9999 -9999 -9999 -9999 -9999 -9999 -9999 -9999 -9999 -9999 -9999 -9999 -9999 -9999 -9999 -9999 -9999 -9999 -9999 -9999 -9999 -9999 -9999 -9999 -9999 -9999 -9999 -9999 -9999 -9999 -9999 -9999 -9999 -9999 -9999 -9999 -9999 -9999 -9999 -9999 -9999 -9999 -9999 -9999 -9999 -9999 -9999 -9999 -9999 -9999 -9999 -9999 -9999 -9999 -9999 -9999 -9999 -9999 -9999 -9999 -9999 -9999 -9999 -9999 -9999 -9999 -9999 -9999 -9999 -9999 -9999 -9999 -9999 -9999 -9999 -9999 -9999 -9999 -9999 -9999 -9999 -9999 -9999 -9999 -9999 -9999 -9999 -9999 -9999 -9999 -9999 -9999 -9999 -9999 -9999 -9999 -9999 -9999 -9999 -9999 -9999
0.81 0.76 0.75 0.78 0.89 0.72 0.77 0.74 0.77 0.90 0.84 0.85 0.86 0.70 0.86 0.89 0.74 0.74 0.87 0.85 0.75 0.74 0.75 0.88 0.89 0.79 0.70 0.71 0.77 0.80 0.72 0.73 0.73 0.77 0.72 0.78 0.72 0.86 0.78 0.86 0.89 0.74 0.83 0.87 0.73 0.85 0.89 0.75 0.77 0.82 0.79 0.80 0.77 0.73 0.85 0.85 0.83 0.73 0.72 0.87 0.79 0.88 0.89 0.87 0.77 0.90 0.73 0.81 0.75 0.77 0.75 0.89 0.77 0.83 0.79 0.88 0.84 0.83 0.81 0.72 0.74 0.85 0.82 0.75 0.75 0.83 0.74 0.77 0.75 0.83 0.83 0.87 0.84 0.77 0.82 0.83 0.72 0.75 -9999 -9999 -9999 -9999 -9999 -9999 -9999 -9999 -9999 -9999 -9999 -9999 -9999 -9999 -9999 -9999 -9999 -9999 -9999 -9999 -9999 -9999 -9999 -9999 -9999 -9999 -9999 -9999 -9999 -9999 -9999 -9999 -9999 -9999 -9999 -9999 -9999 -9999 -9999 -9999 -9999 -9999 -9999 -9999 -9999 -9999 -9999 -9999 -9999 -9999 -9999 -9999 -9999 -9999 -9999 -9999 -9999 -9999 -9999 -9999 -9999 -9999 -9999 -9999 -9999 -9999 -9999 -9999 -9999 -9999 -9999 -9999 -9999 -9999 -9999 -9999 -9999 -9999 -9999 -9999 -9999 -9999 -9999 -9999 -9999 -9999 -9999 -9999 -9999 -9999 -9999 -9999 -9999 -9999 -9999 -9999 -9999 -9999 -9999 -9999 -9999 -9999 -9999 -9999 -9999 -9999 -9999 -9999 -9999 -9999 -9999 -9999 -9999 -9999 -9999 -9999 -9999
0.86 0.85 0.88 0.86 0.86 0.79 0.85 0.80 0.73 0.86 0.88 0.79 0.78 0.71 0.76 0.83 0.80 0.84 0.86 0.72 0.86 0.82 0.85 0.83 0.81 0.89 0.72 0.76 0.76 0.73 0.78 0.86 0.81 0.83 0.72 0.76 0.84 0.83 0.74 0.71 0.76 0.77 0.77 0.76 0.73 0.74 0.87 0.77 0.84 0.89 0.78 0.87 0.87 0.88 0.79 0.77 0.82 0.83 0.80 0.86 0.82 0.81 0.88 0.82 0.82 0.77 0.86 0.72 0.76 0.85 0.73 0.73 0.73 0.74 0.81 0.80 0.82 0.78 0.86 0.74 0.84 0.78 0.74 0.88 0.74 0.71 0.87 0.76 0.77 0.82 -9999 -9999 -9999 -9999 -9999 -9999 -9999 -9999 -9999 -9999 -9999 -9999 -9999 -9999 -9999 -9999 -9999 -9999 -9999 -9999 -9999 -9999 -9999 -9999 -9999 -9999 -9999 -9999 -9999 -9999 -9999 -9999 -9999 -9999 -9999 -9999 -9999 -9999 -9999 -9999 -9999 -9999 -9999 -9999 -9999 -9999 -9999 -9999 -9999 -9999 -9999 -9999 -9999 -9999 -9999 -9999 -9999 -9999 -9999 -9999 -9999 -9999 -9999 -9999 -9999 -9999 -9999 -9999 -9999 -9999 -9999 -9999 -9999 -9999 -9999 -9999 -9999 -9999 -9999 -9999 -9999 -9999 -9999 -9999 -9999 -9999 -9999 -9999 -9999 -9999 -9999 -9999 -9999 -9999 -9999 -9999 -9999 -9999 -9999 -9999 -9999 -9999 -9999 -9999 -9999 -9999 -9999 -9999 -9999 -9999 -9999 -9999 -9999 -9999 -9999 -9999 -9999 -9999 -9999 -9999 -9999 -9999 -9999 -9999 -9999
0.70 0.74 0.83 0.78 0.77 0.72 0.89 0.78 0.84 0.90 0.80 0.84 0.78 0.86 0.72 0.77 0.78 0.75 0.77 0.77 0.72 0.75 0.74 0.81 0.72 0.82 0.77 0.78 0.70 0.85 0.83 0.81 0.85 0.79 0.71 0.79 0.76 0.87 0.77 0.74 0.86 0.78 0.83 0.71 0.75 0.85 0.80 0.76 0.74 0.89 0.88 0.82 0.86 0.76 0.89 0.86 0.73 0.70 0.77 0.87 0.76 0.81 0.80 0.72 0.76 0.81 0.84 0.78 0.80 0.89 0.86 0.77 0.71 0.81 0.88 0.77 0.85 0.75 0.81 0.70 0.77 0.73 -9999 -9999 -9999 -9999 -9999 -9999 -9999 -9999 -9999 -9999 -9999 -9999 -9999 -9999 -9999 -9999 -9999 -9999 -9999 -9999 -9999 -9999 -9999 -9999 -9999 -9999 -9999 -9999 -9999 -9999 -9999 -9999 -9999 -9999 -9999 -9999 -9999 -9999 -9999 -9999 -9999 -9999 -9999 -9999 -9999 -9999 -9999 -9999 -9999 -9999 -9999 -9999 -9999 -9999 -9999 -9999 -9999 -9999 -9999 -9999 -9999 -9999 -9999 -9999 -9999 -9999 -9999 -9999 -9999 -9999 -9999 -9999 -9999 -9999 -9999 -9999 -9999 -9999 -9999 -9999 -9999 -9999 -9999 -9999 -9999 -9999 -9999 -9999 -9999 -9999 -9999 -9999 -9999 -9999 -9999 -9999 -9999 -9999 -9999 -9999 -9999 -9999 -9999 -9999 -9999 -9999 -9999 -9999 -9999 -9999 -9999 -9999 -9999 -9999 -9999 -9999 -9999 -9999 -9999 -9999 -9999 -9999 -9999 -9999 -9999 -9999 -9999 -9999 -9999 -9999 -9999 -9999 -9999
0.76 0.75 0.72 0.83 0.74 0.85 0.73 0.84 0.76 0.77 0.73 0.71 0.80 0.78 0.77 0.71 0.82 0.73 0.80 0.79 0.86 0.75 0.82 0.78 0.89 0.73 0.87 0.70 0.87 0.70 0.77 0.82 0.84 0.70 0.80 0.74 0.88 0.90 0.80 0.84 0.75 0.71 0.83 0.75 0.87 0.74 0.83 0.73 0.71 0.73 0.76 0.74 0.85 0.76 0.89 0.78 0.89 0.82 0.86 0.88 0.86 0.83 0.89 0.73 0.85 0.87 0.75 0.80 0.75 0.82 0.78 0.83 0.80 0.74 -9999 -9999 -9999 -9999 -9999 -9999 -9999 -9999 -9999 -9999 -9999 -9999 -9999 -9999 -9999 -9999 -9999 -9999 -9999 -9999 -9999 -9999 -9999 -9999 -9999 -9999 -9999 -9999 -9999 -9999 -9999 -9999 -9999 -9999 -9999 -9999 -9999 -9999 -9999 -9999 -9999 -9999 -9999 -9999 -9999 -9999 -9999 -9999 -9999 -9999 -9999 -9999 -9999 -9999 -9999 -9999 -9999 -9999 -9999 -9999 -9999 -9999 -9999 -9999 -9999 -9999 -9999 -9999 -9999 -9999 -9999 -9999 -9999 -9999 -9999 -9999 -9999 -9999 -9999 -9999 -9999 -9999 -9999 -9999 -9999 -9999 -9999 -9999 -9999 -9999 -9999 -9999 -9999 -9999 -9999 -9999 -9999 -9999 -9999 -9999 -9999 -9999 -9999 -9999 -9999 -9999 -9999 -9999 -9999 -9999 -9999 -9999 -9999 -9999 -9999 -9999 -9999 -9999 -9999 -9999 -9999 -9999 -9999 -9999 -9999 -9999 -9999 -9999 -9999 -9999 -9999 -9999 -9999 -9999 -9999 -9999 -9999 -9999 -9999 -9999 -9999
0.86 0.90 0.75 0.79 0.70 0.86 0.84 0.81 0.83 0.89 0.75 0.85 0.89 0.81 0.87 0.86 0.87 0.85 0.83 0.74 0.85 0.83 0.76 0.81 0.85 0.74 0.81 0.77 0.87 0.81 0.71 0.90 0.84 0.75 0.84 0.77 0.72 0.86 0.73 0.81 0.81 0.77 0.70 0.77 0.85 0.87 0.71 0.81 0.82 0.88 0.87 0.74 0.85 0.81 0.74 0.87 0.79 0.77 0.80 0.82 0.77 0.79 0.83 0.73 0.85 0.89 -9999 -9999 -9999 -9999 -9999 -9999 -9999 -9999 -9999 -9999 -9999 -9999 -9999 -9999 -9999 -9999 -9999 -9999 -9999 -9999 -9999 -9999 -9999 -9999 -9999 -9999 -9999 -9999 -9999 -9999 -9999 -9999 -9999 -9999 -9999 -9999 -9999 -9999 -9999 -9999 -9999 -9999 -9999 -9999 -9999 -9999 -9999 -9999 -9999 -9999 -9999 -9999 -9999 -9999 -9999 -9999 -9999 -9999 -9999 -9999 -9999 -9999 -9999 -9999 -9999 -9999 -9999 -9999 -9999 -9999 -9999 -9999 -9999 -9999 -9999 -9999 -9999 -9999 -9999 -9999 -9999 -9999 -9999 -9999 -9999 -9999 -9999 -9999 -9999 -9999 -9999 -9999 -9999 -9999 -9999 -9999 -9999 -9999 -9999 -9999 -9999 -9999 -9999 -9999 -9999 -9999 -9999 -9999 -9999 -9999 -9999 -9999 -9999 -9999 -9999 -9999 -9999 -9999 -9999 -9999 -9999 -9999 -9999 -9999 -9999 -9999 -9999 -9999 -9999 -9999 -9999 -9999 -9999 -9999 -9999 -9999 -9999 -9999 -9999 -9999 -9999 -9999 -9999 -9999 -9999 -9999 -9999 -9999 -9999
0.78 0.88 0.76 0.85 0.82 0.84 0.79 0.73 0.90 0.82 0.86 0.71 0.87 0.89 0.80 0.88 0.75 0.85 0.78 0.82 0.84 0.81 0.70 0.81 0.74 0.73 0.84 0.85 0.71 0.74 0.78 0.73 0.89 0.82 0.77 0.72 0.90 0.77 0.80 0.81 0.90 0.86 0.85 0.86 0.89 0.79 0.89 0.71 0.89 0.80 0.84 0.74 0.73 0.84 0.78 0.84 0.79 -9999 -9999 -9999 -9999 -9999 -9999 -9999 -9999 -9999 -9999 -9999 -9999 -9999 -9999 -9999 -9999 -9999 -9999 -9999 -9999 -9999 -9999 -9999 -9999 -9999 -9999 -9999 -9999 -9999 -9999 -9999 -9999 -9999 -9999 -9999 -9999 -9999 -9999 -9999 -9999 -9999 -9999 -9999 -9999 -9999 -9999 -9999 -9999 -9999 -9999 -9999 -9999 -9999 -9999 -9999 -9999 -9999 -9999 -9999 -9999 -9999 -9999 -9999 -9999 -9999 -9999 -9999 -9999 -9999 -9999 -9999 -9999 -9999 -9999 -9999 -9999 -9999 -9999 -9999 -9999 -9999 -9999 -9999 -9999 -9999 -9999 -9999 -9999 -9999 -9999 -9999 -9999 -9999 -9999 -9999 -9999 -9999 -9999 -9999 -9999 -9999 -9999 -9999 -9999 -9999 -9999 -9999 -9999 -9999 -9999 -9999 -9999 -9999 -9999 -9999 -9999 -9999 -9999 -9999 -9999 -9999 -9999 -9999 -9999 -9999 -9999 -9999 -9999 -9999 -9999 -9999 -9999 -9999 -9999 -9999 -9999 -9999 -9999 -9999 -9999 -9999 -9999 -9999 -9999 -9999 -9999 -9999 -9999 -9999 -9999 -9999 -9999 -9999 -9999 -9999 -9999 -9999 -9999
0.89 0.81 0.77 0.89 0.80 0.88 0.87 0.89 0.89 0.88 0.76 0.75 0.88 0.88 0.77 0.82 0.85 0.73 0.80 0.75 0.77 0.82 0.76 0.79 0.87 0.85 0.73 0.80 0.86 0.85 0.86 0.71 0.85 0.74 0.78 0.87 0.78 0.85 0.76 0.79 0.74 0.72 0.90 0.81 0.82 0.87 0.83 0.73 0.79 -9999 -9999 -9999 -9999 -9999 -9999 -9999 -9999 -9999 -9999 -9999 -9999 -9999 -9999 -9999 -9999 -9999 -9999 -9999 -9999 -9999 -9999 -9999 -9999 -9999 -9999 -9999 -9999 -9999 -9999 -9999 -9999 -9999 -9999 -9999 -9999 -9999 -9999 -9999 -9999 -9999 -9999 -9999 -9999 -9999 -9999 -9999 -9999 -9999 -9999 -9999 -9999 -9999 -9999 -9999 -9999 -9999 -9999 -9999 -9999 -9999 -9999 -9999 -9999 -9999 -9999 -9999 -9999 -9999 -9999 -9999 -9999 -9999 -9999 -9999 -9999 -9999 -9999 -9999 -9999 -9999 -9999 -9999 -9999 -9999 -9999 -9999 -9999 -9999 -9999 -9999 -9999 -9999 -9999 -9999 -9999 -9999 -9999 -9999 -9999 -9999 -9999 -9999 -9999 -9999 -9999 -9999 -9999 -9999 -9999 -9999 -9999 -9999 -9999 -9999 -9999 -9999 -9999 -9999 -9999 -9999 -9999 -9999 -9999 -9999 -9999 -9999 -9999 -9999 -9999 -9999 -9999 -9999 -9999 -9999 -9999 -9999 -9999 -9999 -9999 -9999 -9999 -9999 -9999 -9999 -9999 -9999 -9999 -9999 -9999 -9999 -9999 -9999 -9999 -9999 -9999 -9999 -9999 -9999 -9999 -9999 -9999 -9999 -9999 -9999 -9999
0.82 0.76 0.84 0.74 0.86 0.89 0.71 0.89 0.75 0.85 0.86 0.74 0.79 0.85 0.72 0.82 0.76 0.89 0.82 0.84 0.80 0.85 0.81 0.81 0.89 0.72 0.85 0.76 0.80 0.74 0.80 0.74 0.79 0.75 0.74 0.82 0.76 0.82 0.83 0.85 -9999 -9999 -9999 -9999 -9999 -9999 -9999 -9999 -9999 -9999 -9999 -9999 -9999 -9999 -9999 -9999 -9999 -9999 -9999 -9999 -9999 -9999 -9999 -9999 -9999 -9999 -9999 -9999 -9999 -9999 -9999 -9999 -9999 -9999 -9999 -9999 -9999 -9999 -9999 -9999 -9999 -9999 -9999 -9999 -9999 -9999 -9999 -9999 -9999 -9999 -9999 -9999 -9999 -9999 -9999 -9999 -9999 -9999 -9999 -9999 -9999 -9999 -9999 -9999 -9999 -9999 -9999 -9999 -9999 -9999 -9999 -9999 -9999 -9999 -9999 -9999 -9999 -9999 -9999 -9999 -9999 -9999 -9999 -9999 -9999 -9999 -9999 -9999 -9999 -9999 -9999 -9999 -9999 -9999 -9999 -9999 -9999 -9999 -9999 -9999 -9999 -9999 -9999 -9999 -9999 -9999 -9999 -9999 -9999 -9999 -9999 -9999 -9999 -9999 -9999 -9999 -9999 -9999 -9999 -9999 -9999 -9999 -9999 -9999 -9999 -9999 -9999 -9999 -9999 -9999 -9999 -9999 -9999 -9999 -9999 -9999 -9999 -9999 -9999 -9999 -9999 -9999 -9999 -9999 -9999 -9999 -9999 -9999 -9999 -9999 -9999 -9999 -9999 -9999 -9999 -9999 -9999 -9999 -9999 -9999 -9999 -9999 -9999 -9999 -9999 -9999 -9999 -9999 -9999 -9999 -9999 -9999 -9999 -9999 -9999
0.71 0.74 0.86 0.80 0.86 0.75 0.78 0.89 0.73 0.81 0.73 0.78 0.89 0.85 0.71 0.72 0.81 0.72 0.76 0.74 0.83 0.87 0.73 0.85 0.71 0.71 0.83 0.87 0.73 0.74 0.73 -9999 -9999 -9999 -9999 -9999 -9999 -9999 -9999 -9999 -9999 -9999 -9999 -9999 -9999 -9999 -9999 -9999 -9999 -9999 -9999 -9999 -9999 -9999 -9999 -9999 -9999 -9999 -9999 -9999 -9999 -9999 -9999 -9999 -9999 -9999 -9999 -9999 -9999 -9999 -9999 -9999 -9999 -9999 -9999 -9999 -9999 -9999 -9999 -9999 -9999 -9999 -9999 -9999 -9999 -9999 -9999 -9999 -9999 -9999 -9999 -9999 -9999 -9999 -9999 -9999 -9999 -9999 -9999 -9999 -9999 -9999 -9999 -9999 -9999 -9999 -9999 -9999 -9999 -9999 -9999 -9999 -9999 -9999 -9999 -9999 -9999 -9999 -9999 -9999 -9999 -9999 -9999 -9999 -9999 -9999 -9999 -9999 -9999 -9999 -9999 -9999 -9999 -9999 -9999 -9999 -9999 -9999 -9999 -9999 -9999 -9999 -9999 -9999 -9999 -9999 -9999 -9999 -9999 -9999 -9999 -9999 -9999 -9999 -9999 -9999 -9999 -9999 -9999 -9999 -9999 -9999 -9999 -9999 -9999 -9999 -9999 -9999 -9999 -9999 -9999 -9999 -9999 -9999 -9999 -9999 -9999 -9999 -9999 -9999 -9999 -9999 -9999 -9999 -9999 -9999 -9999 -9999 -9999 -9999 -9999 -9999 -9999 -9999 -9999 -9999 -9999 -9999 -9999 -9999 -9999 -9999 -9999 -9999 -9999 -9999 -9999 -9999 -9999 -9999 -9999 -9999 -9999 -9999 -9999
0.77 0.72 0.80 0.76 0.80 0.72 0.71 0.82 0.75 0.79 0.70 0.87 0.71 0.77 0.89 0.88 0.76 0.83 0.82 0.70 0.87 0.89 -9999 -9999 -9999 -9999 -9999 -9999 -9999 -9999 -9999 -9999 -9999 -9999 -9999 -9999 -9999 -9999 -9999 -9999 -9999 -9999 -9999 -9999 -9999 -9999 -9999 -9999 -9999 -9999 -9999 -9999 -9999 -9999 -9999 -9999 -9999 -9999 -9999 -9999 -9999 -9999 -9999 -9999 -9999 -9999 -9999 -9999 -9999 -9999 -9999 -9999 -9999 -9999 -9999 -9999 -9999 -9999 -9999 -9999 -9999 -9999 -9999 -9999 -9999 -9999 -9999 -9999 -9999 -9999 -9999 -9999 -9999 -9999 -9999 -9999 -9999 -9999 -9999 -9999 -9999 -9999 -9999 -9999 -9999 -9999 -9999 -9999 -9999 -9999 -9999 -9999 -9999 -9999 -9999 -9999 -9999 -9999 -9999 -9999 -9999 -9999 -9999 -9999 -9999 -9999 -9999 -9999 -9999 -9999 -9999 -9999 -9999 -9999 -9999 -9999 -9999 -9999 -9999 -9999 -9999 -9999 -9999 -9999 -9999 -9999 -9999 -9999 -9999 -9999 -9999 -9999 -9999 -9999 -9999 -9999 -9999 -9999 -9999 -9999 -9999 -9999 -9999 -9999 -9999 -9999 -9999 -9999 -9999 -9999 -9999 -9999 -9999 -9999 -9999 -9999 -9999 -9999 -9999 -9999 -9999 -9999 -9999 -9999 -9999 -9999 -9999 -9999 -9999 -9999 -9999 -9999 -9999 -9999 -9999 -9999 -9999 -9999 -9999 -9999 -9999 -9999 -9999 -9999 -9999 -9999 -9999 -9999 -9999 -9999 -9999 -9999 -9999 -9999 -9999
0.71 0.78 0.78 0.87 0.85 0.79 0.85 0.72 0.81 0.72 0.85 0.80 0.82 -9999 -9999 -9999 -9999 -9999 -9999 -9999 -9999 -9999 -9999 -9999 -9999 -9999 -9999 -9999 -9999 -9999 -9999 -9999 -9999 -9999 -9999 -9999 -9999 -9999 -9999 -9999 -9999 -9999 -9999 -9999 -9999 -9999 -9999 -9999 -9999 -9999 -9999 -9999 -9999 -9999 -9999 -9999 -9999 -9999 -9999 -9999 -9999 -9999 -9999 -9999 -9999 -9999 -9999 -9999 -9999 -9999 -9999 -9999 -9999 -9999 -9999 -9999 -9999 -9999 -9999 -9999 -9999 -9999 -9999 -9999 -9999 -9999 -9999 -9999 -9999 -9999 -9999 -9999 -9999 -9999 -9999 -9999 -9999 -9999 -9999 -9999 -9999 -9999 -9999 -9999 -9999 -9999 -9999 -9999 -9999 -9999 -9999 -9999 -9999 -9999 -9999 -9999 -9999 -9999 -9999 -9999 -9999 -9999 -9999 -9999 -9999 -9999 -9999 -9999 -9999 -9999 -9999 -9999 -9999 -9999 -9999 -9999 -9999 -9999 -9999 -9999 -9999 -9999 -9999 -9999 -9999 -9999 -9999 -9999 -9999 -9999 -9999 -9999 -9999 -9999 -9999 -9999 -9999 -9999 -9999 -9999 -9999 -9999 -9999 -9999 -9999 -9999 -9999 -9999 -9999 -9999 -9999 -9999 -9999 -9999 -9999 -9999 -9999 -9999 -9999 -9999 -9999 -9999 -9999 -9999 -9999 -9999 -9999 -9999 -9999 -9999 -9999 -9999 -9999 -9999 -9999 -9999 -9999 -9999 -9999 -9999 -9999 -9999 -9999 -9999 -9999 -9999 -9999 -9999 -9999 -9999 -9999 -9999 -9999 -9999 -9999
0.76 0.85 0.89 -9999 -9999 -9999 -9999 -9999 -9999 -9999 -9999 -9999 -9999 -9999 -9999 -9999 -9999 -9999 -9999 -9999 -9999 -9999 -9999 -9999 -9999 -9999 -9999 -9999 -9999 -9999 -9999 -9999 -9999 -9999 -9999 -9999 -9999 -9999 -9999 -9999 -9999 -9999 -9999 -9999 -9999 -9999 -9999 -9999 -9999 -9999 -9999 -9999 -9999 -9999 -9999 -9999 -9999 -9999 -9999 -9999 -9999 -9999 -9999 -9999 -9999 -9999 -9999 -9999 -9999 -9999 -9999 -9999 -9999 -9999 -9999 -9999 -9999 -9999 -9999 -9999 -9999 -9999 -9999 -9999 -9999 -9999 -9999 -9999 -9999 -9999 -9999 -9999 -9999 -9999 -9999 -9999 -9999 -9999 -9999 -9999 -9999 -9999 -9999 -9999 -9999 -9999 -9999 -9999 -9999 -9999 -9999 -9999 -9999 -9999 -9999 -9999 -9999 -9999 -9999 -9999 -9999 -9999 -9999 -9999 -9999 -9999 -9999 -9999 -9999 -9999 -9999 -9999 -9999 -9999 -9999 -9999 -9999 -9999 -9999 -9999 -9999 -9999 -9999 -9999 -9999 -9999 -9999 -9999 -9999 -9999 -9999 -9999 -9999 -9999 -9999 -9999 -9999 -9999 -9999 -9999 -9999 -9999 -9999 -9999 -9999 -9999 -9999 -9999 -9999 -9999 -9999 -9999 -9999 -9999 -9999 -9999 -9999 -9999 -9999 -9999 -9999 -9999 -9999 -9999 -9999 -9999 -9999 -9999 -9999 -9999 -9999 -9999 -9999 -9999 -9999 -9999 -9999 -9999 -9999 -9999 -9999 -9999 -9999 -9999 -9999 -9999 -9999 -9999 -9999 -9999 -9999 -9999 -9999 -9999 -9999
-9999 -9999 -9999 -9999 -9999 -9999 -9999 -9999 -9999 -9999 -9999 -9999 -9999 -9999 -9999 -9999 -9999 -9999 -9999 -9999 -9999 -9999 -9999 -9999 -9999 -9999 -9999 -9999 -9999 -9999 -9999 -9999 -9999 -9999 -9999 -9999 -9999 -9999 -9999 -9999 -9999 -9999 -9999 -9999 -9999 -9999 -9999 -9999 -9999 -9999 -9999 -9999 -9999 -9999 -9999 -9999 -9999 -9999 -9999 -9999 -9999 -9999 -9999 -9999 -9999 -9999 -9999 -9999 -9999 -9999 -9999 -9999 -9999 -9999 -9999 -9999 -9999 -9999 -9999 -9999 -9999 -9999 -9999 -9999 -9999 -9999 -9999 -9999 -9999 -9999 -9999 -9999 -9999 -9999 -9999 -9999 -9999 -9999 -9999 -9999 -9999 -9999 -9999 -9999 -9999 -9999 -9999 -9999 -9999 -9999 -9999 -9999 -9999 -9999 -9999 -9999 -9999 -9999 -9999 -9999 -9999 -9999 -9999 -9999 -9999 -9999 -9999 -9999 -9999 -9999 -9999 -9999 -9999 -9999 -9999 -9999 -9999 -9999 -9999 -9999 -9999 -9999 -9999 -9999 -9999 -9999 -9999 -9999 -9999 -9999 -9999 -9999 -9999 -9999 -9999 -9999 -9999 -9999 -9999 -9999 -9999 -9999 -9999 -9999 -9999 -9999 -9999 -9999 -9999 -9999 -9999 -9999 -9999 -9999 -9999 -9999 -9999 -9999 -9999 -9999 -9999 -9999 -9999 -9999 -9999 -9999 -9999 -9999 -9999 -9999 -9999 -9999 -9999 -9999 -9999 -9999 -9999 -9999 -9999 -9999 -9999 -9999 -9999 -9999 -9999 -9999 -9999 -9999 -9999 -9999 -9999 -9999 -9999 -9999 -9999
-9999 -9999 -9999 -9999 -9999 -9999 -9999 -9999 -9999 -9999 -9999 -9999 -9999 -9999 -9999 -9999 -9999 -9999 -9999 -9999 -9999 -9999 -9999 -9999 -9999 -9999 -9999 -9999 -9999 -9999 -9999 -9999 -9999 -9999 -9999 -9999 -9999 -9999 -9999 -9999 -9999 -9999 -9999 -9999 -9999 -9999 -9999 -9999 -9999 -9999 -9999 -9999 -9999 -9999 -9999 -9999 -9999 -9999 -9999 -9999 -9999 -9999 -9999 -9999 -9999 -9999 -9999 -9999 -9999 -9999 -9999 -9999 -9999 -9999 -9999 -9999 -9999 -9999 -9999 -9999 -9999 -9999 -9999 -9999 -9999 -9999 -9999 -9999 -9999 -9999 -9999 -9999 -9999 -9999 -9999 -9999 -9999 -9999 -9999 -9999 -9999 -9999 -9999 -9999 -9999 -9999 -9999 -9999 -9999 -9999 -9999 -9999 -9999 -9999 -9999 -9999 -9999 -9999 -9999 -9999 -9999 -9999 -9999 -9999 -9999 -9999 -9999 -9999 -9999 -9999 -9999 -9999 -9999 -9999 -9999 -9999 -9999 -9999 -9999 -9999 -9999 -9999 -9999 -9999 -9999 -9999 -9999 -9999 -9999 -9999 -9999 -9999 -9999 -9999 -9999 -9999 -9999 -9999 -9999 -9999 -9999 -9999 -9999 -9999 -9999 -9999 -9999 -9999 -9999 -9999 -9999 -9999 -9999 -9999 -9999 -9999 -9999 -9999 -9999 -9999 -9999 -9999 -9999 -9999 -9999 -9999 -9999 -9999 -9999 -9999 -9999 -9999 -9999 -9999 -9999 -9999 -9999 -9999 -9999 -9999 -9999 -9999 -9999 -9999 -9999 -9999 -9999 -9999 -9999 -9999 -9999 -9999 -9999 -9999 -9999
-9999 -9999 -9999 -9999 -9999 -9999 -9999 -9999 -9999 -9999 -9999 -9999 -9999 -9999 -9999 -9999 -9999 -9999 -9999 -9999 -9999 -9999 -9999 -9999 -9999 -9999 -9999 -9999 -9999 -9999 -9999 -9999 -9999 -9999 -9999 -9999 -9999 -9999 -9999 -9999 -9999 -9999 -9999 -9999 -9999 -9999 -9999 -9999 -9999 -9999 -9999 -9999 -9999 -9999 -9999 -9999 -9999 -9999 -9999 -9999 -9999 -9999 -9999 -9999 -9999 -9999 -9999 -9999 -9999 -9999 -9999 -9999 -9999 -9999 -9999 -9999 -9999 -9999 -9999 -9999 -9999 -9999 -9999 -9999 -9999 -9999 -9999 -9999 -9999 -9999 -9999 -9999 -9999 -9999 -9999 -9999 -9999 -9999 -9999 -9999 -9999 -9999 -9999 -9999 -9999 -9999 -9999 -9999 -9999 -9999 -9999 -9999 -9999 -9999 -9999 -9999 -9999 -9999 -9999 -9999 -9999 -9999 -9999 -9999 -9999 -9999 -9999 -9999 -9999 -9999 -9999 -9999 -9999 -9999 -9999 -9999 -9999 -9999 -9999 -9999 -9999 -9999 -9999 -9999 -9999 -9999 -9999 -9999 -9999 -9999 -9999 -9999 -9999 -9999 -9999 -9999 -9999 -9999 -9999 -9999 -9999 -9999 -9999 -9999 -9999 -9999 -9999 -9999 -9999 -9999 -9999 -9999 -9999 -9999 -9999 -9999 -9999 -9999 -9999 -9999 -9999 -9999 -9999 -9999 -9999 -9999 -9999 -9999 -9999 -9999 -9999 -9999 -9999 -9999 -9999 -9999 -9999 -9999 -9999 -9999 -9999 -9999 -9999 -9999 -9999 -9999 -9999 -9999 -9999 -9999 -9999 -9999 -9999 -9999 -9999
-9999 -9999 -9999 -9999 -9999 -9999 -9999 -9999 -9999 -9999 -9999 -9999 -9999 -9999 -9999 -9999 -9999 -9999 -9999 -9999 -9999 -9999 -9999 -9999 -9999 -9999 -9999 -9999 -9999 -9999 -9999 -9999 -9999 -9999 -9999 -9999 -9999 -9999 -9999 -9999 -9999 -9999 -9999 -9999 -9999 -9999 -9999 -9999 -9999 -9999 -9999 -9999 -9999 -9999 -9999 -9999 -9999 -9999 -9999 -9999 -9999 -9999 -9999 -9999 -9999 -9999 -9999 -9999 -9999 -9999 -9999 -9999 -9999 -9999 -9999 -9999 -9999 -9999 -9999 -9999 -9999 -9999 -9999 -9999 -9999 -9999 -9999 -9999 -9999 -9999 -9999 -9999 -9999 -9999 -9999 -9999 -9999 -9999 -9999 -9999 -9999 -9999 -9999 -9999 -9999 -9999 -9999 -9999 -9999 -9999 -9999 -9999 -9999 -9999 -9999 -9999 -9999 -9999 -9999 -9999 -9999 -9999 -9999 -9999 -9999 -9999 -9999 -9999 -9999 -9999 -9999 -9999 -9999 -9999 -9999 -9999 -9999 -9999 -9999 -9999 -9999 -9999 -9999 -9999 -9999 -9999 -9999 -9999 -9999 -9999 -9999 -9999 -9999 -9999 -9999 -9999 -9999 -9999 -9999 -9999 -9999 -9999 -9999 -9999 -9999 -9999 -9999 -9999 -9999 -9999 -9999 -9999 -9999 -9999 -9999 -9999 -9999 -9999 -9999 -9999 -9999 -9999 -9999 -9999 -9999 -9999 -9999 -9999 -9999 -9999 -9999 -9999 -9999 -9999 -9999 -9999 -9999 -9999 -9999 -9999 -9999 -9999 -9999 -9999 -9999 -9999 -9999 -9999 -9999 -9999 -9999 -9999 -9999 -9999 -9999
-9999 -9999 -9999 -9999 -9999 -9999 -9999 -9999 -9999 -9999 -9999 -9999 -9999 -9999 -9999 -9999 -9999 -9999 -9999 -9999 -9999 -9999 -9999 -9999 -9999 -9999 -9999 -9999 -9999 -9999 -9999 -9999 -9999 -9999 -9999 -9999 -9999 -9999 -9999 -9999 -9999 -9999 -9999 -9999 -9999 -9999 -9999 -9999 -9999 -9999 -9999 -9999 -9999 -9999 -9999 -9999 -9999 -9999 -9999 -9999 -9999 -9999 -9999 -9999 -9999 -9999 -9999 -9999 -9999 -9999 -9999 -9999 -9999 -9999 -9999 -9999 -9999 -9999 -9999 -9999 -9999 -9999 -9999 -9999 -9999 -9999 -9999 -9999 -9999 -9999 -9999 -9999 -9999 -9999 -9999 -9999 -9999 -9999 -9999 -9999 -9999 -9999 -9999 -9999 -9999 -9999 -9999 -9999 -9999 -9999 -9999 -9999 -9999 -9999 -9999 -9999 -9999 -9999 -9999 -9999 -9999 -9999 -9999 -9999 -9999 -9999 -9999 -9999 -9999 -9999 -9999 -9999 -9999 -9999 -9999 -9999 -9999 -9999 -9999 -9999 -9999 -9999 -9999 -9999 -9999 -9999 -9999 -9999 -9999 -9999 -9999 -9999 -9999 -9999 -9999 -9999 -9999 -9999 -9999 -9999 -9999 -9999 -9999 -9999 -9999 -9999 -9999 -9999 -9999 -9999 -9999 -9999 -9999 -9999 -9999 -9999 -9999 -9999 -9999 -9999 -9999 -9999 -9999 -9999 -9999 -9999 -9999 -9999 -9999 -9999 -9999 -9999 -9999 -9999 -9999 -9999 -9999 -9999 -9999 -9999 -9999 -9999 -9999 -9999 -9999 -9999 -9999 -9999 -9999 -9999 -9999 -9999 -9999 -9999 -9999
-9999 -9999 -9999 -9999 -9999 -9999 -9999 -9999 -9999 -9999 -9999 -9999 -9999 -9999 -9999 -9999 -9999 -9999 -9999 -9999 -9999 -9999 -9999 -9999 -9999 -9999 -9999 -9999 -9999 -9999 -9999 -9999 -9999 -9999 -9999 -9999 -9999 -9999 -9999 -9999 -9999 -9999 -9999 -9999 -9999 -9999 -9999 -9999 -9999 -9999 -9999 -9999 -9999 -9999 -9999 -9999 -9999 -9999 -9999 -9999 -9999 -9999 -9999 -9999 -9999 -9999 -9999 -9999 -9999 -9999 -9999 -9999 -9999 -9999 -9999 -9999 -9999 -9999 -9999 -9999 -9999 -9999 -9999 -9999 -9999 -9999 -9999 -9999 -9999 -9999 -9999 -9999 -9999 -9999 -9999 -9999 -9999 -9999 -9999 -9999 -9999 -9999 -9999 -9999 -9999 -9999 -9999 -9999 -9999 -9999 -9999 -9999 -9999 -9999 -9999 -9999 -9999 -9999 -9999 -9999 -9999 -9999 -9999 -9999 -9999 -9999 -9999 -9999 -9999 -9999 -9999 -9999 -9999 -9999 -9999 -9999 -9999 -9999 -9999 -9999 -9999 -9999 -9999 -9999 -9999 -9999 -9999 -9999 -9999 -9999 -9999 -9999 -9999 -9999 -9999 -9999 -9999 -9999 -9999 -9999 -9999 -9999 -9999 -9999 -9999 -9999 -9999 -9999 -9999 -9999 -9999 -9999 -9999 -9999 -9999 -9999 -9999 -9999 -9999 -9999 -9999 -9999 -9999 -9999 -9999 -9999 -9999 -9999 -9999 -9999 -9999 -9999 -9999 -9999 -9999 -9999 -9999 -9999 -9999 -9999 -9999 -9999 -9999 -9999 -9999 -9999 -9999 -9999 -9999 -9999 -9999 -9999 -9999 -9999 -9999
-9999 -9999 -9999 -9999 -9999 -9999 -9999 -9999 -9999 -9999 -9999 -9999 -9999 -9999 -9999 -9999 -9999 -9999 -9999 -9999 -9999 -9999 -9999 -9999 -9999 -9999 -9999 -9999 -9999 -9999 -9999 -9999 -9999 -9999 -9999 -9999 -9999 -9999 -9999 -9999 -9999 -9999 -9999 -9999 -9999 -9999 -9999 -9999 -9999 -9999 -9999 -9999 -9999 -9999 -9999 -9999 -9999 -9999 -9999 -9999 -9999 -9999 -9999 -9999 -9999 -9999 -9999 -9999 -9999 -9999 -9999 -9999 -9999 -9999 -9999 -9999 -9999 -9999 -9999 -9999 -9999 -9999 -9999 -9999 -9999 -9999 -9999 -9999 -9999 -9999 -9999 -9999 -9999 -9999 -9999 -9999 -9999 -9999 -9999 -9999 -9999 -9999 -9999 -9999 -9999 -9999 -9999 -9999 -9999 -9999 -9999 -9999 -9999 -9999 -9999 -9999 -9999 -9999 -9999 -9999 -9999 -9999 -9999 -9999 -9999 -9999 -9999 -9999 -9999 -9999 -9999 -9999 -9999 -9999 -9999 -9999 -9999 -9999 -9999 -9999 -9999 -9999 -9999 -9999 -9999 -9999 -9999 -9999 -9999 -9999 -9999 -9999 -9999 -9999 -9999 -9999 -9999 -9999 -9999 -9999 -9999 -9999 -9999 -9999 -9999 -9999 -9999 -9999 -9999 -9999 -9999 -9999 -9999 -9999 -9999 -9999 -9999 -9999 -9999 -9999 -9999 -9999 -9999 -9999 -9999 -9999 -9999 -9999 -9999 -9999 -9999 -9999 -9999 -9999 -9999 -9999 -9999 -9999 -9999 -9999 -9999 -9999 -9999 -9999 -9999 -9999 -9999 -9999 -9999 -9999 -9999 -9999 -9999 -9999 -9999
-9999 -9999 -9999 -9999 -9999 -9999 -9999 -9999 -9999 -9999 -9999 -9999 -9999 -9999 -9999 -9999 -9999 -9999 -9999 -9999 -9999 -9999 -9999 -9999 -9999 -9999 -9999 -9999 -9999 -9999 -9999 -9999 -9999 -9999 -9999 -9999 -9999 -9999 -9999 -9999 -9999 -9999 -9999 -9999 -9999 -9999 -9999 -9999 -9999 -9999 -9999 -9999 -9999 -9999 -9999 -9999 -9999 -9999 -9999 -9999 -9999 -9999 -9999 -9999 -9999 -9999 -9999 -9999 -9999 -9999 -9999 -9999 -9999 -9999 -9999 -9999 -9999 -9999 -9999 -9999 -9999 -9999 -9999 -9999 -9999 -9999 -9999 -9999 -9999 -9999 -9999 -9999 -9999 -9999 -9999 -9999 -9999 -9999 -9999 -9999 -9999 -9999 -9999 -9999 -9999 -9999 -9999 -9999 -9999 -9999 -9999 -9999 -9999 -9999 -9999 -9999 -9999 -9999 -9999 -9999 -9999 -9999 -9999 -9999 -9999 -9999 -9999 -9999 -9999 -9999 -9999 -9999 -9999 -9999 -9999 -9999 -9999 -9999 -9999 -9999 -9999 -9999 -9999 -9999 -9999 -9999 -9999 -9999 -9999 -9999 -9999 -9999 -9999 -9999 -9999 -9999 -9999 -9999 -9999 -9999 -9999 -9999 -9999 -9999 -9999 -9999 -9999 -9999 -9999 -9999 -9999 -9999 -9999 -9999 -9999 -9999 -9999 -9999 -9999 -9999 -9999 -9999 -9999 -9999 -9999 -9999 -9999 -9999 -9999 -9999 -9999 -9999 -9999 -9999 -9999 -9999 -9999 -9999 -9999 -9999 -9999 -9999 -9999 -9999 -9999 -9999 -9999 -9999 -9999 -9999 -9999 -9999 -9999 -9999 -9999
-9999 -9999 -9999 -9999 -9999 -9999 -9999 -9999 -9999 -9999 -9999 -9999 -9999 -9999 -9999 -9999 -9999 -9999 -9999 -9999 -9999 -9999 -9999 -9999 -9999 -9999 -9999 -9999 -9999 -9999 -9999 -9999 -9999 -9999 -9999 -9999 -9999 -9999 -9999 -9999 -9999 -9999 -9999 -9999 -9999 -9999 -9999 -9999 -9999 -9999 -9999 -9999 -9999 -9999 -9999 -9999 -9999 -9999 -9999 -9999 -9999 -9999 -9999 -9999 -9999 -9999 -9999 -9999 -9999 -9999 -9999 -9999 -9999 -9999 -9999 -9999 -9999 -9999 -9999 -9999 -9999 -9999 -9999 -9999 -9999 -9999 -9999 -9999 -9999 -9999 -9999 -9999 -9999 -9999 -9999 -9999 -9999 -9999 -9999 -9999 -9999 -9999 -9999 -9999 -9999 -9999 -9999 -9999 -9999 -9999 -9999 -9999 -9999 -9999 -9999 -9999 -9999 -9999 -9999 -9999 -9999 -9999 -9999 -9999 -9999 -9999 -9999 -9999 -9999 -9999 -9999 -9999 -9999 -9999 -9999 -9999 -9999 -9999 -9999 -9999 -9999 -9999 -9999 -9999 -9999 -9999 -9999 -9999 -9999 -9999 -9999 -9999 -9999 -9999 -9999 -9999 -9999 -9999 -9999 -9999 -9999 -9999 -9999 -9999 -9999 -9999 -9999 -9999 -9999 -9999 -9999 -9999 -9999 -9999 -9999 -9999 -9999 -9999 -9999 -9999 -9999 -9999 -9999 -9999 -9999 -9999 -9999 -9999 -9999 -9999 -9999 -9999 -9999 -9999 -9999 -9999 -9999 -9999 -9999 -9999 -9999 -9999 -9999 -9999 -9999 -9999 -9999 -9999 -9999 -9999 -9999 -9999 -9999 -9999 -9999
-9999 -9999 -9999 -9999 -9999 -9999 -9999 -9999 -9999 -9999 -9999 -9999 -9999 -9999 -9999 -9999 -9999 -9999 -9999 -9999 -9999 -9999 -9999 -9999 -9999 -9999 -9999 -9999 -9999 -9999 -9999 -9999 -9999 -9999 -9999 -9999 -9999 -9999 -9999 -9999 -9999 -9999 -9999 -9999 -9999 -9999 -9999 -9999 -9999 -9999 -9999 -9999 -9999 -9999 -9999 -9999 -9999 -9999 -9999 -9999 -9999 -9999 -9999 -9999 -9999 -9999 -9999 -9999 -9999 -9999 -9999 -9999 -9999 -9999 -9999 -9999 -9999 -9999 -9999 -9999 -9999 -9999 -9999 -9999 -9999 -9999 -9999 -9999 -9999 -9999 -9999 -9999 -9999 -9999 -9999 -9999 -9999 -9999 -9999 -9999 -9999 -9999 -9999 -9999 -9999 -9999 -9999 -9999 -9999 -9999 -9999 -9999 -9999 -9999 -9999 -9999 -9999 -9999 -9999 -9999 -9999 -9999 -9999 -9999 -9999 -9999 -9999 -9999 -9999 -9999 -9999 -9999 -9999 -9999 -9999 -9999 -9999 -9999 -9999 -9999 -9999 -9999 -9999 -9999 -9999 -9999 -9999 -9999 -9999 -9999 -9999 -9999 -9999 -9999 -9999 -9999 -9999 -9999 -9999 -9999 -9999 -9999 -9999 -9999 -9999 -9999 -9999 -9999 -9999 -9999 -9999 -9999 -9999 -9999 -9999 -9999 -9999 -9999 -9999 -9999 -9999 -9999 -9999 -9999 -9999 -9999 -9999 -9999 -9999 -9999 -9999 -9999 -9999 -9999 -9999 -9999 -9999 -9999 -9999 -9999 -9999 -9999 -9999 -9999 -9999 -9999 -9999 -9999 -9999 -9999 -9999 -9999 -9999 -9999 -9999
-9999 -9999 -9999 -9999 -9999 -9999 -9999 -9999 -9999 -9999 -9999 -9999 -9999 -9999 -9999 -9999 -9999 -9999 -9999 -9999 -9999 -9999 -9999 -9999 -9999 -9999 -9999 -9999 -9999 -9999 -9999 -9999 -9999 -9999 -9999 -9999 -9999 -9999 -9999 -9999 -9999 -9999 -9999 -9999 -9999 -9999 -9999 -9999 -9999 -9999 -9999 -9999 -9999 -9999 -9999 -9999 -9999 -9999 -9999 -9999 -9999 -9999 -9999 -9999 -9999 -9999 -9999 -9999 -9999 -9999 -9999 -9999 -9999 -9999 -9999 -9999 -9999 -9999 -9999 -9999 -9999 -9999 -9999 -9999 -9999 -9999 -9999 -9999 -9999 -9999 -9999 -9999 -9999 -9999 -9999 -9999 -9999 -9999 -9999 -9999 -9999 -9999 -9999 -9999 -9999 -9999 -9999 -9999 -9999 -9999 -9999 -9999 -9999 -9999 -9999 -9999 -9999 -9999 -9999 -9999 -9999 -9999 -9999 -9999 -9999 -9999 -9999 -9999 -9999 -9999 -9999 -9999 -9999 -9999 -9999 -9999 -9999 -9999 -9999 -9999 -9999 -9999 -9999 -9999 -9999 -9999 -9999 -9999 -9999 -9999 -9999 -9999 -9999 -9999 -9999 -9999 -9999 -9999 -9999 -9999 -9999 -9999 -9999 -9999 -9999 -9999 -9999 -9999 -9999 -9999 -9999 -9999 -9999 -9999 -9999 -9999 -9999 -9999 -9999 -9999 -9999 -9999 -9999 -9999 -9999 -9999 -9999 -9999 -9999 -9999 -9999 -9999 -9999 -9999 -9999 -9999 -9999 -9999 -9999 -9999 -9999 -9999 -9999 -9999 -9999 -9999 -9999 -9999 -9999 -9999 -9999 -9999 -9999 -9999 -9999
-9999 -9999 -9999 -9999 -9999 -9999 -9999 -9999 -9999 -9999 -9999 -9999 -9999 -9999 -9999 -9999 -9999 -9999 -9999 -9999 -9999 -9999 -9999 -9999 -9999 -9999 -9999 -9999 -9999 -9999 -9999 -9999 -9999 -9999 -9999 -9999 -9999 -9999 -9999 -9999 -9999 -9999 -9999 -9999 -9999 -9999 -9999 -9999 -9999 -9999 -9999 -9999 -9999 -9999 -9999 -9999 -9999 -9999 -9999 -9999 -9999 -9999 -9999 -9999 -9999 -9999 -9999 -9999 -9999 -9999 -9999 -9999 -9999 -9999 -9999 -9999 -9999 -9999 -9999 -9999 -9999 -9999 -9999 -9999 -9999 -9999 -9999 -9999 -9999 -9999 -9999 -9999 -9999 -9999 -9999 -9999 -9999 -9999 -9999 -9999 -9999 -9999 -9999 -9999 -9999 -9999 -9999 -9999 -9999 -9999 -9999 -9999 -9999 -9999 -9999 -9999 -9999 -9999 -9999 -9999 -9999 -9999 -9999 -9999 -9999 -9999 -9999 -9999 -9999 -9999 -9999 -9999 -9999 -9999 -9999 -9999 -9999 -9999 -9999 -9999 -9999 -9999 -9999 -9999 -9999 -9999 -9999 -9999 -9999 -9999 -9999 -9999 -9999 -9999 -9999 -9999 -9999 -9999 -9999 -9999 -9999 -9999 -9999 -9999 -9999 -9999 -9999 -9999 -9999 -9999 -9999 -9999 -9999 -9999 -9999 -9999 -9999 -9999 -9999 -9999 -9999 -9999 -9999 -9999 -9999 -9999 -9999 -9999 -9999 -9999 -9999 -9999 -9999 -9999 -9999 -9999 -9999 -9999 -9999 -9999 -9999 -9999 -9999 -9999 -9999 -9999 -9999 -9999 -9999 -9999 -9999 -9999 -9999 -9999 -9999
-9999 -9999 -9999 -9999 -9999 -9999 -9999 -9999 -9999 -9999 -9999 -9999 -9999 -9999 -9999 -9999 -9999 -9999 -9999 -9999 -9999 -9999 -9999 -9999 -9999 -9999 -9999 -9999 -9999 -9999 -9999 -9999 -9999 -9999 -9999 -9999 -9999 -9999 -9999 -9999 -9999 -9999 -9999 -9999 -9999 -9999 -9999 -9999 -9999 -9999 -9999 -9999 -9999 -9999 -9999 -9999 -9999 -9999 -9999 -9999 -9999 -9999 -9999 -9999 -9999 -9999 -9999 -9999 -9999 -9999 -9999 -9999 -9999 -9999 -9999 -9999 -9999 -9999 -9999 -9999 -9999 -9999 -9999 -9999 -9999 -9999 -9999 -9999 -9999 -9999 -9999 -9999 -9999 -9999 -9999 -9999 -9999 -9999 -9999 -9999 -9999 -9999 -9999 -9999 -9999 -9999 -9999 -9999 -9999 -9999 -9999 -9999 -9999 -9999 -9999 -9999 -9999 -9999 -9999 -9999 -9999 -9999 -9999 -9999 -9999 -9999 -9999 -9999 -9999 -9999 -9999 -9999 -9999 -9999 -9999 -9999 -9999 -9999 -9999 -9999 -9999 -9999 -9999 -9999 -9999 -9999 -9999 -9999 -9999 -9999 -9999 -9999 -9999 -9999 -9999 -9999 -9999 -9999 -9999 -9999 -9999 -9999 -9999 -9999 -9999 -9999 -9999 -9999 -9999 -9999 -9999 -9999 -9999 -9999 -9999 -9999 -9999 -9999 -9999 -9999 -9999 -9999 -9999 -9999 -9999 -9999 -9999 -9999 -9999 -9999 -9999 -9999 -9999 -9999 -9999 -9999 -9999 -9999 -9999 -9999 -9999 -9999 -9999 -9999 -9999 -9999 -9999 -9999 -9999 -9999 -9999 -9999 -9999 -9999 -9999
-9999 -9999 -9999 -9999 -9999 -9999 -9999 -9999 -9999 -9999 -9999 -9999 -9999 -9999 -9999 -9999 -9999 -9999 -9999 -9999 -9999 -9999 -9999 -9999 -9999 -9999 -9999 -9999 -9999 -9999 -9999 -9999 -9999 -9999 -9999 -9999 -9999 -9999 -9999 -9999 -9999 -9999 -9999 -9999 -9999 -9999 -9999 -9999 -9999 -9999 -9999 -9999 -9999 -9999 -9999 -9999 -9999 -9999 -9999 -9999 -9999 -9999 -9999 -9999 -9999 -9999 -9999 -9999 -9999 -9999 -9999 -9999 -9999 -9999 -9999 -9999 -9999 -9999 -9999 -9999 -9999 -9999 -9999 -9999 -9999 -9999 -9999 -9999 -9999 -9999 -9999 -9999 -9999 -9999 -9999 -9999 -9999 -9999 -9999 -9999 -9999 -9999 -9999 -9999 -9999 -9999 -9999 -9999 -9999 -9999 -9999 -9999 -9999 -9999 -9999 -9999 -9999 -9999 -9999 -9999 -9999 -9999 -9999 -9999 -9999 -9999 -9999 -9999 -9999 -9999 -9999 -9999 -9999 -9999 -9999 -9999 -9999 -9999 -9999 -9999 -9999 -9999 -9999 -9999 -9999 -9999 -9999 -9999 -9999 -9999 -9999 -9999 -9999 -9999 -9999 -9999 -9999 -9999 -9999 -9999 -9999 -9999 -9999 -9999 -9999 -9999 -9999 -9999 -9999 -9999 -9999 -9999 -9999 -9999 -9999 -9999 -9999 -9999 -9999 -9999 -9999 -9999 -9999 -9999 -9999 -9999 -9999 -9999 -9999 -9999 -9999 -9999 -9999 -9999 -9999 -9999 -9999 -9999 -9999 -9999 -9999 -9999 -9999 -9999 -9999 -9999 -9999 -9999 -9999 -9999 -9999 -9999 -9999 -9999 -9999
-9999 -9999 -9999 -9999 -9999 -9999 -9999 -9999 -9999 -9999 -9999 -9999 -9999 -9999 -9999 -9999 -9999 -9999 -9999 -9999 -9999 -9999 -9999 -9999 -9999 -9999 -9999 -9999 -9999 -9999 -9999 -9999 -9999 -9999 -9999 -9999 -9999 -9999 -9999 -9999 -9999 -9999 -9999 -9999 -9999 -9999 -9999 -9999 -9999 -9999 -9999 -9999 -9999 -9999 -9999 -9999 -9999 -9999 -9999 -9999 -9999 -9999 -9999 -9999 -9999 -9999 -9999 -9999 -9999 -9999 -9999 -9999 -9999 -9999 -9999 -9999 -9999 -9999 -9999 -9999 -9999 -9999 -9999 -9999 -9999 -9999 -9999 -9999 -9999 -9999 -9999 -9999 -9999 -9999 -9999 -9999 -9999 -9999 -9999 -9999 -9999 -9999 -9999 -9999 -9999 -9999 -9999 -9999 -9999 -9999 -9999 -9999 -9999 -9999 -9999 -9999 -9999 -9999 -9999 -9999 -9999 -9999 -9999 -9999 -9999 -9999 -9999 -9999 -9999 -9999 -9999 -9999 -9999 -9999 -9999 -9999 -9999 -9999 -9999 -9999 -9999 -9999 -9999 -9999 -9999 -9999 -9999 -9999 -9999 -9999 -9999 -9999 -9999 -9999 -9999 -9999 -9999 -9999 -9999 -9999 -9999 -9999 -9999 -9999 -9999 -9999 -9999 -9999 -9999 -9999 -9999 -9999 -9999 -9999 -9999 -9999 -9999 -9999 -9999 -9999 -9999 -9999 -9999 -9999 -9999 -9999 -9999 -9999 -9999 -9999 -9999 -9999 -9999 -9999 -9999 -9999 -9999 -9999 -9999 -9999 -9999 -9999 -9999 -9999 -9999 -9999 -9999 -9999 -9999 -9999 -9999 -9999 -9999 -9999 -9999
-9999 -9999 -9999 -9999 -9999 -9999 -9999 -9999 -9999 -9999 -9999 -9999 -9999 -9999 -9999 -9999 -9999 -9999 -9999 -9999 -9999 -9999 -9999 -9999 -9999 -9999 -9999 -9999 -9999 -9999 -9999 -9999 -9999 -9999 -9999 -9999 -9999 -9999 -9999 -9999 -9999 -9999 -9999 -9999 -9999 -9999 -9999 -9999 -9999 -9999 -9999 -9999 -9999 -9999 -9999 -9999 -9999 -9999 -9999 -9999 -9999 -9999 -9999 -9999 -9999 -9999 -9999 -9999 -9999 -9999 -9999 -9999 -9999 -9999 -9999 -9999 -9999 -9999 -9999 -9999 -9999 -9999 -9999 -9999 -9999 -9999 -9999 -9999 -9999 -9999 -9999 -9999 -9999 -9999 -9999 -9999 -9999 -9999 -9999 -9999 -9999 -9999 -9999 -9999 -9999 -9999 -9999 -9999 -9999 -9999 -9999 -9999 -9999 -9999 -9999 -9999 -9999 -9999 -9999 -9999 -9999 -9999 -9999 -9999 -9999 -9999 -9999 -9999 -9999 -9999 -9999 -9999 -9999 -9999 -9999 -9999 -9999 -9999 -9999 -9999 -9999 -9999 -9999 -9999 -9999 -9999 -9999 -9999 -9999 -9999 -9999 -9999 -9999 -9999 -9999 -9999 -9999 -9999 -9999 -9999 -9999 -9999 -9999 -9999 -9999 -9999 -9999 -9999 -9999 -9999 -9999 -9999 -9999 -9999 -9999 -9999 -9999 -9999 -9999 -9999 -9999 -9999 -9999 -9999 -9999 -9999 -9999 -9999 -9999 -9999 -9999 -9999 -9999 -9999 -9999 -9999 -9999 -9999 -9999 -9999 -9999 -9999 -9999 -9999 -9999 -9999 -9999 -9999 -9999 -9999 -9999 -9999 -9999 -9999 -9999
-9999 -9999 -9999 -9999 -9999 -9999 -9999 -9999 -9999 -9999 -9999 -9999 -9999 -9999 -9999 -9999 -9999 -9999 -9999 -9999 -9999 -9999 -9999 -9999 -9999 -9999 -9999 -9999 -9999 -9999 -9999 -9999 -9999 -9999 -9999 -9999 -9999 -9999 -9999 -9999 -9999 -9999 -9999 -9999 -9999 -9999 -9999 -9999 -9999 -9999 -9999 -9999 -9999 -9999 -9999 -9999 -9999 -9999 -9999 -9999 -9999 -9999 -9999 -9999 -9999 -9999 -9999 -9999 -9999 -9999 -9999 -9999 -9999 -9999 -9999 -9999 -9999 -9999 -9999 -9999 -9999 -9999 -9999 -9999 -9999 -9999 -9999 -9999 -9999 -9999 -9999 -9999 -9999 -9999 -9999 -9999 -9999 -9999 -9999 -9999 -9999 -9999 -9999 -9999 -9999 -9999 -9999 -9999 -9999 -9999 -9999 -9999 -9999 -9999 -9999 -9999 -9999 -9999 -9999 -9999 -9999 -9999 -9999 -9999 -9999 -9999 -9999 -9999 -9999 -9999 -9999 -9999 -9999 -9999 -9999 -9999 -9999 -9999 -9999 -9999 -9999 -9999 -9999 -9999 -9999 -9999 -9999 -9999 -9999 -9999 -9999 -9999 -9999 -9999 -9999 -9999 -9999 -9999 -9999 -9999 -9999 -9999 -9999 -9999 -9999 -9999 -9999 -9999 -9999 -9999 -9999 -9999 -9999 -9999 -9999 -9999 -9999 -9999 -9999 -9999 -9999 -9999 -9999 -9999 -9999 -9999 -9999 -9999 -9999 -9999 -9999 -9999 -9999 -9999 -9999 -9999 -9999 -9999 -9999 -9999 -9999 -9999 -9999 -9999 -9999 -9999 -9999 -9999 -9999 -9999 -9999 -9999 -9999 -9999 -9999
-9999 -9999 -9999 -9999 -9999 -9999 -9999 -9999 -9999 -9999 -9999 -9999 -9999 -9999 -9999 -9999 -9999 -9999 -9999 -9999 -9999 -9999 -9999 -9999 -9999 -9999 -9999 -9999 -9999 -9999 -9999 -9999 -9999 -9999 -9999 -9999 -9999 -9999 -9999 -9999 -9999 -9999 -9999 -9999 -9999 -9999 -9999 -9999 -9999 -9999 -9999 -9999 -9999 -9999 -9999 -9999 -9999 -9999 -9999 -9999 -9999 -9999 -9999 -9999 -9999 -9999 -9999 -9999 -9999 -9999 -9999 -9999 -9999 -9999 -9999 -9999 -9999 -9999 -9999 -9999 -9999 -9999 -9999 -9999 -9999 -9999 -9999 -9999 -9999 -9999 -9999 -9999 -9999 -9999 -9999 -9999 -9999 -9999 -9999 -9999 -9999 -9999 -9999 -9999 -9999 -9999 -9999 -9999 -9999 -9999 -9999 -9999 -9999 -9999 -9999 -9999 -9999 -9999 -9999 -9999 -9999 -9999 -9999 -9999 -9999 -9999 -9999 -9999 -9999 -9999 -9999 -9999 -9999 -9999 -9999 -9999 -9999 -9999 -9999 -9999 -9999 -9999 -9999 -9999 -9999 -9999 -9999 -9999 -9999 -9999 -9999 -9999 -9999 -9999 -9999 -9999 -9999 -9999 -9999 -9999 -9999 -9999 -9999 -9999 -9999 -9999 -9999 -9999 -9999 -9999 -9999 -9999 -9999 -9999 -9999 -9999 -9999 -9999 -9999 -9999 -9999 -9999 -9999 -9999 -9999 -9999 -9999 -9999 -9999 -9999 -9999 -9999 -9999 -9999 -9999 -9999 -9999 -9999 -9999 -9999 -9999 -9999 -9999 -9999 -9999 -9999 -9999 -9999 -9999 -9999 -9999 -9999 -9999 -9999 -9999
-9999 -9999 -9999 -9999 -9999 -9999 -9999 -9999 -9999 -9999 -9999 -9999 -9999 -9999 -9999 -9999 -9999 -9999 -9999 -9999 -9999 -9999 -9999 -9999 -9999 -9999 -9999 -9999 -9999 -9999 -9999 -9999 -9999 -9999 -9999 -9999 -9999 -9999 -9999 -9999 -9999 -9999 -9999 -9999 -9999 -9999 -9999 -9999 -9999 -9999 -9999 -9999 -9999 -9999 -9999 -9999 -9999 -9999 -9999 -9999 -9999 -9999 -9999 -9999 -9999 -9999 -9999 -9999 -9999 -9999 -9999 -9999 -9999 -9999 -9999 -9999 -9999 -9999 -9999 -9999 -9999 -9999 -9999 -9999 -9999 -9999 -9999 -9999 -9999 -9999 -9999 -9999 -9999 -9999 -9999 -9999 -9999 -9999 -9999 -9999 -9999 -9999 -9999 -9999 -9999 -9999 -9999 -9999 -9999 -9999 -9999 -9999 -9999 -9999 -9999 -9999 -9999 -9999 -9999 -9999 -9999 -9999 -9999 -9999 -9999 -9999 -9999 -9999 -9999 -9999 -9999 -9999 -9999 -9999 -9999 -9999 -9999 -9999 -9999 -9999 -9999 -9999 -9999 -9999 -9999 -9999 -9999 -9999 -9999 -9999 -9999 -9999 -9999 -9999 -9999 -9999 -9999 -9999 -9999 -9999 -9999 -9999 -9999 -9999 -9999 -9999 -9999 -9999 -9999 -9999 -9999 -9999 -9999 -9999 -9999 -9999 -9999 -9999 -9999 -9999 -9999 -9999 -9999 -9999 -9999 -9999 -9999 -9999 -9999 -9999 -9999 -9999 -9999 -9999 -9999 -9999 -9999 -9999 -9999 -9999 -9999 -9999 -9999 -9999 -9999 -9999 -9999 -9999 -9999 -9999 -9999 -9999 -9999 -9999 -9999
-9999 -9999 -9999 -9999 -9999 -9999 -9999 -9999 -9999 -9999 -9999 -9999 -9999 -9999 -9999 -9999 -9999 -9999 -9999 -9999 -9999 -9999 -9999 -9999 -9999 -9999 -9999 -9999 -9999 -9999 -9999 -9999 -9999 -9999 -9999 -9999 -9999 -9999 -9999 -9999 -9999 -9999 -9999 -9999 -9999 -9999 -9999 -9999 -9999 -9999 -9999 -9999 -9999 -9999 -9999 -9999 -9999 -9999 -9999 -9999 -9999 -9999 -9999 -9999 -9999 -9999 -9999 -9999 -9999 -9999 -9999 -9999 -9999 -9999 -9999 -9999 -9999 -9999 -9999 -9999 -9999 -9999 -9999 -9999 -9999 -9999 -9999 -9999 -9999 -9999 -9999 -9999 -9999 -9999 -9999 -9999 -9999 -9999 -9999 -9999 -9999 -9999 -9999 -9999 -9999 -9999 -9999 -9999 -9999 -9999 -9999 -9999 -9999 -9999 -9999 -9999 -9999 -9999 -9999 -9999 -9999 -9999 -9999 -9999 -9999 -9999 -9999 -9999 -9999 -9999 -9999 -9999 -9999 -9999 -9999 -9999 -9999 -9999 -9999 -9999 -9999 -9999 -9999 -9999 -9999 -9999 -9999 -9999 -9999 -9999 -9999 -9999 -9999 -9999 -9999 -9999 -9999 -9999 -9999 -9999 -9999 -9999 -9999 -9999 -9999 -9999 -9999 -9999 -9999 -9999 -9999 -9999 -9999 -9999 -9999 -9999 -9999 -9999 -9999 -9999 -9999 -9999 -9999 -9999 -9999 -9999 -9999 -9999 -9999 -9999 -9999 -9999 -9999 -9999 -9999 -9999 -9999 -9999 -9999 -9999 -9999 -9999 -9999 -9999 -9999 -9999 -9999 -9999 -9999 -9999 -9999 -9999 -9999 -9999 -9999
-9999 -9999 -9999 -9999 -9999 -9999 -9999 -9999 -9999 -9999 -9999 -9999 -9999 -9999 -9999 -9999 -9999 -9999 -9999 -9999 -9999 -9999 -9999 -9999 -9999 -9999 -9999 -9999 -9999 -9999 -9999 -9999 -9999 -9999 -9999 -9999 -9999 -9999 -9999 -9999 -9999 -9999 -9999 -9999 -9999 -9999 -9999 -9999 -9999 -9999 -9999 -9999 -9999 -9999 -9999 -9999 -9999 -9999 -9999 -9999 -9999 -9999 -9999 -9999 -9999 -9999 -9999 -9999 -9999 -9999 -9999 -9999 -9999 -9999 -9999 -9999 -9999 -9999 -9999 -9999 -9999 -9999 -9999 -9999 -9999 -9999 -9999 -9999 -9999 -9999 -9999 -9999 -9999 -9999 -9999 -9999 -9999 -9999 -9999 -9999 -9999 -9999 -9999 -9999 -9999 -9999 -9999 -9999 -9999 -9999 -9999 -9999 -9999 -9999 -9999 -9999 -9999 -9999 -9999 -9999 -9999 -9999 -9999 -9999 -9999 -9999 -9999 -9999 -9999 -9999 -9999 -9999 -9999 -9999 -9999 -9999 -9999 -9999 -9999 -9999 -9999 -9999 -9999 -9999 -9999 -9999 -9999 -9999 -9999 -9999 -9999 -9999 -9999 -9999 -9999 -9999 -9999 -9999 -9999 -9999 -9999 -9999 -9999 -9999 -9999 -9999 -9999 -9999 -9999 -9999 -9999 -9999 -9999 -9999 -9999 -9999 -9999 -9999 -9999 -9999 -9999 -9999 -9999 -9999 -9999 -9999 -9999 -9999 -9999 -9999 -9999 -9999 -9999 -9999 -9999 -9999 -9999 -9999 -9999 -9999 -9999 -9999 -9999 -9999 -9999 -9999 -9999 -9999 -9999 -9999 -9999 -9999 -9999 -9999 -9999
-9999 -9999 -9999 -9999 -9999 -9999 -9999 -9999 -9999 -9999 -9999 -9999 -9999 -9999 -9999 -9999 -9999 -9999 -9999 -9999 -9999 -9999 -9999 -9999 -9999 -9999 -9999 -9999 -9999 -9999 -9999 -9999 -9999 -9999 -9999 -9999 -9999 -9999 -9999 -9999 -9999 -9999 -9999 -9999 -9999 -9999 -9999 -9999 -9999 -9999 -9999 -9999 -9999 -9999 -9999 -9999 -9999 -9999 -9999 -9999 -9999 -9999 -9999 -9999 -9999 -9999 -9999 -9999 -9999 -9999 -9999 -9999 -9999 -9999 -9999 -9999 -9999 -9999 -9999 -9999 -9999 -9999 -9999 -9999 -9999 -9999 -9999 -9999 -9999 -9999 -9999 -9999 -9999 -9999 -9999 -9999 -9999 -9999 -9999 -9999 -9999 -9999 -9999 -9999 -9999 -9999 -9999 -9999 -9999 -9999 -9999 -9999 -9999 -9999 -9999 -9999 -9999 -9999 -9999 -9999 -9999 -9999 -9999 -9999 -9999 -9999 -9999 -9999 -9999 -9999 -9999 -9999 -9999 -9999 -9999 -9999 -9999 -9999 -9999 -9999 -9999 -9999 -9999 -9999 -9999 -9999 -9999 -9999 -9999 -9999 -9999 -9999 -9999 -9999 -9999 -9999 -9999 -9999 -9999 -9999 -9999 -9999 -9999 -9999 -9999 -9999 -9999 -9999 -9999 -9999 -9999 -9999 -9999 -9999 -9999 -9999 -9999 -9999 -9999 -9999 -9999 -9999 -9999 -9999 -9999 -9999 -9999 -9999 -9999 -9999 -9999 -9999 -9999 -9999 -9999 -9999 -9999 -9999 -9999 -9999 -9999 -9999 -9999 -9999 -9999 -9999 -9999 -9999 -9999 -9999 -9999 -9999 -9999 -9999 -9999
-9999 -9999 -9999 -9999 -9999 -9999 -9999 -9999 -9999 -9999 -9999 -9999 -9999 -9999 -9999 -9999 -9999 -9999 -9999 -9999 -9999 -9999 -9999 -9999 -9999 -9999 -9999 -9999 -9999 -9999 -9999 -9999 -9999 -9999 -9999 -9999 -9999 -9999 -9999 -9999 -9999 -9999 -9999 -9999 -9999 -9999 -9999 -9999 -9999 -9999 -9999 -9999 -9999 -9999 -9999 -9999 -9999 -9999 -9999 -9999 -9999 -9999 -9999 -9999 -9999 -9999 -9999 -9999 -9999 -9999 -9999 -9999 -9999 -9999 -9999 -9999 -9999 -9999 -9999 -9999 -9999 -9999 -9999 -9999 -9999 -9999 -9999 -9999 -9999 -9999 -9999 -9999 -9999 -9999 -9999 -9999 -9999 -9999 -9999 -9999 -9999 -9999 -9999 -9999 -9999 -9999 -9999 -9999 -9999 -9999 -9999 -9999 -9999 -9999 -9999 -9999 -9999 -9999 -9999 -9999 -9999 -9999 -9999 -9999 -9999 -9999 -9999 -9999 -9999 -9999 -9999 -9999 -9999 -9999 -9999 -9999 -9999 -9999 -9999 -9999 -9999 -9999 -9999 -9999 -9999 -9999 -9999 -9999 -9999 -9999 -9999 -9999 -9999 -9999 -9999 -9999 -9999 -9999 -9999 -9999 -9999 -9999 -9999 -9999 -9999 -9999 -9999 -9999 -9999 -9999 -9999 -9999 -9999 -9999 -9999 -9999 -9999 -9999 -9999 -9999 -9999 -9999 -9999 -9999 -9999 -9999 -9999 -9999 -9999 -9999 -9999 -9999 -9999 -9999 -9999 -9999 -9999 -9999 -9999 -9999 -9999 -9999 -9999 -9999 -9999 -9999 -9999 -9999 -9999 -9999 -9999 -9999 -9999 -9999 -9999
-9999 -9999 -9999 -9999 -9999 -9999 -9999 -9999 -9999 -9999 -9999 -9999 -9999 -9999 -9999 -9999 -9999 -9999 -9999 -9999 -9999 -9999 -9999 -9999 -9999 -9999 -9999 -9999 -9999 -9999 -9999 -9999 -9999 -9999 -9999 -9999 -9999 -9999 -9999 -9999 -9999 -9999 -9999 -9999 -9999 -9999 -9999 -9999 -9999 -9999 -9999 -9999 -9999 -9999 -9999 -9999 -9999 -9999 -9999 -9999 -9999 -9999 -9999 -9999 -9999 -9999 -9999 -9999 -9999 -9999 -9999 -9999 -9999 -9999 -9999 -9999 -9999 -9999 -9999 -9999 -9999 -9999 -9999 -9999 -9999 -9999 -9999 -9999 -9999 -9999 -9999 -9999 -9999 -9999 -9999 -9999 -9999 -9999 -9999 -9999 -9999 -9999 -9999 -9999 -9999 -9999 -9999 -9999 -9999 -9999 -9999 -9999 -9999 -9999 -9999 -9999 -9999 -9999 -9999 -9999 -9999 -9999 -9999 -9999 -9999 -9999 -9999 -9999 -9999 -9999 -9999 -9999 -9999 -9999 -9999 -9999 -9999 -9999 -9999 -9999 -9999 -9999 -9999 -9999 -9999 -9999 -9999 -9999 -9999 -9999 -9999 -9999 -9999 -9999 -9999 -9999 -9999 -9999 -9999 -9999 -9999 -9999 -9999 -9999 -9999 -9999 -9999 -9999 -9999 -9999 -9999 -9999 -9999 -9999 -9999 -9999 -9999 -9999 -9999 -9999 -9999 -9999 -9999 -9999 -9999 -9999 -9999 -9999 -9999 -9999 -9999 -9999 -9999 -9999 -9999 -9999 -9999 -9999 -9999 -9999 -9999 -9999 -9999 -9999 -9999 -9999 -9999 -9999 -9999 -9999 -9999 -9999 -9999 -9999 -9999
-9999 -9999 -9999 -9999 -9999 -9999 -9999 -9999 -9999 -9999 -9999 -9999 -9999 -9999 -9999 -9999 -9999 -9999 -9999 -9999 -9999 -9999 -9999 -9999 -9999 -9999 -9999 -9999 -9999 -9999 -9999 -9999 -9999 -9999 -9999 -9999 -9999 -9999 -9999 -9999 -9999 -9999 -9999 -9999 -9999 -9999 -9999 -9999 -9999 -9999 -9999 -9999 -9999 -9999 -9999 -9999 -9999 -9999 -9999 -9999 -9999 -9999 -9999 -9999 -9999 -9999 -9999 -9999 -9999 -9999 -9999 -9999 -9999 -9999 -9999 -9999 -9999 -9999 -9999 -9999 -9999 -9999 -9999 -9999 -9999 -9999 -9999 -9999 -9999 -9999 -9999 -9999 -9999 -9999 -9999 -9999 -9999 -9999 -9999 -9999 -9999 -9999 -9999 -9999 -9999 -9999 -9999 -9999 -9999 -9999 -9999 -9999 -9999 -9999 -9999 -9999 -9999 -9999 -9999 -9999 -9999 -9999 -9999 -9999 -9999 -9999 -9999 -9999 -9999 -9999 -9999 -9999 -9999 -9999 -9999 -9999 -9999 -9999 -9999 -9999 -9999 -9999 -9999 -9999 -9999 -9999 -9999 -9999 -9999 -9999 -9999 -9999 -9999 -9999 -9999 -9999 -9999 -9999 -9999 -9999 -9999 -9999 -9999 -9999 -9999 -9999 -9999 -9999 -9999 -9999 -9999 -9999 -9999 -9999 -9999 -9999 -9999 -9999 -9999 -9999 -9999 -9999 -9999 -9999 -9999 -9999 -9999 -9999 -9999 -9999 -9999 -9999 -9999 -9999 -9999 -9999 -9999 -9999 -9999 -9999 -9999 -9999 -9999 -9999 -9999 -9999 -9999 -9999 -9999 -9999 -9999 -9999 -9999 -9999 -9999
-9999 -9999 -9999 -9999 -9999 -9999 -9999 -9999 -9999 -9999 -9999 -9999 -9999 -9999 -9999 -9999 -9999 -9999 -9999 -9999 -9999 -9999 -9999 -9999 -9999 -9999 -9999 -9999 -9999 -9999 -9999 -9999 -9999 -9999 -9999 -9999 -9999 -9999 -9999 -9999 -9999 -9999 -9999 -9999 -9999 -9999 -9999 -9999 -9999 -9999 -9999 -9999 -9999 -9999 -9999 -9999 -9999 -9999 -9999 -9999 -9999 -9999 -9999 -9999 -9999 -9999 -9999 -9999 -9999 -9999 -9999 -9999 -9999 -9999 -9999 -9999 -9999 -9999 -9999 -9999 -9999 -9999 -9999 -9999 -9999 -9999 -9999 -9999 -9999 -9999 -9999 -9999 -9999 -9999 -9999 -9999 -9999 -9999 -9999 -9999 -9999 -9999 -9999 -9999 -9999 -9999 -9999 -9999 -9999 -9999 -9999 -9999 -9999 -9999 -9999 -9999 -9999 -9999 -9999 -9999 -9999 -9999 -9999 -9999 -9999 -9999 -9999 -9999 -9999 -9999 -9999 -9999 -9999 -9999 -9999 -9999 -9999 -9999 -9999 -9999 -9999 -9999 -9999 -9999 -9999 -9999 -9999 -9999 -9999 -9999 -9999 -9999 -9999 -9999 -9999 -9999 -9999 -9999 -9999 -9999 -9999 -9999 -9999 -9999 -9999 -9999 -9999 -9999 -9999 -9999 -9999 -9999 -9999 -9999 -9999 -9999 -9999 -9999 -9999 -9999 -9999 -9999 -9999 -9999 -9999 -9999 -9999 -9999 -9999 -9999 -9999 -9999 -9999 -9999 -9999 -9999 -9999 -9999 -9999 -9999 -9999 -9999 -9999 -9999 -9999 -9999 -9999 -9999 -9999 -9999 -9999 -9999 -9999 -9999 -9999
-9999 -9999 -9999 -9999 -9999 -9999 -9999 -9999 -9999 -9999 -9999 -9999 -9999 -9999 -9999 -9999 -9999 -9999 -9999 -9999 -9999 -9999 -9999 -9999 -9999 -9999 -9999 -9999 -9999 -9999 -9999 -9999 -9999 -9999 -9999 -9999 -9999 -9999 -9999 -9999 -9999 -9999 -9999 -9999 -9999 -9999 -9999 -9999 -9999 -9999 -9999 -9999 -9999 -9999 -9999 -9999 -9999 -9999 -9999 -9999 -9999 -9999 -9999 -9999 -9999 -9999 -9999 -9999 -9999 -9999 -9999 -9999 -9999 -9999 -9999 -9999 -9999 -9999 -9999 -9999 -9999 -9999 -9999 -9999 -9999 -9999 -9999 -9999 -9999 -9999 -9999 -9999 -9999 -9999 -9999 -9999 -9999 -9999 -9999 -9999 -9999 -9999 -9999 -9999 -9999 -9999 -9999 -9999 -9999 -9999 -9999 -9999 -9999 -9999 -9999 -9999 -9999 -9999 -9999 -9999 -9999 -9999 -9999 -9999 -9999 -9999 -9999 -9999 -9999 -9999 -9999 -9999 -9999 -9999 -9999 -9999 -9999 -9999 -9999 -9999 -9999 -9999 -9999 -9999 -9999 -9999 -9999 -9999 -9999 -9999 -9999 -9999 -9999 -9999 -9999 -9999 -9999 -9999 -9999 -9999 -9999 -9999 -9999 -9999 -9999 -9999 -9999 -9999 -9999 -9999 -9999 -9999 -9999 -9999 -9999 -9999 -9999 -9999 -9999 -9999 -9999 -9999 -9999 -9999 -9999 -9999 -9999 -9999 -9999 -9999 -9999 -9999 -9999 -9999 -9999 -9999 -9999 -9999 -9999 -9999 -9999 -9999 -9999 -9999 -9999 -9999 -9999 -9999 -9999 -9999 -9999 -9999 -9999 -9999 -9999
-9999 -9999 -9999 -9999 -9999 -9999 -9999 -9999 -9999 -9999 -9999 -9999 -9999 -9999 -9999 -9999 -9999 -9999 -9999 -9999 -9999 -9999 -9999 -9999 -9999 -9999 -9999 -9999 -9999 -9999 -9999 -9999 -9999 -9999 -9999 -9999 -9999 -9999 -9999 -9999 -9999 -9999 -9999 -9999 -9999 -9999 -9999 -9999 -9999 -9999 -9999 -9999 -9999 -9999 -9999 -9999 -9999 -9999 -9999 -9999 -9999 -9999 -9999 -9999 -9999 -9999 -9999 -9999 -9999 -9999 -9999 -9999 -9999 -9999 -9999 -9999 -9999 -9999 -9999 -9999 -9999 -9999 -9999 -9999 -9999 -9999 -9999 -9999 -9999 -9999 -9999 -9999 -9999 -9999 -9999 -9999 -9999 -9999 -9999 -9999 -9999 -9999 -9999 -9999 -9999 -9999 -9999 -9999 -9999 -9999 -9999 -9999 -9999 -9999 -9999 -9999 -9999 -9999 -9999 -9999 -9999 -9999 -9999 -9999 -9999 -9999 -9999 -9999 -9999 -9999 -9999 -9999 -9999 -9999 -9999 -9999 -9999 -9999 -9999 -9999 -9999 -9999 -9999 -9999 -9999 -9999 -9999 -9999 -9999 -9999 -9999 -9999 -9999 -9999 -9999 -9999 -9999 -9999 -9999 -9999 -9999 -9999 -9999 -9999 -9999 -9999 -9999 -9999 -9999 -9999 -9999 -9999 -9999 -9999 -9999 -9999 -9999 -9999 -9999 -9999 -9999 -9999 -9999 -9999 -9999 -9999 -9999 -9999 -9999 -9999 -9999 -9999 -9999 -9999 -9999 -9999 -9999 -9999 -9999 -9999 -9999 -9999 -9999 -9999 -9999 -9999 -9999 -9999 -9999 -9999 -9999 -9999 -9999 -9999 -9999
-9999 -9999 -9999 -9999 -9999 -9999 -9999 -9999 -9999 -9999 -9999 -9999 -9999 -9999 -9999 -9999 -9999 -9999 -9999 -9999 -9999 -9999 -9999 -9999 -9999 -9999 -9999 -9999 -9999 -9999 -9999 -9999 -9999 -9999 -9999 -9999 -9999 -9999 -9999 -9999 -9999 -9999 -9999 -9999 -9999 -9999 -9999 -9999 -9999 -9999 -9999 -9999 -9999 -9999 -9999 -9999 -9999 -9999 -9999 -9999 -9999 -9999 -9999 -9999 -9999 -9999 -9999 -9999 -9999 -9999 -9999 -9999 -9999 -9999 -9999 -9999 -9999 -9999 -9999 -9999 -9999 -9999 -9999 -9999 -9999 -9999 -9999 -9999 -9999 -9999 -9999 -9999 -9999 -9999 -9999 -9999 -9999 -9999 -9999 -9999 -9999 -9999 -9999 -9999 -9999 -9999 -9999 -9999 -9999 -9999 -9999 -9999 -9999 -9999 -9999 -9999 -9999 -9999 -9999 -9999 -9999 -9999 -9999 -9999 -9999 -9999 -9999 -9999 -9999 -9999 -9999 -9999 -9999 -9999 -9999 -9999 -9999 -9999 -9999 -9999 -9999 -9999 -9999 -9999 -9999 -9999 -9999 -9999 -9999 -9999 -9999 -9999 -9999 -9999 -9999 -9999 -9999 -9999 -9999 -9999 -9999 -9999 -9999 -9999 -9999 -9999 -9999 -9999 -9999 -9999 -9999 -9999 -9999 -9999 -9999 -9999 -9999 -9999 -9999 -9999 -9999 -9999 -9999 -9999 -9999 -9999 -9999 -9999 -9999 -9999 -9999 -9999 -9999 -9999 -9999 -9999 -9999 -9999 -9999 -9999 -9999 -9999 -9999 -9999 -9999 -9999 -9999 -9999 -9999 -9999 -9999 -9999 -9999 -9999 -9999
-9999 -9999 -9999 -9999 -9999 -9999 -9999 -9999 -9999 -9999 -9999 -9999 -9999 -9999 -9999 -9999 -9999 -9999 -9999 -9999 -9999 -9999 -9999 -9999 -9999 -9999 -9999 -9999 -9999 -9999 -9999 -9999 -9999 -9999 -9999 -9999 -9999 -9999 -9999 -9999 -9999 -9999 -9999 -9999 -9999 -9999 -9999 -9999 -9999 -9999 -9999 -9999 -9999 -9999 -9999 -9999 -9999 -9999 -9999 -9999 -9999 -9999 -9999 -9999 -9999 -9999 -9999 -9999 -9999 -9999 -9999 -9999 -9999 -9999 -9999 -9999 -9999 -9999 -9999 -9999 -9999 -9999 -9999 -9999 -9999 -9999 -9999 -9999 -9999 -9999 -9999 -9999 -9999 -9999 -9999 -9999 -9999 -9999 -9999 -9999 -9999 -9999 -9999 -9999 -9999 -9999 -9999 -9999 -9999 -9999 -9999 -9999 -9999 -9999 -9999 -9999 -9999 -9999 -9999 -9999 -9999 -9999 -9999 -9999 -9999 -9999 -9999 -9999 -9999 -9999 -9999 -9999 -9999 -9999 -9999 -9999 -9999 -9999 -9999 -9999 -9999 -9999 -9999 -9999 -9999 -9999 -9999 -9999 -9999 -9999 -9999 -9999 -9999 -9999 -9999 -9999 -9999 -9999 -9999 -9999 -9999 -9999 -9999 -9999 -9999 -9999 -9999 -9999 -9999 -9999 -9999 -9999 -9999 -9999 -9999 -9999 -9999 -9999 -9999 -9999 -9999 -9999 -9999 -9999 -9999 -9999 -9999 -9999 -9999 -9999 -9999 -9999 -9999 -9999 -9999 -9999 -9999 -9999 -9999 -9999 -9999 -9999 -9999 -9999 -9999 -9999 -9999 -9999 -9999 -9999 -9999 -9999 -9999 -9999 -9999
-9999 -9999 -9999 -9999 -9999 -9999 -9999 -9999 -9999 -9999 -9999 -9999 -9999 -9999 -9999 -9999 -9999 -9999 -9999 -9999 -9999 -9999 -9999 -9999 -9999 -9999 -9999 -9999 -9999 -9999 -9999 -9999 -9999 -9999 -9999 -9999 -9999 -9999 -9999 -9999 -9999 -9999 -9999 -9999 -9999 -9999 -9999 -9999 -9999 -9999 -9999 -9999 -9999 -9999 -9999 -9999 -9999 -9999 -9999 -9999 -9999 -9999 -9999 -9999 -9999 -9999 -9999 -9999 -9999 -9999 -9999 -9999 -9999 -9999 -9999 -9999 -9999 -9999 -9999 -9999 -9999 -9999 -9999 -9999 -9999 -9999 -9999 -9999 -9999 -9999 -9999 -9999 -9999 -9999 -9999 -9999 -9999 -9999 -9999 -9999 -9999 -9999 -9999 -9999 -9999 -9999 -9999 -9999 -9999 -9999 -9999 -9999 -9999 -9999 -9999 -9999 -9999 -9999 -9999 -9999 -9999 -9999 -9999 -9999 -9999 -9999 -9999 -9999 -9999 -9999 -9999 -9999 -9999 -9999 -9999 -9999 -9999 -9999 -9999 -9999 -9999 -9999 -9999 -9999 -9999 -9999 -9999 -9999 -9999 -9999 -9999 -9999 -9999 -9999 -9999 -9999 -9999 -9999 -9999 -9999 -9999 -9999 -9999 -9999 -9999 -9999 -9999 -9999 -9999 -9999 -9999 -9999 -9999 -9999 -9999 -9999 -9999 -9999 -9999 -9999 -9999 -9999 -9999 -9999 -9999 -9999 -9999 -9999 -9999 -9999 -9999 -9999 -9999 -9999 -9999 -9999 -9999 -9999 -9999 -9999 -9999 -9999 -9999 -9999 -9999 -9999 -9999 -9999 -9999 -9999 -9999 -9999 -9999 -9999 -9999
-9999 -9999 -9999 -9999 -9999 -9999 -9999 -9999 -9999 -9999 -9999 -9999 -9999 -9999 -9999 -9999 -9999 -9999 -9999 -9999 -9999 -9999 -9999 -9999 -9999 -9999 -9999 -9999 -9999 -9999 -9999 -9999 -9999 -9999 -9999 -9999 -9999 -9999 -9999 -9999 -9999 -9999 -9999 -9999 -9999 -9999 -9999 -9999 -9999 -9999 -9999 -9999 -9999 -9999 -9999 -9999 -9999 -9999 -9999 -9999 -9999 -9999 -9999 -9999 -9999 -9999 -9999 -9999 -9999 -9999 -9999 -9999 -9999 -9999 -9999 -9999 -9999 -9999 -9999 -9999 -9999 -9999 -9999 -9999 -9999 -9999 -9999 -9999 -9999 -9999 -9999 -9999 -9999 -9999 -9999 -9999 -9999 -9999 -9999 -9999 -9999 -9999 -9999 -9999 -9999 -9999 -9999 -9999 -9999 -9999 -9999 -9999 -9999 -9999 -9999 -9999 -9999 -9999 -9999 -9999 -9999 -9999 -9999 -9999 -9999 -9999 -9999 -9999 -9999 -9999 -9999 -9999 -9999 -9999 -9999 -9999 -9999 -9999 -9999 -9999 -9999 -9999 -9999 -9999 -9999 -9999 -9999 -9999 -9999 -9999 -9999 -9999 -9999 -9999 -9999 -9999 -9999 -9999 -9999 -9999 -9999 -9999 -9999 -9999 -9999 -9999 -9999 -9999 -9999 -9999 -9999 -9999 -9999 -9999 -9999 -9999 -9999 -9999 -9999 -9999 -9999 -9999 -9999 -9999 -9999 -9999 -9999 -9999 -9999 -9999 -9999 -9999 -9999 -9999 -9999 -9999 -9999 -9999 -9999 -9999 -9999 -9999 -9999 -9999 -9999 -9999 -9999 -9999 -9999 -9999 -9999 -9999 -9999 -9999 -9999
-9999 -9999 -9999 -9999 -9999 -9999 -9999 -9999 -9999 -9999 -9999 -9999 -9999 -9999 -9999 -9999 -9999 -9999 -9999 -9999 -9999 -9999 -9999 -9999 -9999 -9999 -9999 -9999 -9999 -9999 -9999 -9999 -9999 -9999 -9999 -9999 -9999 -9999 -9999 -9999 -9999 -9999 -9999 -9999 -9999 -9999 -9999 -9999 -9999 -9999 -9999 -9999 -9999 -9999 -9999 -9999 -9999 -9999 -9999 -9999 -9999 -9999 -9999 -9999 -9999 -9999 -9999 -9999 -9999 -9999 -9999 -9999 -9999 -9999 -9999 -9999 -9999 -9999 -9999 -9999 -9999 -9999 -9999 -9999 -9999 -9999 -9999 -9999 -9999 -9999 -9999 -9999 -9999 -9999 -9999 -9999 -9999 -9999 -9999 -9999 -9999 -9999 -9999 -9999 -9999 -9999 -9999 -9999 -9999 -9999 -9999 -9999 -9999 -9999 -9999 -9999 -9999 -9999 -9999 -9999 -9999 -9999 -9999 -9999 -9999 -9999 -9999 -9999 -9999 -9999 -9999 -9999 -9999 -9999 -9999 -9999 -9999 -9999 -9999 -9999 -9999 -9999 -9999 -9999 -9999 -9999 -9999 -9999 -9999 -9999 -9999 -9999 -9999 -9999 -9999 -9999 -9999 -9999 -9999 -9999 -9999 -9999 -9999 -9999 -9999 -9999 -9999 -9999 -9999 -9999 -9999 -9999 -9999 -9999 -9999 -9999 -9999 -9999 -9999 -9999 -9999 -9999 -9999 -9999 -9999 -9999 -9999 -9999 -9999 -9999 -9999 -9999 -9999 -9999 -9999 -9999 -9999 -9999 -9999 -9999 -9999 -9999 -9999 -9999 -9999 -9999 -9999 -9999 -9999 -9999 -9999 -9999 -9999 -9999 -9999
-9999 -9999 -9999 -9999 -9999 -9999 -9999 -9999 -9999 -9999 -9999 -9999 -9999 -9999 -9999 -9999 -9999 -9999 -9999 -9999 -9999 -9999 -9999 -9999 -9999 -9999 -9999 -9999 -9999 -9999 -9999 -9999 -9999 -9999 -9999 -9999 -9999 -9999 -9999 -9999 -9999 -9999 -9999 -9999 -9999 -9999 -9999 -9999 -9999 -9999 -9999 -9999 -9999 -9999 -9999 -9999 -9999 -9999 -9999 -9999 -9999 -9999 -9999 -9999 -9999 -9999 -9999 -9999 -9999 -9999 -9999 -9999 -9999 -9999 -9999 -9999 -9999 -9999 -9999 -9999 -9999 -9999 -9999 -9999 -9999 -9999 -9999 -9999 -9999 -9999 -9999 -9999 -9999 -9999 -9999 -9999 -9999 -9999 -9999 -9999 -9999 -9999 -9999 -9999 -9999 -9999 -9999 -9999 -9999 -9999 -9999 -9999 -9999 -9999 -9999 -9999 -9999 -9999 -9999 -9999 -9999 -9999 -9999 -9999 -9999 -9999 -9999 -9999 -9999 -9999 -9999 -9999 -9999 -9999 -9999 -9999 -9999 -9999 -9999 -9999 -9999 -9999 -9999 -9999 -9999 -9999 -9999 -9999 -9999 -9999 -9999 -9999 -9999 -9999 -9999 -9999 -9999 -9999 -9999 -9999 -9999 -9999 -9999 -9999 -9999 -9999 -9999 -9999 -9999 -9999 -9999 -9999 -9999 -9999 -9999 -9999 -9999 -9999 -9999 -9999 -9999 -9999 -9999 -9999 -9999 -9999 -9999 -9999 -9999 -9999 -9999 -9999 -9999 -9999 -9999 -9999 -9999 -9999 -9999 -9999 -9999 -9999 -9999 -9999 -9999 -9999 -9999 -9999 -9999 -9999 -9999 -9999 -9999 -9999 -9999
