NCOLS 215
NROWS 375
XLLCORNER 4809000
YLLCORNER 3480000
CELLSIZE 1000
NODATA_value -9999
0.35 0.50 0.37 0.37 0.43 0.50 0.52 0.36 0.50 0.52 0.39 0.38 0.40 0.44 0.46 0.52 0.45 0.48 0.43 0.51 0.48 0.48 0.34 0.35 0.40 0.47 0.51 0.37 0.36 0.50 0.46 0.50 0.51 0.40 0.40 0.46 0.33 0.47 0.39 0.44 0.38 0.45 0.51 0.49 0.46 0.46 0.36 0.43 0.40 0.47 0.44 0.49 0.49 0.34 0.39 0.49 0.33 0.50 0.48 0.35 0.42 0.37 0.46 0.46 0.36 0.52 0.47 0.37 0.35 0.48 0.47 0.39 0.42 0.34 0.45 0.50 0.48 0.48 0.34 0.51 0.50 0.49 0.53 0.37 0.33 0.44 0.46 0.50 0.50 0.37 0.35 0.38 0.37 0.33 0.52 0.46 0.45 0.52 0.53 0.46 0.42 0.48 0.52 0.34 0.45 0.48 0.42 0.36 0.38 0.46 0.35 0.38 0.48 0.45 0.45 0.42 0.47 0.49 0.35 0.39 0.44 0.49 0.39 0.41 0.39 0.34 0.46 0.36 0.36 0.51 0.45 0.52 0.43 0.50 0.51 0.52 0.36 0.47 0.52 0.49 0.33 0.49 0.42 0.47 0.34 0.46 0.42 0.42 0.35 0.45 0.44 0.49 0.46 0.44 0.44 0.42 0.40 0.52 0.50 0.46 0.37 0.35 0.49 0.33 0.43 0.48 0.45 0.41 0.35 0.37 0.37 0.50 0.36 -9999 -9999 -9999 -9999 -9999 -9999 -9999 -9999 -9999 -9999 -9999 -9999 -9999 -9999 -9999 -9999 -9999 -9999 -9999 -9999 -9999 -9999 -9999 -9999 -9999 -9999 -9999 -9999 -9999 -9999 -9999 -9999 -9999 -9999 -9999 -9999 -9999 -9999 -9999 -9999 -9999 -9999
0.42 0.35 0.34 0.45 0.50 0.39 0.33 0.38 0.38 0.51 0.41 0.47 0.52 0.50 0.51 0.36 0.45 0.51 0.42 0.46 0.41 0.39 0.45 0.43 0.41 0.51 0.44 0.37 0.52 0.35 0.47 0.34 0.47 0.52 0.37 0.47 0.37 0.50 0.52 0.35 0.40 0.42 0.50 0.51 0.40 0.52 0.37 0.36 0.37 0.37 0.33 0.48 0.47 0.42 0.34 0.46 0.47 0.40 0.37 0.42 0.37 0.33 0.38 0.40 0.48 0.51 0.41 0.47 0.42 0.50 0.34 0.41 0.43 0.38 0.37 0.38 0.41 0.33 0.51 0.49 0.49 0.47 0.49 0.33 0.37 0.36 0.35 0.45 0.50 0.42 0.36 0.34 0.33 0.53 0.33 0.52 0.38 0.46 0.53 0.35 0.40 0.42 0.35 0.40 0.38 0.48 0.50 0.47 0.39 0.44 0.48 0.35 0.45 0.45 0.51 0.42 0.39 0.33 0.39 0.51 0.37 0.50 0.38 0.46 0.48 0.40 0.53 0.48 0.51 0.38 0.46 0.46 0.52 0.45 0.38 0.43 0.36 0.45 0.40 0.45 0.35 0.45 0.41 0.43 0.52 0.34 0.34 0.36 0.42 0.38 0.41 0.44 0.44 0.44 0.52 0.51 0.37 0.41 0.36 0.35 0.49 0.48 0.46 0.52 0.50 0.50 0.37 0.33 0.46 0.38 0.44 0.47 0.45 -9999 -9999 -9999 -9999 -9999 -9999 -9999 -9999 -9999 -9999 -9999 -9999 -9999 -9999 -9999 -9999 -9999 -9999 -9999 -9999 -9999 -9999 -9999 -9999 -9999 -9999 -9999 -9999 -9999 -9999 -9999 -9999 -9999 -9999 -9999 -9999 -9999 -9999 -9999 -9999 -9999 -9999
0.48 0.45 0.37 0.38 0.51 0.45 0.47 0.49 0.47 0.46 0.49 0.36 0.39 0.34 0.46 0.36 0.44 0.46 0.40 0.42 0.34 0.39 0.49 0.37 0.38 0.50 0.35 0.35 0.36 0.40 0.45 0.45 0.38 0.52 0.42 0.46 0.38 0.35 0.35 0.38 0.49 0.38 0.40 0.36 0.33 0.37 0.47 0.36 0.49 0.49 0.46 0.42 0.36 0.36 0.37 0.42 0.40 0.48 0.34 0.33 0.34 0.35 0.41 0.43 0.39 0.37 0.34 0.47 0.43 0.46 0.52 0.40 0.33 0.48 0.43 0.34 0.47 0.52 0.40 0.49 0.46 0.40 0.46 0.52 0.39 0.38 0.45 0.41 0.48 0.48 0.42 0.41 0.35 0.40 0.46 0.44 0.35 0.46 0.49 0.38 0.34 0.51 0.52 0.48 0.50 0.41 0.42 0.44 0.44 0.45 0.40 0.48 0.51 0.36 0.47 0.46 0.34 0.44 0.34 0.40 0.42 0.51 0.40 0.45 0.36 0.38 0.43 0.47 0.41 0.49 0.38 0.45 0.36 0.45 0.43 0.43 0.40 0.35 0.35 0.35 0.39 0.42 0.44 0.47 0.51 0.35 0.37 0.40 0.52 0.50 0.37 0.33 0.43 0.33 0.33 0.36 0.46 0.42 0.36 0.35 0.40 0.39 0.40 0.46 0.47 0.52 0.40 0.46 0.48 0.39 0.52 0.36 0.34 -9999 -9999 -9999 -9999 -9999 -9999 -9999 -9999 -9999 -9999 -9999 -9999 -9999 -9999 -9999 -9999 -9999 -9999 -9999 -9999 -9999 -9999 -9999 -9999 -9999 -9999 -9999 -9999 -9999 -9999 -9999 -9999 -9999 -9999 -9999 -9999 -9999 -9999 -9999 -9999 -9999 -9999
0.41 0.47 0.47 0.36 0.35 0.48 0.38 0.40 0.36 0.41 0.36 0.36 0.41 0.50 0.42 0.42 0.41 0.51 0.48 0.38 0.43 0.43 0.44 0.51 0.41 0.51 0.40 0.44 0.41 0.50 0.44 0.39 0.48 0.48 0.35 0.38 0.38 0.36 0.47 0.42 0.53 0.51 0.48 0.51 0.37 0.45 0.40 0.41 0.37 0.41 0.52 0.36 0.38 0.37 0.38 0.49 0.34 0.52 0.41 0.46 0.50 0.46 0.42 0.40 0.50 0.51 0.39 0.37 0.36 0.41 0.45 0.46 0.44 0.34 0.50 0.43 0.45 0.38 0.37 0.34 0.51 0.44 0.52 0.48 0.39 0.34 0.51 0.49 0.35 0.44 0.51 0.37 0.49 0.51 0.48 0.40 0.46 0.48 0.44 0.34 0.52 0.43 0.47 0.35 0.49 0.40 0.49 0.47 0.39 0.42 0.43 0.37 0.38 0.52 0.41 0.50 0.37 0.40 0.38 0.46 0.40 0.50 0.46 0.44 0.37 0.49 0.52 0.40 0.40 0.35 0.46 0.40 0.50 0.36 0.39 0.52 0.44 0.38 0.48 0.40 0.34 0.44 0.48 0.47 0.37 0.40 0.47 0.43 0.33 0.37 0.35 0.42 0.45 0.52 0.43 0.40 0.45 0.50 0.49 0.35 0.46 0.37 0.45 0.39 0.51 0.52 0.40 0.39 0.44 0.42 0.45 0.52 0.43 -9999 -9999 -9999 -9999 -9999 -9999 -9999 -9999 -9999 -9999 -9999 -9999 -9999 -9999 -9999 -9999 -9999 -9999 -9999 -9999 -9999 -9999 -9999 -9999 -9999 -9999 -9999 -9999 -9999 -9999 -9999 -9999 -9999 -9999 -9999 -9999 -9999 -9999 -9999 -9999 -9999 -9999
0.45 0.42 0.40 0.48 0.46 0.34 0.36 0.52 0.48 0.35 0.41 0.39 0.39 0.44 0.45 0.46 0.49 0.41 0.36 0.49 0.37 0.38 0.34 0.44 0.52 0.42 0.51 0.47 0.38 0.38 0.42 0.41 0.38 0.35 0.36 0.48 0.40 0.50 0.38 0.43 0.36 0.43 0.48 0.41 0.34 0.51 0.45 0.46 0.52 0.46 0.48 0.34 0.47 0.46 0.47 0.46 0.34 0.44 0.41 0.42 0.48 0.40 0.35 0.33 0.44 0.48 0.47 0.43 0.47 0.48 0.34 0.41 0.43 0.35 0.45 0.36 0.35 0.44 0.38 0.46 0.47 0.49 0.50 0.48 0.52 0.41 0.41 0.47 0.35 0.39 0.39 0.38 0.36 0.47 0.35 0.34 0.35 0.47 0.41 0.36 0.50 0.47 0.45 0.47 0.36 0.37 0.45 0.36 0.35 0.46 0.34 0.35 0.49 0.43 0.34 0.33 0.39 0.38 0.48 0.39 0.50 0.52 0.51 0.40 0.52 0.43 0.52 0.51 0.42 0.51 0.51 0.48 0.36 0.42 0.36 0.42 0.36 0.41 0.48 0.33 0.43 0.39 0.43 0.43 0.37 0.41 0.52 0.47 0.38 0.48 0.34 0.50 0.51 0.44 0.37 0.36 0.42 0.49 0.38 0.39 0.44 0.34 0.43 0.36 0.40 0.47 0.51 0.48 0.40 0.48 0.42 0.41 0.49 -9999 -9999 -9999 -9999 -9999 -9999 -9999 -9999 -9999 -9999 -9999 -9999 -9999 -9999 -9999 -9999 -9999 -9999 -9999 -9999 -9999 -9999 -9999 -9999 -9999 -9999 -9999 -9999 -9999 -9999 -9999 -9999 -9999 -9999 -9999 -9999 -9999 -9999 -9999 -9999 -9999 -9999
0.34 0.35 0.49 0.50 0.35 0.47 0.51 0.37 0.51 0.48 0.41 0.44 0.35 0.39 0.38 0.46 0.42 0.47 0.49 0.49 0.38 0.45 0.46 0.39 0.52 0.49 0.41 0.44 0.45 0.33 0.51 0.33 0.43 0.34 0.51 0.39 0.42 0.45 0.38 0.33 0.37 0.43 0.52 0.40 0.44 0.51 0.45 0.34 0.50 0.43 0.46 0.42 0.37 0.49 0.51 0.36 0.44 0.36 0.35 0.34 0.46 0.42 0.36 0.44 0.39 0.49 0.41 0.33 0.40 0.45 0.45 0.48 0.50 0.41 0.50 0.33 0.44 0.50 0.51 0.48 0.45 0.49 0.34 0.39 0.34 0.42 0.37 0.39 0.43 0.40 0.47 0.52 0.50 0.39 0.41 0.34 0.44 0.48 0.38 0.51 0.36 0.34 0.38 0.51 0.43 0.34 0.48 0.48 0.34 0.41 0.38 0.33 0.46 0.35 0.47 0.35 0.48 0.46 0.35 0.47 0.43 0.41 0.46 0.35 0.45 0.48 0.38 0.38 0.40 0.43 0.49 0.46 0.44 0.49 0.38 0.35 0.36 0.48 0.39 0.52 0.42 0.33 0.50 0.44 0.47 0.47 0.40 0.51 0.35 0.51 0.41 0.37 0.48 0.49 0.34 0.42 0.48 0.48 0.37 0.51 0.38 0.38 0.33 0.47 0.36 0.42 0.44 0.42 0.39 0.45 0.49 0.37 0.40 0.48 -9999 -9999 -9999 -9999 -9999 -9999 -9999 -9999 -9999 -9999 -9999 -9999 -9999 -9999 -9999 -9999 -9999 -9999 -9999 -9999 -9999 -9999 -9999 -9999 -9999 -9999 -9999 -9999 -9999 -9999 -9999 -9999 -9999 -9999 -9999 -9999 -9999 -9999 -9999 -9999 -9999
0.43 0.47 0.49 0.41 0.39 0.48 0.48 0.51 0.36 0.37 0.42 0.37 0.39 0.42 0.36 0.48 0.39 0.39 0.45 0.50 0.47 0.36 0.35 0.49 0.40 0.33 0.34 0.39 0.39 0.37 0.41 0.37 0.46 0.37 0.50 0.41 0.39 0.41 0.39 0.47 0.41 0.36 0.39 0.37 0.47 0.43 0.47 0.40 0.46 0.35 0.38 0.44 0.51 0.40 0.39 0.38 0.38 0.50 0.38 0.52 0.36 0.43 0.38 0.42 0.49 0.51 0.42 0.42 0.39 0.37 0.37 0.50 0.45 0.40 0.49 0.34 0.44 0.36 0.53 0.39 0.40 0.48 0.34 0.48 0.44 0.36 0.51 0.39 0.41 0.33 0.49 0.35 0.52 0.38 0.39 0.38 0.48 0.43 0.43 0.45 0.35 0.52 0.50 0.34 0.35 0.46 0.51 0.39 0.51 0.36 0.47 0.40 0.34 0.38 0.52 0.39 0.48 0.44 0.41 0.33 0.44 0.38 0.47 0.38 0.35 0.36 0.33 0.45 0.47 0.34 0.37 0.43 0.43 0.38 0.33 0.42 0.44 0.38 0.53 0.39 0.50 0.49 0.38 0.49 0.35 0.52 0.35 0.35 0.34 0.47 0.44 0.46 0.45 0.36 0.42 0.50 0.36 0.42 0.43 0.42 0.47 0.43 0.41 0.51 0.39 0.44 0.40 0.35 0.51 0.44 0.39 0.34 0.48 0.36 -9999 -9999 -9999 -9999 -9999 -9999 -9999 -9999 -9999 -9999 -9999 -9999 -9999 -9999 -9999 -9999 -9999 -9999 -9999 -9999 -9999 -9999 -9999 -9999 -9999 -9999 -9999 -9999 -9999 -9999 -9999 -9999 -9999 -9999 -9999 -9999 -9999 -9999 -9999 -9999 -9999
0.43 0.42 0.50 0.45 0.40 0.53 0.34 0.33 0.35 0.50 0.52 0.44 0.51 0.52 0.33 0.43 0.35 0.46 0.44 0.42 0.37 0.39 0.44 0.50 0.47 0.49 0.52 0.40 0.40 0.41 0.51 0.45 0.51 0.52 0.35 0.46 0.47 0.35 0.48 0.37 0.37 0.36 0.52 0.40 0.50 0.42 0.35 0.33 0.34 0.47 0.42 0.50 0.45 0.35 0.44 0.45 0.46 0.36 0.45 0.39 0.52 0.44 0.43 0.52 0.40 0.40 0.42 0.33 0.49 0.34 0.36 0.51 0.52 0.48 0.40 0.48 0.36 0.42 0.49 0.43 0.41 0.41 0.46 0.38 0.41 0.50 0.45 0.42 0.51 0.39 0.46 0.34 0.43 0.39 0.35 0.39 0.39 0.36 0.47 0.49 0.43 0.43 0.52 0.44 0.52 0.40 0.43 0.45 0.40 0.52 0.42 0.48 0.46 0.36 0.47 0.36 0.38 0.51 0.40 0.38 0.46 0.41 0.39 0.46 0.36 0.50 0.35 0.36 0.41 0.34 0.44 0.43 0.42 0.33 0.34 0.43 0.38 0.34 0.43 0.38 0.41 0.49 0.39 0.39 0.34 0.42 0.35 0.35 0.47 0.37 0.49 0.35 0.46 0.44 0.50 0.45 0.50 0.45 0.33 0.42 0.37 0.37 0.43 0.50 0.35 0.37 0.34 0.37 0.40 0.35 0.35 0.34 0.45 0.34 -9999 -9999 -9999 -9999 -9999 -9999 -9999 -9999 -9999 -9999 -9999 -9999 -9999 -9999 -9999 -9999 -9999 -9999 -9999 -9999 -9999 -9999 -9999 -9999 -9999 -9999 -9999 -9999 -9999 -9999 -9999 -9999 -9999 -9999 -9999 -9999 -9999 -9999 -9999 -9999 -9999
0.38 0.40 0.43 0.52 0.48 0.39 0.48 0.46 0.51 0.46 0.49 0.48 0.40 0.39 0.36 0.35 0.43 0.39 0.35 0.37 0.35 0.48 0.42 0.43 0.53 0.33 0.40 0.38 0.38 0.46 0.40 0.36 0.45 0.51 0.46 0.36 0.52 0.36 0.42 0.49 0.35 0.44 0.52 0.34 0.45 0.45 0.50 0.49 0.33 0.35 0.50 0.35 0.36 0.39 0.51 0.52 0.37 0.40 0.44 0.50 0.37 0.48 0.46 0.47 0.34 0.41 0.42 0.44 0.39 0.40 0.46 0.43 0.46 0.33 0.37 0.35 0.34 0.40 0.41 0.43 0.44 0.34 0.38 0.37 0.44 0.43 0.35 0.33 0.51 0.41 0.38 0.41 0.35 0.36 0.49 0.40 0.34 0.48 0.35 0.34 0.39 0.53 0.38 0.36 0.51 0.38 0.48 0.50 0.48 0.43 0.44 0.35 0.45 0.47 0.51 0.40 0.38 0.51 0.39 0.50 0.43 0.42 0.44 0.35 0.35 0.39 0.46 0.34 0.45 0.49 0.49 0.33 0.49 0.41 0.43 0.49 0.46 0.45 0.52 0.37 0.35 0.37 0.38 0.47 0.47 0.39 0.52 0.45 0.50 0.34 0.46 0.47 0.36 0.34 0.52 0.50 0.40 0.44 0.36 0.37 0.44 0.35 0.49 0.35 0.43 0.38 0.39 0.36 0.41 0.45 0.44 0.47 0.42 0.40 -9999 -9999 -9999 -9999 -9999 -9999 -9999 -9999 -9999 -9999 -9999 -9999 -9999 -9999 -9999 -9999 -9999 -9999 -9999 -9999 -9999 -9999 -9999 -9999 -9999 -9999 -9999 -9999 -9999 -9999 -9999 -9999 -9999 -9999 -9999 -9999 -9999 -9999 -9999 -9999 -9999
0.42 0.52 0.38 0.39 0.36 0.37 0.35 0.33 0.33 0.47 0.46 0.40 0.42 0.35 0.49 0.35 0.52 0.46 0.39 0.52 0.36 0.51 0.42 0.34 0.51 0.42 0.44 0.35 0.37 0.49 0.39 0.49 0.36 0.46 0.47 0.46 0.36 0.42 0.50 0.34 0.33 0.46 0.44 0.34 0.50 0.41 0.43 0.38 0.36 0.50 0.34 0.45 0.47 0.43 0.33 0.46 0.51 0.47 0.47 0.50 0.39 0.35 0.43 0.51 0.48 0.41 0.44 0.52 0.37 0.41 0.51 0.52 0.34 0.35 0.42 0.48 0.44 0.34 0.37 0.44 0.50 0.40 0.33 0.49 0.52 0.34 0.35 0.40 0.51 0.44 0.44 0.45 0.43 0.46 0.39 0.50 0.44 0.50 0.45 0.36 0.40 0.34 0.35 0.46 0.49 0.47 0.39 0.35 0.38 0.43 0.48 0.47 0.43 0.37 0.44 0.42 0.35 0.36 0.40 0.37 0.37 0.46 0.38 0.45 0.51 0.34 0.35 0.38 0.37 0.38 0.45 0.40 0.45 0.52 0.35 0.45 0.42 0.46 0.51 0.44 0.42 0.36 0.52 0.41 0.44 0.44 0.51 0.35 0.50 0.36 0.34 0.35 0.35 0.48 0.38 0.41 0.41 0.44 0.39 0.44 0.46 0.34 0.34 0.34 0.42 0.37 0.37 0.38 0.47 0.33 0.51 0.47 0.49 0.45 -9999 -9999 -9999 -9999 -9999 -9999 -9999 -9999 -9999 -9999 -9999 -9999 -9999 -9999 -9999 -9999 -9999 -9999 -9999 -9999 -9999 -9999 -9999 -9999 -9999 -9999 -9999 -9999 -9999 -9999 -9999 -9999 -9999 -9999 -9999 -9999 -9999 -9999 -9999 -9999 -9999
0.33 0.47 0.39 0.52 0.51 0.35 0.46 0.45 0.39 0.43 0.36 0.37 0.33 0.51 0.46 0.39 0.48 0.42 0.37 0.40 0.51 0.36 0.35 0.51 0.41 0.34 0.52 0.33 0.40 0.47 0.46 0.41 0.35 0.48 0.52 0.34 0.51 0.43 0.33 0.51 0.49 0.48 0.52 0.42 0.35 0.34 0.45 0.52 0.40 0.35 0.44 0.40 0.51 0.36 0.49 0.51 0.33 0.40 0.43 0.33 0.45 0.50 0.38 0.48 0.42 0.46 0.46 0.43 0.38 0.52 0.44 0.34 0.48 0.34 0.43 0.38 0.46 0.51 0.37 0.44 0.36 0.35 0.52 0.52 0.49 0.38 0.34 0.52 0.41 0.45 0.51 0.49 0.34 0.37 0.36 0.45 0.35 0.44 0.46 0.38 0.49 0.47 0.35 0.39 0.45 0.52 0.51 0.43 0.35 0.41 0.47 0.40 0.49 0.36 0.51 0.41 0.48 0.46 0.51 0.41 0.37 0.42 0.34 0.47 0.43 0.52 0.50 0.35 0.40 0.49 0.42 0.33 0.48 0.40 0.51 0.35 0.51 0.35 0.51 0.37 0.41 0.45 0.41 0.49 0.50 0.40 0.37 0.48 0.37 0.45 0.39 0.41 0.50 0.35 0.46 0.40 0.52 0.38 0.51 0.39 0.45 0.49 0.48 0.44 0.33 0.35 0.34 0.35 0.38 0.47 0.47 0.48 0.36 0.33 -9999 -9999 -9999 -9999 -9999 -9999 -9999 -9999 -9999 -9999 -9999 -9999 -9999 -9999 -9999 -9999 -9999 -9999 -9999 -9999 -9999 -9999 -9999 -9999 -9999 -9999 -9999 -9999 -9999 -9999 -9999 -9999 -9999 -9999 -9999 -9999 -9999 -9999 -9999 -9999 -9999
0.50 0.48 0.41 0.51 0.45 0.34 0.40 0.50 0.46 0.35 0.36 0.36 0.39 0.36 0.42 0.36 0.41 0.33 0.40 0.45 0.37 0.36 0.37 0.48 0.48 0.52 0.40 0.44 0.46 0.48 0.38 0.43 0.42 0.35 0.48 0.35 0.51 0.49 0.38 0.50 0.35 0.50 0.50 0.50 0.35 0.48 0.48 0.45 0.47 0.34 0.37 0.46 0.52 0.39 0.34 0.46 0.52 0.39 0.45 0.37 0.36 0.49 0.38 0.47 0.50 0.40 0.40 0.49 0.34 0.45 0.41 0.34 0.35 0.39 0.48 0.41 0.48 0.37 0.41 0.40 0.48 0.43 0.48 0.37 0.40 0.34 0.38 0.45 0.41 0.53 0.47 0.40 0.36 0.38 0.41 0.45 0.44 0.51 0.40 0.36 0.38 0.44 0.50 0.39 0.45 0.45 0.37 0.39 0.36 0.37 0.48 0.42 0.48 0.52 0.49 0.46 0.33 0.42 0.33 0.38 0.36 0.37 0.40 0.40 0.45 0.44 0.36 0.44 0.52 0.45 0.33 0.50 0.52 0.38 0.50 0.41 0.37 0.45 0.39 0.49 0.51 0.49 0.52 0.34 0.52 0.41 0.51 0.51 0.37 0.48 0.36 0.48 0.34 0.39 0.41 0.48 0.35 0.45 0.47 0.37 0.39 0.45 0.49 0.45 0.48 0.45 0.42 0.46 0.38 0.50 0.40 0.46 0.42 0.37 0.46 -9999 -9999 -9999 -9999 -9999 -9999 -9999 -9999 -9999 -9999 -9999 -9999 -9999 -9999 -9999 -9999 -9999 -9999 -9999 -9999 -9999 -9999 -9999 -9999 -9999 -9999 -9999 -9999 -9999 -9999 -9999 -9999 -9999 -9999 -9999 -9999 -9999 -9999 -9999 -9999
0.40 0.34 0.36 0.45 0.46 0.46 0.42 0.38 0.45 0.46 0.34 0.47 0.52 0.39 0.39 0.35 0.43 0.53 0.45 0.53 0.34 0.35 0.36 0.51 0.43 0.45 0.42 0.43 0.41 0.49 0.47 0.35 0.43 0.45 0.47 0.35 0.35 0.45 0.37 0.52 0.34 0.39 0.38 0.44 0.43 0.44 0.47 0.44 0.43 0.35 0.49 0.44 0.39 0.51 0.34 0.42 0.52 0.40 0.51 0.44 0.35 0.35 0.48 0.41 0.35 0.34 0.34 0.52 0.51 0.34 0.41 0.47 0.50 0.38 0.48 0.49 0.39 0.35 0.40 0.40 0.47 0.51 0.42 0.44 0.48 0.39 0.36 0.49 0.35 0.46 0.51 0.42 0.51 0.44 0.46 0.42 0.53 0.33 0.38 0.37 0.38 0.46 0.35 0.49 0.48 0.37 0.42 0.36 0.45 0.38 0.44 0.41 0.38 0.47 0.34 0.38 0.51 0.43 0.34 0.48 0.47 0.39 0.43 0.43 0.40 0.52 0.37 0.36 0.41 0.53 0.42 0.51 0.39 0.48 0.43 0.46 0.50 0.37 0.50 0.45 0.42 0.38 0.51 0.42 0.40 0.43 0.49 0.44 0.45 0.39 0.47 0.45 0.50 0.47 0.42 0.44 0.39 0.37 0.40 0.50 0.33 0.51 0.49 0.46 0.52 0.35 0.53 0.34 0.37 0.44 0.39 0.41 0.44 0.46 0.47 -9999 -9999 -9999 -9999 -9999 -9999 -9999 -9999 -9999 -9999 -9999 -9999 -9999 -9999 -9999 -9999 -9999 -9999 -9999 -9999 -9999 -9999 -9999 -9999 -9999 -9999 -9999 -9999 -9999 -9999 -9999 -9999 -9999 -9999 -9999 -9999 -9999 -9999 -9999 -9999
0.38 0.48 0.49 0.40 0.47 0.38 0.36 0.51 0.50 0.35 0.41 0.45 0.34 0.47 0.51 0.37 0.45 0.50 0.50 0.46 0.44 0.41 0.37 0.38 0.46 0.38 0.43 0.40 0.47 0.51 0.39 0.52 0.38 0.42 0.41 0.45 0.35 0.46 0.44 0.47 0.51 0.41 0.42 0.36 0.51 0.43 0.39 0.38 0.43 0.33 0.51 0.51 0.36 0.38 0.49 0.40 0.43 0.40 0.46 0.49 0.50 0.40 0.48 0.33 0.45 0.53 0.41 0.47 0.43 0.42 0.47 0.38 0.43 0.37 0.51 0.37 0.38 0.48 0.39 0.33 0.49 0.40 0.34 0.46 0.38 0.52 0.47 0.41 0.33 0.52 0.34 0.53 0.49 0.47 0.37 0.35 0.33 0.51 0.36 0.47 0.38 0.41 0.42 0.43 0.39 0.45 0.36 0.35 0.42 0.49 0.53 0.51 0.43 0.45 0.44 0.46 0.50 0.33 0.42 0.51 0.40 0.38 0.38 0.46 0.35 0.36 0.35 0.48 0.48 0.40 0.42 0.35 0.34 0.34 0.38 0.50 0.34 0.45 0.45 0.35 0.41 0.40 0.48 0.33 0.45 0.46 0.44 0.43 0.44 0.36 0.39 0.49 0.50 0.48 0.36 0.42 0.40 0.36 0.40 0.51 0.42 0.44 0.38 0.47 0.46 0.36 0.39 0.35 0.51 0.38 0.44 0.52 0.51 0.50 0.48 -9999 -9999 -9999 -9999 -9999 -9999 -9999 -9999 -9999 -9999 -9999 -9999 -9999 -9999 -9999 -9999 -9999 -9999 -9999 -9999 -9999 -9999 -9999 -9999 -9999 -9999 -9999 -9999 -9999 -9999 -9999 -9999 -9999 -9999 -9999 -9999 -9999 -9999 -9999 -9999
0.48 0.44 0.36 0.42 0.46 0.45 0.50 0.40 0.36 0.50 0.33 0.41 0.47 0.47 0.37 0.34 0.46 0.48 0.35 0.46 0.46 0.37 0.51 0.34 0.43 0.43 0.35 0.52 0.49 0.38 0.40 0.37 0.40 0.37 0.47 0.41 0.36 0.36 0.48 0.33 0.44 0.34 0.34 0.41 0.48 0.51 0.39 0.37 0.53 0.43 0.43 0.51 0.46 0.37 0.41 0.42 0.53 0.43 0.40 0.43 0.37 0.35 0.40 0.51 0.48 0.40 0.36 0.44 0.53 0.50 0.41 0.48 0.52 0.34 0.38 0.43 0.44 0.45 0.51 0.37 0.35 0.43 0.46 0.48 0.43 0.36 0.35 0.36 0.50 0.47 0.34 0.34 0.36 0.42 0.38 0.43 0.42 0.34 0.42 0.41 0.37 0.41 0.38 0.33 0.42 0.52 0.41 0.51 0.37 0.39 0.51 0.44 0.49 0.41 0.36 0.46 0.41 0.46 0.40 0.33 0.46 0.43 0.45 0.34 0.45 0.50 0.33 0.35 0.36 0.43 0.46 0.41 0.47 0.45 0.45 0.39 0.50 0.39 0.52 0.48 0.36 0.46 0.38 0.38 0.39 0.46 0.48 0.37 0.48 0.39 0.50 0.40 0.37 0.41 0.37 0.40 0.49 0.39 0.40 0.40 0.39 0.51 0.48 0.39 0.44 0.43 0.41 0.45 0.50 0.38 0.44 0.36 0.43 0.48 0.52 -9999 -9999 -9999 -9999 -9999 -9999 -9999 -9999 -9999 -9999 -9999 -9999 -9999 -9999 -9999 -9999 -9999 -9999 -9999 -9999 -9999 -9999 -9999 -9999 -9999 -9999 -9999 -9999 -9999 -9999 -9999 -9999 -9999 -9999 -9999 -9999 -9999 -9999 -9999 -9999
0.36 0.43 0.41 0.39 0.51 0.44 0.52 0.36 0.51 0.44 0.44 0.38 0.33 0.38 0.47 0.51 0.39 0.41 0.35 0.36 0.40 0.35 0.48 0.45 0.40 0.38 0.44 0.49 0.41 0.37 0.37 0.48 0.52 0.42 0.50 0.43 0.37 0.51 0.45 0.52 0.49 0.38 0.38 0.43 0.40 0.51 0.51 0.51 0.51 0.38 0.38 0.48 0.44 0.43 0.37 0.43 0.50 0.49 0.49 0.53 0.35 0.38 0.43 0.41 0.37 0.43 0.36 0.51 0.48 0.41 0.34 0.45 0.48 0.37 0.37 0.38 0.39 0.50 0.39 0.43 0.46 0.44 0.44 0.39 0.50 0.45 0.48 0.34 0.48 0.44 0.48 0.47 0.41 0.44 0.36 0.51 0.52 0.45 0.37 0.44 0.38 0.33 0.41 0.42 0.51 0.46 0.38 0.53 0.34 0.42 0.48 0.45 0.46 0.39 0.43 0.46 0.33 0.41 0.39 0.41 0.41 0.43 0.48 0.36 0.33 0.35 0.42 0.46 0.43 0.42 0.49 0.33 0.35 0.34 0.49 0.52 0.52 0.35 0.51 0.52 0.35 0.52 0.48 0.45 0.43 0.39 0.39 0.48 0.46 0.44 0.42 0.33 0.36 0.38 0.42 0.46 0.48 0.50 0.52 0.48 0.47 0.48 0.45 0.45 0.36 0.46 0.42 0.40 0.50 0.49 0.40 0.36 0.37 0.38 0.48 -9999 -9999 -9999 -9999 -9999 -9999 -9999 -9999 -9999 -9999 -9999 -9999 -9999 -9999 -9999 -9999 -9999 -9999 -9999 -9999 -9999 -9999 -9999 -9999 -9999 -9999 -9999 -9999 -9999 -9999 -9999 -9999 -9999 -9999 -9999 -9999 -9999 -9999 -9999 -9999
0.48 0.46 0.37 0.33 0.41 0.37 0.41 0.43 0.33 0.47 0.41 0.41 0.43 0.45 0.40 0.52 0.50 0.45 0.49 0.33 0.44 0.35 0.35 0.40 0.50 0.49 0.40 0.37 0.43 0.44 0.35 0.35 0.47 0.45 0.48 0.49 0.47 0.42 0.47 0.33 0.47 0.52 0.42 0.46 0.51 0.45 0.46 0.38 0.36 0.48 0.40 0.34 0.44 0.43 0.45 0.39 0.33 0.39 0.46 0.36 0.49 0.49 0.37 0.40 0.51 0.34 0.52 0.35 0.33 0.34 0.42 0.50 0.43 0.39 0.44 0.46 0.52 0.39 0.33 0.51 0.39 0.39 0.33 0.46 0.35 0.51 0.41 0.38 0.33 0.44 0.36 0.51 0.39 0.37 0.43 0.43 0.51 0.39 0.43 0.39 0.46 0.39 0.44 0.34 0.36 0.41 0.47 0.50 0.51 0.45 0.36 0.41 0.36 0.38 0.42 0.51 0.34 0.51 0.43 0.48 0.39 0.48 0.50 0.48 0.39 0.37 0.33 0.37 0.35 0.48 0.36 0.43 0.48 0.33 0.33 0.49 0.51 0.47 0.39 0.51 0.48 0.35 0.49 0.43 0.38 0.51 0.35 0.42 0.39 0.43 0.44 0.46 0.37 0.39 0.35 0.49 0.43 0.43 0.40 0.45 0.50 0.43 0.40 0.47 0.33 0.34 0.44 0.33 0.53 0.47 0.37 0.49 0.37 0.36 0.49 -9999 -9999 -9999 -9999 -9999 -9999 -9999 -9999 -9999 -9999 -9999 -9999 -9999 -9999 -9999 -9999 -9999 -9999 -9999 -9999 -9999 -9999 -9999 -9999 -9999 -9999 -9999 -9999 -9999 -9999 -9999 -9999 -9999 -9999 -9999 -9999 -9999 -9999 -9999 -9999
0.49 0.48 0.48 0.46 0.41 0.44 0.52 0.52 0.42 0.49 0.34 0.34 0.51 0.36 0.41 0.48 0.36 0.45 0.46 0.41 0.41 0.50 0.42 0.48 0.48 0.41 0.39 0.49 0.38 0.48 0.41 0.49 0.37 0.45 0.40 0.33 0.39 0.41 0.39 0.34 0.49 0.35 0.42 0.37 0.52 0.39 0.40 0.49 0.35 0.45 0.52 0.34 0.43 0.35 0.52 0.40 0.41 0.37 0.33 0.42 0.52 0.39 0.41 0.37 0.39 0.36 0.50 0.35 0.34 0.47 0.40 0.43 0.37 0.51 0.43 0.38 0.35 0.46 0.46 0.49 0.41 0.43 0.35 0.45 0.37 0.35 0.40 0.33 0.34 0.44 0.48 0.43 0.43 0.51 0.39 0.44 0.38 0.39 0.39 0.50 0.36 0.34 0.45 0.47 0.37 0.53 0.49 0.40 0.47 0.52 0.39 0.47 0.47 0.39 0.49 0.53 0.34 0.50 0.33 0.38 0.37 0.47 0.35 0.37 0.40 0.33 0.50 0.52 0.39 0.38 0.49 0.43 0.46 0.35 0.46 0.35 0.42 0.39 0.50 0.42 0.37 0.41 0.42 0.46 0.41 0.47 0.41 0.48 0.43 0.52 0.36 0.47 0.39 0.36 0.41 0.42 0.39 0.48 0.36 0.41 0.38 0.43 0.47 0.53 0.34 0.46 0.51 0.34 0.34 0.38 0.40 0.41 0.34 0.37 0.44 0.36 -9999 -9999 -9999 -9999 -9999 -9999 -9999 -9999 -9999 -9999 -9999 -9999 -9999 -9999 -9999 -9999 -9999 -9999 -9999 -9999 -9999 -9999 -9999 -9999 -9999 -9999 -9999 -9999 -9999 -9999 -9999 -9999 -9999 -9999 -9999 -9999 -9999 -9999 -9999
0.42 0.42 0.49 0.48 0.34 0.33 0.52 0.36 0.34 0.49 0.51 0.35 0.47 0.36 0.37 0.42 0.53 0.37 0.40 0.45 0.38 0.37 0.49 0.49 0.50 0.40 0.44 0.45 0.39 0.45 0.37 0.35 0.49 0.38 0.49 0.33 0.44 0.41 0.52 0.34 0.36 0.42 0.37 0.48 0.34 0.44 0.50 0.48 0.46 0.52 0.36 0.51 0.46 0.44 0.44 0.52 0.50 0.34 0.34 0.39 0.34 0.47 0.46 0.33 0.48 0.44 0.37 0.47 0.49 0.48 0.38 0.46 0.35 0.39 0.36 0.38 0.50 0.44 0.40 0.37 0.39 0.41 0.40 0.50 0.49 0.45 0.38 0.40 0.47 0.45 0.52 0.39 0.47 0.40 0.37 0.46 0.47 0.47 0.41 0.42 0.41 0.38 0.50 0.48 0.45 0.49 0.50 0.47 0.47 0.41 0.52 0.35 0.50 0.39 0.45 0.41 0.36 0.38 0.41 0.47 0.35 0.44 0.35 0.40 0.43 0.36 0.48 0.44 0.43 0.42 0.46 0.52 0.50 0.51 0.39 0.33 0.34 0.46 0.40 0.52 0.33 0.37 0.45 0.45 0.49 0.48 0.45 0.45 0.42 0.45 0.40 0.37 0.44 0.45 0.38 0.44 0.41 0.35 0.41 0.41 0.39 0.41 0.33 0.39 0.45 0.42 0.48 0.51 0.34 0.47 0.40 0.44 0.51 0.35 0.49 0.48 -9999 -9999 -9999 -9999 -9999 -9999 -9999 -9999 -9999 -9999 -9999 -9999 -9999 -9999 -9999 -9999 -9999 -9999 -9999 -9999 -9999 -9999 -9999 -9999 -9999 -9999 -9999 -9999 -9999 -9999 -9999 -9999 -9999 -9999 -9999 -9999 -9999 -9999 -9999
0.35 0.52 0.51 0.35 0.37 0.41 0.47 0.49 0.42 0.41 0.38 0.47 0.46 0.50 0.44 0.49 0.42 0.47 0.52 0.34 0.48 0.33 0.34 0.35 0.41 0.38 0.52 0.39 0.38 0.43 0.37 0.49 0.38 0.46 0.36 0.37 0.42 0.43 0.39 0.42 0.39 0.34 0.43 0.37 0.51 0.42 0.39 0.34 0.34 0.34 0.53 0.49 0.38 0.40 0.47 0.38 0.45 0.45 0.46 0.46 0.36 0.51 0.38 0.33 0.50 0.42 0.47 0.44 0.48 0.51 0.42 0.49 0.40 0.52 0.50 0.42 0.38 0.44 0.52 0.53 0.50 0.40 0.35 0.36 0.43 0.40 0.51 0.38 0.38 0.36 0.35 0.42 0.43 0.43 0.37 0.44 0.51 0.42 0.48 0.40 0.40 0.41 0.34 0.39 0.40 0.39 0.51 0.37 0.34 0.43 0.43 0.51 0.46 0.47 0.42 0.38 0.47 0.44 0.39 0.39 0.36 0.37 0.50 0.38 0.45 0.36 0.35 0.40 0.43 0.34 0.40 0.45 0.52 0.38 0.50 0.50 0.41 0.43 0.46 0.39 0.47 0.35 0.47 0.43 0.36 0.41 0.52 0.52 0.47 0.37 0.39 0.41 0.43 0.38 0.47 0.52 0.43 0.53 0.37 0.47 0.53 0.35 0.38 0.52 0.43 0.52 0.43 0.37 0.50 0.40 0.36 0.51 0.45 0.49 0.48 0.52 -9999 -9999 -9999 -9999 -9999 -9999 -9999 -9999 -9999 -9999 -9999 -9999 -9999 -9999 -9999 -9999 -9999 -9999 -9999 -9999 -9999 -9999 -9999 -9999 -9999 -9999 -9999 -9999 -9999 -9999 -9999 -9999 -9999 -9999 -9999 -9999 -9999 -9999 -9999
0.48 0.50 0.50 0.50 0.43 0.46 0.44 0.33 0.38 0.52 0.40 0.48 0.38 0.40 0.34 0.47 0.34 0.41 0.43 0.50 0.34 0.47 0.33 0.44 0.39 0.51 0.41 0.45 0.41 0.50 0.45 0.42 0.44 0.36 0.49 0.33 0.41 0.45 0.48 0.44 0.33 0.42 0.49 0.49 0.52 0.35 0.52 0.46 0.33 0.36 0.39 0.40 0.48 0.38 0.51 0.33 0.40 0.40 0.46 0.47 0.39 0.36 0.35 0.35 0.36 0.35 0.52 0.50 0.38 0.46 0.43 0.41 0.44 0.40 0.46 0.51 0.36 0.49 0.47 0.37 0.50 0.41 0.43 0.44 0.46 0.52 0.48 0.34 0.42 0.47 0.48 0.36 0.35 0.49 0.46 0.41 0.51 0.49 0.44 0.35 0.51 0.41 0.38 0.39 0.42 0.39 0.49 0.37 0.50 0.45 0.43 0.47 0.36 0.50 0.51 0.52 0.37 0.41 0.52 0.43 0.52 0.40 0.37 0.47 0.39 0.34 0.44 0.44 0.35 0.39 0.46 0.38 0.39 0.42 0.35 0.52 0.51 0.33 0.51 0.49 0.44 0.48 0.51 0.38 0.35 0.44 0.44 0.50 0.40 0.50 0.34 0.35 0.43 0.37 0.36 0.34 0.42 0.36 0.41 0.43 0.43 0.38 0.51 0.45 0.48 0.37 0.51 0.49 0.43 0.41 0.42 0.41 0.51 0.47 0.52 0.36 -9999 -9999 -9999 -9999 -9999 -9999 -9999 -9999 -9999 -9999 -9999 -9999 -9999 -9999 -9999 -9999 -9999 -9999 -9999 -9999 -9999 -9999 -9999 -9999 -9999 -9999 -9999 -9999 -9999 -9999 -9999 -9999 -9999 -9999 -9999 -9999 -9999 -9999 -9999
0.37 0.43 0.37 0.40 0.38 0.37 0.46 0.43 0.34 0.46 0.37 0.39 0.48 0.49 0.51 0.51 0.35 0.41 0.52 0.34 0.51 0.34 0.35 0.45 0.36 0.46 0.49 0.42 0.45 0.47 0.52 0.34 0.45 0.44 0.44 0.44 0.45 0.46 0.40 0.45 0.38 0.34 0.52 0.38 0.44 0.36 0.34 0.49 0.39 0.51 0.44 0.44 0.45 0.43 0.44 0.40 0.36 0.49 0.42 0.35 0.47 0.38 0.39 0.39 0.35 0.36 0.34 0.37 0.35 0.35 0.44 0.43 0.36 0.42 0.36 0.37 0.47 0.46 0.38 0.51 0.40 0.40 0.49 0.41 0.38 0.46 0.50 0.50 0.43 0.38 0.40 0.36 0.53 0.36 0.40 0.52 0.40 0.47 0.51 0.35 0.36 0.49 0.36 0.49 0.49 0.43 0.46 0.45 0.37 0.51 0.39 0.53 0.37 0.49 0.46 0.35 0.40 0.46 0.51 0.35 0.43 0.51 0.45 0.37 0.51 0.39 0.36 0.43 0.33 0.50 0.44 0.48 0.43 0.33 0.45 0.46 0.40 0.36 0.44 0.43 0.38 0.51 0.36 0.37 0.40 0.43 0.50 0.40 0.37 0.38 0.34 0.33 0.51 0.49 0.46 0.37 0.41 0.39 0.49 0.41 0.45 0.48 0.48 0.33 0.41 0.39 0.44 0.44 0.38 0.34 0.35 0.42 0.41 0.43 0.40 0.46 -9999 -9999 -9999 -9999 -9999 -9999 -9999 -9999 -9999 -9999 -9999 -9999 -9999 -9999 -9999 -9999 -9999 -9999 -9999 -9999 -9999 -9999 -9999 -9999 -9999 -9999 -9999 -9999 -9999 -9999 -9999 -9999 -9999 -9999 -9999 -9999 -9999 -9999 -9999
0.41 0.36 0.45 0.33 0.51 0.47 0.46 0.52 0.52 0.50 0.46 0.33 0.37 0.46 0.45 0.39 0.44 0.42 0.41 0.34 0.45 0.46 0.42 0.40 0.40 0.35 0.44 0.45 0.39 0.43 0.37 0.43 0.52 0.39 0.48 0.35 0.42 0.44 0.45 0.45 0.33 0.50 0.50 0.51 0.50 0.52 0.50 0.40 0.43 0.48 0.41 0.37 0.47 0.46 0.39 0.50 0.50 0.33 0.42 0.48 0.45 0.45 0.34 0.38 0.41 0.34 0.50 0.47 0.44 0.51 0.49 0.39 0.51 0.33 0.45 0.48 0.41 0.50 0.33 0.46 0.49 0.43 0.50 0.50 0.42 0.49 0.48 0.43 0.34 0.39 0.52 0.40 0.37 0.48 0.51 0.33 0.37 0.48 0.48 0.35 0.42 0.42 0.49 0.38 0.35 0.42 0.39 0.35 0.39 0.43 0.36 0.35 0.40 0.37 0.41 0.42 0.42 0.36 0.50 0.39 0.50 0.34 0.44 0.52 0.48 0.37 0.48 0.40 0.42 0.37 0.39 0.46 0.35 0.36 0.42 0.48 0.33 0.45 0.40 0.52 0.47 0.48 0.46 0.48 0.49 0.39 0.45 0.49 0.52 0.39 0.35 0.34 0.42 0.47 0.52 0.51 0.38 0.46 0.37 0.52 0.52 0.41 0.44 0.35 0.45 0.49 0.47 0.42 0.47 0.50 0.48 0.51 0.37 0.52 0.33 0.42 -9999 -9999 -9999 -9999 -9999 -9999 -9999 -9999 -9999 -9999 -9999 -9999 -9999 -9999 -9999 -9999 -9999 -9999 -9999 -9999 -9999 -9999 -9999 -9999 -9999 -9999 -9999 -9999 -9999 -9999 -9999 -9999 -9999 -9999 -9999 -9999 -9999 -9999 -9999
0.46 0.44 0.36 0.37 0.50 0.48 0.40 0.43 0.50 0.52 0.44 0.34 0.52 0.52 0.49 0.43 0.42 0.43 0.38 0.51 0.43 0.46 0.46 0.51 0.40 0.50 0.36 0.38 0.45 0.38 0.39 0.40 0.46 0.50 0.35 0.37 0.49 0.37 0.45 0.35 0.50 0.45 0.42 0.51 0.36 0.38 0.51 0.33 0.52 0.40 0.36 0.49 0.40 0.45 0.50 0.45 0.51 0.47 0.43 0.52 0.49 0.34 0.44 0.48 0.39 0.40 0.37 0.34 0.41 0.51 0.47 0.41 0.52 0.45 0.49 0.47 0.39 0.41 0.44 0.47 0.38 0.39 0.48 0.37 0.49 0.52 0.49 0.41 0.33 0.52 0.48 0.35 0.46 0.42 0.44 0.40 0.41 0.35 0.34 0.44 0.46 0.44 0.51 0.50 0.38 0.34 0.50 0.43 0.51 0.47 0.49 0.33 0.52 0.48 0.48 0.43 0.39 0.52 0.50 0.49 0.44 0.52 0.36 0.37 0.42 0.35 0.37 0.34 0.39 0.35 0.34 0.41 0.44 0.50 0.43 0.40 0.45 0.46 0.34 0.40 0.42 0.50 0.44 0.51 0.44 0.53 0.51 0.49 0.43 0.42 0.36 0.49 0.40 0.38 0.46 0.42 0.51 0.42 0.39 0.35 0.44 0.52 0.43 0.36 0.47 0.49 0.38 0.46 0.49 0.44 0.41 0.49 0.35 0.34 0.33 0.44 -9999 -9999 -9999 -9999 -9999 -9999 -9999 -9999 -9999 -9999 -9999 -9999 -9999 -9999 -9999 -9999 -9999 -9999 -9999 -9999 -9999 -9999 -9999 -9999 -9999 -9999 -9999 -9999 -9999 -9999 -9999 -9999 -9999 -9999 -9999 -9999 -9999 -9999 -9999
0.52 0.46 0.49 0.41 0.40 0.51 0.50 0.46 0.42 0.51 0.52 0.47 0.53 0.37 0.52 0.40 0.37 0.44 0.41 0.48 0.34 0.36 0.47 0.36 0.49 0.41 0.35 0.46 0.38 0.36 0.51 0.40 0.49 0.52 0.37 0.47 0.35 0.42 0.52 0.37 0.49 0.35 0.39 0.36 0.51 0.43 0.51 0.40 0.48 0.46 0.37 0.37 0.44 0.47 0.45 0.35 0.51 0.37 0.41 0.34 0.41 0.36 0.52 0.43 0.44 0.49 0.42 0.42 0.48 0.40 0.44 0.49 0.38 0.48 0.37 0.45 0.48 0.49 0.39 0.49 0.33 0.34 0.40 0.51 0.45 0.36 0.49 0.51 0.46 0.39 0.40 0.41 0.52 0.36 0.42 0.35 0.43 0.34 0.45 0.34 0.48 0.34 0.37 0.51 0.45 0.49 0.51 0.38 0.49 0.39 0.42 0.40 0.51 0.35 0.45 0.52 0.40 0.50 0.49 0.37 0.42 0.47 0.43 0.45 0.47 0.37 0.46 0.34 0.50 0.52 0.51 0.38 0.45 0.38 0.52 0.35 0.40 0.52 0.49 0.37 0.43 0.42 0.43 0.47 0.39 0.40 0.35 0.50 0.47 0.41 0.50 0.47 0.41 0.45 0.45 0.47 0.45 0.51 0.36 0.46 0.42 0.46 0.49 0.44 0.35 0.47 0.43 0.51 0.50 0.35 0.50 0.35 0.42 0.34 0.43 0.37 0.49 -9999 -9999 -9999 -9999 -9999 -9999 -9999 -9999 -9999 -9999 -9999 -9999 -9999 -9999 -9999 -9999 -9999 -9999 -9999 -9999 -9999 -9999 -9999 -9999 -9999 -9999 -9999 -9999 -9999 -9999 -9999 -9999 -9999 -9999 -9999 -9999 -9999 -9999
0.49 0.43 0.41 0.41 0.36 0.47 0.39 0.36 0.33 0.39 0.51 0.39 0.52 0.47 0.45 0.52 0.41 0.40 0.43 0.34 0.46 0.46 0.48 0.36 0.40 0.37 0.46 0.38 0.42 0.48 0.49 0.43 0.52 0.42 0.35 0.41 0.35 0.36 0.48 0.48 0.50 0.46 0.33 0.42 0.48 0.41 0.34 0.39 0.44 0.37 0.36 0.43 0.40 0.46 0.36 0.43 0.39 0.41 0.35 0.42 0.36 0.39 0.46 0.34 0.49 0.33 0.46 0.34 0.42 0.41 0.42 0.40 0.39 0.46 0.44 0.37 0.48 0.34 0.52 0.39 0.41 0.46 0.33 0.42 0.35 0.50 0.38 0.44 0.45 0.43 0.50 0.49 0.35 0.39 0.52 0.38 0.45 0.34 0.43 0.47 0.35 0.36 0.51 0.47 0.39 0.47 0.37 0.50 0.36 0.39 0.40 0.47 0.35 0.40 0.52 0.47 0.42 0.42 0.41 0.43 0.46 0.39 0.33 0.38 0.46 0.42 0.51 0.47 0.50 0.49 0.36 0.36 0.45 0.43 0.35 0.49 0.48 0.51 0.38 0.42 0.47 0.47 0.41 0.44 0.38 0.52 0.41 0.44 0.43 0.46 0.34 0.34 0.43 0.43 0.46 0.52 0.47 0.38 0.48 0.51 0.36 0.38 0.45 0.35 0.43 0.48 0.40 0.40 0.50 0.36 0.50 0.37 0.35 0.41 0.40 0.42 0.41 -9999 -9999 -9999 -9999 -9999 -9999 -9999 -9999 -9999 -9999 -9999 -9999 -9999 -9999 -9999 -9999 -9999 -9999 -9999 -9999 -9999 -9999 -9999 -9999 -9999 -9999 -9999 -9999 -9999 -9999 -9999 -9999 -9999 -9999 -9999 -9999 -9999 -9999
0.34 0.39 0.48 0.39 0.39 0.49 0.35 0.38 0.33 0.34 0.34 0.49 0.45 0.41 0.52 0.51 0.49 0.44 0.52 0.39 0.40 0.37 0.43 0.37 0.46 0.43 0.41 0.43 0.38 0.49 0.50 0.41 0.33 0.44 0.43 0.46 0.52 0.44 0.48 0.36 0.44 0.49 0.50 0.44 0.52 0.37 0.39 0.38 0.34 0.45 0.45 0.44 0.37 0.44 0.36 0.50 0.33 0.50 0.45 0.40 0.47 0.36 0.41 0.49 0.45 0.49 0.35 0.44 0.37 0.40 0.51 0.53 0.52 0.51 0.47 0.34 0.38 0.35 0.36 0.48 0.46 0.37 0.34 0.37 0.39 0.51 0.34 0.43 0.45 0.33 0.45 0.44 0.39 0.35 0.36 0.39 0.38 0.41 0.40 0.47 0.41 0.41 0.41 0.45 0.36 0.42 0.41 0.36 0.49 0.44 0.47 0.33 0.42 0.36 0.38 0.48 0.36 0.48 0.48 0.36 0.38 0.33 0.47 0.35 0.39 0.42 0.33 0.33 0.50 0.50 0.49 0.45 0.47 0.51 0.43 0.51 0.35 0.44 0.39 0.44 0.49 0.51 0.49 0.35 0.45 0.44 0.43 0.46 0.49 0.47 0.48 0.40 0.43 0.41 0.53 0.42 0.40 0.42 0.38 0.41 0.51 0.33 0.37 0.40 0.40 0.47 0.44 0.41 0.36 0.44 0.35 0.52 0.33 0.39 0.41 0.38 0.34 -9999 -9999 -9999 -9999 -9999 -9999 -9999 -9999 -9999 -9999 -9999 -9999 -9999 -9999 -9999 -9999 -9999 -9999 -9999 -9999 -9999 -9999 -9999 -9999 -9999 -9999 -9999 -9999 -9999 -9999 -9999 -9999 -9999 -9999 -9999 -9999 -9999 -9999
0.33 0.41 0.48 0.39 0.45 0.50 0.47 0.50 0.45 0.40 0.38 0.42 0.42 0.43 0.44 0.35 0.48 0.37 0.38 0.36 0.46 0.45 0.35 0.36 0.53 0.42 0.39 0.49 0.35 0.45 0.48 0.37 0.49 0.35 0.44 0.37 0.49 0.49 0.37 0.37 0.33 0.46 0.42 0.50 0.39 0.40 0.49 0.50 0.44 0.36 0.49 0.47 0.48 0.43 0.51 0.33 0.45 0.34 0.49 0.39 0.47 0.47 0.44 0.52 0.44 0.39 0.51 0.48 0.43 0.51 0.44 0.48 0.35 0.48 0.52 0.34 0.41 0.37 0.52 0.40 0.51 0.41 0.40 0.37 0.48 0.41 0.50 0.33 0.47 0.46 0.40 0.37 0.35 0.41 0.40 0.38 0.44 0.43 0.42 0.44 0.37 0.39 0.50 0.46 0.37 0.41 0.37 0.39 0.41 0.44 0.39 0.52 0.40 0.37 0.38 0.52 0.47 0.49 0.46 0.34 0.33 0.38 0.50 0.46 0.50 0.51 0.44 0.42 0.41 0.40 0.43 0.40 0.35 0.35 0.45 0.44 0.45 0.40 0.34 0.52 0.35 0.35 0.50 0.33 0.51 0.39 0.38 0.50 0.46 0.52 0.51 0.39 0.50 0.34 0.38 0.45 0.42 0.41 0.50 0.50 0.48 0.39 0.34 0.52 0.44 0.35 0.44 0.50 0.50 0.52 0.44 0.51 0.44 0.45 0.44 0.43 0.49 -9999 -9999 -9999 -9999 -9999 -9999 -9999 -9999 -9999 -9999 -9999 -9999 -9999 -9999 -9999 -9999 -9999 -9999 -9999 -9999 -9999 -9999 -9999 -9999 -9999 -9999 -9999 -9999 -9999 -9999 -9999 -9999 -9999 -9999 -9999 -9999 -9999 -9999
0.37 0.38 0.44 0.44 0.34 0.52 0.49 0.35 0.38 0.33 0.39 0.44 0.50 0.46 0.48 0.46 0.40 0.36 0.46 0.47 0.47 0.46 0.46 0.34 0.50 0.51 0.36 0.51 0.45 0.49 0.37 0.41 0.41 0.47 0.44 0.50 0.50 0.43 0.52 0.45 0.47 0.51 0.41 0.44 0.36 0.45 0.52 0.45 0.35 0.51 0.51 0.35 0.39 0.46 0.49 0.48 0.41 0.41 0.38 0.41 0.51 0.44 0.42 0.40 0.49 0.44 0.40 0.48 0.39 0.45 0.44 0.34 0.35 0.36 0.49 0.33 0.41 0.39 0.37 0.47 0.42 0.49 0.48 0.48 0.48 0.41 0.46 0.42 0.43 0.36 0.37 0.46 0.37 0.42 0.49 0.48 0.33 0.46 0.43 0.47 0.41 0.48 0.50 0.45 0.47 0.53 0.46 0.46 0.41 0.37 0.33 0.37 0.36 0.44 0.50 0.34 0.43 0.43 0.39 0.41 0.47 0.35 0.48 0.40 0.48 0.45 0.49 0.37 0.41 0.41 0.42 0.52 0.42 0.44 0.40 0.52 0.50 0.34 0.52 0.38 0.47 0.34 0.40 0.34 0.37 0.40 0.47 0.42 0.45 0.34 0.37 0.46 0.50 0.49 0.34 0.52 0.36 0.41 0.33 0.37 0.34 0.49 0.50 0.47 0.36 0.47 0.47 0.37 0.45 0.38 0.44 0.50 0.51 0.37 0.36 0.46 0.43 -9999 -9999 -9999 -9999 -9999 -9999 -9999 -9999 -9999 -9999 -9999 -9999 -9999 -9999 -9999 -9999 -9999 -9999 -9999 -9999 -9999 -9999 -9999 -9999 -9999 -9999 -9999 -9999 -9999 -9999 -9999 -9999 -9999 -9999 -9999 -9999 -9999 -9999
0.48 0.50 0.41 0.44 0.35 0.50 0.51 0.41 0.42 0.37 0.46 0.38 0.45 0.52 0.40 0.41 0.45 0.48 0.44 0.44 0.45 0.34 0.49 0.47 0.36 0.52 0.36 0.48 0.50 0.34 0.45 0.48 0.45 0.36 0.39 0.36 0.34 0.37 0.35 0.33 0.45 0.45 0.36 0.38 0.41 0.39 0.43 0.40 0.49 0.41 0.33 0.47 0.48 0.42 0.46 0.44 0.40 0.37 0.47 0.38 0.43 0.43 0.37 0.52 0.46 0.44 0.39 0.36 0.42 0.34 0.39 0.38 0.50 0.48 0.44 0.45 0.46 0.35 0.52 0.46 0.33 0.45 0.41 0.35 0.36 0.47 0.49 0.48 0.47 0.52 0.37 0.42 0.49 0.41 0.36 0.52 0.47 0.45 0.48 0.41 0.36 0.44 0.36 0.46 0.36 0.45 0.49 0.37 0.52 0.52 0.36 0.40 0.38 0.40 0.33 0.44 0.48 0.35 0.36 0.51 0.39 0.51 0.33 0.35 0.49 0.47 0.39 0.35 0.50 0.46 0.46 0.39 0.43 0.41 0.41 0.40 0.39 0.47 0.36 0.52 0.50 0.49 0.45 0.35 0.36 0.39 0.37 0.38 0.41 0.37 0.38 0.49 0.41 0.47 0.39 0.52 0.48 0.52 0.33 0.37 0.37 0.46 0.37 0.36 0.41 0.37 0.42 0.45 0.40 0.47 0.36 0.36 0.39 0.39 0.49 0.41 0.52 -9999 -9999 -9999 -9999 -9999 -9999 -9999 -9999 -9999 -9999 -9999 -9999 -9999 -9999 -9999 -9999 -9999 -9999 -9999 -9999 -9999 -9999 -9999 -9999 -9999 -9999 -9999 -9999 -9999 -9999 -9999 -9999 -9999 -9999 -9999 -9999 -9999 -9999
0.50 0.48 0.45 0.45 0.45 0.49 0.48 0.49 0.45 0.36 0.41 0.40 0.46 0.49 0.50 0.47 0.38 0.41 0.35 0.41 0.38 0.52 0.41 0.46 0.41 0.43 0.40 0.38 0.35 0.51 0.52 0.47 0.35 0.43 0.44 0.33 0.38 0.44 0.44 0.50 0.52 0.45 0.51 0.51 0.46 0.38 0.41 0.49 0.38 0.36 0.43 0.40 0.51 0.34 0.48 0.46 0.37 0.44 0.38 0.36 0.35 0.45 0.34 0.51 0.42 0.37 0.34 0.50 0.36 0.41 0.33 0.51 0.36 0.36 0.35 0.37 0.40 0.40 0.40 0.47 0.42 0.52 0.38 0.38 0.38 0.45 0.43 0.39 0.42 0.49 0.38 0.33 0.50 0.44 0.51 0.35 0.52 0.34 0.42 0.42 0.41 0.48 0.48 0.41 0.46 0.40 0.47 0.41 0.39 0.36 0.33 0.46 0.41 0.51 0.34 0.52 0.36 0.36 0.35 0.33 0.47 0.47 0.34 0.47 0.52 0.34 0.35 0.43 0.35 0.47 0.48 0.53 0.35 0.40 0.50 0.42 0.39 0.53 0.40 0.50 0.46 0.43 0.40 0.34 0.46 0.49 0.34 0.39 0.44 0.46 0.47 0.37 0.45 0.44 0.38 0.38 0.41 0.36 0.34 0.45 0.39 0.51 0.41 0.43 0.38 0.49 0.35 0.41 0.33 0.34 0.37 0.39 0.41 0.44 0.41 0.42 0.50 0.48 -9999 -9999 -9999 -9999 -9999 -9999 -9999 -9999 -9999 -9999 -9999 -9999 -9999 -9999 -9999 -9999 -9999 -9999 -9999 -9999 -9999 -9999 -9999 -9999 -9999 -9999 -9999 -9999 -9999 -9999 -9999 -9999 -9999 -9999 -9999 -9999 -9999
0.37 0.50 0.48 0.44 0.36 0.48 0.41 0.51 0.38 0.42 0.49 0.52 0.38 0.36 0.35 0.38 0.47 0.34 0.51 0.33 0.34 0.39 0.45 0.46 0.52 0.39 0.44 0.42 0.43 0.40 0.43 0.36 0.50 0.41 0.45 0.35 0.45 0.40 0.40 0.48 0.52 0.44 0.39 0.39 0.47 0.50 0.40 0.37 0.35 0.39 0.42 0.47 0.52 0.33 0.42 0.37 0.38 0.52 0.52 0.42 0.34 0.49 0.47 0.48 0.49 0.41 0.52 0.49 0.48 0.50 0.44 0.44 0.44 0.47 0.39 0.36 0.37 0.42 0.33 0.38 0.42 0.41 0.51 0.45 0.42 0.36 0.42 0.42 0.45 0.41 0.48 0.34 0.42 0.48 0.45 0.45 0.45 0.49 0.42 0.50 0.41 0.36 0.39 0.46 0.41 0.40 0.44 0.33 0.45 0.51 0.49 0.45 0.44 0.39 0.34 0.52 0.52 0.50 0.33 0.51 0.47 0.41 0.52 0.48 0.35 0.40 0.44 0.50 0.52 0.44 0.44 0.37 0.46 0.39 0.44 0.49 0.51 0.43 0.52 0.51 0.47 0.51 0.38 0.44 0.48 0.47 0.33 0.44 0.38 0.48 0.35 0.34 0.38 0.41 0.41 0.47 0.39 0.41 0.35 0.50 0.37 0.50 0.44 0.44 0.45 0.37 0.36 0.35 0.38 0.33 0.39 0.37 0.44 0.51 0.36 0.39 0.41 0.47 -9999 -9999 -9999 -9999 -9999 -9999 -9999 -9999 -9999 -9999 -9999 -9999 -9999 -9999 -9999 -9999 -9999 -9999 -9999 -9999 -9999 -9999 -9999 -9999 -9999 -9999 -9999 -9999 -9999 -9999 -9999 -9999 -9999 -9999 -9999 -9999 -9999
0.48 0.34 0.49 0.52 0.42 0.43 0.35 0.47 0.48 0.46 0.38 0.48 0.44 0.44 0.40 0.52 0.44 0.50 0.35 0.51 0.45 0.47 0.35 0.41 0.52 0.47 0.34 0.37 0.44 0.45 0.41 0.47 0.50 0.38 0.35 0.36 0.39 0.51 0.48 0.50 0.50 0.41 0.44 0.49 0.40 0.37 0.33 0.39 0.50 0.42 0.44 0.49 0.52 0.35 0.51 0.40 0.46 0.37 0.41 0.49 0.43 0.46 0.40 0.35 0.52 0.45 0.35 0.51 0.36 0.36 0.41 0.48 0.49 0.34 0.35 0.48 0.38 0.51 0.51 0.49 0.35 0.38 0.38 0.43 0.34 0.50 0.42 0.33 0.38 0.42 0.49 0.48 0.46 0.38 0.41 0.43 0.41 0.48 0.38 0.52 0.51 0.40 0.37 0.51 0.43 0.34 0.38 0.39 0.50 0.49 0.52 0.41 0.33 0.52 0.45 0.46 0.36 0.43 0.48 0.48 0.45 0.52 0.38 0.39 0.47 0.37 0.51 0.42 0.44 0.44 0.53 0.37 0.40 0.40 0.41 0.49 0.44 0.50 0.49 0.47 0.44 0.39 0.44 0.38 0.51 0.38 0.50 0.39 0.35 0.36 0.50 0.49 0.48 0.36 0.43 0.36 0.52 0.52 0.50 0.37 0.49 0.37 0.49 0.43 0.44 0.47 0.51 0.44 0.45 0.40 0.49 0.52 0.52 0.38 0.51 0.48 0.52 0.48 -9999 -9999 -9999 -9999 -9999 -9999 -9999 -9999 -9999 -9999 -9999 -9999 -9999 -9999 -9999 -9999 -9999 -9999 -9999 -9999 -9999 -9999 -9999 -9999 -9999 -9999 -9999 -9999 -9999 -9999 -9999 -9999 -9999 -9999 -9999 -9999 -9999
0.47 0.43 0.47 0.48 0.52 0.53 0.50 0.42 0.34 0.46 0.38 0.45 0.52 0.48 0.49 0.51 0.37 0.49 0.46 0.42 0.33 0.33 0.34 0.35 0.35 0.41 0.38 0.41 0.48 0.46 0.42 0.51 0.44 0.44 0.41 0.51 0.49 0.34 0.38 0.35 0.42 0.34 0.44 0.52 0.35 0.46 0.47 0.38 0.42 0.48 0.45 0.42 0.42 0.33 0.36 0.41 0.44 0.49 0.44 0.43 0.41 0.39 0.45 0.47 0.50 0.52 0.42 0.41 0.40 0.44 0.52 0.37 0.48 0.33 0.49 0.45 0.45 0.47 0.48 0.46 0.34 0.45 0.49 0.45 0.38 0.36 0.39 0.49 0.36 0.47 0.42 0.40 0.52 0.36 0.53 0.44 0.48 0.46 0.41 0.38 0.43 0.39 0.34 0.34 0.46 0.51 0.39 0.36 0.40 0.43 0.43 0.47 0.36 0.51 0.43 0.47 0.38 0.41 0.49 0.33 0.50 0.52 0.44 0.39 0.39 0.49 0.52 0.33 0.44 0.38 0.37 0.45 0.40 0.42 0.48 0.43 0.40 0.39 0.34 0.37 0.47 0.34 0.38 0.52 0.45 0.42 0.42 0.35 0.39 0.48 0.45 0.41 0.45 0.45 0.36 0.47 0.42 0.48 0.40 0.40 0.48 0.47 0.50 0.40 0.47 0.52 0.51 0.49 0.41 0.41 0.37 0.42 0.36 0.51 0.52 0.34 0.33 0.50 -9999 -9999 -9999 -9999 -9999 -9999 -9999 -9999 -9999 -9999 -9999 -9999 -9999 -9999 -9999 -9999 -9999 -9999 -9999 -9999 -9999 -9999 -9999 -9999 -9999 -9999 -9999 -9999 -9999 -9999 -9999 -9999 -9999 -9999 -9999 -9999 -9999
0.42 0.37 0.45 0.49 0.39 0.50 0.45 0.49 0.49 0.40 0.43 0.36 0.52 0.50 0.45 0.39 0.36 0.34 0.42 0.34 0.40 0.48 0.36 0.39 0.42 0.48 0.36 0.48 0.36 0.49 0.40 0.42 0.38 0.33 0.33 0.49 0.42 0.43 0.37 0.34 0.39 0.39 0.36 0.40 0.48 0.36 0.45 0.50 0.46 0.39 0.42 0.49 0.43 0.51 0.38 0.47 0.50 0.47 0.48 0.40 0.50 0.33 0.37 0.42 0.46 0.37 0.50 0.43 0.48 0.38 0.44 0.34 0.45 0.35 0.38 0.44 0.33 0.48 0.36 0.52 0.47 0.47 0.41 0.49 0.41 0.34 0.33 0.46 0.52 0.36 0.36 0.44 0.41 0.42 0.40 0.36 0.51 0.34 0.47 0.49 0.47 0.45 0.49 0.45 0.33 0.38 0.35 0.46 0.43 0.50 0.34 0.45 0.45 0.48 0.46 0.40 0.47 0.33 0.34 0.37 0.50 0.39 0.37 0.48 0.42 0.46 0.37 0.46 0.51 0.44 0.37 0.48 0.38 0.49 0.44 0.38 0.34 0.50 0.48 0.49 0.39 0.39 0.46 0.44 0.33 0.45 0.43 0.47 0.37 0.41 0.41 0.40 0.36 0.36 0.37 0.38 0.33 0.46 0.44 0.36 0.39 0.51 0.47 0.48 0.39 0.49 0.34 0.51 0.44 0.37 0.50 0.45 0.34 0.33 0.39 0.48 0.33 0.33 -9999 -9999 -9999 -9999 -9999 -9999 -9999 -9999 -9999 -9999 -9999 -9999 -9999 -9999 -9999 -9999 -9999 -9999 -9999 -9999 -9999 -9999 -9999 -9999 -9999 -9999 -9999 -9999 -9999 -9999 -9999 -9999 -9999 -9999 -9999 -9999 -9999
0.36 0.51 0.35 0.46 0.44 0.39 0.41 0.48 0.40 0.46 0.41 0.39 0.37 0.49 0.39 0.46 0.36 0.44 0.41 0.34 0.50 0.37 0.52 0.46 0.49 0.51 0.35 0.49 0.43 0.40 0.42 0.39 0.35 0.40 0.52 0.38 0.38 0.39 0.44 0.35 0.49 0.39 0.45 0.36 0.44 0.52 0.41 0.34 0.47 0.50 0.40 0.52 0.51 0.41 0.49 0.35 0.51 0.34 0.37 0.39 0.44 0.45 0.34 0.37 0.40 0.46 0.34 0.40 0.34 0.41 0.34 0.44 0.47 0.39 0.37 0.36 0.36 0.50 0.33 0.37 0.42 0.37 0.52 0.41 0.44 0.50 0.42 0.41 0.44 0.44 0.44 0.50 0.35 0.42 0.45 0.33 0.49 0.46 0.42 0.44 0.33 0.37 0.48 0.49 0.38 0.39 0.39 0.43 0.41 0.40 0.45 0.45 0.41 0.46 0.50 0.46 0.46 0.48 0.46 0.33 0.50 0.36 0.49 0.34 0.47 0.49 0.41 0.42 0.36 0.48 0.40 0.48 0.41 0.45 0.37 0.37 0.47 0.48 0.41 0.45 0.34 0.39 0.36 0.51 0.51 0.44 0.43 0.36 0.41 0.33 0.52 0.33 0.40 0.50 0.34 0.40 0.46 0.41 0.52 0.33 0.48 0.46 0.51 0.44 0.41 0.34 0.44 0.41 0.50 0.49 0.51 0.51 0.47 0.50 0.33 0.38 0.49 0.45 -9999 -9999 -9999 -9999 -9999 -9999 -9999 -9999 -9999 -9999 -9999 -9999 -9999 -9999 -9999 -9999 -9999 -9999 -9999 -9999 -9999 -9999 -9999 -9999 -9999 -9999 -9999 -9999 -9999 -9999 -9999 -9999 -9999 -9999 -9999 -9999 -9999
0.36 0.42 0.47 0.47 0.49 0.34 0.52 0.49 0.45 0.48 0.46 0.49 0.37 0.50 0.35 0.48 0.37 0.52 0.46 0.45 0.51 0.45 0.34 0.49 0.51 0.46 0.37 0.44 0.37 0.35 0.41 0.46 0.49 0.48 0.37 0.41 0.40 0.35 0.52 0.35 0.47 0.38 0.53 0.50 0.38 0.35 0.38 0.50 0.42 0.33 0.33 0.37 0.40 0.49 0.50 0.48 0.47 0.40 0.43 0.34 0.39 0.42 0.48 0.39 0.41 0.47 0.48 0.37 0.41 0.48 0.52 0.45 0.46 0.47 0.51 0.42 0.37 0.38 0.33 0.50 0.42 0.37 0.51 0.50 0.34 0.49 0.48 0.36 0.48 0.45 0.39 0.49 0.35 0.34 0.44 0.34 0.35 0.47 0.52 0.38 0.43 0.51 0.41 0.43 0.34 0.36 0.37 0.39 0.43 0.43 0.46 0.39 0.48 0.40 0.34 0.47 0.39 0.49 0.49 0.39 0.42 0.45 0.47 0.49 0.48 0.37 0.46 0.42 0.37 0.50 0.52 0.39 0.40 0.36 0.42 0.46 0.52 0.43 0.45 0.36 0.39 0.49 0.33 0.34 0.37 0.52 0.51 0.40 0.39 0.49 0.42 0.33 0.51 0.36 0.46 0.45 0.50 0.42 0.39 0.34 0.51 0.39 0.35 0.44 0.35 0.42 0.47 0.40 0.35 0.50 0.42 0.52 0.37 0.36 0.46 0.43 0.37 0.37 0.49 -9999 -9999 -9999 -9999 -9999 -9999 -9999 -9999 -9999 -9999 -9999 -9999 -9999 -9999 -9999 -9999 -9999 -9999 -9999 -9999 -9999 -9999 -9999 -9999 -9999 -9999 -9999 -9999 -9999 -9999 -9999 -9999 -9999 -9999 -9999 -9999
0.49 0.46 0.35 0.38 0.42 0.34 0.38 0.43 0.45 0.42 0.45 0.45 0.47 0.39 0.38 0.50 0.50 0.49 0.43 0.39 0.44 0.36 0.36 0.36 0.51 0.47 0.47 0.51 0.35 0.44 0.44 0.52 0.51 0.43 0.37 0.46 0.47 0.48 0.34 0.35 0.34 0.49 0.33 0.38 0.52 0.41 0.52 0.36 0.40 0.48 0.43 0.37 0.47 0.45 0.46 0.36 0.51 0.39 0.33 0.37 0.39 0.51 0.52 0.35 0.42 0.40 0.34 0.41 0.37 0.34 0.41 0.48 0.38 0.46 0.50 0.39 0.48 0.44 0.50 0.40 0.48 0.48 0.52 0.48 0.43 0.51 0.40 0.52 0.35 0.48 0.35 0.33 0.43 0.45 0.49 0.44 0.43 0.35 0.40 0.43 0.44 0.44 0.52 0.46 0.39 0.45 0.41 0.43 0.49 0.34 0.37 0.48 0.47 0.43 0.34 0.37 0.37 0.46 0.50 0.37 0.35 0.41 0.39 0.43 0.46 0.36 0.46 0.33 0.48 0.39 0.46 0.39 0.33 0.49 0.33 0.35 0.41 0.51 0.34 0.45 0.52 0.45 0.49 0.41 0.49 0.51 0.42 0.42 0.44 0.40 0.45 0.52 0.45 0.35 0.35 0.49 0.43 0.41 0.44 0.36 0.47 0.36 0.43 0.36 0.36 0.48 0.40 0.42 0.49 0.47 0.37 0.38 0.51 0.33 0.38 0.38 0.45 0.50 0.41 -9999 -9999 -9999 -9999 -9999 -9999 -9999 -9999 -9999 -9999 -9999 -9999 -9999 -9999 -9999 -9999 -9999 -9999 -9999 -9999 -9999 -9999 -9999 -9999 -9999 -9999 -9999 -9999 -9999 -9999 -9999 -9999 -9999 -9999 -9999 -9999
0.43 0.45 0.39 0.35 0.50 0.39 0.39 0.47 0.33 0.50 0.50 0.46 0.50 0.51 0.35 0.39 0.49 0.42 0.37 0.46 0.38 0.36 0.46 0.48 0.39 0.43 0.35 0.51 0.40 0.43 0.49 0.47 0.41 0.33 0.37 0.47 0.44 0.52 0.42 0.33 0.33 0.44 0.38 0.48 0.43 0.40 0.41 0.49 0.39 0.52 0.37 0.49 0.40 0.47 0.47 0.46 0.53 0.37 0.43 0.36 0.44 0.37 0.42 0.42 0.37 0.37 0.47 0.49 0.49 0.45 0.41 0.39 0.51 0.51 0.42 0.52 0.35 0.42 0.43 0.45 0.39 0.37 0.51 0.51 0.47 0.51 0.33 0.33 0.37 0.33 0.36 0.36 0.50 0.36 0.45 0.40 0.44 0.40 0.38 0.33 0.35 0.49 0.34 0.40 0.37 0.44 0.39 0.38 0.44 0.48 0.41 0.34 0.52 0.53 0.44 0.51 0.41 0.35 0.36 0.44 0.51 0.38 0.41 0.48 0.46 0.53 0.45 0.51 0.46 0.38 0.38 0.37 0.51 0.48 0.49 0.52 0.51 0.51 0.39 0.49 0.37 0.49 0.49 0.39 0.44 0.35 0.47 0.33 0.46 0.41 0.39 0.50 0.47 0.39 0.38 0.45 0.37 0.39 0.40 0.40 0.37 0.49 0.44 0.50 0.39 0.36 0.43 0.52 0.50 0.46 0.43 0.48 0.33 0.43 0.37 0.35 0.33 0.38 0.51 -9999 -9999 -9999 -9999 -9999 -9999 -9999 -9999 -9999 -9999 -9999 -9999 -9999 -9999 -9999 -9999 -9999 -9999 -9999 -9999 -9999 -9999 -9999 -9999 -9999 -9999 -9999 -9999 -9999 -9999 -9999 -9999 -9999 -9999 -9999 -9999
0.33 0.38 0.34 0.39 0.41 0.45 0.34 0.35 0.42 0.34 0.53 0.34 0.41 0.43 0.43 0.39 0.49 0.34 0.35 0.34 0.35 0.39 0.41 0.35 0.34 0.39 0.47 0.45 0.50 0.39 0.33 0.39 0.50 0.50 0.48 0.48 0.39 0.49 0.48 0.45 0.52 0.40 0.37 0.46 0.47 0.52 0.50 0.37 0.41 0.35 0.42 0.35 0.38 0.38 0.38 0.50 0.51 0.48 0.38 0.36 0.48 0.38 0.52 0.33 0.46 0.37 0.47 0.43 0.46 0.39 0.35 0.48 0.34 0.42 0.37 0.49 0.40 0.47 0.37 0.45 0.38 0.50 0.47 0.39 0.41 0.47 0.36 0.34 0.40 0.37 0.44 0.46 0.33 0.50 0.47 0.50 0.34 0.47 0.37 0.42 0.36 0.48 0.52 0.47 0.38 0.43 0.51 0.37 0.35 0.40 0.51 0.50 0.52 0.47 0.36 0.40 0.42 0.49 0.35 0.39 0.45 0.35 0.49 0.46 0.35 0.35 0.46 0.42 0.46 0.45 0.48 0.52 0.43 0.45 0.36 0.35 0.40 0.36 0.38 0.41 0.52 0.37 0.52 0.52 0.37 0.37 0.41 0.46 0.45 0.45 0.45 0.51 0.34 0.41 0.34 0.34 0.38 0.41 0.47 0.49 0.39 0.39 0.44 0.40 0.50 0.48 0.43 0.46 0.47 0.49 0.38 0.50 0.38 0.34 0.50 0.36 0.41 0.52 0.47 -9999 -9999 -9999 -9999 -9999 -9999 -9999 -9999 -9999 -9999 -9999 -9999 -9999 -9999 -9999 -9999 -9999 -9999 -9999 -9999 -9999 -9999 -9999 -9999 -9999 -9999 -9999 -9999 -9999 -9999 -9999 -9999 -9999 -9999 -9999 -9999
0.48 0.46 0.35 0.34 0.49 0.40 0.47 0.48 0.43 0.41 0.36 0.46 0.37 0.44 0.34 0.37 0.51 0.52 0.49 0.40 0.48 0.49 0.39 0.51 0.36 0.36 0.35 0.46 0.44 0.50 0.43 0.51 0.43 0.35 0.43 0.44 0.50 0.47 0.39 0.36 0.42 0.47 0.46 0.51 0.37 0.52 0.36 0.42 0.52 0.39 0.46 0.36 0.53 0.44 0.39 0.38 0.35 0.38 0.51 0.47 0.41 0.37 0.47 0.47 0.40 0.40 0.38 0.50 0.48 0.36 0.38 0.43 0.48 0.42 0.34 0.43 0.49 0.35 0.34 0.37 0.34 0.52 0.40 0.39 0.49 0.44 0.42 0.48 0.50 0.45 0.33 0.35 0.47 0.40 0.47 0.50 0.46 0.43 0.37 0.38 0.35 0.44 0.34 0.49 0.49 0.50 0.52 0.39 0.51 0.50 0.39 0.50 0.43 0.52 0.44 0.37 0.44 0.36 0.46 0.46 0.38 0.47 0.51 0.45 0.46 0.33 0.37 0.40 0.35 0.37 0.37 0.51 0.45 0.45 0.46 0.40 0.36 0.43 0.44 0.46 0.41 0.49 0.45 0.50 0.35 0.33 0.45 0.44 0.36 0.51 0.33 0.35 0.44 0.33 0.51 0.47 0.51 0.52 0.36 0.38 0.38 0.48 0.46 0.48 0.51 0.50 0.35 0.52 0.41 0.42 0.49 0.52 0.38 0.38 0.48 0.48 0.41 0.47 0.46 -9999 -9999 -9999 -9999 -9999 -9999 -9999 -9999 -9999 -9999 -9999 -9999 -9999 -9999 -9999 -9999 -9999 -9999 -9999 -9999 -9999 -9999 -9999 -9999 -9999 -9999 -9999 -9999 -9999 -9999 -9999 -9999 -9999 -9999 -9999 -9999
0.33 0.42 0.47 0.45 0.47 0.33 0.49 0.43 0.40 0.38 0.51 0.41 0.42 0.43 0.43 0.41 0.48 0.50 0.34 0.42 0.47 0.48 0.38 0.37 0.42 0.49 0.33 0.41 0.46 0.44 0.41 0.41 0.35 0.51 0.51 0.48 0.53 0.44 0.49 0.39 0.39 0.33 0.40 0.35 0.38 0.33 0.51 0.35 0.37 0.51 0.50 0.45 0.38 0.45 0.53 0.46 0.52 0.44 0.36 0.42 0.39 0.37 0.44 0.45 0.49 0.37 0.51 0.41 0.52 0.46 0.37 0.40 0.45 0.51 0.35 0.47 0.51 0.44 0.52 0.51 0.39 0.50 0.39 0.45 0.35 0.48 0.53 0.42 0.50 0.47 0.41 0.46 0.46 0.34 0.44 0.36 0.52 0.44 0.50 0.48 0.42 0.41 0.37 0.48 0.42 0.33 0.42 0.36 0.37 0.48 0.34 0.39 0.39 0.38 0.37 0.52 0.52 0.46 0.40 0.33 0.36 0.50 0.36 0.41 0.41 0.35 0.41 0.48 0.53 0.52 0.50 0.47 0.39 0.45 0.33 0.45 0.44 0.51 0.52 0.38 0.44 0.39 0.47 0.44 0.51 0.48 0.41 0.38 0.49 0.33 0.47 0.37 0.36 0.50 0.50 0.42 0.44 0.45 0.42 0.47 0.39 0.51 0.38 0.49 0.38 0.43 0.48 0.50 0.36 0.46 0.44 0.44 0.34 0.47 0.37 0.44 0.41 0.42 0.51 -9999 -9999 -9999 -9999 -9999 -9999 -9999 -9999 -9999 -9999 -9999 -9999 -9999 -9999 -9999 -9999 -9999 -9999 -9999 -9999 -9999 -9999 -9999 -9999 -9999 -9999 -9999 -9999 -9999 -9999 -9999 -9999 -9999 -9999 -9999 -9999
0.40 0.49 0.34 0.47 0.46 0.46 0.37 0.43 0.35 0.40 0.37 0.49 0.40 0.40 0.34 0.40 0.52 0.35 0.36 0.49 0.41 0.40 0.44 0.52 0.38 0.47 0.51 0.38 0.41 0.38 0.35 0.37 0.52 0.43 0.51 0.43 0.42 0.38 0.33 0.38 0.41 0.51 0.40 0.37 0.51 0.39 0.48 0.37 0.40 0.40 0.36 0.41 0.49 0.52 0.44 0.36 0.53 0.34 0.46 0.49 0.38 0.48 0.35 0.49 0.37 0.44 0.33 0.33 0.37 0.48 0.39 0.46 0.51 0.49 0.46 0.42 0.39 0.33 0.41 0.49 0.47 0.52 0.39 0.40 0.37 0.50 0.40 0.51 0.43 0.45 0.48 0.33 0.35 0.41 0.33 0.51 0.45 0.36 0.41 0.34 0.33 0.44 0.36 0.50 0.42 0.39 0.36 0.44 0.33 0.51 0.48 0.44 0.34 0.41 0.35 0.41 0.33 0.41 0.44 0.36 0.45 0.50 0.48 0.35 0.49 0.35 0.39 0.51 0.41 0.43 0.50 0.45 0.34 0.35 0.47 0.41 0.50 0.36 0.48 0.34 0.33 0.35 0.41 0.46 0.45 0.36 0.36 0.50 0.51 0.52 0.52 0.43 0.46 0.35 0.50 0.43 0.51 0.47 0.37 0.50 0.47 0.49 0.42 0.47 0.34 0.42 0.43 0.50 0.39 0.36 0.46 0.46 0.51 0.33 0.44 0.52 0.39 0.46 0.42 0.51 -9999 -9999 -9999 -9999 -9999 -9999 -9999 -9999 -9999 -9999 -9999 -9999 -9999 -9999 -9999 -9999 -9999 -9999 -9999 -9999 -9999 -9999 -9999 -9999 -9999 -9999 -9999 -9999 -9999 -9999 -9999 -9999 -9999 -9999 -9999
0.45 0.44 0.36 0.51 0.40 0.49 0.40 0.47 0.36 0.36 0.43 0.34 0.45 0.51 0.40 0.43 0.52 0.49 0.39 0.44 0.49 0.38 0.51 0.43 0.41 0.34 0.40 0.33 0.42 0.46 0.49 0.42 0.51 0.42 0.46 0.33 0.37 0.46 0.49 0.35 0.46 0.48 0.50 0.37 0.45 0.51 0.34 0.50 0.37 0.38 0.35 0.45 0.44 0.50 0.42 0.51 0.50 0.44 0.36 0.43 0.49 0.35 0.51 0.43 0.42 0.52 0.49 0.42 0.50 0.36 0.37 0.46 0.40 0.42 0.52 0.46 0.49 0.42 0.50 0.46 0.36 0.36 0.41 0.43 0.43 0.46 0.45 0.52 0.48 0.40 0.47 0.46 0.43 0.43 0.43 0.45 0.45 0.36 0.48 0.45 0.38 0.48 0.36 0.41 0.42 0.39 0.41 0.40 0.52 0.33 0.33 0.46 0.40 0.42 0.51 0.42 0.49 0.42 0.33 0.34 0.35 0.39 0.41 0.45 0.48 0.33 0.40 0.38 0.43 0.52 0.38 0.52 0.47 0.44 0.41 0.51 0.39 0.35 0.45 0.40 0.47 0.34 0.36 0.38 0.39 0.37 0.34 0.42 0.40 0.50 0.37 0.35 0.47 0.39 0.46 0.45 0.37 0.36 0.41 0.43 0.38 0.52 0.44 0.43 0.49 0.43 0.44 0.41 0.35 0.43 0.44 0.48 0.46 0.39 0.36 0.43 0.50 0.46 0.41 0.36 -9999 -9999 -9999 -9999 -9999 -9999 -9999 -9999 -9999 -9999 -9999 -9999 -9999 -9999 -9999 -9999 -9999 -9999 -9999 -9999 -9999 -9999 -9999 -9999 -9999 -9999 -9999 -9999 -9999 -9999 -9999 -9999 -9999 -9999 -9999
0.41 0.36 0.53 0.45 0.41 0.41 0.40 0.41 0.41 0.34 0.34 0.37 0.35 0.42 0.34 0.50 0.37 0.45 0.38 0.48 0.42 0.36 0.40 0.37 0.43 0.52 0.42 0.47 0.40 0.42 0.39 0.47 0.48 0.50 0.47 0.44 0.40 0.46 0.52 0.49 0.44 0.47 0.43 0.44 0.37 0.43 0.52 0.50 0.45 0.44 0.51 0.38 0.51 0.35 0.49 0.44 0.42 0.48 0.51 0.34 0.44 0.35 0.51 0.40 0.35 0.48 0.38 0.36 0.47 0.50 0.38 0.50 0.41 0.34 0.52 0.41 0.52 0.42 0.49 0.39 0.51 0.52 0.49 0.34 0.40 0.50 0.48 0.50 0.47 0.46 0.37 0.47 0.36 0.46 0.43 0.49 0.42 0.52 0.52 0.42 0.37 0.51 0.34 0.36 0.34 0.45 0.48 0.50 0.36 0.43 0.47 0.35 0.51 0.38 0.50 0.34 0.36 0.37 0.42 0.51 0.51 0.43 0.36 0.48 0.47 0.48 0.43 0.36 0.44 0.44 0.49 0.40 0.36 0.33 0.41 0.37 0.47 0.38 0.36 0.46 0.47 0.44 0.50 0.42 0.41 0.47 0.38 0.33 0.35 0.44 0.44 0.47 0.40 0.52 0.33 0.48 0.46 0.43 0.48 0.37 0.39 0.52 0.48 0.40 0.36 0.36 0.46 0.44 0.36 0.37 0.52 0.45 0.38 0.42 0.47 0.41 0.51 0.49 0.49 0.51 -9999 -9999 -9999 -9999 -9999 -9999 -9999 -9999 -9999 -9999 -9999 -9999 -9999 -9999 -9999 -9999 -9999 -9999 -9999 -9999 -9999 -9999 -9999 -9999 -9999 -9999 -9999 -9999 -9999 -9999 -9999 -9999 -9999 -9999 -9999
0.51 0.41 0.47 0.49 0.51 0.34 0.37 0.45 0.46 0.37 0.51 0.51 0.43 0.51 0.51 0.51 0.38 0.51 0.44 0.38 0.49 0.44 0.34 0.44 0.42 0.35 0.42 0.34 0.34 0.43 0.47 0.37 0.46 0.35 0.34 0.37 0.44 0.39 0.42 0.42 0.45 0.36 0.49 0.51 0.37 0.47 0.42 0.41 0.52 0.46 0.35 0.34 0.41 0.50 0.40 0.45 0.40 0.33 0.45 0.49 0.47 0.43 0.47 0.35 0.51 0.51 0.36 0.33 0.50 0.45 0.46 0.43 0.47 0.41 0.52 0.39 0.52 0.51 0.46 0.35 0.51 0.42 0.42 0.37 0.43 0.47 0.52 0.45 0.49 0.46 0.50 0.34 0.44 0.49 0.46 0.52 0.39 0.48 0.48 0.39 0.49 0.42 0.44 0.51 0.38 0.34 0.35 0.37 0.33 0.38 0.38 0.48 0.43 0.37 0.52 0.36 0.45 0.49 0.35 0.41 0.47 0.46 0.44 0.47 0.36 0.51 0.35 0.52 0.52 0.45 0.34 0.33 0.42 0.44 0.34 0.35 0.44 0.36 0.37 0.47 0.49 0.43 0.44 0.36 0.48 0.38 0.36 0.45 0.48 0.45 0.43 0.40 0.49 0.52 0.52 0.33 0.36 0.36 0.45 0.40 0.33 0.35 0.44 0.35 0.34 0.38 0.46 0.40 0.43 0.40 0.43 0.34 0.43 0.52 0.34 0.34 0.36 0.39 0.48 0.51 -9999 -9999 -9999 -9999 -9999 -9999 -9999 -9999 -9999 -9999 -9999 -9999 -9999 -9999 -9999 -9999 -9999 -9999 -9999 -9999 -9999 -9999 -9999 -9999 -9999 -9999 -9999 -9999 -9999 -9999 -9999 -9999 -9999 -9999 -9999
0.37 0.51 0.47 0.52 0.40 0.33 0.51 0.49 0.35 0.52 0.52 0.33 0.53 0.46 0.51 0.53 0.43 0.39 0.48 0.34 0.42 0.38 0.38 0.51 0.45 0.33 0.39 0.38 0.45 0.49 0.48 0.50 0.39 0.46 0.50 0.36 0.51 0.42 0.51 0.38 0.48 0.46 0.40 0.46 0.49 0.40 0.43 0.50 0.35 0.34 0.43 0.35 0.48 0.39 0.46 0.44 0.50 0.34 0.51 0.52 0.45 0.43 0.50 0.49 0.43 0.52 0.49 0.42 0.52 0.43 0.42 0.48 0.41 0.51 0.42 0.40 0.51 0.39 0.50 0.34 0.52 0.40 0.43 0.49 0.46 0.44 0.36 0.53 0.40 0.51 0.34 0.49 0.46 0.37 0.49 0.42 0.48 0.38 0.43 0.38 0.43 0.36 0.50 0.50 0.41 0.39 0.39 0.42 0.51 0.40 0.37 0.33 0.38 0.33 0.47 0.45 0.51 0.46 0.33 0.34 0.51 0.45 0.52 0.40 0.37 0.35 0.44 0.50 0.51 0.39 0.35 0.51 0.49 0.47 0.36 0.38 0.40 0.36 0.49 0.51 0.46 0.47 0.39 0.50 0.39 0.45 0.45 0.52 0.48 0.41 0.40 0.33 0.33 0.39 0.40 0.48 0.44 0.47 0.38 0.43 0.47 0.35 0.48 0.49 0.37 0.43 0.43 0.34 0.48 0.44 0.43 0.45 0.50 0.45 0.44 0.40 0.44 0.45 0.47 0.49 -9999 -9999 -9999 -9999 -9999 -9999 -9999 -9999 -9999 -9999 -9999 -9999 -9999 -9999 -9999 -9999 -9999 -9999 -9999 -9999 -9999 -9999 -9999 -9999 -9999 -9999 -9999 -9999 -9999 -9999 -9999 -9999 -9999 -9999 -9999
0.52 0.39 0.36 0.40 0.50 0.46 0.50 0.35 0.44 0.50 0.42 0.33 0.39 0.36 0.42 0.48 0.42 0.46 0.50 0.51 0.43 0.52 0.35 0.51 0.51 0.45 0.44 0.46 0.49 0.43 0.36 0.51 0.38 0.43 0.44 0.37 0.35 0.46 0.33 0.49 0.52 0.42 0.39 0.47 0.42 0.48 0.36 0.49 0.35 0.36 0.43 0.33 0.38 0.33 0.45 0.50 0.34 0.47 0.46 0.34 0.42 0.42 0.45 0.33 0.33 0.36 0.35 0.42 0.38 0.51 0.43 0.46 0.43 0.40 0.44 0.42 0.38 0.37 0.37 0.45 0.44 0.41 0.38 0.52 0.51 0.43 0.38 0.33 0.36 0.37 0.40 0.35 0.37 0.52 0.52 0.50 0.37 0.37 0.33 0.49 0.39 0.50 0.42 0.45 0.37 0.49 0.38 0.47 0.36 0.35 0.39 0.40 0.46 0.51 0.46 0.42 0.38 0.34 0.48 0.52 0.45 0.51 0.47 0.51 0.48 0.46 0.36 0.47 0.47 0.51 0.34 0.40 0.42 0.46 0.48 0.34 0.51 0.41 0.35 0.43 0.52 0.46 0.41 0.35 0.42 0.42 0.37 0.44 0.49 0.50 0.34 0.36 0.49 0.45 0.33 0.48 0.44 0.50 0.34 0.46 0.46 0.41 0.48 0.44 0.51 0.37 0.34 0.51 0.48 0.35 0.47 0.51 0.49 0.45 0.48 0.51 0.37 0.52 0.34 0.48 -9999 -9999 -9999 -9999 -9999 -9999 -9999 -9999 -9999 -9999 -9999 -9999 -9999 -9999 -9999 -9999 -9999 -9999 -9999 -9999 -9999 -9999 -9999 -9999 -9999 -9999 -9999 -9999 -9999 -9999 -9999 -9999 -9999 -9999 -9999
0.35 0.50 0.42 0.33 0.43 0.44 0.49 0.49 0.33 0.34 0.44 0.47 0.47 0.34 0.34 0.36 0.48 0.46 0.41 0.38 0.36 0.43 0.35 0.45 0.44 0.37 0.48 0.46 0.45 0.49 0.35 0.35 0.48 0.36 0.51 0.33 0.51 0.50 0.42 0.52 0.40 0.44 0.42 0.33 0.41 0.42 0.43 0.46 0.52 0.33 0.38 0.35 0.46 0.49 0.46 0.52 0.33 0.35 0.36 0.37 0.45 0.39 0.47 0.34 0.50 0.37 0.37 0.52 0.34 0.41 0.48 0.38 0.39 0.50 0.48 0.41 0.36 0.45 0.52 0.33 0.49 0.49 0.43 0.35 0.33 0.34 0.42 0.47 0.34 0.37 0.43 0.40 0.40 0.47 0.35 0.38 0.48 0.41 0.33 0.37 0.47 0.44 0.40 0.53 0.39 0.43 0.37 0.47 0.45 0.36 0.34 0.43 0.36 0.34 0.34 0.42 0.38 0.40 0.51 0.51 0.41 0.50 0.38 0.50 0.47 0.39 0.47 0.41 0.48 0.42 0.44 0.40 0.36 0.43 0.46 0.47 0.33 0.36 0.41 0.43 0.43 0.42 0.37 0.41 0.34 0.39 0.45 0.46 0.40 0.40 0.45 0.52 0.34 0.38 0.43 0.51 0.42 0.38 0.38 0.38 0.44 0.46 0.45 0.38 0.41 0.52 0.34 0.51 0.39 0.48 0.47 0.36 0.46 0.44 0.44 0.45 0.35 0.40 0.38 0.36 -9999 -9999 -9999 -9999 -9999 -9999 -9999 -9999 -9999 -9999 -9999 -9999 -9999 -9999 -9999 -9999 -9999 -9999 -9999 -9999 -9999 -9999 -9999 -9999 -9999 -9999 -9999 -9999 -9999 -9999 -9999 -9999 -9999 -9999 -9999
0.48 0.38 0.49 0.43 0.36 0.35 0.45 0.41 0.41 0.49 0.52 0.52 0.43 0.39 0.38 0.47 0.36 0.35 0.35 0.36 0.36 0.41 0.48 0.37 0.36 0.39 0.44 0.44 0.41 0.38 0.49 0.49 0.41 0.36 0.41 0.40 0.35 0.50 0.40 0.41 0.33 0.45 0.34 0.49 0.44 0.43 0.49 0.49 0.34 0.33 0.37 0.43 0.34 0.51 0.40 0.44 0.34 0.36 0.49 0.42 0.39 0.39 0.52 0.36 0.42 0.38 0.49 0.39 0.41 0.40 0.43 0.41 0.51 0.45 0.46 0.46 0.51 0.42 0.39 0.48 0.51 0.36 0.43 0.43 0.48 0.33 0.47 0.41 0.42 0.44 0.50 0.37 0.49 0.36 0.34 0.46 0.50 0.51 0.52 0.38 0.35 0.41 0.46 0.40 0.41 0.35 0.51 0.46 0.41 0.44 0.39 0.44 0.50 0.34 0.35 0.46 0.40 0.36 0.33 0.45 0.36 0.42 0.44 0.34 0.40 0.45 0.33 0.35 0.47 0.46 0.52 0.44 0.36 0.34 0.49 0.39 0.50 0.48 0.46 0.43 0.49 0.40 0.50 0.51 0.42 0.46 0.48 0.50 0.47 0.47 0.36 0.40 0.34 0.49 0.33 0.51 0.40 0.40 0.43 0.35 0.40 0.45 0.42 0.51 0.50 0.40 0.49 0.35 0.45 0.37 0.43 0.37 0.42 0.42 0.40 0.50 0.47 0.36 0.48 0.34 0.39 -9999 -9999 -9999 -9999 -9999 -9999 -9999 -9999 -9999 -9999 -9999 -9999 -9999 -9999 -9999 -9999 -9999 -9999 -9999 -9999 -9999 -9999 -9999 -9999 -9999 -9999 -9999 -9999 -9999 -9999 -9999 -9999 -9999 -9999
0.45 0.49 0.47 0.51 0.36 0.40 0.39 0.42 0.33 0.48 0.52 0.34 0.40 0.44 0.52 0.38 0.51 0.37 0.37 0.41 0.35 0.37 0.49 0.42 0.39 0.36 0.39 0.51 0.37 0.39 0.34 0.47 0.36 0.42 0.33 0.36 0.48 0.42 0.47 0.52 0.46 0.48 0.37 0.42 0.52 0.48 0.45 0.33 0.45 0.36 0.41 0.50 0.35 0.35 0.47 0.52 0.38 0.51 0.48 0.50 0.39 0.49 0.38 0.35 0.49 0.48 0.38 0.39 0.49 0.38 0.39 0.52 0.35 0.48 0.39 0.38 0.41 0.43 0.42 0.47 0.48 0.48 0.40 0.40 0.44 0.34 0.47 0.51 0.50 0.37 0.49 0.47 0.50 0.46 0.38 0.51 0.49 0.39 0.33 0.53 0.45 0.38 0.50 0.40 0.52 0.36 0.42 0.50 0.36 0.36 0.52 0.37 0.34 0.49 0.49 0.39 0.50 0.47 0.42 0.49 0.37 0.45 0.49 0.36 0.35 0.52 0.41 0.42 0.51 0.43 0.39 0.49 0.34 0.42 0.51 0.39 0.43 0.36 0.36 0.48 0.37 0.34 0.49 0.49 0.46 0.34 0.44 0.43 0.43 0.36 0.36 0.39 0.33 0.34 0.44 0.49 0.38 0.36 0.37 0.48 0.37 0.44 0.51 0.37 0.42 0.36 0.51 0.51 0.43 0.40 0.38 0.38 0.45 0.48 0.41 0.41 0.48 0.44 0.33 0.37 0.44 -9999 -9999 -9999 -9999 -9999 -9999 -9999 -9999 -9999 -9999 -9999 -9999 -9999 -9999 -9999 -9999 -9999 -9999 -9999 -9999 -9999 -9999 -9999 -9999 -9999 -9999 -9999 -9999 -9999 -9999 -9999 -9999 -9999 -9999
0.42 0.35 0.50 0.36 0.34 0.38 0.47 0.36 0.47 0.41 0.37 0.43 0.46 0.51 0.37 0.34 0.44 0.34 0.37 0.53 0.39 0.44 0.41 0.52 0.43 0.51 0.34 0.52 0.38 0.41 0.39 0.43 0.45 0.47 0.52 0.33 0.33 0.33 0.45 0.42 0.51 0.52 0.44 0.47 0.44 0.36 0.37 0.42 0.38 0.42 0.37 0.52 0.44 0.42 0.44 0.35 0.42 0.34 0.38 0.36 0.33 0.37 0.52 0.42 0.34 0.49 0.45 0.35 0.53 0.37 0.43 0.43 0.45 0.47 0.51 0.51 0.49 0.33 0.41 0.53 0.40 0.43 0.39 0.35 0.47 0.52 0.37 0.46 0.52 0.34 0.43 0.51 0.40 0.51 0.50 0.52 0.47 0.48 0.49 0.35 0.39 0.34 0.45 0.50 0.52 0.35 0.46 0.35 0.40 0.36 0.50 0.41 0.46 0.49 0.40 0.52 0.37 0.37 0.47 0.33 0.41 0.34 0.44 0.44 0.44 0.36 0.34 0.35 0.49 0.34 0.40 0.34 0.37 0.42 0.40 0.44 0.43 0.35 0.40 0.40 0.34 0.40 0.44 0.51 0.48 0.33 0.34 0.37 0.46 0.33 0.42 0.46 0.42 0.45 0.51 0.41 0.47 0.38 0.35 0.51 0.40 0.52 0.46 0.53 0.47 0.45 0.52 0.46 0.34 0.40 0.45 0.47 0.50 0.46 0.38 0.37 0.37 0.42 0.49 0.46 0.42 -9999 -9999 -9999 -9999 -9999 -9999 -9999 -9999 -9999 -9999 -9999 -9999 -9999 -9999 -9999 -9999 -9999 -9999 -9999 -9999 -9999 -9999 -9999 -9999 -9999 -9999 -9999 -9999 -9999 -9999 -9999 -9999 -9999 -9999
0.41 0.52 0.43 0.42 0.48 0.44 0.42 0.44 0.33 0.44 0.38 0.47 0.38 0.35 0.47 0.39 0.42 0.49 0.43 0.48 0.33 0.44 0.44 0.47 0.52 0.35 0.47 0.40 0.35 0.49 0.36 0.43 0.46 0.40 0.38 0.51 0.40 0.52 0.39 0.39 0.52 0.51 0.47 0.51 0.35 0.45 0.36 0.45 0.38 0.34 0.51 0.43 0.47 0.41 0.40 0.51 0.38 0.46 0.47 0.41 0.38 0.50 0.40 0.45 0.40 0.36 0.46 0.43 0.44 0.47 0.49 0.51 0.33 0.37 0.39 0.50 0.40 0.35 0.34 0.49 0.39 0.49 0.35 0.36 0.48 0.35 0.44 0.45 0.41 0.45 0.50 0.41 0.35 0.34 0.40 0.51 0.52 0.38 0.43 0.47 0.41 0.52 0.50 0.49 0.46 0.46 0.39 0.48 0.33 0.42 0.48 0.40 0.46 0.47 0.52 0.34 0.39 0.40 0.46 0.35 0.45 0.34 0.46 0.42 0.41 0.36 0.41 0.39 0.51 0.37 0.48 0.45 0.43 0.34 0.47 0.34 0.44 0.37 0.50 0.50 0.44 0.37 0.51 0.39 0.49 0.48 0.45 0.42 0.33 0.36 0.48 0.34 0.33 0.43 0.36 0.47 0.35 0.44 0.46 0.36 0.50 0.44 0.42 0.52 0.42 0.48 0.48 0.50 0.34 0.44 0.38 0.50 0.36 0.48 0.43 0.49 0.39 0.36 0.42 0.34 0.44 -9999 -9999 -9999 -9999 -9999 -9999 -9999 -9999 -9999 -9999 -9999 -9999 -9999 -9999 -9999 -9999 -9999 -9999 -9999 -9999 -9999 -9999 -9999 -9999 -9999 -9999 -9999 -9999 -9999 -9999 -9999 -9999 -9999 -9999
0.52 0.41 0.44 0.46 0.35 0.35 0.34 0.49 0.49 0.43 0.37 0.35 0.51 0.51 0.34 0.51 0.41 0.48 0.35 0.49 0.46 0.42 0.46 0.43 0.46 0.43 0.38 0.42 0.40 0.36 0.41 0.47 0.50 0.38 0.42 0.53 0.53 0.50 0.43 0.49 0.36 0.41 0.52 0.40 0.43 0.52 0.50 0.43 0.43 0.51 0.37 0.33 0.51 0.51 0.46 0.49 0.40 0.51 0.48 0.46 0.34 0.46 0.38 0.48 0.37 0.35 0.37 0.52 0.44 0.40 0.40 0.42 0.41 0.41 0.37 0.36 0.38 0.47 0.49 0.43 0.52 0.47 0.45 0.42 0.41 0.34 0.40 0.46 0.35 0.52 0.50 0.37 0.33 0.36 0.33 0.43 0.43 0.46 0.51 0.47 0.45 0.52 0.40 0.46 0.49 0.39 0.36 0.43 0.48 0.46 0.45 0.34 0.36 0.39 0.39 0.48 0.37 0.47 0.46 0.39 0.48 0.36 0.40 0.44 0.43 0.35 0.45 0.35 0.34 0.42 0.36 0.52 0.41 0.47 0.39 0.36 0.36 0.46 0.50 0.35 0.47 0.38 0.34 0.38 0.38 0.49 0.49 0.40 0.46 0.45 0.41 0.38 0.47 0.52 0.38 0.50 0.48 0.33 0.44 0.49 0.49 0.47 0.40 0.39 0.46 0.33 0.47 0.46 0.47 0.45 0.35 0.48 0.48 0.50 0.45 0.41 0.37 0.49 0.53 0.43 0.38 -9999 -9999 -9999 -9999 -9999 -9999 -9999 -9999 -9999 -9999 -9999 -9999 -9999 -9999 -9999 -9999 -9999 -9999 -9999 -9999 -9999 -9999 -9999 -9999 -9999 -9999 -9999 -9999 -9999 -9999 -9999 -9999 -9999 -9999
0.40 0.43 0.47 0.51 0.43 0.46 0.39 0.41 0.51 0.37 0.43 0.34 0.49 0.42 0.34 0.37 0.34 0.35 0.37 0.36 0.36 0.42 0.49 0.42 0.49 0.51 0.49 0.47 0.42 0.51 0.45 0.48 0.49 0.39 0.33 0.39 0.51 0.39 0.34 0.47 0.34 0.47 0.52 0.41 0.44 0.50 0.37 0.33 0.33 0.50 0.49 0.48 0.51 0.53 0.47 0.40 0.43 0.51 0.42 0.52 0.51 0.41 0.34 0.43 0.43 0.36 0.51 0.48 0.49 0.51 0.38 0.48 0.39 0.34 0.43 0.36 0.48 0.44 0.44 0.49 0.49 0.35 0.34 0.51 0.52 0.36 0.50 0.46 0.50 0.52 0.34 0.53 0.51 0.45 0.37 0.51 0.43 0.45 0.36 0.33 0.51 0.41 0.43 0.48 0.34 0.47 0.47 0.40 0.44 0.43 0.33 0.36 0.34 0.35 0.52 0.40 0.34 0.40 0.49 0.47 0.39 0.33 0.40 0.40 0.40 0.38 0.50 0.42 0.41 0.45 0.46 0.38 0.38 0.46 0.36 0.36 0.50 0.49 0.38 0.46 0.42 0.34 0.41 0.40 0.34 0.34 0.38 0.33 0.43 0.49 0.40 0.35 0.47 0.46 0.41 0.35 0.50 0.48 0.34 0.36 0.43 0.41 0.39 0.33 0.38 0.49 0.47 0.39 0.39 0.40 0.42 0.52 0.39 0.47 0.47 0.44 0.42 0.39 0.46 0.52 0.33 -9999 -9999 -9999 -9999 -9999 -9999 -9999 -9999 -9999 -9999 -9999 -9999 -9999 -9999 -9999 -9999 -9999 -9999 -9999 -9999 -9999 -9999 -9999 -9999 -9999 -9999 -9999 -9999 -9999 -9999 -9999 -9999 -9999 -9999
0.43 0.41 0.34 0.51 0.36 0.46 0.45 0.36 0.45 0.44 0.42 0.40 0.52 0.48 0.34 0.46 0.38 0.38 0.41 0.38 0.52 0.44 0.52 0.44 0.44 0.39 0.48 0.36 0.39 0.35 0.51 0.46 0.34 0.49 0.44 0.53 0.37 0.36 0.36 0.40 0.36 0.45 0.38 0.45 0.37 0.38 0.45 0.50 0.39 0.47 0.44 0.51 0.39 0.51 0.43 0.39 0.44 0.41 0.35 0.42 0.47 0.44 0.44 0.47 0.46 0.46 0.45 0.40 0.37 0.49 0.36 0.44 0.43 0.37 0.49 0.36 0.42 0.46 0.48 0.50 0.37 0.35 0.45 0.35 0.48 0.50 0.48 0.39 0.34 0.52 0.40 0.33 0.48 0.41 0.36 0.41 0.45 0.45 0.46 0.35 0.44 0.38 0.40 0.37 0.41 0.44 0.51 0.45 0.45 0.41 0.34 0.52 0.44 0.37 0.38 0.37 0.34 0.40 0.47 0.50 0.41 0.36 0.39 0.48 0.42 0.41 0.40 0.35 0.45 0.47 0.44 0.41 0.40 0.34 0.40 0.35 0.50 0.42 0.47 0.43 0.42 0.47 0.47 0.44 0.40 0.46 0.46 0.47 0.52 0.41 0.33 0.52 0.52 0.39 0.43 0.43 0.48 0.35 0.33 0.34 0.40 0.37 0.33 0.46 0.42 0.45 0.47 0.47 0.45 0.49 0.44 0.49 0.45 0.37 0.37 0.48 0.33 0.52 0.53 0.45 0.46 0.34 -9999 -9999 -9999 -9999 -9999 -9999 -9999 -9999 -9999 -9999 -9999 -9999 -9999 -9999 -9999 -9999 -9999 -9999 -9999 -9999 -9999 -9999 -9999 -9999 -9999 -9999 -9999 -9999 -9999 -9999 -9999 -9999 -9999
0.52 0.38 0.46 0.47 0.44 0.46 0.38 0.50 0.53 0.42 0.44 0.46 0.45 0.38 0.39 0.44 0.46 0.42 0.42 0.41 0.50 0.44 0.40 0.47 0.46 0.42 0.46 0.33 0.36 0.41 0.48 0.41 0.33 0.41 0.38 0.33 0.39 0.39 0.47 0.42 0.46 0.38 0.49 0.50 0.51 0.51 0.47 0.36 0.44 0.37 0.37 0.37 0.35 0.38 0.34 0.35 0.37 0.51 0.41 0.49 0.46 0.48 0.51 0.51 0.45 0.35 0.34 0.37 0.33 0.41 0.37 0.39 0.36 0.43 0.41 0.45 0.43 0.45 0.47 0.42 0.52 0.37 0.47 0.37 0.41 0.33 0.39 0.51 0.33 0.39 0.44 0.44 0.34 0.38 0.36 0.49 0.52 0.33 0.47 0.50 0.41 0.40 0.37 0.36 0.52 0.48 0.51 0.45 0.40 0.39 0.45 0.45 0.50 0.36 0.52 0.41 0.46 0.33 0.53 0.50 0.49 0.36 0.46 0.52 0.40 0.49 0.36 0.51 0.46 0.49 0.52 0.51 0.35 0.46 0.40 0.44 0.34 0.44 0.44 0.44 0.34 0.33 0.33 0.33 0.47 0.42 0.39 0.49 0.42 0.34 0.43 0.38 0.34 0.42 0.36 0.36 0.40 0.39 0.39 0.43 0.37 0.53 0.49 0.40 0.34 0.40 0.33 0.36 0.37 0.43 0.47 0.49 0.38 0.52 0.34 0.38 0.47 0.51 0.39 0.40 0.50 0.44 -9999 -9999 -9999 -9999 -9999 -9999 -9999 -9999 -9999 -9999 -9999 -9999 -9999 -9999 -9999 -9999 -9999 -9999 -9999 -9999 -9999 -9999 -9999 -9999 -9999 -9999 -9999 -9999 -9999 -9999 -9999 -9999 -9999
0.44 0.34 0.42 0.44 0.40 0.50 0.51 0.45 0.44 0.39 0.52 0.41 0.40 0.36 0.48 0.44 0.38 0.48 0.36 0.39 0.33 0.47 0.36 0.49 0.50 0.46 0.33 0.49 0.37 0.50 0.33 0.38 0.38 0.48 0.37 0.36 0.49 0.44 0.42 0.41 0.50 0.50 0.41 0.49 0.42 0.44 0.53 0.46 0.47 0.45 0.45 0.45 0.36 0.34 0.52 0.37 0.39 0.42 0.41 0.40 0.40 0.50 0.50 0.45 0.44 0.48 0.38 0.38 0.50 0.33 0.47 0.47 0.45 0.38 0.46 0.37 0.49 0.36 0.45 0.52 0.46 0.40 0.39 0.46 0.42 0.44 0.36 0.43 0.39 0.38 0.43 0.39 0.37 0.45 0.46 0.37 0.47 0.41 0.35 0.43 0.45 0.48 0.45 0.47 0.41 0.43 0.52 0.43 0.45 0.52 0.46 0.51 0.45 0.45 0.40 0.38 0.39 0.45 0.50 0.47 0.42 0.37 0.51 0.49 0.49 0.42 0.47 0.42 0.47 0.44 0.33 0.36 0.45 0.36 0.44 0.42 0.37 0.48 0.41 0.48 0.48 0.37 0.38 0.40 0.40 0.44 0.33 0.36 0.45 0.49 0.43 0.40 0.39 0.46 0.36 0.38 0.36 0.40 0.36 0.53 0.40 0.40 0.34 0.48 0.51 0.40 0.49 0.43 0.39 0.40 0.38 0.36 0.44 0.47 0.51 0.43 0.52 0.47 0.44 0.52 0.51 0.47 -9999 -9999 -9999 -9999 -9999 -9999 -9999 -9999 -9999 -9999 -9999 -9999 -9999 -9999 -9999 -9999 -9999 -9999 -9999 -9999 -9999 -9999 -9999 -9999 -9999 -9999 -9999 -9999 -9999 -9999 -9999 -9999 -9999
0.41 0.47 0.50 0.46 0.50 0.43 0.33 0.49 0.38 0.36 0.36 0.34 0.38 0.33 0.38 0.46 0.47 0.44 0.42 0.42 0.45 0.49 0.37 0.42 0.39 0.47 0.41 0.39 0.35 0.51 0.43 0.51 0.48 0.44 0.39 0.37 0.50 0.46 0.35 0.44 0.34 0.38 0.41 0.41 0.39 0.47 0.52 0.49 0.35 0.48 0.33 0.35 0.49 0.33 0.45 0.45 0.52 0.36 0.37 0.45 0.37 0.38 0.38 0.39 0.44 0.39 0.52 0.52 0.40 0.37 0.51 0.36 0.34 0.48 0.41 0.37 0.43 0.36 0.52 0.38 0.49 0.45 0.46 0.47 0.42 0.38 0.51 0.33 0.35 0.35 0.52 0.41 0.51 0.52 0.38 0.38 0.40 0.43 0.50 0.44 0.44 0.49 0.49 0.45 0.44 0.37 0.47 0.35 0.40 0.47 0.37 0.46 0.36 0.41 0.39 0.47 0.47 0.36 0.47 0.50 0.50 0.34 0.48 0.37 0.33 0.37 0.37 0.47 0.39 0.45 0.47 0.33 0.47 0.42 0.51 0.50 0.40 0.38 0.40 0.53 0.43 0.38 0.43 0.35 0.49 0.48 0.40 0.46 0.45 0.43 0.43 0.38 0.48 0.45 0.45 0.39 0.37 0.46 0.49 0.49 0.51 0.46 0.52 0.46 0.34 0.34 0.47 0.34 0.49 0.40 0.33 0.49 0.50 0.36 0.34 0.39 0.35 0.34 0.41 0.52 0.48 0.46 -9999 -9999 -9999 -9999 -9999 -9999 -9999 -9999 -9999 -9999 -9999 -9999 -9999 -9999 -9999 -9999 -9999 -9999 -9999 -9999 -9999 -9999 -9999 -9999 -9999 -9999 -9999 -9999 -9999 -9999 -9999 -9999 -9999
0.40 0.39 0.38 0.47 0.46 0.43 0.46 0.42 0.46 0.45 0.47 0.38 0.52 0.34 0.36 0.52 0.39 0.51 0.43 0.37 0.39 0.41 0.49 0.37 0.44 0.45 0.51 0.50 0.40 0.47 0.41 0.44 0.41 0.44 0.36 0.48 0.51 0.48 0.43 0.41 0.46 0.48 0.43 0.39 0.48 0.48 0.49 0.47 0.47 0.35 0.52 0.37 0.47 0.47 0.46 0.51 0.49 0.50 0.39 0.34 0.52 0.33 0.45 0.40 0.48 0.44 0.45 0.40 0.40 0.51 0.42 0.48 0.40 0.49 0.44 0.44 0.49 0.41 0.39 0.51 0.34 0.50 0.36 0.38 0.42 0.51 0.42 0.42 0.37 0.46 0.44 0.49 0.50 0.48 0.35 0.50 0.52 0.40 0.34 0.52 0.40 0.41 0.48 0.39 0.35 0.45 0.46 0.41 0.41 0.44 0.41 0.34 0.42 0.46 0.47 0.44 0.43 0.34 0.43 0.52 0.37 0.35 0.48 0.48 0.39 0.35 0.45 0.49 0.38 0.52 0.44 0.50 0.43 0.43 0.39 0.47 0.38 0.35 0.52 0.43 0.33 0.34 0.34 0.50 0.43 0.45 0.52 0.33 0.33 0.41 0.37 0.44 0.43 0.34 0.46 0.44 0.42 0.39 0.37 0.40 0.38 0.36 0.40 0.34 0.50 0.43 0.36 0.39 0.41 0.51 0.43 0.51 0.52 0.46 0.44 0.44 0.43 0.35 0.38 0.50 0.41 0.46 -9999 -9999 -9999 -9999 -9999 -9999 -9999 -9999 -9999 -9999 -9999 -9999 -9999 -9999 -9999 -9999 -9999 -9999 -9999 -9999 -9999 -9999 -9999 -9999 -9999 -9999 -9999 -9999 -9999 -9999 -9999 -9999 -9999
0.37 0.47 0.39 0.42 0.47 0.45 0.38 0.43 0.50 0.45 0.41 0.42 0.39 0.46 0.37 0.45 0.46 0.34 0.41 0.44 0.48 0.46 0.33 0.35 0.52 0.44 0.36 0.34 0.51 0.51 0.48 0.49 0.46 0.48 0.43 0.41 0.33 0.39 0.35 0.40 0.34 0.44 0.44 0.46 0.34 0.36 0.49 0.37 0.36 0.49 0.45 0.49 0.38 0.36 0.52 0.37 0.36 0.49 0.44 0.43 0.43 0.51 0.36 0.41 0.45 0.43 0.42 0.43 0.33 0.48 0.42 0.37 0.43 0.38 0.35 0.51 0.35 0.47 0.39 0.35 0.48 0.51 0.48 0.47 0.36 0.33 0.38 0.40 0.44 0.46 0.41 0.52 0.44 0.43 0.33 0.37 0.37 0.48 0.48 0.34 0.39 0.42 0.40 0.34 0.35 0.37 0.33 0.39 0.35 0.41 0.50 0.40 0.38 0.35 0.50 0.45 0.46 0.33 0.33 0.42 0.52 0.33 0.36 0.48 0.42 0.37 0.35 0.51 0.49 0.51 0.47 0.36 0.36 0.33 0.41 0.37 0.39 0.46 0.34 0.51 0.45 0.36 0.36 0.37 0.39 0.38 0.51 0.48 0.41 0.33 0.38 0.35 0.42 0.36 0.44 0.39 0.46 0.38 0.49 0.49 0.46 0.46 0.46 0.46 0.36 0.37 0.47 0.50 0.39 0.45 0.43 0.39 0.51 0.36 0.49 0.44 0.36 0.41 0.34 0.48 0.44 0.34 -9999 -9999 -9999 -9999 -9999 -9999 -9999 -9999 -9999 -9999 -9999 -9999 -9999 -9999 -9999 -9999 -9999 -9999 -9999 -9999 -9999 -9999 -9999 -9999 -9999 -9999 -9999 -9999 -9999 -9999 -9999 -9999 -9999
0.48 0.40 0.49 0.40 0.35 0.42 0.44 0.46 0.46 0.44 0.42 0.43 0.36 0.41 0.41 0.48 0.45 0.38 0.33 0.33 0.37 0.40 0.36 0.43 0.52 0.35 0.48 0.40 0.38 0.40 0.35 0.35 0.50 0.40 0.38 0.36 0.48 0.53 0.34 0.47 0.52 0.34 0.33 0.41 0.45 0.36 0.36 0.33 0.48 0.46 0.37 0.52 0.47 0.36 0.43 0.43 0.38 0.36 0.45 0.46 0.34 0.51 0.49 0.51 0.36 0.45 0.46 0.38 0.40 0.43 0.38 0.47 0.51 0.34 0.52 0.45 0.52 0.41 0.46 0.39 0.44 0.49 0.42 0.46 0.47 0.47 0.38 0.37 0.44 0.46 0.45 0.44 0.35 0.36 0.43 0.46 0.50 0.42 0.47 0.42 0.36 0.50 0.39 0.38 0.41 0.52 0.49 0.50 0.48 0.48 0.53 0.39 0.40 0.51 0.53 0.48 0.43 0.45 0.38 0.50 0.51 0.34 0.46 0.34 0.34 0.53 0.38 0.36 0.35 0.44 0.40 0.41 0.48 0.52 0.42 0.45 0.48 0.45 0.38 0.50 0.42 0.35 0.47 0.52 0.34 0.33 0.42 0.52 0.34 0.34 0.47 0.37 0.40 0.40 0.33 0.46 0.36 0.45 0.51 0.36 0.47 0.47 0.49 0.43 0.39 0.44 0.40 0.40 0.51 0.43 0.42 0.39 0.35 0.39 0.45 0.36 0.35 0.41 0.34 0.34 0.48 0.48 0.50 -9999 -9999 -9999 -9999 -9999 -9999 -9999 -9999 -9999 -9999 -9999 -9999 -9999 -9999 -9999 -9999 -9999 -9999 -9999 -9999 -9999 -9999 -9999 -9999 -9999 -9999 -9999 -9999 -9999 -9999 -9999 -9999
0.45 0.48 0.42 0.37 0.49 0.42 0.35 0.50 0.33 0.47 0.49 0.45 0.45 0.33 0.51 0.40 0.52 0.47 0.37 0.34 0.36 0.50 0.38 0.34 0.38 0.38 0.46 0.46 0.40 0.34 0.38 0.41 0.41 0.33 0.36 0.36 0.37 0.42 0.36 0.46 0.37 0.38 0.40 0.39 0.35 0.38 0.33 0.39 0.33 0.37 0.49 0.39 0.50 0.42 0.38 0.34 0.48 0.46 0.48 0.51 0.37 0.52 0.52 0.45 0.41 0.37 0.40 0.51 0.42 0.35 0.42 0.50 0.39 0.39 0.52 0.39 0.38 0.35 0.49 0.40 0.40 0.33 0.40 0.49 0.34 0.50 0.48 0.45 0.39 0.35 0.39 0.51 0.39 0.39 0.36 0.43 0.40 0.39 0.50 0.44 0.35 0.38 0.47 0.33 0.38 0.34 0.43 0.40 0.46 0.43 0.48 0.35 0.39 0.43 0.50 0.43 0.48 0.49 0.40 0.37 0.40 0.41 0.44 0.52 0.34 0.50 0.46 0.45 0.39 0.36 0.48 0.45 0.36 0.45 0.47 0.38 0.34 0.33 0.45 0.34 0.45 0.49 0.51 0.35 0.42 0.36 0.39 0.35 0.40 0.34 0.50 0.36 0.42 0.42 0.48 0.41 0.48 0.43 0.47 0.37 0.34 0.47 0.38 0.38 0.39 0.39 0.48 0.37 0.40 0.42 0.38 0.39 0.40 0.34 0.42 0.37 0.48 0.43 0.33 0.36 0.53 0.50 0.33 -9999 -9999 -9999 -9999 -9999 -9999 -9999 -9999 -9999 -9999 -9999 -9999 -9999 -9999 -9999 -9999 -9999 -9999 -9999 -9999 -9999 -9999 -9999 -9999 -9999 -9999 -9999 -9999 -9999 -9999 -9999 -9999
0.42 0.39 0.50 0.38 0.35 0.44 0.36 0.48 0.46 0.42 0.33 0.46 0.41 0.51 0.50 0.51 0.51 0.50 0.44 0.46 0.42 0.45 0.43 0.52 0.44 0.35 0.41 0.52 0.45 0.52 0.44 0.42 0.44 0.39 0.40 0.41 0.52 0.33 0.47 0.45 0.50 0.53 0.38 0.46 0.45 0.49 0.48 0.35 0.39 0.37 0.33 0.52 0.40 0.52 0.49 0.49 0.45 0.34 0.45 0.43 0.34 0.48 0.49 0.35 0.46 0.46 0.40 0.42 0.34 0.52 0.37 0.43 0.34 0.33 0.48 0.51 0.38 0.38 0.50 0.33 0.40 0.41 0.52 0.42 0.41 0.38 0.35 0.48 0.41 0.51 0.50 0.51 0.46 0.46 0.38 0.42 0.43 0.43 0.35 0.49 0.45 0.34 0.43 0.43 0.48 0.48 0.48 0.37 0.38 0.41 0.38 0.50 0.36 0.41 0.48 0.40 0.52 0.50 0.49 0.34 0.50 0.42 0.50 0.46 0.36 0.34 0.36 0.43 0.38 0.41 0.35 0.36 0.41 0.38 0.43 0.39 0.39 0.49 0.42 0.40 0.42 0.43 0.43 0.40 0.37 0.52 0.36 0.50 0.38 0.44 0.45 0.36 0.40 0.41 0.39 0.45 0.38 0.45 0.43 0.34 0.40 0.37 0.50 0.49 0.43 0.44 0.39 0.37 0.37 0.51 0.38 0.36 0.40 0.49 0.45 0.51 0.46 0.38 0.47 0.47 0.42 0.50 0.47 -9999 -9999 -9999 -9999 -9999 -9999 -9999 -9999 -9999 -9999 -9999 -9999 -9999 -9999 -9999 -9999 -9999 -9999 -9999 -9999 -9999 -9999 -9999 -9999 -9999 -9999 -9999 -9999 -9999 -9999 -9999 -9999
0.42 0.38 0.40 0.34 0.48 0.35 0.39 0.36 0.33 0.41 0.35 0.44 0.51 0.44 0.53 0.37 0.35 0.40 0.37 0.38 0.50 0.39 0.48 0.48 0.45 0.49 0.46 0.52 0.50 0.50 0.49 0.47 0.52 0.34 0.41 0.50 0.46 0.46 0.46 0.44 0.33 0.41 0.36 0.51 0.48 0.50 0.50 0.45 0.52 0.37 0.42 0.44 0.36 0.38 0.36 0.40 0.40 0.35 0.49 0.38 0.38 0.35 0.50 0.43 0.51 0.38 0.43 0.50 0.33 0.39 0.39 0.47 0.37 0.34 0.47 0.35 0.45 0.41 0.44 0.53 0.36 0.43 0.33 0.43 0.50 0.50 0.46 0.37 0.35 0.35 0.42 0.52 0.48 0.33 0.38 0.36 0.40 0.36 0.47 0.39 0.38 0.36 0.49 0.42 0.34 0.49 0.47 0.34 0.47 0.42 0.33 0.43 0.38 0.48 0.45 0.39 0.42 0.47 0.41 0.52 0.42 0.51 0.42 0.36 0.49 0.38 0.39 0.44 0.45 0.37 0.33 0.37 0.38 0.49 0.51 0.43 0.38 0.33 0.51 0.50 0.51 0.39 0.51 0.33 0.51 0.44 0.51 0.51 0.39 0.51 0.40 0.40 0.47 0.46 0.48 0.34 0.37 0.37 0.39 0.50 0.48 0.40 0.38 0.43 0.46 0.45 0.50 0.35 0.40 0.35 0.35 0.49 0.36 0.39 0.52 0.43 0.33 0.40 0.45 0.36 0.47 0.50 0.38 -9999 -9999 -9999 -9999 -9999 -9999 -9999 -9999 -9999 -9999 -9999 -9999 -9999 -9999 -9999 -9999 -9999 -9999 -9999 -9999 -9999 -9999 -9999 -9999 -9999 -9999 -9999 -9999 -9999 -9999 -9999 -9999
0.52 0.45 0.37 0.44 0.51 0.39 0.34 0.48 0.51 0.37 0.43 0.36 0.37 0.41 0.47 0.48 0.46 0.34 0.52 0.33 0.38 0.40 0.35 0.47 0.39 0.37 0.48 0.49 0.43 0.48 0.36 0.48 0.49 0.39 0.52 0.38 0.35 0.39 0.42 0.42 0.41 0.43 0.49 0.37 0.45 0.45 0.42 0.47 0.35 0.39 0.36 0.37 0.46 0.36 0.51 0.35 0.47 0.36 0.45 0.50 0.50 0.42 0.36 0.44 0.51 0.39 0.37 0.52 0.42 0.49 0.45 0.34 0.38 0.38 0.38 0.40 0.35 0.42 0.48 0.45 0.35 0.37 0.38 0.37 0.34 0.40 0.36 0.44 0.47 0.48 0.51 0.45 0.37 0.39 0.40 0.34 0.49 0.38 0.40 0.45 0.51 0.35 0.40 0.49 0.48 0.42 0.43 0.43 0.49 0.40 0.46 0.46 0.51 0.49 0.50 0.40 0.44 0.39 0.33 0.51 0.45 0.48 0.40 0.47 0.46 0.48 0.45 0.51 0.51 0.36 0.37 0.51 0.43 0.39 0.39 0.37 0.41 0.41 0.41 0.43 0.37 0.40 0.45 0.48 0.40 0.46 0.41 0.43 0.50 0.40 0.34 0.47 0.40 0.51 0.34 0.52 0.41 0.41 0.40 0.49 0.46 0.39 0.42 0.37 0.49 0.36 0.37 0.45 0.48 0.39 0.42 0.37 0.36 0.41 0.40 0.39 0.49 0.50 0.38 0.35 0.49 0.52 0.39 -9999 -9999 -9999 -9999 -9999 -9999 -9999 -9999 -9999 -9999 -9999 -9999 -9999 -9999 -9999 -9999 -9999 -9999 -9999 -9999 -9999 -9999 -9999 -9999 -9999 -9999 -9999 -9999 -9999 -9999 -9999 -9999
0.43 0.39 0.37 0.51 0.51 0.53 0.39 0.34 0.44 0.51 0.37 0.37 0.41 0.43 0.41 0.52 0.44 0.48 0.42 0.40 0.38 0.45 0.50 0.36 0.51 0.45 0.43 0.51 0.41 0.36 0.43 0.45 0.33 0.38 0.43 0.47 0.40 0.42 0.49 0.47 0.47 0.39 0.51 0.39 0.39 0.43 0.35 0.36 0.49 0.46 0.36 0.52 0.34 0.35 0.47 0.36 0.35 0.50 0.53 0.44 0.38 0.51 0.47 0.47 0.46 0.50 0.45 0.39 0.35 0.39 0.37 0.49 0.45 0.45 0.40 0.40 0.40 0.34 0.36 0.34 0.48 0.37 0.36 0.42 0.41 0.40 0.39 0.36 0.51 0.39 0.50 0.43 0.43 0.37 0.34 0.36 0.41 0.40 0.35 0.46 0.50 0.49 0.49 0.35 0.45 0.34 0.35 0.36 0.42 0.52 0.51 0.45 0.48 0.36 0.44 0.44 0.34 0.39 0.37 0.39 0.50 0.34 0.33 0.44 0.38 0.38 0.33 0.43 0.42 0.43 0.48 0.34 0.50 0.52 0.52 0.35 0.33 0.46 0.50 0.34 0.37 0.39 0.47 0.51 0.47 0.50 0.38 0.43 0.51 0.39 0.35 0.39 0.46 0.37 0.33 0.35 0.38 0.46 0.43 0.39 0.35 0.40 0.45 0.51 0.38 0.41 0.42 0.38 0.42 0.45 0.40 0.37 0.49 0.35 0.34 0.39 0.51 0.41 0.36 0.40 0.45 0.52 0.50 -9999 -9999 -9999 -9999 -9999 -9999 -9999 -9999 -9999 -9999 -9999 -9999 -9999 -9999 -9999 -9999 -9999 -9999 -9999 -9999 -9999 -9999 -9999 -9999 -9999 -9999 -9999 -9999 -9999 -9999 -9999 -9999
0.44 0.48 0.48 0.41 0.51 0.46 0.49 0.37 0.43 0.52 0.47 0.42 0.41 0.47 0.39 0.42 0.47 0.37 0.38 0.49 0.42 0.36 0.35 0.48 0.47 0.41 0.37 0.37 0.42 0.46 0.49 0.41 0.52 0.41 0.38 0.36 0.43 0.47 0.43 0.36 0.53 0.35 0.36 0.47 0.47 0.50 0.35 0.34 0.46 0.37 0.41 0.48 0.43 0.41 0.48 0.37 0.50 0.52 0.48 0.43 0.40 0.50 0.47 0.40 0.37 0.48 0.50 0.43 0.36 0.36 0.47 0.41 0.46 0.51 0.51 0.48 0.49 0.38 0.51 0.51 0.53 0.46 0.42 0.52 0.37 0.44 0.40 0.38 0.46 0.39 0.44 0.44 0.35 0.50 0.39 0.42 0.51 0.39 0.50 0.44 0.48 0.48 0.37 0.44 0.40 0.52 0.52 0.48 0.47 0.34 0.46 0.42 0.47 0.42 0.51 0.35 0.50 0.46 0.36 0.42 0.34 0.36 0.51 0.38 0.37 0.39 0.45 0.44 0.45 0.50 0.41 0.48 0.42 0.39 0.35 0.40 0.42 0.44 0.51 0.44 0.52 0.43 0.39 0.48 0.34 0.38 0.45 0.48 0.41 0.52 0.40 0.52 0.46 0.45 0.48 0.49 0.38 0.35 0.39 0.41 0.41 0.49 0.37 0.39 0.44 0.47 0.42 0.47 0.46 0.34 0.40 0.36 0.52 0.44 0.47 0.34 0.40 0.45 0.43 0.43 0.36 0.48 0.51 0.36 -9999 -9999 -9999 -9999 -9999 -9999 -9999 -9999 -9999 -9999 -9999 -9999 -9999 -9999 -9999 -9999 -9999 -9999 -9999 -9999 -9999 -9999 -9999 -9999 -9999 -9999 -9999 -9999 -9999 -9999 -9999
0.49 0.37 0.40 0.44 0.45 0.47 0.48 0.35 0.37 0.48 0.40 0.44 0.33 0.48 0.39 0.50 0.44 0.45 0.47 0.34 0.43 0.47 0.44 0.48 0.42 0.40 0.39 0.33 0.51 0.34 0.51 0.41 0.45 0.51 0.51 0.42 0.49 0.33 0.43 0.52 0.47 0.36 0.40 0.48 0.41 0.47 0.38 0.52 0.37 0.44 0.36 0.48 0.43 0.41 0.50 0.39 0.38 0.41 0.41 0.41 0.35 0.40 0.35 0.52 0.45 0.49 0.40 0.50 0.34 0.44 0.33 0.50 0.38 0.45 0.40 0.44 0.40 0.53 0.35 0.45 0.49 0.49 0.48 0.35 0.37 0.39 0.45 0.36 0.40 0.39 0.47 0.52 0.44 0.50 0.35 0.46 0.43 0.36 0.46 0.42 0.40 0.43 0.37 0.34 0.45 0.33 0.47 0.42 0.48 0.49 0.50 0.52 0.37 0.47 0.51 0.44 0.41 0.45 0.35 0.46 0.44 0.52 0.34 0.45 0.38 0.46 0.36 0.42 0.41 0.50 0.42 0.50 0.40 0.34 0.33 0.47 0.52 0.45 0.35 0.50 0.51 0.42 0.40 0.34 0.38 0.44 0.45 0.42 0.41 0.50 0.34 0.44 0.45 0.46 0.43 0.43 0.39 0.37 0.35 0.47 0.48 0.42 0.42 0.44 0.36 0.51 0.49 0.39 0.47 0.48 0.41 0.43 0.39 0.40 0.37 0.52 0.45 0.50 0.38 0.37 0.34 0.46 0.36 0.42 -9999 -9999 -9999 -9999 -9999 -9999 -9999 -9999 -9999 -9999 -9999 -9999 -9999 -9999 -9999 -9999 -9999 -9999 -9999 -9999 -9999 -9999 -9999 -9999 -9999 -9999 -9999 -9999 -9999 -9999 -9999
0.50 0.42 0.45 0.45 0.43 0.36 0.51 0.44 0.43 0.45 0.42 0.52 0.45 0.43 0.33 0.45 0.50 0.44 0.37 0.45 0.49 0.46 0.45 0.40 0.51 0.38 0.48 0.42 0.51 0.35 0.42 0.43 0.50 0.35 0.36 0.44 0.34 0.38 0.40 0.39 0.46 0.49 0.44 0.46 0.35 0.38 0.42 0.44 0.35 0.51 0.49 0.53 0.42 0.47 0.34 0.33 0.43 0.51 0.46 0.47 0.43 0.52 0.50 0.37 0.52 0.46 0.48 0.51 0.34 0.44 0.41 0.50 0.35 0.46 0.36 0.50 0.34 0.52 0.47 0.39 0.37 0.50 0.47 0.33 0.50 0.48 0.37 0.40 0.44 0.46 0.44 0.46 0.52 0.38 0.34 0.34 0.51 0.51 0.49 0.46 0.50 0.37 0.45 0.34 0.49 0.35 0.45 0.50 0.49 0.35 0.33 0.50 0.35 0.44 0.41 0.33 0.40 0.39 0.52 0.35 0.39 0.44 0.33 0.52 0.43 0.51 0.40 0.35 0.39 0.46 0.38 0.44 0.44 0.42 0.46 0.42 0.35 0.52 0.44 0.47 0.42 0.50 0.36 0.40 0.46 0.37 0.37 0.41 0.48 0.42 0.33 0.36 0.41 0.46 0.47 0.47 0.36 0.50 0.37 0.38 0.34 0.43 0.44 0.40 0.33 0.47 0.52 0.51 0.39 0.35 0.52 0.35 0.35 0.37 0.48 0.49 0.52 0.47 0.43 0.43 0.33 0.40 0.41 0.51 -9999 -9999 -9999 -9999 -9999 -9999 -9999 -9999 -9999 -9999 -9999 -9999 -9999 -9999 -9999 -9999 -9999 -9999 -9999 -9999 -9999 -9999 -9999 -9999 -9999 -9999 -9999 -9999 -9999 -9999 -9999
0.37 0.51 0.33 0.38 0.51 0.46 0.39 0.39 0.41 0.48 0.45 0.36 0.46 0.52 0.43 0.47 0.49 0.35 0.40 0.49 0.44 0.48 0.35 0.38 0.38 0.49 0.52 0.37 0.36 0.33 0.45 0.42 0.50 0.36 0.44 0.46 0.44 0.34 0.41 0.47 0.43 0.45 0.36 0.40 0.46 0.40 0.47 0.33 0.37 0.49 0.50 0.52 0.37 0.42 0.47 0.45 0.49 0.37 0.47 0.38 0.37 0.45 0.48 0.42 0.45 0.47 0.37 0.34 0.34 0.33 0.38 0.37 0.43 0.45 0.44 0.33 0.40 0.52 0.42 0.52 0.34 0.36 0.49 0.41 0.51 0.35 0.38 0.36 0.52 0.51 0.41 0.40 0.47 0.49 0.43 0.49 0.48 0.36 0.40 0.50 0.43 0.49 0.35 0.34 0.42 0.42 0.41 0.43 0.50 0.48 0.51 0.53 0.36 0.46 0.49 0.46 0.34 0.41 0.49 0.33 0.45 0.41 0.53 0.34 0.33 0.40 0.43 0.44 0.48 0.44 0.48 0.37 0.38 0.53 0.36 0.37 0.41 0.41 0.42 0.51 0.37 0.38 0.38 0.52 0.39 0.44 0.33 0.44 0.46 0.42 0.35 0.34 0.40 0.51 0.52 0.41 0.37 0.33 0.51 0.39 0.34 0.48 0.51 0.46 0.35 0.40 0.39 0.39 0.44 0.37 0.51 0.36 0.34 0.48 0.38 0.37 0.39 0.45 0.44 0.39 0.48 0.43 0.51 0.42 -9999 -9999 -9999 -9999 -9999 -9999 -9999 -9999 -9999 -9999 -9999 -9999 -9999 -9999 -9999 -9999 -9999 -9999 -9999 -9999 -9999 -9999 -9999 -9999 -9999 -9999 -9999 -9999 -9999 -9999 -9999
0.45 0.51 0.41 0.39 0.48 0.49 0.35 0.46 0.47 0.40 0.34 0.49 0.39 0.38 0.39 0.35 0.50 0.43 0.45 0.52 0.46 0.35 0.40 0.48 0.36 0.37 0.35 0.40 0.35 0.47 0.47 0.44 0.47 0.52 0.53 0.43 0.38 0.46 0.46 0.35 0.44 0.52 0.37 0.34 0.33 0.37 0.42 0.37 0.51 0.35 0.40 0.36 0.49 0.35 0.39 0.51 0.44 0.37 0.38 0.39 0.34 0.49 0.44 0.41 0.45 0.52 0.33 0.40 0.46 0.45 0.46 0.40 0.37 0.51 0.33 0.45 0.48 0.51 0.39 0.43 0.36 0.35 0.35 0.45 0.49 0.43 0.52 0.36 0.46 0.37 0.51 0.39 0.38 0.44 0.48 0.38 0.50 0.47 0.48 0.48 0.52 0.47 0.42 0.36 0.35 0.33 0.48 0.47 0.44 0.35 0.38 0.44 0.50 0.47 0.37 0.42 0.42 0.52 0.34 0.43 0.46 0.49 0.48 0.36 0.43 0.38 0.36 0.51 0.38 0.43 0.34 0.42 0.43 0.46 0.46 0.33 0.45 0.51 0.35 0.43 0.47 0.42 0.52 0.37 0.50 0.45 0.45 0.34 0.52 0.43 0.40 0.39 0.36 0.43 0.40 0.48 0.52 0.43 0.46 0.40 0.34 0.39 0.52 0.35 0.43 0.39 0.43 0.50 0.44 0.38 0.35 0.45 0.51 0.46 0.42 0.35 0.34 0.42 0.38 0.35 0.36 0.35 0.52 0.43 -9999 -9999 -9999 -9999 -9999 -9999 -9999 -9999 -9999 -9999 -9999 -9999 -9999 -9999 -9999 -9999 -9999 -9999 -9999 -9999 -9999 -9999 -9999 -9999 -9999 -9999 -9999 -9999 -9999 -9999 -9999
0.52 0.34 0.52 0.38 0.41 0.51 0.49 0.47 0.39 0.36 0.44 0.51 0.49 0.40 0.33 0.45 0.39 0.33 0.37 0.35 0.40 0.39 0.51 0.52 0.34 0.33 0.35 0.34 0.33 0.45 0.33 0.34 0.43 0.46 0.38 0.38 0.46 0.47 0.46 0.34 0.49 0.40 0.34 0.52 0.37 0.50 0.41 0.39 0.39 0.44 0.51 0.52 0.35 0.38 0.47 0.39 0.35 0.41 0.49 0.51 0.41 0.51 0.36 0.52 0.33 0.36 0.52 0.50 0.48 0.52 0.38 0.44 0.52 0.42 0.49 0.53 0.44 0.48 0.43 0.39 0.33 0.49 0.37 0.49 0.44 0.43 0.37 0.44 0.48 0.51 0.34 0.51 0.51 0.35 0.50 0.35 0.51 0.48 0.52 0.51 0.43 0.48 0.47 0.38 0.47 0.47 0.46 0.33 0.33 0.35 0.48 0.36 0.35 0.45 0.51 0.44 0.35 0.33 0.47 0.45 0.46 0.33 0.35 0.47 0.43 0.49 0.44 0.42 0.49 0.41 0.36 0.43 0.43 0.52 0.33 0.50 0.34 0.41 0.40 0.34 0.41 0.40 0.34 0.40 0.49 0.44 0.38 0.37 0.51 0.36 0.33 0.48 0.36 0.45 0.52 0.52 0.49 0.37 0.34 0.41 0.38 0.47 0.36 0.42 0.52 0.41 0.48 0.51 0.50 0.52 0.39 0.50 0.51 0.38 0.48 0.35 0.48 0.45 0.43 0.51 0.43 0.36 0.33 0.35 -9999 -9999 -9999 -9999 -9999 -9999 -9999 -9999 -9999 -9999 -9999 -9999 -9999 -9999 -9999 -9999 -9999 -9999 -9999 -9999 -9999 -9999 -9999 -9999 -9999 -9999 -9999 -9999 -9999 -9999 -9999
0.33 0.51 0.36 0.38 0.35 0.36 0.37 0.43 0.50 0.46 0.33 0.46 0.33 0.39 0.52 0.42 0.33 0.34 0.52 0.42 0.46 0.39 0.37 0.36 0.40 0.37 0.39 0.44 0.52 0.50 0.36 0.44 0.47 0.48 0.48 0.51 0.50 0.45 0.46 0.48 0.44 0.37 0.52 0.37 0.50 0.42 0.36 0.41 0.41 0.39 0.51 0.48 0.47 0.36 0.36 0.49 0.36 0.51 0.41 0.52 0.50 0.51 0.44 0.41 0.35 0.46 0.49 0.39 0.33 0.38 0.43 0.50 0.40 0.50 0.34 0.43 0.45 0.41 0.53 0.39 0.43 0.48 0.38 0.38 0.42 0.37 0.41 0.38 0.50 0.42 0.36 0.35 0.34 0.42 0.50 0.43 0.44 0.48 0.42 0.44 0.49 0.50 0.47 0.53 0.33 0.44 0.34 0.50 0.41 0.41 0.46 0.48 0.40 0.40 0.52 0.48 0.40 0.42 0.45 0.38 0.49 0.38 0.39 0.36 0.43 0.36 0.52 0.46 0.44 0.36 0.42 0.33 0.44 0.46 0.49 0.43 0.48 0.33 0.36 0.48 0.40 0.43 0.34 0.47 0.52 0.46 0.42 0.46 0.46 0.39 0.50 0.51 0.45 0.34 0.37 0.44 0.44 0.41 0.46 0.39 0.37 0.45 0.48 0.48 0.35 0.38 0.42 0.52 0.46 0.47 0.44 0.42 0.34 0.41 0.44 0.33 0.42 0.38 0.37 0.48 0.45 0.41 0.41 0.37 -9999 -9999 -9999 -9999 -9999 -9999 -9999 -9999 -9999 -9999 -9999 -9999 -9999 -9999 -9999 -9999 -9999 -9999 -9999 -9999 -9999 -9999 -9999 -9999 -9999 -9999 -9999 -9999 -9999 -9999 -9999
0.37 0.34 0.40 0.37 0.34 0.34 0.40 0.37 0.48 0.45 0.36 0.41 0.41 0.38 0.49 0.45 0.52 0.43 0.52 0.48 0.47 0.41 0.43 0.43 0.36 0.38 0.46 0.46 0.52 0.33 0.52 0.42 0.34 0.48 0.42 0.34 0.41 0.43 0.50 0.38 0.53 0.33 0.35 0.44 0.50 0.44 0.50 0.42 0.38 0.46 0.45 0.49 0.33 0.34 0.39 0.37 0.46 0.40 0.33 0.51 0.34 0.34 0.50 0.35 0.51 0.40 0.43 0.38 0.40 0.39 0.42 0.44 0.43 0.41 0.46 0.47 0.52 0.48 0.39 0.47 0.36 0.35 0.51 0.43 0.47 0.53 0.40 0.44 0.40 0.40 0.50 0.44 0.36 0.48 0.48 0.36 0.35 0.45 0.49 0.42 0.49 0.41 0.48 0.46 0.48 0.38 0.41 0.51 0.46 0.34 0.43 0.35 0.51 0.44 0.52 0.33 0.35 0.43 0.40 0.33 0.37 0.49 0.39 0.35 0.43 0.51 0.45 0.51 0.42 0.36 0.50 0.36 0.36 0.43 0.36 0.35 0.51 0.33 0.52 0.36 0.36 0.35 0.51 0.36 0.49 0.36 0.36 0.43 0.47 0.33 0.49 0.42 0.34 0.41 0.48 0.37 0.49 0.51 0.51 0.46 0.43 0.42 0.44 0.37 0.35 0.49 0.50 0.46 0.50 0.36 0.43 0.34 0.52 0.34 0.44 0.46 0.42 0.43 0.49 0.49 0.39 0.49 0.43 0.50 0.44 -9999 -9999 -9999 -9999 -9999 -9999 -9999 -9999 -9999 -9999 -9999 -9999 -9999 -9999 -9999 -9999 -9999 -9999 -9999 -9999 -9999 -9999 -9999 -9999 -9999 -9999 -9999 -9999 -9999 -9999
0.43 0.47 0.40 0.48 0.41 0.50 0.40 0.39 0.50 0.46 0.44 0.47 0.39 0.48 0.37 0.35 0.43 0.38 0.52 0.39 0.37 0.38 0.41 0.34 0.50 0.42 0.33 0.38 0.35 0.50 0.52 0.37 0.49 0.46 0.42 0.47 0.36 0.41 0.46 0.52 0.33 0.43 0.47 0.35 0.37 0.38 0.37 0.49 0.46 0.46 0.38 0.44 0.52 0.45 0.37 0.39 0.39 0.39 0.44 0.33 0.47 0.39 0.44 0.39 0.34 0.43 0.36 0.46 0.36 0.48 0.48 0.38 0.46 0.38 0.45 0.51 0.36 0.43 0.37 0.41 0.37 0.48 0.43 0.42 0.47 0.41 0.52 0.48 0.36 0.43 0.40 0.40 0.44 0.37 0.42 0.47 0.39 0.46 0.35 0.43 0.52 0.39 0.51 0.45 0.36 0.44 0.40 0.43 0.47 0.38 0.42 0.34 0.37 0.40 0.43 0.49 0.42 0.46 0.52 0.46 0.33 0.51 0.51 0.40 0.35 0.42 0.45 0.50 0.47 0.46 0.34 0.48 0.33 0.36 0.49 0.48 0.50 0.43 0.46 0.45 0.52 0.49 0.46 0.43 0.42 0.43 0.43 0.51 0.35 0.33 0.52 0.49 0.33 0.52 0.51 0.40 0.49 0.42 0.41 0.36 0.41 0.41 0.36 0.37 0.43 0.52 0.40 0.41 0.42 0.36 0.45 0.40 0.45 0.34 0.42 0.43 0.39 0.39 0.49 0.48 0.44 0.49 0.50 0.42 0.44 -9999 -9999 -9999 -9999 -9999 -9999 -9999 -9999 -9999 -9999 -9999 -9999 -9999 -9999 -9999 -9999 -9999 -9999 -9999 -9999 -9999 -9999 -9999 -9999 -9999 -9999 -9999 -9999 -9999 -9999
0.50 0.35 0.40 0.46 0.46 0.35 0.34 0.40 0.40 0.46 0.49 0.35 0.40 0.49 0.52 0.47 0.42 0.36 0.33 0.33 0.47 0.37 0.48 0.45 0.33 0.42 0.51 0.33 0.51 0.46 0.44 0.46 0.40 0.49 0.43 0.51 0.33 0.39 0.39 0.35 0.46 0.49 0.37 0.47 0.33 0.49 0.43 0.49 0.35 0.33 0.47 0.34 0.46 0.51 0.38 0.41 0.34 0.52 0.33 0.35 0.34 0.41 0.45 0.33 0.42 0.33 0.38 0.45 0.42 0.52 0.44 0.45 0.51 0.52 0.37 0.38 0.38 0.35 0.51 0.47 0.39 0.33 0.35 0.36 0.41 0.41 0.37 0.50 0.51 0.42 0.38 0.43 0.37 0.37 0.39 0.35 0.49 0.38 0.52 0.44 0.52 0.48 0.38 0.49 0.49 0.40 0.52 0.35 0.48 0.37 0.39 0.46 0.51 0.44 0.35 0.53 0.48 0.45 0.41 0.48 0.52 0.42 0.41 0.48 0.49 0.33 0.44 0.50 0.44 0.52 0.51 0.42 0.41 0.47 0.34 0.41 0.35 0.37 0.49 0.46 0.47 0.36 0.50 0.50 0.44 0.47 0.40 0.39 0.52 0.34 0.50 0.49 0.52 0.43 0.44 0.36 0.45 0.40 0.42 0.34 0.49 0.34 0.49 0.43 0.40 0.45 0.34 0.48 0.52 0.47 0.49 0.51 0.52 0.38 0.45 0.38 0.49 0.50 0.46 0.52 0.35 0.49 0.52 0.34 0.52 -9999 -9999 -9999 -9999 -9999 -9999 -9999 -9999 -9999 -9999 -9999 -9999 -9999 -9999 -9999 -9999 -9999 -9999 -9999 -9999 -9999 -9999 -9999 -9999 -9999 -9999 -9999 -9999 -9999 -9999
0.47 0.37 0.40 0.43 0.45 0.48 0.51 0.47 0.46 0.38 0.48 0.47 0.35 0.38 0.50 0.42 0.50 0.46 0.47 0.41 0.46 0.46 0.39 0.52 0.37 0.39 0.45 0.44 0.48 0.34 0.37 0.39 0.36 0.40 0.34 0.43 0.38 0.40 0.44 0.39 0.48 0.51 0.48 0.43 0.44 0.49 0.37 0.45 0.33 0.39 0.34 0.52 0.49 0.47 0.40 0.37 0.41 0.50 0.34 0.43 0.52 0.53 0.34 0.35 0.42 0.49 0.47 0.44 0.48 0.41 0.47 0.42 0.37 0.41 0.50 0.43 0.34 0.51 0.38 0.42 0.42 0.46 0.44 0.40 0.36 0.38 0.38 0.45 0.46 0.48 0.41 0.43 0.42 0.43 0.42 0.40 0.47 0.46 0.46 0.35 0.53 0.33 0.53 0.47 0.36 0.34 0.48 0.46 0.41 0.34 0.45 0.48 0.50 0.47 0.43 0.44 0.34 0.46 0.37 0.45 0.50 0.40 0.50 0.39 0.39 0.39 0.35 0.51 0.35 0.39 0.35 0.45 0.42 0.44 0.50 0.33 0.35 0.47 0.46 0.33 0.43 0.41 0.37 0.50 0.43 0.53 0.42 0.45 0.46 0.37 0.42 0.38 0.43 0.46 0.48 0.44 0.43 0.45 0.41 0.41 0.37 0.39 0.52 0.50 0.49 0.48 0.34 0.49 0.42 0.34 0.45 0.43 0.50 0.38 0.48 0.39 0.37 0.52 0.39 0.33 0.41 0.40 0.37 0.38 0.48 -9999 -9999 -9999 -9999 -9999 -9999 -9999 -9999 -9999 -9999 -9999 -9999 -9999 -9999 -9999 -9999 -9999 -9999 -9999 -9999 -9999 -9999 -9999 -9999 -9999 -9999 -9999 -9999 -9999 -9999
0.33 0.49 0.36 0.39 0.49 0.49 0.36 0.49 0.45 0.52 0.51 0.52 0.45 0.40 0.37 0.52 0.48 0.43 0.50 0.49 0.48 0.50 0.51 0.49 0.46 0.37 0.44 0.43 0.51 0.52 0.34 0.44 0.47 0.39 0.52 0.37 0.48 0.49 0.49 0.50 0.38 0.39 0.38 0.36 0.36 0.34 0.49 0.35 0.38 0.47 0.41 0.37 0.42 0.43 0.42 0.33 0.38 0.37 0.41 0.38 0.49 0.37 0.52 0.44 0.50 0.43 0.41 0.41 0.33 0.44 0.43 0.43 0.39 0.51 0.46 0.50 0.34 0.35 0.48 0.52 0.36 0.42 0.36 0.52 0.34 0.41 0.35 0.43 0.45 0.38 0.41 0.46 0.47 0.39 0.41 0.44 0.51 0.43 0.47 0.48 0.38 0.35 0.40 0.37 0.45 0.48 0.42 0.45 0.37 0.37 0.48 0.37 0.50 0.47 0.40 0.51 0.38 0.49 0.44 0.43 0.49 0.35 0.49 0.45 0.47 0.33 0.40 0.36 0.36 0.47 0.45 0.36 0.52 0.50 0.35 0.35 0.37 0.43 0.36 0.40 0.49 0.37 0.49 0.39 0.47 0.52 0.51 0.46 0.52 0.38 0.51 0.45 0.39 0.41 0.46 0.47 0.45 0.41 0.38 0.47 0.33 0.47 0.36 0.42 0.34 0.35 0.49 0.34 0.44 0.46 0.36 0.40 0.43 0.44 0.41 0.37 0.51 0.46 0.38 0.44 0.51 0.37 0.42 0.50 0.34 -9999 -9999 -9999 -9999 -9999 -9999 -9999 -9999 -9999 -9999 -9999 -9999 -9999 -9999 -9999 -9999 -9999 -9999 -9999 -9999 -9999 -9999 -9999 -9999 -9999 -9999 -9999 -9999 -9999 -9999
0.39 0.47 0.52 0.50 0.48 0.37 0.49 0.40 0.34 0.50 0.35 0.40 0.43 0.48 0.52 0.34 0.43 0.43 0.48 0.45 0.42 0.51 0.34 0.45 0.33 0.51 0.33 0.40 0.38 0.50 0.44 0.41 0.46 0.43 0.35 0.41 0.45 0.34 0.46 0.47 0.35 0.40 0.48 0.36 0.40 0.41 0.45 0.44 0.41 0.44 0.40 0.49 0.33 0.50 0.38 0.49 0.36 0.52 0.43 0.34 0.50 0.34 0.45 0.48 0.50 0.39 0.40 0.37 0.36 0.34 0.41 0.49 0.39 0.51 0.46 0.35 0.41 0.44 0.47 0.50 0.41 0.41 0.49 0.49 0.47 0.49 0.50 0.36 0.35 0.35 0.48 0.48 0.52 0.42 0.48 0.42 0.45 0.33 0.38 0.49 0.47 0.43 0.48 0.40 0.36 0.48 0.37 0.52 0.43 0.35 0.46 0.37 0.51 0.47 0.41 0.47 0.35 0.44 0.43 0.44 0.46 0.42 0.42 0.34 0.49 0.35 0.46 0.37 0.35 0.52 0.49 0.37 0.33 0.41 0.51 0.40 0.35 0.35 0.43 0.38 0.37 0.42 0.42 0.51 0.35 0.44 0.36 0.41 0.47 0.48 0.49 0.50 0.42 0.44 0.49 0.33 0.47 0.51 0.47 0.51 0.49 0.39 0.43 0.47 0.45 0.34 0.39 0.43 0.50 0.50 0.51 0.42 0.36 0.36 0.47 0.46 0.49 0.52 0.51 0.43 0.38 0.44 0.40 0.44 0.51 -9999 -9999 -9999 -9999 -9999 -9999 -9999 -9999 -9999 -9999 -9999 -9999 -9999 -9999 -9999 -9999 -9999 -9999 -9999 -9999 -9999 -9999 -9999 -9999 -9999 -9999 -9999 -9999 -9999 -9999
0.49 0.46 0.40 0.43 0.34 0.49 0.49 0.46 0.46 0.50 0.38 0.49 0.51 0.50 0.47 0.42 0.42 0.44 0.44 0.36 0.37 0.42 0.44 0.49 0.41 0.38 0.44 0.49 0.44 0.51 0.41 0.52 0.51 0.37 0.36 0.44 0.50 0.45 0.42 0.33 0.39 0.39 0.34 0.44 0.52 0.36 0.35 0.49 0.50 0.47 0.43 0.46 0.36 0.44 0.46 0.37 0.43 0.46 0.49 0.46 0.35 0.51 0.33 0.40 0.33 0.34 0.50 0.50 0.38 0.35 0.36 0.45 0.45 0.48 0.41 0.34 0.49 0.51 0.48 0.44 0.38 0.33 0.40 0.41 0.33 0.46 0.50 0.44 0.48 0.47 0.51 0.53 0.49 0.49 0.40 0.37 0.46 0.38 0.52 0.43 0.38 0.47 0.51 0.52 0.49 0.42 0.44 0.50 0.43 0.37 0.33 0.50 0.51 0.51 0.49 0.40 0.43 0.51 0.41 0.38 0.51 0.40 0.37 0.51 0.45 0.46 0.33 0.51 0.46 0.48 0.46 0.51 0.37 0.42 0.47 0.43 0.42 0.48 0.47 0.45 0.43 0.41 0.36 0.50 0.50 0.44 0.37 0.41 0.51 0.40 0.34 0.51 0.33 0.42 0.48 0.36 0.37 0.35 0.51 0.45 0.52 0.43 0.51 0.52 0.38 0.47 0.43 0.51 0.50 0.34 0.33 0.42 0.45 0.40 0.43 0.47 0.49 0.34 0.39 0.42 0.45 0.49 0.35 0.50 0.37 0.35 -9999 -9999 -9999 -9999 -9999 -9999 -9999 -9999 -9999 -9999 -9999 -9999 -9999 -9999 -9999 -9999 -9999 -9999 -9999 -9999 -9999 -9999 -9999 -9999 -9999 -9999 -9999 -9999 -9999
0.49 0.51 0.41 0.46 0.48 0.53 0.35 0.39 0.45 0.47 0.39 0.38 0.52 0.45 0.46 0.40 0.44 0.34 0.38 0.34 0.38 0.39 0.38 0.46 0.37 0.38 0.46 0.38 0.40 0.52 0.35 0.36 0.47 0.44 0.38 0.48 0.41 0.37 0.51 0.36 0.41 0.44 0.52 0.53 0.34 0.41 0.44 0.47 0.39 0.52 0.39 0.35 0.44 0.36 0.46 0.48 0.46 0.52 0.51 0.35 0.52 0.39 0.35 0.52 0.42 0.42 0.53 0.49 0.52 0.43 0.33 0.52 0.44 0.42 0.33 0.47 0.49 0.51 0.52 0.50 0.36 0.53 0.49 0.50 0.40 0.42 0.46 0.47 0.35 0.41 0.33 0.40 0.40 0.51 0.47 0.40 0.52 0.43 0.47 0.37 0.47 0.43 0.47 0.35 0.49 0.50 0.41 0.39 0.43 0.40 0.34 0.35 0.38 0.42 0.43 0.49 0.46 0.34 0.39 0.33 0.42 0.34 0.48 0.52 0.44 0.38 0.35 0.44 0.50 0.41 0.41 0.52 0.43 0.34 0.39 0.50 0.34 0.50 0.48 0.40 0.48 0.46 0.51 0.47 0.44 0.34 0.48 0.49 0.52 0.45 0.45 0.51 0.46 0.36 0.48 0.42 0.51 0.38 0.37 0.35 0.47 0.42 0.37 0.34 0.52 0.35 0.39 0.52 0.34 0.39 0.43 0.41 0.52 0.46 0.42 0.33 0.46 0.52 0.41 0.45 0.42 0.49 0.52 0.52 0.50 0.34 -9999 -9999 -9999 -9999 -9999 -9999 -9999 -9999 -9999 -9999 -9999 -9999 -9999 -9999 -9999 -9999 -9999 -9999 -9999 -9999 -9999 -9999 -9999 -9999 -9999 -9999 -9999 -9999 -9999
0.35 0.39 0.49 0.33 0.44 0.48 0.43 0.38 0.44 0.45 0.35 0.34 0.35 0.46 0.43 0.49 0.36 0.49 0.52 0.46 0.44 0.44 0.40 0.43 0.46 0.38 0.47 0.36 0.37 0.45 0.47 0.33 0.52 0.45 0.37 0.33 0.38 0.35 0.37 0.39 0.46 0.45 0.42 0.45 0.47 0.40 0.43 0.45 0.49 0.41 0.47 0.45 0.40 0.44 0.52 0.39 0.46 0.51 0.47 0.49 0.40 0.48 0.52 0.41 0.48 0.39 0.35 0.51 0.47 0.49 0.33 0.49 0.38 0.42 0.48 0.42 0.48 0.43 0.36 0.38 0.43 0.46 0.52 0.52 0.46 0.43 0.52 0.45 0.41 0.34 0.43 0.46 0.37 0.51 0.43 0.39 0.50 0.33 0.40 0.43 0.39 0.47 0.46 0.37 0.43 0.39 0.36 0.43 0.39 0.40 0.50 0.35 0.42 0.42 0.51 0.48 0.52 0.45 0.35 0.51 0.48 0.38 0.48 0.35 0.41 0.37 0.50 0.39 0.51 0.51 0.38 0.41 0.50 0.35 0.51 0.42 0.48 0.46 0.51 0.34 0.41 0.36 0.35 0.39 0.38 0.49 0.47 0.41 0.36 0.41 0.49 0.48 0.45 0.45 0.44 0.35 0.42 0.43 0.49 0.41 0.41 0.40 0.37 0.49 0.49 0.45 0.53 0.50 0.38 0.47 0.44 0.40 0.44 0.38 0.45 0.42 0.42 0.44 0.40 0.38 0.42 0.37 0.44 0.38 0.34 0.51 -9999 -9999 -9999 -9999 -9999 -9999 -9999 -9999 -9999 -9999 -9999 -9999 -9999 -9999 -9999 -9999 -9999 -9999 -9999 -9999 -9999 -9999 -9999 -9999 -9999 -9999 -9999 -9999 -9999
0.51 0.34 0.36 0.52 0.48 0.51 0.38 0.40 0.38 0.44 0.41 0.38 0.42 0.34 0.43 0.51 0.36 0.36 0.45 0.45 0.37 0.49 0.36 0.52 0.42 0.51 0.45 0.39 0.51 0.38 0.40 0.52 0.46 0.39 0.34 0.39 0.40 0.47 0.44 0.38 0.48 0.46 0.36 0.50 0.52 0.38 0.43 0.36 0.43 0.52 0.43 0.47 0.50 0.47 0.37 0.48 0.42 0.46 0.38 0.44 0.34 0.44 0.48 0.41 0.35 0.40 0.45 0.37 0.37 0.35 0.35 0.50 0.39 0.43 0.38 0.44 0.49 0.34 0.45 0.52 0.36 0.48 0.51 0.37 0.52 0.39 0.40 0.44 0.34 0.37 0.49 0.42 0.38 0.38 0.39 0.47 0.35 0.37 0.49 0.51 0.52 0.43 0.38 0.47 0.36 0.39 0.43 0.39 0.49 0.49 0.43 0.38 0.50 0.45 0.51 0.37 0.39 0.40 0.42 0.40 0.41 0.34 0.43 0.41 0.37 0.47 0.46 0.36 0.52 0.42 0.37 0.40 0.37 0.35 0.41 0.37 0.52 0.33 0.39 0.41 0.39 0.45 0.44 0.50 0.49 0.49 0.39 0.50 0.44 0.41 0.35 0.52 0.40 0.34 0.48 0.34 0.34 0.41 0.45 0.52 0.46 0.35 0.36 0.44 0.33 0.47 0.40 0.43 0.42 0.38 0.49 0.42 0.51 0.47 0.36 0.50 0.48 0.50 0.44 0.38 0.48 0.41 0.35 0.44 0.46 0.33 -9999 -9999 -9999 -9999 -9999 -9999 -9999 -9999 -9999 -9999 -9999 -9999 -9999 -9999 -9999 -9999 -9999 -9999 -9999 -9999 -9999 -9999 -9999 -9999 -9999 -9999 -9999 -9999 -9999
0.34 0.43 0.43 0.51 0.36 0.44 0.38 0.46 0.52 0.39 0.43 0.50 0.37 0.49 0.50 0.49 0.45 0.42 0.39 0.37 0.38 0.44 0.42 0.35 0.53 0.50 0.35 0.51 0.43 0.35 0.51 0.38 0.34 0.41 0.41 0.47 0.52 0.45 0.48 0.43 0.48 0.49 0.47 0.49 0.37 0.47 0.49 0.47 0.33 0.52 0.43 0.52 0.37 0.50 0.49 0.52 0.39 0.34 0.49 0.48 0.49 0.45 0.52 0.50 0.44 0.41 0.52 0.49 0.34 0.36 0.51 0.49 0.46 0.40 0.34 0.44 0.47 0.44 0.35 0.51 0.38 0.44 0.51 0.45 0.50 0.40 0.37 0.39 0.37 0.36 0.51 0.39 0.41 0.37 0.36 0.49 0.41 0.41 0.42 0.52 0.52 0.47 0.36 0.48 0.33 0.34 0.44 0.34 0.35 0.38 0.34 0.41 0.51 0.35 0.46 0.46 0.52 0.45 0.33 0.37 0.50 0.52 0.47 0.43 0.33 0.51 0.43 0.41 0.52 0.46 0.53 0.34 0.41 0.51 0.39 0.37 0.52 0.35 0.40 0.45 0.46 0.49 0.50 0.40 0.53 0.34 0.42 0.52 0.50 0.46 0.37 0.46 0.37 0.46 0.42 0.35 0.37 0.35 0.50 0.41 0.34 0.39 0.40 0.48 0.33 0.48 0.37 0.35 0.37 0.37 0.33 0.41 0.47 0.45 0.47 0.51 0.48 0.39 0.39 0.49 0.40 0.42 0.37 0.39 0.34 0.48 -9999 -9999 -9999 -9999 -9999 -9999 -9999 -9999 -9999 -9999 -9999 -9999 -9999 -9999 -9999 -9999 -9999 -9999 -9999 -9999 -9999 -9999 -9999 -9999 -9999 -9999 -9999 -9999 -9999
0.43 0.39 0.51 0.37 0.49 0.45 0.50 0.41 0.36 0.43 0.47 0.43 0.45 0.49 0.48 0.34 0.44 0.39 0.51 0.46 0.46 0.40 0.35 0.42 0.37 0.44 0.37 0.42 0.45 0.33 0.44 0.38 0.36 0.37 0.35 0.45 0.42 0.46 0.38 0.48 0.38 0.49 0.37 0.37 0.41 0.41 0.37 0.33 0.34 0.39 0.46 0.39 0.43 0.43 0.49 0.48 0.49 0.41 0.36 0.40 0.41 0.39 0.46 0.43 0.50 0.38 0.42 0.43 0.50 0.37 0.45 0.35 0.34 0.48 0.47 0.42 0.49 0.44 0.34 0.49 0.44 0.40 0.52 0.39 0.39 0.46 0.34 0.38 0.50 0.46 0.51 0.33 0.39 0.44 0.48 0.36 0.38 0.40 0.41 0.42 0.49 0.40 0.44 0.38 0.42 0.37 0.42 0.43 0.44 0.34 0.43 0.42 0.52 0.49 0.35 0.49 0.51 0.49 0.51 0.45 0.51 0.38 0.52 0.45 0.43 0.33 0.49 0.35 0.40 0.42 0.38 0.50 0.34 0.39 0.43 0.47 0.51 0.38 0.35 0.35 0.44 0.36 0.34 0.37 0.34 0.37 0.35 0.38 0.41 0.52 0.37 0.50 0.36 0.41 0.47 0.45 0.50 0.49 0.35 0.35 0.46 0.33 0.39 0.35 0.40 0.36 0.44 0.38 0.41 0.42 0.48 0.44 0.48 0.35 0.35 0.41 0.35 0.43 0.52 0.33 0.52 0.52 0.51 0.37 0.53 0.52 -9999 -9999 -9999 -9999 -9999 -9999 -9999 -9999 -9999 -9999 -9999 -9999 -9999 -9999 -9999 -9999 -9999 -9999 -9999 -9999 -9999 -9999 -9999 -9999 -9999 -9999 -9999 -9999 -9999
0.34 0.42 0.52 0.38 0.49 0.40 0.45 0.49 0.36 0.45 0.44 0.39 0.40 0.33 0.49 0.36 0.50 0.52 0.48 0.34 0.36 0.49 0.36 0.50 0.42 0.47 0.52 0.41 0.44 0.33 0.33 0.35 0.44 0.39 0.35 0.37 0.42 0.52 0.33 0.35 0.35 0.43 0.49 0.46 0.39 0.36 0.50 0.51 0.48 0.39 0.50 0.33 0.48 0.45 0.38 0.33 0.40 0.47 0.35 0.42 0.34 0.50 0.37 0.37 0.39 0.48 0.46 0.45 0.37 0.35 0.41 0.39 0.33 0.41 0.44 0.37 0.38 0.38 0.44 0.38 0.48 0.41 0.48 0.42 0.50 0.42 0.46 0.52 0.35 0.47 0.40 0.47 0.48 0.47 0.36 0.33 0.39 0.38 0.35 0.50 0.41 0.49 0.41 0.48 0.43 0.50 0.50 0.36 0.39 0.37 0.47 0.38 0.33 0.47 0.51 0.34 0.35 0.47 0.49 0.37 0.47 0.39 0.39 0.51 0.52 0.33 0.35 0.45 0.41 0.35 0.34 0.38 0.47 0.52 0.34 0.44 0.48 0.46 0.41 0.35 0.42 0.53 0.51 0.41 0.39 0.41 0.37 0.48 0.46 0.51 0.43 0.41 0.47 0.48 0.44 0.45 0.41 0.53 0.49 0.45 0.39 0.51 0.36 0.52 0.38 0.34 0.40 0.45 0.34 0.33 0.40 0.49 0.38 0.42 0.50 0.40 0.35 0.47 0.48 0.38 0.37 0.47 0.38 0.36 0.36 0.38 0.43 -9999 -9999 -9999 -9999 -9999 -9999 -9999 -9999 -9999 -9999 -9999 -9999 -9999 -9999 -9999 -9999 -9999 -9999 -9999 -9999 -9999 -9999 -9999 -9999 -9999 -9999 -9999 -9999
0.40 0.52 0.43 0.33 0.40 0.36 0.50 0.38 0.52 0.50 0.40 0.35 0.36 0.50 0.46 0.37 0.35 0.36 0.49 0.43 0.49 0.46 0.42 0.48 0.51 0.36 0.38 0.35 0.36 0.44 0.46 0.45 0.35 0.48 0.53 0.34 0.39 0.39 0.47 0.42 0.43 0.40 0.48 0.34 0.34 0.35 0.49 0.33 0.46 0.38 0.52 0.53 0.42 0.52 0.53 0.41 0.42 0.47 0.41 0.42 0.50 0.35 0.51 0.47 0.46 0.47 0.49 0.37 0.42 0.43 0.52 0.34 0.41 0.45 0.47 0.49 0.46 0.49 0.34 0.48 0.52 0.46 0.40 0.51 0.35 0.42 0.33 0.33 0.35 0.41 0.52 0.36 0.42 0.44 0.41 0.45 0.43 0.53 0.51 0.48 0.47 0.34 0.44 0.40 0.35 0.39 0.36 0.43 0.41 0.49 0.52 0.38 0.34 0.49 0.38 0.44 0.34 0.52 0.47 0.37 0.47 0.51 0.44 0.33 0.52 0.33 0.48 0.42 0.46 0.45 0.53 0.40 0.46 0.43 0.52 0.49 0.34 0.52 0.52 0.45 0.50 0.35 0.50 0.44 0.48 0.47 0.52 0.37 0.47 0.39 0.46 0.46 0.48 0.41 0.51 0.38 0.52 0.34 0.36 0.40 0.46 0.46 0.45 0.38 0.35 0.42 0.43 0.44 0.35 0.38 0.34 0.39 0.43 0.45 0.36 0.50 0.45 0.50 0.42 0.36 0.33 0.49 0.47 0.40 0.37 0.39 0.51 -9999 -9999 -9999 -9999 -9999 -9999 -9999 -9999 -9999 -9999 -9999 -9999 -9999 -9999 -9999 -9999 -9999 -9999 -9999 -9999 -9999 -9999 -9999 -9999 -9999 -9999 -9999 -9999
0.51 0.48 0.44 0.46 0.47 0.39 0.34 0.45 0.48 0.39 0.43 0.37 0.44 0.39 0.46 0.35 0.52 0.45 0.41 0.51 0.37 0.39 0.37 0.49 0.38 0.46 0.38 0.47 0.47 0.39 0.41 0.44 0.44 0.52 0.48 0.41 0.34 0.48 0.41 0.51 0.44 0.42 0.33 0.36 0.35 0.46 0.41 0.48 0.46 0.48 0.36 0.41 0.39 0.44 0.35 0.47 0.48 0.39 0.46 0.41 0.41 0.41 0.33 0.51 0.49 0.43 0.40 0.51 0.47 0.46 0.52 0.34 0.48 0.49 0.40 0.41 0.46 0.40 0.45 0.48 0.50 0.48 0.46 0.37 0.51 0.42 0.33 0.35 0.33 0.39 0.37 0.46 0.33 0.34 0.49 0.48 0.47 0.33 0.44 0.38 0.35 0.49 0.37 0.46 0.40 0.47 0.41 0.38 0.53 0.36 0.37 0.43 0.51 0.37 0.38 0.45 0.38 0.48 0.39 0.34 0.36 0.37 0.41 0.39 0.53 0.49 0.40 0.35 0.52 0.34 0.47 0.50 0.34 0.51 0.41 0.43 0.39 0.53 0.47 0.36 0.50 0.49 0.36 0.38 0.48 0.35 0.35 0.47 0.52 0.44 0.35 0.43 0.36 0.36 0.37 0.53 0.45 0.42 0.40 0.46 0.40 0.50 0.42 0.39 0.36 0.45 0.49 0.40 0.51 0.46 0.46 0.35 0.44 0.40 0.34 0.47 0.38 0.52 0.39 0.47 0.45 0.50 0.47 0.45 0.36 0.36 0.42 -9999 -9999 -9999 -9999 -9999 -9999 -9999 -9999 -9999 -9999 -9999 -9999 -9999 -9999 -9999 -9999 -9999 -9999 -9999 -9999 -9999 -9999 -9999 -9999 -9999 -9999 -9999 -9999
0.50 0.41 0.38 0.52 0.50 0.45 0.42 0.37 0.39 0.39 0.46 0.35 0.37 0.35 0.46 0.42 0.46 0.47 0.43 0.50 0.38 0.41 0.34 0.40 0.37 0.49 0.40 0.40 0.41 0.44 0.40 0.47 0.44 0.35 0.41 0.36 0.51 0.35 0.47 0.43 0.45 0.37 0.39 0.34 0.36 0.37 0.40 0.45 0.34 0.44 0.39 0.34 0.46 0.39 0.46 0.46 0.37 0.42 0.51 0.42 0.46 0.53 0.47 0.35 0.49 0.35 0.44 0.40 0.44 0.50 0.48 0.39 0.50 0.48 0.36 0.42 0.52 0.51 0.46 0.37 0.36 0.53 0.43 0.40 0.46 0.36 0.42 0.48 0.34 0.45 0.51 0.47 0.41 0.49 0.40 0.44 0.45 0.49 0.38 0.50 0.43 0.38 0.49 0.40 0.39 0.48 0.34 0.37 0.38 0.34 0.35 0.39 0.36 0.34 0.52 0.41 0.46 0.36 0.39 0.51 0.34 0.42 0.34 0.48 0.36 0.40 0.42 0.33 0.38 0.40 0.50 0.50 0.38 0.43 0.42 0.49 0.42 0.53 0.33 0.39 0.35 0.33 0.40 0.34 0.40 0.47 0.49 0.43 0.41 0.36 0.51 0.39 0.47 0.37 0.50 0.36 0.39 0.35 0.50 0.44 0.42 0.36 0.39 0.44 0.37 0.48 0.47 0.47 0.53 0.46 0.49 0.45 0.43 0.46 0.49 0.51 0.43 0.42 0.41 0.45 0.36 0.36 0.41 0.43 0.51 0.37 0.35 -9999 -9999 -9999 -9999 -9999 -9999 -9999 -9999 -9999 -9999 -9999 -9999 -9999 -9999 -9999 -9999 -9999 -9999 -9999 -9999 -9999 -9999 -9999 -9999 -9999 -9999 -9999 -9999
0.34 0.45 0.52 0.35 0.42 0.34 0.33 0.52 0.35 0.45 0.51 0.50 0.34 0.42 0.47 0.52 0.33 0.41 0.38 0.47 0.47 0.44 0.50 0.48 0.48 0.39 0.42 0.42 0.36 0.34 0.44 0.35 0.37 0.37 0.45 0.52 0.47 0.50 0.38 0.51 0.51 0.41 0.43 0.45 0.47 0.42 0.42 0.52 0.47 0.33 0.47 0.52 0.34 0.49 0.33 0.43 0.43 0.47 0.36 0.40 0.49 0.45 0.33 0.49 0.43 0.40 0.39 0.49 0.46 0.49 0.44 0.50 0.50 0.36 0.39 0.49 0.51 0.43 0.36 0.46 0.41 0.37 0.50 0.40 0.36 0.51 0.43 0.39 0.44 0.36 0.34 0.41 0.50 0.43 0.37 0.35 0.51 0.34 0.34 0.36 0.49 0.36 0.40 0.35 0.50 0.37 0.38 0.53 0.40 0.51 0.43 0.43 0.48 0.49 0.49 0.48 0.48 0.42 0.46 0.43 0.36 0.35 0.37 0.47 0.35 0.40 0.51 0.44 0.41 0.43 0.41 0.45 0.36 0.36 0.44 0.50 0.39 0.41 0.43 0.49 0.39 0.44 0.49 0.44 0.42 0.51 0.34 0.34 0.39 0.37 0.50 0.45 0.45 0.35 0.33 0.51 0.41 0.38 0.44 0.34 0.33 0.44 0.53 0.33 0.41 0.41 0.37 0.42 0.48 0.42 0.34 0.38 0.47 0.42 0.41 0.43 0.43 0.52 0.37 0.45 0.51 0.42 0.37 0.49 0.38 0.41 0.44 -9999 -9999 -9999 -9999 -9999 -9999 -9999 -9999 -9999 -9999 -9999 -9999 -9999 -9999 -9999 -9999 -9999 -9999 -9999 -9999 -9999 -9999 -9999 -9999 -9999 -9999 -9999 -9999
0.48 0.50 0.44 0.36 0.39 0.34 0.37 0.45 0.52 0.35 0.47 0.52 0.45 0.36 0.44 0.46 0.49 0.52 0.40 0.35 0.48 0.52 0.40 0.41 0.44 0.48 0.42 0.36 0.43 0.47 0.51 0.33 0.36 0.41 0.38 0.44 0.45 0.41 0.40 0.45 0.35 0.42 0.52 0.49 0.37 0.40 0.35 0.35 0.42 0.48 0.35 0.47 0.45 0.48 0.52 0.42 0.33 0.38 0.50 0.38 0.50 0.44 0.44 0.40 0.42 0.49 0.33 0.33 0.41 0.34 0.45 0.50 0.49 0.44 0.52 0.49 0.33 0.43 0.48 0.43 0.50 0.39 0.35 0.44 0.49 0.42 0.34 0.45 0.36 0.47 0.49 0.52 0.35 0.46 0.50 0.38 0.37 0.33 0.49 0.51 0.39 0.40 0.51 0.41 0.50 0.52 0.46 0.45 0.35 0.45 0.44 0.38 0.45 0.51 0.47 0.33 0.47 0.49 0.43 0.52 0.51 0.46 0.39 0.40 0.38 0.46 0.42 0.42 0.38 0.43 0.47 0.44 0.43 0.51 0.35 0.39 0.39 0.36 0.39 0.47 0.48 0.44 0.35 0.53 0.46 0.38 0.43 0.50 0.47 0.35 0.47 0.51 0.38 0.45 0.52 0.37 0.52 0.37 0.52 0.36 0.48 0.46 0.40 0.52 0.49 0.39 0.45 0.40 0.35 0.33 0.48 0.35 0.40 0.39 0.38 0.36 0.45 0.50 0.38 0.40 0.49 0.49 0.45 0.46 0.52 0.47 0.51 -9999 -9999 -9999 -9999 -9999 -9999 -9999 -9999 -9999 -9999 -9999 -9999 -9999 -9999 -9999 -9999 -9999 -9999 -9999 -9999 -9999 -9999 -9999 -9999 -9999 -9999 -9999 -9999
0.50 0.45 0.37 0.49 0.53 0.40 0.41 0.41 0.52 0.51 0.35 0.50 0.36 0.49 0.53 0.42 0.47 0.33 0.43 0.34 0.38 0.48 0.37 0.46 0.40 0.40 0.34 0.50 0.39 0.43 0.42 0.50 0.43 0.50 0.52 0.50 0.50 0.46 0.42 0.33 0.51 0.49 0.51 0.38 0.35 0.51 0.34 0.52 0.39 0.51 0.35 0.51 0.45 0.47 0.37 0.39 0.37 0.44 0.51 0.47 0.36 0.40 0.38 0.48 0.38 0.37 0.47 0.46 0.40 0.43 0.33 0.44 0.40 0.47 0.38 0.48 0.41 0.41 0.47 0.34 0.37 0.38 0.35 0.39 0.36 0.42 0.47 0.44 0.40 0.49 0.44 0.38 0.45 0.45 0.41 0.48 0.50 0.45 0.35 0.42 0.37 0.34 0.48 0.51 0.46 0.49 0.47 0.50 0.33 0.48 0.33 0.50 0.42 0.44 0.52 0.48 0.40 0.44 0.42 0.47 0.45 0.39 0.49 0.43 0.36 0.52 0.47 0.36 0.45 0.48 0.48 0.34 0.51 0.36 0.44 0.45 0.38 0.52 0.46 0.44 0.41 0.40 0.51 0.43 0.51 0.51 0.39 0.46 0.33 0.34 0.34 0.46 0.41 0.40 0.38 0.52 0.43 0.45 0.36 0.34 0.38 0.38 0.48 0.36 0.33 0.52 0.49 0.42 0.49 0.51 0.42 0.49 0.41 0.48 0.50 0.33 0.39 0.44 0.52 0.39 0.48 0.37 0.35 0.42 0.39 0.37 0.35 0.40 -9999 -9999 -9999 -9999 -9999 -9999 -9999 -9999 -9999 -9999 -9999 -9999 -9999 -9999 -9999 -9999 -9999 -9999 -9999 -9999 -9999 -9999 -9999 -9999 -9999 -9999 -9999
0.51 0.35 0.46 0.47 0.33 0.34 0.40 0.40 0.41 0.49 0.42 0.34 0.39 0.40 0.50 0.34 0.52 0.41 0.42 0.35 0.38 0.39 0.38 0.52 0.33 0.52 0.35 0.46 0.48 0.38 0.34 0.49 0.39 0.34 0.39 0.43 0.41 0.52 0.49 0.44 0.36 0.36 0.37 0.33 0.38 0.45 0.40 0.48 0.38 0.40 0.39 0.42 0.45 0.48 0.51 0.50 0.38 0.39 0.43 0.39 0.45 0.36 0.38 0.40 0.44 0.41 0.43 0.49 0.45 0.36 0.47 0.46 0.48 0.47 0.48 0.35 0.40 0.51 0.41 0.39 0.43 0.39 0.40 0.47 0.33 0.52 0.45 0.44 0.39 0.43 0.48 0.36 0.40 0.48 0.48 0.45 0.35 0.38 0.50 0.44 0.35 0.46 0.51 0.35 0.44 0.37 0.46 0.47 0.33 0.47 0.34 0.41 0.38 0.51 0.42 0.50 0.39 0.38 0.52 0.34 0.46 0.51 0.33 0.47 0.34 0.40 0.37 0.47 0.43 0.43 0.52 0.52 0.36 0.40 0.52 0.34 0.37 0.40 0.44 0.34 0.39 0.33 0.51 0.38 0.33 0.43 0.39 0.34 0.45 0.49 0.36 0.46 0.47 0.50 0.40 0.34 0.50 0.52 0.50 0.46 0.50 0.53 0.37 0.42 0.36 0.51 0.49 0.48 0.36 0.46 0.44 0.42 0.46 0.51 0.33 0.42 0.53 0.43 0.52 0.45 0.51 0.41 0.48 0.47 0.35 0.40 0.50 0.41 -9999 -9999 -9999 -9999 -9999 -9999 -9999 -9999 -9999 -9999 -9999 -9999 -9999 -9999 -9999 -9999 -9999 -9999 -9999 -9999 -9999 -9999 -9999 -9999 -9999 -9999 -9999
0.34 0.48 0.39 0.50 0.35 0.39 0.39 0.42 0.46 0.36 0.45 0.52 0.42 0.45 0.47 0.42 0.50 0.39 0.44 0.52 0.39 0.42 0.42 0.34 0.45 0.40 0.52 0.44 0.47 0.45 0.43 0.38 0.33 0.37 0.35 0.50 0.39 0.50 0.39 0.37 0.52 0.51 0.36 0.34 0.46 0.47 0.35 0.52 0.46 0.37 0.37 0.34 0.35 0.47 0.51 0.46 0.51 0.45 0.35 0.37 0.50 0.50 0.46 0.50 0.40 0.38 0.33 0.49 0.49 0.38 0.50 0.42 0.35 0.36 0.34 0.52 0.48 0.52 0.37 0.50 0.49 0.51 0.53 0.40 0.37 0.40 0.37 0.47 0.52 0.42 0.36 0.35 0.49 0.44 0.52 0.38 0.43 0.39 0.42 0.34 0.49 0.35 0.37 0.38 0.52 0.37 0.46 0.46 0.41 0.50 0.36 0.35 0.33 0.38 0.43 0.46 0.46 0.33 0.42 0.38 0.47 0.43 0.50 0.34 0.37 0.51 0.42 0.46 0.38 0.42 0.33 0.42 0.46 0.52 0.46 0.40 0.39 0.48 0.40 0.39 0.38 0.51 0.45 0.50 0.33 0.38 0.49 0.39 0.47 0.33 0.35 0.37 0.38 0.43 0.49 0.51 0.47 0.39 0.46 0.48 0.49 0.47 0.45 0.42 0.51 0.42 0.45 0.39 0.40 0.39 0.49 0.37 0.49 0.46 0.42 0.44 0.47 0.45 0.39 0.43 0.41 0.53 0.35 0.52 0.45 0.41 0.35 0.33 -9999 -9999 -9999 -9999 -9999 -9999 -9999 -9999 -9999 -9999 -9999 -9999 -9999 -9999 -9999 -9999 -9999 -9999 -9999 -9999 -9999 -9999 -9999 -9999 -9999 -9999 -9999
0.34 0.38 0.37 0.34 0.40 0.48 0.33 0.41 0.40 0.47 0.47 0.51 0.46 0.42 0.43 0.37 0.52 0.34 0.40 0.44 0.44 0.37 0.45 0.50 0.46 0.51 0.39 0.37 0.43 0.49 0.43 0.50 0.47 0.33 0.33 0.41 0.49 0.51 0.48 0.42 0.51 0.33 0.35 0.44 0.36 0.35 0.40 0.41 0.33 0.47 0.47 0.48 0.39 0.45 0.50 0.49 0.41 0.53 0.43 0.42 0.40 0.43 0.51 0.50 0.35 0.37 0.51 0.46 0.51 0.36 0.41 0.37 0.42 0.46 0.47 0.52 0.35 0.39 0.48 0.43 0.49 0.50 0.33 0.46 0.33 0.43 0.52 0.48 0.42 0.43 0.39 0.50 0.49 0.50 0.38 0.36 0.39 0.49 0.41 0.52 0.49 0.36 0.52 0.47 0.36 0.52 0.33 0.49 0.39 0.47 0.51 0.42 0.49 0.52 0.39 0.46 0.33 0.34 0.42 0.33 0.42 0.46 0.45 0.38 0.34 0.52 0.39 0.47 0.46 0.40 0.42 0.36 0.48 0.33 0.43 0.38 0.36 0.45 0.41 0.42 0.45 0.46 0.33 0.39 0.51 0.51 0.47 0.43 0.43 0.48 0.45 0.44 0.39 0.34 0.50 0.40 0.37 0.43 0.37 0.37 0.38 0.34 0.35 0.34 0.35 0.36 0.40 0.34 0.37 0.34 0.46 0.52 0.40 0.37 0.46 0.33 0.48 0.36 0.48 0.41 0.33 0.37 0.39 0.44 0.49 0.38 0.47 0.45 -9999 -9999 -9999 -9999 -9999 -9999 -9999 -9999 -9999 -9999 -9999 -9999 -9999 -9999 -9999 -9999 -9999 -9999 -9999 -9999 -9999 -9999 -9999 -9999 -9999 -9999 -9999
0.48 0.39 0.48 0.40 0.37 0.48 0.42 0.46 0.33 0.49 0.49 0.48 0.37 0.42 0.42 0.39 0.44 0.42 0.47 0.36 0.42 0.38 0.33 0.46 0.34 0.41 0.47 0.33 0.43 0.45 0.38 0.41 0.39 0.51 0.35 0.45 0.46 0.51 0.43 0.47 0.44 0.45 0.36 0.36 0.36 0.40 0.50 0.39 0.34 0.41 0.52 0.47 0.35 0.48 0.38 0.40 0.42 0.33 0.45 0.42 0.42 0.43 0.43 0.36 0.33 0.39 0.42 0.50 0.44 0.38 0.37 0.41 0.44 0.43 0.51 0.33 0.49 0.48 0.40 0.41 0.46 0.33 0.52 0.33 0.48 0.37 0.52 0.35 0.33 0.43 0.49 0.43 0.35 0.51 0.49 0.52 0.40 0.46 0.48 0.47 0.35 0.41 0.37 0.52 0.35 0.38 0.47 0.52 0.41 0.35 0.38 0.38 0.49 0.34 0.47 0.44 0.47 0.41 0.52 0.40 0.36 0.47 0.36 0.38 0.38 0.47 0.40 0.37 0.33 0.49 0.34 0.36 0.51 0.49 0.37 0.37 0.45 0.36 0.47 0.38 0.36 0.52 0.52 0.52 0.37 0.48 0.45 0.51 0.33 0.42 0.35 0.43 0.35 0.34 0.41 0.33 0.35 0.35 0.46 0.34 0.33 0.46 0.49 0.41 0.42 0.38 0.42 0.41 0.39 0.46 0.49 0.34 0.43 0.34 0.49 0.46 0.48 0.41 0.34 0.43 0.48 0.37 0.47 0.39 0.34 0.44 0.46 0.40 -9999 -9999 -9999 -9999 -9999 -9999 -9999 -9999 -9999 -9999 -9999 -9999 -9999 -9999 -9999 -9999 -9999 -9999 -9999 -9999 -9999 -9999 -9999 -9999 -9999 -9999 -9999
0.48 0.46 0.33 0.45 0.48 0.50 0.44 0.37 0.48 0.42 0.34 0.39 0.50 0.43 0.51 0.43 0.39 0.47 0.47 0.48 0.44 0.47 0.38 0.44 0.52 0.43 0.46 0.40 0.50 0.34 0.42 0.49 0.40 0.49 0.47 0.49 0.47 0.33 0.34 0.50 0.44 0.51 0.35 0.52 0.53 0.47 0.42 0.51 0.50 0.43 0.43 0.49 0.35 0.42 0.38 0.46 0.36 0.33 0.52 0.35 0.45 0.52 0.39 0.47 0.40 0.35 0.36 0.34 0.53 0.47 0.36 0.40 0.50 0.44 0.33 0.38 0.51 0.51 0.38 0.45 0.34 0.36 0.45 0.52 0.36 0.47 0.42 0.38 0.48 0.53 0.37 0.48 0.45 0.42 0.46 0.38 0.44 0.38 0.34 0.46 0.33 0.38 0.42 0.52 0.51 0.42 0.41 0.35 0.33 0.47 0.44 0.45 0.33 0.51 0.43 0.37 0.52 0.52 0.44 0.50 0.44 0.51 0.42 0.45 0.37 0.48 0.36 0.52 0.34 0.37 0.43 0.39 0.52 0.45 0.49 0.34 0.37 0.44 0.38 0.38 0.39 0.45 0.46 0.37 0.35 0.36 0.47 0.38 0.52 0.41 0.43 0.51 0.38 0.47 0.36 0.49 0.40 0.46 0.41 0.34 0.41 0.40 0.41 0.50 0.46 0.36 0.52 0.34 0.42 0.40 0.40 0.44 0.34 0.37 0.35 0.45 0.49 0.52 0.34 0.45 0.41 0.42 0.47 0.50 0.38 0.50 0.47 0.44 -9999 -9999 -9999 -9999 -9999 -9999 -9999 -9999 -9999 -9999 -9999 -9999 -9999 -9999 -9999 -9999 -9999 -9999 -9999 -9999 -9999 -9999 -9999 -9999 -9999 -9999 -9999
0.35 0.47 0.38 0.51 0.49 0.48 0.52 0.50 0.39 0.48 0.41 0.39 0.51 0.49 0.49 0.50 0.41 0.34 0.37 0.46 0.41 0.48 0.38 0.51 0.35 0.42 0.52 0.49 0.45 0.33 0.43 0.46 0.38 0.46 0.52 0.44 0.36 0.41 0.34 0.41 0.36 0.48 0.42 0.51 0.41 0.35 0.37 0.40 0.51 0.42 0.43 0.39 0.51 0.43 0.36 0.41 0.50 0.44 0.40 0.33 0.44 0.35 0.36 0.46 0.40 0.48 0.35 0.51 0.44 0.46 0.34 0.43 0.34 0.39 0.49 0.44 0.34 0.34 0.35 0.41 0.48 0.36 0.37 0.44 0.34 0.53 0.50 0.38 0.37 0.45 0.34 0.36 0.35 0.42 0.40 0.38 0.49 0.35 0.41 0.37 0.46 0.47 0.44 0.46 0.36 0.35 0.39 0.40 0.45 0.42 0.41 0.51 0.43 0.40 0.50 0.36 0.43 0.40 0.42 0.46 0.48 0.34 0.41 0.50 0.35 0.48 0.50 0.41 0.35 0.53 0.43 0.45 0.52 0.43 0.42 0.48 0.38 0.49 0.44 0.45 0.35 0.37 0.42 0.46 0.35 0.47 0.39 0.47 0.42 0.41 0.43 0.39 0.37 0.38 0.47 0.35 0.39 0.41 0.40 0.48 0.51 0.39 0.40 0.38 0.33 0.35 0.50 0.42 0.48 0.46 0.50 0.35 0.48 0.33 0.37 0.41 0.33 0.52 0.39 0.35 0.34 0.51 0.36 0.40 0.33 0.33 0.34 0.34 -9999 -9999 -9999 -9999 -9999 -9999 -9999 -9999 -9999 -9999 -9999 -9999 -9999 -9999 -9999 -9999 -9999 -9999 -9999 -9999 -9999 -9999 -9999 -9999 -9999 -9999 -9999
0.49 0.46 0.47 0.45 0.44 0.45 0.48 0.49 0.47 0.35 0.41 0.44 0.47 0.37 0.52 0.49 0.33 0.40 0.34 0.47 0.41 0.34 0.42 0.38 0.50 0.42 0.42 0.34 0.40 0.34 0.49 0.36 0.34 0.44 0.38 0.34 0.50 0.51 0.46 0.45 0.47 0.48 0.36 0.40 0.52 0.47 0.42 0.51 0.48 0.38 0.44 0.34 0.38 0.47 0.39 0.39 0.42 0.33 0.48 0.46 0.37 0.35 0.46 0.41 0.34 0.41 0.45 0.37 0.41 0.40 0.33 0.49 0.34 0.40 0.38 0.49 0.46 0.42 0.39 0.50 0.49 0.35 0.45 0.45 0.51 0.48 0.43 0.44 0.50 0.51 0.37 0.42 0.39 0.48 0.41 0.37 0.45 0.41 0.46 0.45 0.38 0.43 0.46 0.50 0.44 0.41 0.39 0.45 0.52 0.44 0.48 0.47 0.48 0.49 0.34 0.37 0.48 0.36 0.36 0.52 0.35 0.40 0.51 0.45 0.42 0.38 0.51 0.52 0.37 0.40 0.46 0.49 0.40 0.50 0.36 0.42 0.45 0.36 0.43 0.42 0.44 0.50 0.48 0.50 0.47 0.33 0.47 0.34 0.51 0.43 0.39 0.50 0.37 0.52 0.36 0.46 0.33 0.50 0.36 0.36 0.37 0.38 0.35 0.41 0.36 0.40 0.40 0.37 0.39 0.39 0.38 0.37 0.35 0.37 0.51 0.33 0.44 0.41 0.41 0.51 0.33 0.34 0.47 0.48 0.51 0.45 0.49 0.44 0.46 -9999 -9999 -9999 -9999 -9999 -9999 -9999 -9999 -9999 -9999 -9999 -9999 -9999 -9999 -9999 -9999 -9999 -9999 -9999 -9999 -9999 -9999 -9999 -9999 -9999 -9999
0.50 0.43 0.52 0.39 0.44 0.52 0.39 0.47 0.44 0.52 0.43 0.48 0.41 0.47 0.38 0.40 0.49 0.37 0.37 0.50 0.42 0.36 0.39 0.52 0.47 0.52 0.44 0.33 0.46 0.42 0.35 0.43 0.42 0.38 0.35 0.33 0.51 0.33 0.35 0.36 0.48 0.46 0.44 0.47 0.33 0.41 0.36 0.47 0.42 0.42 0.47 0.33 0.41 0.51 0.47 0.43 0.42 0.35 0.41 0.42 0.37 0.34 0.40 0.42 0.36 0.48 0.44 0.34 0.51 0.34 0.49 0.44 0.42 0.51 0.49 0.49 0.52 0.37 0.47 0.42 0.39 0.43 0.52 0.34 0.50 0.47 0.44 0.40 0.52 0.51 0.50 0.40 0.48 0.43 0.52 0.42 0.51 0.42 0.38 0.47 0.48 0.45 0.46 0.41 0.41 0.42 0.37 0.34 0.51 0.38 0.41 0.40 0.44 0.41 0.37 0.39 0.52 0.47 0.50 0.50 0.35 0.49 0.49 0.47 0.36 0.48 0.37 0.50 0.35 0.36 0.48 0.33 0.51 0.38 0.39 0.35 0.38 0.46 0.42 0.37 0.34 0.53 0.50 0.41 0.46 0.50 0.47 0.51 0.46 0.43 0.41 0.46 0.35 0.43 0.51 0.51 0.52 0.42 0.42 0.39 0.51 0.45 0.47 0.47 0.44 0.46 0.53 0.41 0.37 0.52 0.52 0.46 0.48 0.33 0.40 0.46 0.44 0.53 0.51 0.50 0.40 0.36 0.39 0.37 0.41 0.52 0.36 0.48 0.40 -9999 -9999 -9999 -9999 -9999 -9999 -9999 -9999 -9999 -9999 -9999 -9999 -9999 -9999 -9999 -9999 -9999 -9999 -9999 -9999 -9999 -9999 -9999 -9999 -9999 -9999
0.44 0.39 0.49 0.52 0.36 0.45 0.45 0.49 0.39 0.45 0.34 0.34 0.49 0.43 0.44 0.34 0.50 0.52 0.45 0.52 0.39 0.52 0.50 0.34 0.46 0.51 0.49 0.43 0.40 0.42 0.34 0.38 0.52 0.52 0.49 0.43 0.38 0.33 0.47 0.44 0.52 0.42 0.33 0.48 0.33 0.48 0.39 0.49 0.41 0.52 0.40 0.40 0.50 0.35 0.50 0.33 0.36 0.49 0.49 0.52 0.41 0.34 0.38 0.51 0.47 0.47 0.51 0.44 0.51 0.37 0.34 0.41 0.39 0.47 0.43 0.46 0.40 0.51 0.37 0.48 0.49 0.42 0.51 0.48 0.38 0.39 0.42 0.40 0.41 0.52 0.40 0.52 0.40 0.35 0.42 0.46 0.53 0.45 0.36 0.47 0.33 0.49 0.50 0.50 0.43 0.37 0.51 0.44 0.42 0.37 0.39 0.39 0.43 0.43 0.39 0.49 0.44 0.46 0.44 0.48 0.42 0.37 0.36 0.47 0.37 0.51 0.47 0.36 0.41 0.47 0.43 0.48 0.53 0.33 0.47 0.36 0.49 0.46 0.52 0.51 0.34 0.46 0.41 0.45 0.34 0.40 0.49 0.51 0.49 0.35 0.35 0.41 0.38 0.47 0.41 0.36 0.40 0.39 0.48 0.49 0.47 0.38 0.53 0.42 0.42 0.41 0.42 0.42 0.39 0.43 0.46 0.44 0.51 0.43 0.37 0.48 0.44 0.51 0.44 0.43 0.35 0.48 0.44 0.38 0.34 0.40 0.52 0.45 0.44 -9999 -9999 -9999 -9999 -9999 -9999 -9999 -9999 -9999 -9999 -9999 -9999 -9999 -9999 -9999 -9999 -9999 -9999 -9999 -9999 -9999 -9999 -9999 -9999 -9999 -9999
0.40 0.41 0.45 0.51 0.49 0.52 0.40 0.40 0.38 0.37 0.35 0.53 0.51 0.40 0.44 0.51 0.38 0.41 0.46 0.39 0.35 0.51 0.44 0.43 0.41 0.35 0.43 0.36 0.47 0.43 0.35 0.44 0.45 0.50 0.33 0.50 0.52 0.39 0.45 0.49 0.51 0.50 0.42 0.33 0.51 0.52 0.33 0.36 0.35 0.40 0.47 0.36 0.50 0.44 0.41 0.48 0.52 0.43 0.41 0.38 0.45 0.36 0.34 0.52 0.34 0.42 0.43 0.43 0.51 0.35 0.38 0.47 0.36 0.39 0.46 0.52 0.40 0.38 0.49 0.46 0.36 0.45 0.48 0.38 0.44 0.39 0.35 0.36 0.50 0.48 0.34 0.53 0.44 0.41 0.34 0.46 0.44 0.51 0.36 0.35 0.48 0.45 0.44 0.43 0.34 0.49 0.42 0.38 0.45 0.48 0.35 0.39 0.46 0.48 0.38 0.43 0.36 0.47 0.47 0.44 0.39 0.46 0.41 0.38 0.51 0.51 0.41 0.51 0.44 0.46 0.46 0.45 0.42 0.45 0.50 0.47 0.34 0.37 0.48 0.41 0.47 0.36 0.40 0.51 0.40 0.51 0.50 0.49 0.39 0.45 0.49 0.46 0.43 0.51 0.36 0.49 0.52 0.37 0.45 0.44 0.36 0.52 0.36 0.35 0.46 0.48 0.33 0.46 0.36 0.43 0.46 0.34 0.50 0.50 0.47 0.38 0.50 0.35 0.40 0.50 0.42 0.48 0.41 0.43 0.38 0.43 0.50 0.50 0.49 -9999 -9999 -9999 -9999 -9999 -9999 -9999 -9999 -9999 -9999 -9999 -9999 -9999 -9999 -9999 -9999 -9999 -9999 -9999 -9999 -9999 -9999 -9999 -9999 -9999 -9999
0.40 0.41 0.46 0.45 0.34 0.50 0.51 0.51 0.42 0.39 0.34 0.37 0.47 0.33 0.39 0.33 0.53 0.44 0.51 0.41 0.44 0.35 0.36 0.33 0.51 0.40 0.33 0.41 0.38 0.33 0.40 0.46 0.35 0.51 0.37 0.47 0.45 0.35 0.48 0.41 0.49 0.42 0.34 0.45 0.35 0.51 0.49 0.50 0.39 0.37 0.52 0.43 0.43 0.38 0.45 0.50 0.45 0.39 0.34 0.49 0.50 0.40 0.53 0.52 0.43 0.41 0.33 0.47 0.38 0.40 0.36 0.45 0.45 0.47 0.47 0.36 0.33 0.52 0.47 0.47 0.38 0.38 0.40 0.52 0.47 0.35 0.38 0.39 0.40 0.43 0.46 0.33 0.49 0.46 0.38 0.40 0.36 0.42 0.51 0.50 0.49 0.50 0.50 0.45 0.33 0.53 0.40 0.39 0.38 0.53 0.43 0.50 0.48 0.49 0.50 0.33 0.39 0.37 0.50 0.33 0.46 0.33 0.42 0.48 0.44 0.36 0.44 0.52 0.37 0.40 0.51 0.36 0.46 0.39 0.50 0.44 0.50 0.48 0.44 0.35 0.42 0.34 0.33 0.41 0.35 0.38 0.47 0.41 0.41 0.42 0.49 0.45 0.40 0.49 0.34 0.48 0.34 0.48 0.43 0.43 0.33 0.36 0.53 0.53 0.37 0.33 0.39 0.48 0.45 0.45 0.51 0.33 0.37 0.45 0.34 0.48 0.52 0.40 0.34 0.39 0.36 0.45 0.43 0.51 0.38 0.50 0.47 0.39 0.40 -9999 -9999 -9999 -9999 -9999 -9999 -9999 -9999 -9999 -9999 -9999 -9999 -9999 -9999 -9999 -9999 -9999 -9999 -9999 -9999 -9999 -9999 -9999 -9999 -9999 -9999
0.34 0.44 0.43 0.52 0.33 0.40 0.52 0.50 0.49 0.50 0.35 0.47 0.41 0.38 0.47 0.38 0.41 0.45 0.35 0.48 0.33 0.33 0.42 0.45 0.35 0.37 0.49 0.51 0.40 0.44 0.48 0.34 0.52 0.38 0.50 0.36 0.40 0.44 0.36 0.40 0.38 0.37 0.33 0.39 0.38 0.47 0.38 0.45 0.36 0.48 0.52 0.49 0.47 0.36 0.47 0.52 0.44 0.33 0.39 0.41 0.48 0.36 0.42 0.35 0.35 0.34 0.34 0.39 0.53 0.33 0.33 0.43 0.33 0.42 0.37 0.46 0.44 0.50 0.46 0.43 0.39 0.48 0.44 0.45 0.39 0.41 0.43 0.38 0.39 0.45 0.39 0.46 0.46 0.46 0.43 0.43 0.36 0.52 0.38 0.43 0.47 0.36 0.50 0.35 0.39 0.45 0.44 0.35 0.49 0.35 0.41 0.43 0.36 0.37 0.33 0.34 0.50 0.47 0.34 0.51 0.41 0.34 0.51 0.46 0.35 0.36 0.37 0.37 0.52 0.35 0.41 0.50 0.35 0.49 0.44 0.42 0.45 0.50 0.53 0.37 0.42 0.34 0.34 0.52 0.34 0.45 0.35 0.39 0.52 0.40 0.35 0.35 0.42 0.48 0.38 0.45 0.45 0.51 0.41 0.40 0.52 0.38 0.37 0.34 0.52 0.48 0.50 0.44 0.48 0.36 0.35 0.45 0.45 0.42 0.44 0.47 0.50 0.38 0.46 0.48 0.38 0.50 0.36 0.48 0.40 0.35 0.43 0.51 0.48 -9999 -9999 -9999 -9999 -9999 -9999 -9999 -9999 -9999 -9999 -9999 -9999 -9999 -9999 -9999 -9999 -9999 -9999 -9999 -9999 -9999 -9999 -9999 -9999 -9999 -9999
0.44 0.51 0.36 0.38 0.52 0.33 0.36 0.37 0.41 0.46 0.44 0.37 0.44 0.50 0.35 0.39 0.33 0.33 0.46 0.34 0.36 0.49 0.43 0.43 0.51 0.40 0.33 0.43 0.47 0.44 0.38 0.44 0.33 0.44 0.39 0.52 0.52 0.50 0.47 0.43 0.46 0.47 0.42 0.51 0.39 0.51 0.33 0.49 0.50 0.50 0.46 0.51 0.43 0.51 0.43 0.41 0.49 0.46 0.36 0.44 0.50 0.41 0.33 0.39 0.36 0.37 0.48 0.39 0.39 0.36 0.40 0.47 0.45 0.46 0.38 0.47 0.41 0.46 0.52 0.33 0.46 0.46 0.40 0.45 0.35 0.50 0.35 0.39 0.37 0.37 0.38 0.50 0.44 0.47 0.41 0.33 0.44 0.49 0.48 0.47 0.50 0.39 0.39 0.37 0.49 0.35 0.36 0.36 0.51 0.44 0.40 0.38 0.46 0.45 0.35 0.46 0.46 0.47 0.52 0.37 0.38 0.43 0.42 0.44 0.51 0.44 0.44 0.34 0.39 0.37 0.50 0.41 0.46 0.42 0.44 0.38 0.48 0.48 0.52 0.38 0.50 0.40 0.49 0.47 0.38 0.41 0.43 0.45 0.34 0.45 0.38 0.42 0.51 0.40 0.38 0.39 0.36 0.45 0.42 0.42 0.37 0.37 0.33 0.45 0.46 0.51 0.42 0.39 0.35 0.39 0.34 0.36 0.49 0.46 0.35 0.40 0.48 0.35 0.38 0.50 0.47 0.44 0.33 0.36 0.40 0.50 0.51 0.48 0.51 0.38 -9999 -9999 -9999 -9999 -9999 -9999 -9999 -9999 -9999 -9999 -9999 -9999 -9999 -9999 -9999 -9999 -9999 -9999 -9999 -9999 -9999 -9999 -9999 -9999 -9999
0.42 0.42 0.48 0.48 0.51 0.46 0.47 0.42 0.42 0.36 0.45 0.40 0.34 0.51 0.43 0.47 0.48 0.49 0.47 0.52 0.43 0.41 0.42 0.38 0.39 0.34 0.39 0.34 0.44 0.33 0.36 0.43 0.47 0.48 0.37 0.38 0.52 0.49 0.46 0.34 0.48 0.47 0.36 0.46 0.43 0.50 0.50 0.47 0.40 0.45 0.52 0.38 0.36 0.46 0.37 0.39 0.48 0.40 0.40 0.35 0.51 0.47 0.44 0.42 0.48 0.39 0.45 0.42 0.47 0.49 0.45 0.42 0.52 0.41 0.35 0.52 0.49 0.34 0.49 0.36 0.52 0.37 0.52 0.42 0.35 0.45 0.49 0.51 0.36 0.51 0.45 0.33 0.52 0.37 0.39 0.50 0.50 0.34 0.43 0.33 0.44 0.48 0.37 0.50 0.47 0.33 0.51 0.43 0.41 0.36 0.41 0.47 0.43 0.37 0.51 0.49 0.38 0.51 0.50 0.51 0.37 0.52 0.43 0.49 0.52 0.35 0.39 0.50 0.40 0.37 0.35 0.46 0.44 0.43 0.46 0.51 0.45 0.42 0.49 0.33 0.48 0.46 0.37 0.45 0.35 0.35 0.49 0.38 0.45 0.41 0.33 0.47 0.34 0.39 0.53 0.39 0.46 0.35 0.44 0.47 0.51 0.36 0.47 0.48 0.46 0.38 0.44 0.37 0.48 0.40 0.49 0.48 0.43 0.52 0.49 0.48 0.43 0.43 0.50 0.38 0.42 0.42 0.34 0.47 0.50 0.43 0.40 0.37 0.48 0.44 -9999 -9999 -9999 -9999 -9999 -9999 -9999 -9999 -9999 -9999 -9999 -9999 -9999 -9999 -9999 -9999 -9999 -9999 -9999 -9999 -9999 -9999 -9999 -9999 -9999
0.50 0.51 0.46 0.51 0.40 0.39 0.50 0.49 0.52 0.41 0.47 0.51 0.38 0.34 0.35 0.37 0.43 0.34 0.44 0.38 0.46 0.33 0.38 0.42 0.40 0.42 0.51 0.49 0.52 0.40 0.47 0.49 0.45 0.39 0.45 0.34 0.44 0.47 0.49 0.37 0.33 0.48 0.46 0.35 0.40 0.36 0.47 0.35 0.53 0.50 0.34 0.45 0.34 0.34 0.48 0.37 0.34 0.51 0.40 0.40 0.33 0.33 0.36 0.53 0.50 0.38 0.46 0.46 0.37 0.44 0.36 0.37 0.35 0.40 0.47 0.49 0.33 0.52 0.52 0.49 0.42 0.52 0.43 0.39 0.37 0.47 0.42 0.36 0.46 0.50 0.53 0.36 0.42 0.49 0.44 0.44 0.44 0.50 0.38 0.52 0.35 0.51 0.36 0.33 0.44 0.41 0.45 0.38 0.46 0.39 0.53 0.42 0.49 0.38 0.50 0.49 0.49 0.38 0.42 0.42 0.35 0.34 0.50 0.46 0.34 0.39 0.45 0.51 0.33 0.33 0.37 0.36 0.50 0.36 0.37 0.53 0.38 0.46 0.45 0.50 0.41 0.52 0.35 0.52 0.46 0.39 0.47 0.33 0.36 0.47 0.37 0.52 0.50 0.50 0.48 0.33 0.38 0.44 0.39 0.52 0.37 0.46 0.51 0.33 0.43 0.39 0.39 0.41 0.48 0.48 0.46 0.34 0.38 0.47 0.42 0.40 0.51 0.52 0.52 0.45 0.45 0.43 0.43 0.37 0.35 0.46 0.37 0.45 0.44 0.38 -9999 -9999 -9999 -9999 -9999 -9999 -9999 -9999 -9999 -9999 -9999 -9999 -9999 -9999 -9999 -9999 -9999 -9999 -9999 -9999 -9999 -9999 -9999 -9999 -9999
0.48 0.46 0.41 0.39 0.44 0.42 0.50 0.34 0.49 0.46 0.51 0.52 0.47 0.41 0.41 0.38 0.49 0.45 0.39 0.36 0.48 0.40 0.43 0.41 0.48 0.36 0.44 0.37 0.43 0.36 0.52 0.40 0.46 0.38 0.39 0.42 0.50 0.40 0.48 0.47 0.34 0.37 0.50 0.48 0.40 0.49 0.37 0.49 0.46 0.43 0.39 0.33 0.43 0.38 0.49 0.49 0.46 0.33 0.38 0.44 0.43 0.36 0.41 0.43 0.43 0.34 0.43 0.47 0.42 0.33 0.44 0.41 0.46 0.33 0.52 0.33 0.42 0.52 0.34 0.38 0.35 0.42 0.35 0.48 0.49 0.46 0.49 0.38 0.48 0.35 0.39 0.46 0.37 0.48 0.38 0.40 0.41 0.39 0.37 0.52 0.36 0.49 0.50 0.51 0.44 0.34 0.38 0.39 0.43 0.42 0.35 0.41 0.41 0.50 0.33 0.43 0.40 0.49 0.43 0.48 0.34 0.39 0.39 0.52 0.40 0.34 0.44 0.42 0.41 0.47 0.38 0.34 0.35 0.45 0.35 0.40 0.45 0.50 0.47 0.43 0.42 0.34 0.50 0.37 0.36 0.38 0.37 0.35 0.49 0.44 0.46 0.46 0.51 0.36 0.34 0.39 0.48 0.44 0.48 0.38 0.46 0.33 0.51 0.42 0.43 0.36 0.46 0.39 0.50 0.35 0.42 0.42 0.34 0.42 0.37 0.34 0.34 0.34 0.49 0.46 0.39 0.48 0.42 0.51 0.46 0.48 0.51 0.33 0.38 0.39 -9999 -9999 -9999 -9999 -9999 -9999 -9999 -9999 -9999 -9999 -9999 -9999 -9999 -9999 -9999 -9999 -9999 -9999 -9999 -9999 -9999 -9999 -9999 -9999 -9999
0.47 0.48 0.41 0.46 0.38 0.36 0.51 0.38 0.49 0.38 0.44 0.46 0.46 0.35 0.40 0.39 0.44 0.41 0.37 0.44 0.43 0.34 0.44 0.47 0.48 0.44 0.51 0.41 0.40 0.50 0.34 0.38 0.40 0.50 0.50 0.51 0.35 0.36 0.47 0.38 0.50 0.37 0.51 0.43 0.36 0.36 0.42 0.48 0.38 0.52 0.51 0.44 0.48 0.36 0.39 0.38 0.42 0.45 0.50 0.45 0.47 0.52 0.41 0.49 0.42 0.46 0.35 0.38 0.42 0.34 0.52 0.42 0.48 0.53 0.51 0.51 0.35 0.52 0.44 0.46 0.43 0.42 0.40 0.50 0.41 0.38 0.39 0.43 0.48 0.34 0.40 0.52 0.38 0.46 0.41 0.49 0.33 0.41 0.40 0.43 0.45 0.47 0.49 0.34 0.50 0.37 0.48 0.44 0.52 0.51 0.48 0.34 0.37 0.50 0.51 0.39 0.44 0.47 0.41 0.48 0.35 0.47 0.51 0.36 0.42 0.42 0.36 0.50 0.35 0.41 0.35 0.44 0.49 0.48 0.42 0.39 0.47 0.43 0.39 0.49 0.48 0.34 0.43 0.33 0.39 0.51 0.53 0.51 0.47 0.45 0.33 0.44 0.33 0.40 0.51 0.44 0.37 0.35 0.37 0.39 0.45 0.34 0.42 0.51 0.48 0.52 0.44 0.37 0.37 0.35 0.33 0.45 0.51 0.34 0.40 0.50 0.35 0.40 0.42 0.47 0.37 0.49 0.37 0.46 0.35 0.44 0.45 0.48 0.46 0.50 -9999 -9999 -9999 -9999 -9999 -9999 -9999 -9999 -9999 -9999 -9999 -9999 -9999 -9999 -9999 -9999 -9999 -9999 -9999 -9999 -9999 -9999 -9999 -9999 -9999
0.34 0.42 0.42 0.47 0.52 0.45 0.41 0.51 0.44 0.47 0.38 0.53 0.46 0.38 0.46 0.52 0.40 0.44 0.49 0.51 0.50 0.34 0.49 0.38 0.39 0.39 0.47 0.37 0.43 0.33 0.38 0.34 0.51 0.51 0.47 0.43 0.42 0.40 0.49 0.44 0.44 0.33 0.39 0.52 0.36 0.50 0.42 0.52 0.48 0.37 0.42 0.38 0.37 0.50 0.38 0.33 0.39 0.40 0.38 0.48 0.38 0.40 0.37 0.41 0.33 0.39 0.50 0.38 0.52 0.40 0.49 0.52 0.35 0.35 0.38 0.35 0.52 0.47 0.33 0.43 0.45 0.53 0.50 0.49 0.43 0.36 0.37 0.49 0.45 0.47 0.41 0.41 0.51 0.41 0.49 0.36 0.38 0.35 0.40 0.35 0.46 0.51 0.53 0.39 0.45 0.49 0.44 0.51 0.40 0.37 0.47 0.38 0.45 0.46 0.46 0.39 0.39 0.48 0.34 0.41 0.40 0.40 0.51 0.39 0.51 0.38 0.34 0.49 0.49 0.52 0.41 0.45 0.44 0.38 0.34 0.49 0.39 0.38 0.49 0.39 0.35 0.41 0.41 0.40 0.52 0.35 0.47 0.49 0.38 0.47 0.38 0.48 0.38 0.43 0.40 0.44 0.52 0.37 0.44 0.50 0.48 0.51 0.47 0.34 0.38 0.45 0.43 0.40 0.46 0.37 0.43 0.52 0.37 0.48 0.37 0.48 0.43 0.37 0.42 0.37 0.43 0.48 0.51 0.44 0.41 0.47 0.47 0.48 0.44 0.43 -9999 -9999 -9999 -9999 -9999 -9999 -9999 -9999 -9999 -9999 -9999 -9999 -9999 -9999 -9999 -9999 -9999 -9999 -9999 -9999 -9999 -9999 -9999 -9999 -9999
0.36 0.50 0.41 0.45 0.43 0.42 0.35 0.42 0.46 0.45 0.35 0.42 0.51 0.51 0.52 0.44 0.40 0.47 0.46 0.39 0.48 0.35 0.49 0.34 0.51 0.37 0.47 0.36 0.48 0.38 0.34 0.38 0.33 0.50 0.50 0.36 0.37 0.33 0.50 0.51 0.47 0.52 0.46 0.36 0.41 0.36 0.36 0.50 0.46 0.39 0.46 0.51 0.33 0.38 0.49 0.36 0.47 0.41 0.42 0.38 0.35 0.41 0.39 0.47 0.48 0.48 0.45 0.46 0.41 0.51 0.35 0.39 0.51 0.38 0.50 0.52 0.44 0.41 0.35 0.33 0.43 0.52 0.39 0.43 0.42 0.42 0.40 0.33 0.52 0.45 0.50 0.37 0.45 0.50 0.49 0.48 0.41 0.44 0.44 0.33 0.44 0.39 0.36 0.38 0.41 0.45 0.50 0.42 0.48 0.36 0.41 0.35 0.41 0.35 0.38 0.41 0.41 0.45 0.45 0.47 0.51 0.42 0.44 0.42 0.37 0.49 0.43 0.49 0.41 0.40 0.44 0.51 0.41 0.44 0.42 0.51 0.34 0.48 0.40 0.42 0.48 0.51 0.41 0.35 0.45 0.33 0.43 0.50 0.41 0.46 0.43 0.35 0.44 0.49 0.49 0.51 0.40 0.52 0.42 0.49 0.40 0.52 0.47 0.40 0.46 0.38 0.49 0.41 0.51 0.42 0.34 0.48 0.35 0.34 0.52 0.46 0.48 0.35 0.51 0.41 0.36 0.42 0.36 0.43 0.45 0.48 0.41 0.36 0.34 0.40 0.40 -9999 -9999 -9999 -9999 -9999 -9999 -9999 -9999 -9999 -9999 -9999 -9999 -9999 -9999 -9999 -9999 -9999 -9999 -9999 -9999 -9999 -9999 -9999 -9999
0.48 0.43 0.41 0.40 0.45 0.46 0.43 0.39 0.43 0.37 0.49 0.46 0.35 0.51 0.33 0.44 0.49 0.37 0.51 0.49 0.48 0.48 0.44 0.43 0.44 0.36 0.36 0.42 0.43 0.38 0.37 0.35 0.50 0.41 0.47 0.36 0.44 0.43 0.45 0.34 0.38 0.52 0.37 0.50 0.52 0.52 0.51 0.41 0.47 0.35 0.33 0.48 0.35 0.45 0.34 0.33 0.50 0.33 0.44 0.43 0.45 0.42 0.48 0.51 0.48 0.47 0.33 0.37 0.49 0.39 0.50 0.49 0.37 0.48 0.37 0.38 0.47 0.52 0.33 0.52 0.42 0.38 0.33 0.51 0.52 0.49 0.48 0.46 0.46 0.42 0.33 0.47 0.33 0.45 0.46 0.50 0.38 0.36 0.42 0.47 0.44 0.48 0.50 0.49 0.33 0.52 0.50 0.33 0.42 0.49 0.35 0.37 0.43 0.52 0.43 0.48 0.33 0.33 0.39 0.34 0.49 0.36 0.39 0.45 0.35 0.36 0.43 0.33 0.36 0.33 0.50 0.49 0.35 0.48 0.36 0.42 0.47 0.38 0.48 0.42 0.50 0.39 0.44 0.43 0.34 0.43 0.52 0.33 0.40 0.52 0.52 0.47 0.44 0.44 0.37 0.34 0.41 0.33 0.51 0.47 0.44 0.40 0.36 0.38 0.39 0.44 0.48 0.35 0.39 0.48 0.35 0.33 0.42 0.40 0.44 0.50 0.39 0.49 0.36 0.46 0.45 0.36 0.48 0.38 0.43 0.39 0.45 0.39 0.38 0.50 0.45 -9999 -9999 -9999 -9999 -9999 -9999 -9999 -9999 -9999 -9999 -9999 -9999 -9999 -9999 -9999 -9999 -9999 -9999 -9999 -9999 -9999 -9999 -9999 -9999
0.40 0.41 0.36 0.41 0.35 0.42 0.53 0.52 0.33 0.48 0.50 0.37 0.49 0.48 0.50 0.45 0.40 0.36 0.50 0.50 0.42 0.52 0.48 0.37 0.40 0.39 0.34 0.36 0.45 0.42 0.36 0.39 0.39 0.35 0.33 0.35 0.36 0.39 0.50 0.45 0.47 0.34 0.35 0.48 0.46 0.41 0.52 0.41 0.46 0.40 0.39 0.39 0.37 0.39 0.46 0.37 0.49 0.39 0.35 0.42 0.42 0.50 0.36 0.41 0.35 0.52 0.33 0.36 0.51 0.36 0.52 0.40 0.50 0.45 0.50 0.46 0.44 0.42 0.38 0.51 0.49 0.48 0.47 0.49 0.46 0.40 0.46 0.35 0.52 0.51 0.35 0.51 0.37 0.39 0.43 0.44 0.44 0.49 0.39 0.39 0.44 0.48 0.37 0.40 0.44 0.36 0.51 0.46 0.33 0.48 0.52 0.37 0.44 0.52 0.34 0.40 0.42 0.40 0.52 0.42 0.45 0.39 0.52 0.45 0.35 0.41 0.34 0.40 0.36 0.50 0.49 0.33 0.41 0.44 0.44 0.42 0.42 0.41 0.34 0.41 0.40 0.47 0.37 0.43 0.42 0.40 0.46 0.44 0.40 0.40 0.36 0.52 0.51 0.39 0.47 0.45 0.42 0.36 0.42 0.35 0.52 0.46 0.40 0.45 0.39 0.35 0.46 0.49 0.48 0.45 0.42 0.45 0.36 0.40 0.39 0.33 0.40 0.41 0.42 0.37 0.48 0.39 0.39 0.37 0.36 0.35 0.44 0.36 0.43 0.39 0.33 -9999 -9999 -9999 -9999 -9999 -9999 -9999 -9999 -9999 -9999 -9999 -9999 -9999 -9999 -9999 -9999 -9999 -9999 -9999 -9999 -9999 -9999 -9999 -9999
0.48 0.46 0.37 0.49 0.40 0.44 0.37 0.46 0.42 0.38 0.36 0.48 0.38 0.51 0.45 0.36 0.41 0.39 0.50 0.40 0.46 0.50 0.43 0.45 0.42 0.36 0.38 0.33 0.47 0.45 0.38 0.34 0.35 0.35 0.39 0.52 0.43 0.40 0.52 0.45 0.41 0.52 0.42 0.35 0.37 0.39 0.44 0.46 0.50 0.39 0.36 0.43 0.41 0.45 0.40 0.43 0.47 0.50 0.42 0.36 0.49 0.38 0.35 0.50 0.34 0.38 0.38 0.41 0.40 0.52 0.36 0.46 0.47 0.44 0.34 0.50 0.36 0.46 0.44 0.37 0.44 0.48 0.46 0.45 0.33 0.34 0.39 0.42 0.50 0.44 0.33 0.36 0.48 0.40 0.45 0.47 0.42 0.51 0.37 0.36 0.37 0.52 0.36 0.51 0.33 0.43 0.35 0.39 0.53 0.43 0.44 0.36 0.47 0.40 0.43 0.34 0.45 0.45 0.39 0.39 0.44 0.34 0.42 0.47 0.43 0.46 0.41 0.45 0.47 0.48 0.37 0.37 0.44 0.42 0.40 0.40 0.50 0.52 0.35 0.44 0.51 0.40 0.47 0.53 0.33 0.44 0.40 0.41 0.39 0.42 0.38 0.43 0.50 0.36 0.35 0.49 0.35 0.48 0.41 0.44 0.34 0.52 0.33 0.36 0.48 0.43 0.42 0.36 0.38 0.49 0.51 0.33 0.47 0.46 0.34 0.49 0.51 0.48 0.34 0.46 0.46 0.44 0.39 0.34 0.46 0.47 0.33 0.37 0.52 0.46 0.49 -9999 -9999 -9999 -9999 -9999 -9999 -9999 -9999 -9999 -9999 -9999 -9999 -9999 -9999 -9999 -9999 -9999 -9999 -9999 -9999 -9999 -9999 -9999 -9999
0.38 0.35 0.33 0.42 0.51 0.51 0.39 0.48 0.44 0.44 0.36 0.34 0.52 0.37 0.50 0.39 0.51 0.39 0.42 0.48 0.43 0.39 0.49 0.36 0.41 0.41 0.41 0.33 0.50 0.38 0.51 0.48 0.50 0.41 0.48 0.52 0.47 0.43 0.39 0.41 0.41 0.45 0.34 0.49 0.50 0.49 0.50 0.36 0.40 0.46 0.38 0.40 0.38 0.39 0.51 0.45 0.45 0.44 0.47 0.36 0.38 0.37 0.49 0.45 0.41 0.51 0.50 0.42 0.34 0.41 0.43 0.40 0.38 0.45 0.45 0.40 0.46 0.47 0.47 0.43 0.49 0.37 0.40 0.40 0.39 0.39 0.34 0.36 0.39 0.37 0.38 0.44 0.33 0.51 0.46 0.33 0.38 0.41 0.41 0.45 0.46 0.33 0.40 0.47 0.33 0.44 0.33 0.38 0.38 0.38 0.46 0.42 0.48 0.46 0.46 0.50 0.42 0.41 0.33 0.35 0.45 0.49 0.53 0.51 0.47 0.38 0.43 0.40 0.34 0.39 0.43 0.49 0.45 0.39 0.38 0.51 0.45 0.34 0.42 0.42 0.40 0.50 0.49 0.38 0.44 0.36 0.36 0.38 0.50 0.52 0.47 0.51 0.42 0.34 0.40 0.44 0.46 0.35 0.39 0.35 0.48 0.45 0.36 0.35 0.34 0.35 0.46 0.44 0.48 0.52 0.38 0.46 0.40 0.35 0.39 0.37 0.45 0.44 0.41 0.48 0.50 0.42 0.52 0.33 0.50 0.34 0.37 0.45 0.36 0.44 0.46 -9999 -9999 -9999 -9999 -9999 -9999 -9999 -9999 -9999 -9999 -9999 -9999 -9999 -9999 -9999 -9999 -9999 -9999 -9999 -9999 -9999 -9999 -9999 -9999
0.48 0.35 0.46 0.48 0.39 0.40 0.52 0.50 0.41 0.41 0.34 0.41 0.42 0.47 0.34 0.45 0.49 0.44 0.39 0.53 0.40 0.47 0.38 0.35 0.40 0.36 0.33 0.39 0.43 0.51 0.48 0.52 0.39 0.37 0.33 0.49 0.45 0.46 0.37 0.37 0.50 0.35 0.36 0.37 0.52 0.50 0.41 0.40 0.40 0.46 0.49 0.52 0.45 0.49 0.51 0.40 0.40 0.38 0.37 0.33 0.42 0.38 0.43 0.38 0.51 0.42 0.48 0.52 0.51 0.33 0.34 0.36 0.43 0.37 0.46 0.45 0.39 0.39 0.37 0.33 0.50 0.38 0.35 0.49 0.43 0.35 0.36 0.43 0.38 0.41 0.45 0.49 0.45 0.34 0.50 0.35 0.52 0.36 0.46 0.40 0.51 0.49 0.47 0.46 0.34 0.42 0.43 0.33 0.46 0.39 0.44 0.43 0.39 0.49 0.52 0.36 0.34 0.43 0.42 0.38 0.48 0.43 0.41 0.37 0.40 0.40 0.47 0.52 0.37 0.46 0.37 0.51 0.44 0.41 0.46 0.46 0.42 0.34 0.37 0.48 0.35 0.36 0.48 0.49 0.50 0.53 0.52 0.48 0.40 0.46 0.49 0.37 0.48 0.39 0.35 0.43 0.38 0.49 0.44 0.38 0.39 0.47 0.46 0.33 0.36 0.38 0.45 0.50 0.50 0.36 0.39 0.35 0.42 0.39 0.49 0.52 0.33 0.52 0.36 0.49 0.43 0.51 0.52 0.33 0.46 0.43 0.46 0.37 0.39 0.38 0.47 -9999 -9999 -9999 -9999 -9999 -9999 -9999 -9999 -9999 -9999 -9999 -9999 -9999 -9999 -9999 -9999 -9999 -9999 -9999 -9999 -9999 -9999 -9999 -9999
0.35 0.40 0.51 0.42 0.44 0.48 0.37 0.43 0.36 0.42 0.46 0.34 0.38 0.44 0.45 0.48 0.49 0.46 0.44 0.43 0.45 0.47 0.39 0.36 0.48 0.40 0.41 0.49 0.52 0.53 0.44 0.46 0.37 0.50 0.43 0.33 0.41 0.49 0.41 0.46 0.40 0.40 0.35 0.43 0.33 0.37 0.51 0.51 0.39 0.40 0.52 0.34 0.46 0.44 0.40 0.37 0.39 0.34 0.33 0.37 0.38 0.48 0.50 0.39 0.45 0.49 0.43 0.37 0.42 0.34 0.39 0.33 0.44 0.49 0.50 0.47 0.51 0.49 0.52 0.46 0.46 0.49 0.48 0.42 0.33 0.40 0.50 0.43 0.46 0.53 0.42 0.38 0.35 0.43 0.49 0.36 0.45 0.39 0.41 0.47 0.41 0.44 0.34 0.38 0.36 0.39 0.40 0.36 0.42 0.43 0.47 0.47 0.44 0.50 0.49 0.38 0.48 0.47 0.51 0.40 0.52 0.35 0.34 0.50 0.43 0.33 0.39 0.50 0.33 0.52 0.34 0.44 0.34 0.42 0.38 0.46 0.42 0.52 0.48 0.33 0.51 0.45 0.53 0.41 0.46 0.44 0.34 0.51 0.47 0.33 0.46 0.36 0.44 0.36 0.33 0.33 0.43 0.38 0.39 0.46 0.41 0.44 0.40 0.37 0.40 0.46 0.35 0.41 0.38 0.50 0.34 0.33 0.46 0.43 0.35 0.43 0.44 0.52 0.52 0.46 0.47 0.46 0.48 0.33 0.34 0.38 0.47 0.39 0.37 0.50 0.40 -9999 -9999 -9999 -9999 -9999 -9999 -9999 -9999 -9999 -9999 -9999 -9999 -9999 -9999 -9999 -9999 -9999 -9999 -9999 -9999 -9999 -9999 -9999 -9999
0.41 0.33 0.50 0.36 0.40 0.40 0.40 0.41 0.49 0.41 0.36 0.42 0.42 0.49 0.50 0.37 0.40 0.50 0.42 0.41 0.46 0.52 0.50 0.33 0.52 0.39 0.44 0.41 0.34 0.43 0.39 0.38 0.42 0.36 0.49 0.48 0.52 0.50 0.41 0.37 0.41 0.39 0.44 0.44 0.52 0.52 0.36 0.43 0.35 0.43 0.34 0.33 0.46 0.46 0.35 0.40 0.33 0.49 0.34 0.37 0.43 0.45 0.40 0.41 0.40 0.39 0.50 0.38 0.49 0.37 0.38 0.51 0.50 0.44 0.52 0.44 0.39 0.35 0.39 0.37 0.52 0.47 0.46 0.51 0.34 0.49 0.50 0.38 0.34 0.43 0.38 0.52 0.39 0.35 0.47 0.48 0.42 0.42 0.48 0.40 0.51 0.40 0.34 0.33 0.34 0.49 0.40 0.51 0.50 0.49 0.44 0.42 0.36 0.44 0.37 0.46 0.34 0.40 0.39 0.48 0.42 0.45 0.47 0.43 0.50 0.50 0.50 0.44 0.50 0.52 0.51 0.35 0.34 0.35 0.43 0.47 0.47 0.49 0.48 0.47 0.40 0.45 0.43 0.52 0.37 0.41 0.35 0.37 0.41 0.33 0.38 0.38 0.40 0.35 0.37 0.41 0.33 0.36 0.51 0.45 0.46 0.35 0.43 0.40 0.48 0.38 0.43 0.36 0.51 0.50 0.42 0.38 0.43 0.52 0.34 0.43 0.45 0.46 0.47 0.45 0.47 0.34 0.36 0.44 0.42 0.46 0.40 0.35 0.46 0.44 0.37 0.39 -9999 -9999 -9999 -9999 -9999 -9999 -9999 -9999 -9999 -9999 -9999 -9999 -9999 -9999 -9999 -9999 -9999 -9999 -9999 -9999 -9999 -9999 -9999
0.50 0.50 0.45 0.52 0.52 0.38 0.38 0.46 0.52 0.39 0.36 0.38 0.42 0.46 0.33 0.44 0.40 0.39 0.38 0.48 0.43 0.50 0.45 0.39 0.36 0.37 0.37 0.41 0.37 0.38 0.38 0.42 0.50 0.35 0.53 0.39 0.49 0.49 0.35 0.50 0.52 0.51 0.40 0.38 0.33 0.49 0.40 0.50 0.33 0.44 0.33 0.43 0.51 0.41 0.51 0.41 0.49 0.44 0.50 0.48 0.52 0.48 0.35 0.43 0.39 0.45 0.52 0.36 0.45 0.38 0.34 0.52 0.41 0.42 0.42 0.53 0.36 0.52 0.34 0.33 0.44 0.38 0.52 0.37 0.36 0.40 0.42 0.38 0.36 0.43 0.38 0.37 0.45 0.35 0.46 0.47 0.36 0.42 0.40 0.45 0.50 0.33 0.45 0.45 0.49 0.35 0.43 0.49 0.51 0.44 0.35 0.33 0.39 0.34 0.51 0.46 0.48 0.45 0.46 0.41 0.34 0.50 0.36 0.43 0.45 0.43 0.40 0.34 0.50 0.51 0.40 0.42 0.46 0.39 0.35 0.51 0.34 0.39 0.45 0.50 0.44 0.42 0.46 0.38 0.46 0.37 0.43 0.37 0.39 0.43 0.38 0.43 0.51 0.47 0.49 0.43 0.40 0.34 0.35 0.46 0.51 0.44 0.50 0.33 0.41 0.37 0.45 0.36 0.38 0.50 0.40 0.37 0.33 0.52 0.43 0.40 0.48 0.51 0.42 0.37 0.35 0.42 0.51 0.41 0.37 0.40 0.46 0.33 0.35 0.49 0.40 0.43 -9999 -9999 -9999 -9999 -9999 -9999 -9999 -9999 -9999 -9999 -9999 -9999 -9999 -9999 -9999 -9999 -9999 -9999 -9999 -9999 -9999 -9999 -9999
0.51 0.38 0.45 0.51 0.39 0.42 0.34 0.52 0.52 0.43 0.35 0.44 0.47 0.49 0.36 0.35 0.52 0.36 0.43 0.45 0.35 0.43 0.38 0.48 0.39 0.41 0.48 0.37 0.49 0.36 0.51 0.48 0.39 0.49 0.44 0.39 0.44 0.38 0.48 0.42 0.38 0.51 0.37 0.38 0.41 0.51 0.47 0.51 0.37 0.50 0.42 0.33 0.52 0.50 0.35 0.48 0.47 0.48 0.37 0.35 0.37 0.51 0.42 0.35 0.43 0.36 0.47 0.35 0.49 0.35 0.41 0.52 0.34 0.44 0.37 0.35 0.45 0.52 0.41 0.47 0.39 0.52 0.52 0.36 0.43 0.35 0.47 0.39 0.51 0.35 0.43 0.44 0.38 0.46 0.44 0.35 0.46 0.45 0.37 0.44 0.39 0.42 0.35 0.34 0.49 0.35 0.45 0.42 0.33 0.48 0.34 0.44 0.34 0.44 0.43 0.40 0.49 0.37 0.52 0.33 0.36 0.47 0.40 0.43 0.43 0.34 0.50 0.37 0.40 0.35 0.36 0.38 0.37 0.52 0.34 0.47 0.46 0.35 0.41 0.46 0.53 0.44 0.37 0.34 0.40 0.42 0.41 0.46 0.43 0.39 0.51 0.48 0.40 0.41 0.33 0.37 0.40 0.45 0.49 0.47 0.42 0.40 0.37 0.42 0.35 0.51 0.52 0.39 0.49 0.41 0.49 0.33 0.45 0.37 0.40 0.42 0.51 0.48 0.51 0.45 0.50 0.44 0.36 0.39 0.34 0.39 0.52 0.51 0.37 0.47 0.49 0.45 -9999 -9999 -9999 -9999 -9999 -9999 -9999 -9999 -9999 -9999 -9999 -9999 -9999 -9999 -9999 -9999 -9999 -9999 -9999 -9999 -9999 -9999 -9999
0.52 0.36 0.43 0.37 0.44 0.50 0.42 0.52 0.38 0.49 0.52 0.36 0.47 0.45 0.40 0.35 0.43 0.34 0.46 0.35 0.44 0.51 0.48 0.51 0.42 0.47 0.34 0.42 0.36 0.33 0.46 0.48 0.40 0.35 0.51 0.34 0.33 0.46 0.38 0.52 0.48 0.43 0.34 0.33 0.48 0.51 0.35 0.33 0.33 0.33 0.50 0.44 0.41 0.40 0.35 0.34 0.52 0.53 0.36 0.40 0.44 0.51 0.51 0.44 0.50 0.42 0.36 0.33 0.49 0.46 0.42 0.50 0.40 0.41 0.43 0.52 0.51 0.46 0.37 0.42 0.46 0.41 0.37 0.42 0.44 0.40 0.45 0.49 0.43 0.39 0.41 0.52 0.34 0.48 0.42 0.37 0.42 0.43 0.46 0.39 0.52 0.49 0.41 0.41 0.49 0.45 0.48 0.36 0.37 0.35 0.50 0.45 0.35 0.52 0.49 0.41 0.34 0.43 0.51 0.34 0.35 0.51 0.34 0.48 0.39 0.33 0.44 0.51 0.49 0.47 0.47 0.48 0.48 0.47 0.50 0.41 0.50 0.38 0.52 0.48 0.50 0.41 0.37 0.51 0.50 0.45 0.49 0.38 0.37 0.34 0.52 0.42 0.45 0.42 0.39 0.41 0.51 0.50 0.33 0.35 0.33 0.46 0.45 0.40 0.49 0.50 0.49 0.35 0.50 0.45 0.49 0.37 0.35 0.50 0.40 0.51 0.46 0.46 0.46 0.46 0.43 0.47 0.34 0.36 0.45 0.37 0.48 0.50 0.49 0.39 0.39 0.51 -9999 -9999 -9999 -9999 -9999 -9999 -9999 -9999 -9999 -9999 -9999 -9999 -9999 -9999 -9999 -9999 -9999 -9999 -9999 -9999 -9999 -9999 -9999
0.49 0.49 0.40 0.33 0.34 0.49 0.34 0.37 0.49 0.51 0.46 0.44 0.42 0.46 0.36 0.43 0.40 0.47 0.33 0.45 0.44 0.43 0.40 0.44 0.41 0.37 0.52 0.52 0.44 0.46 0.40 0.40 0.43 0.37 0.36 0.37 0.49 0.39 0.34 0.33 0.46 0.47 0.36 0.37 0.52 0.37 0.47 0.34 0.42 0.53 0.37 0.44 0.43 0.40 0.37 0.39 0.46 0.41 0.52 0.51 0.48 0.46 0.46 0.47 0.52 0.52 0.40 0.40 0.35 0.42 0.50 0.43 0.51 0.48 0.50 0.51 0.34 0.33 0.33 0.38 0.39 0.46 0.35 0.33 0.46 0.39 0.51 0.52 0.52 0.41 0.50 0.34 0.50 0.52 0.47 0.40 0.40 0.37 0.47 0.46 0.48 0.49 0.35 0.39 0.35 0.38 0.35 0.46 0.48 0.50 0.51 0.50 0.48 0.41 0.45 0.45 0.45 0.43 0.46 0.35 0.35 0.48 0.36 0.36 0.47 0.47 0.44 0.34 0.34 0.44 0.48 0.44 0.37 0.45 0.46 0.35 0.49 0.52 0.49 0.39 0.50 0.38 0.38 0.49 0.40 0.38 0.47 0.43 0.39 0.47 0.48 0.46 0.49 0.40 0.38 0.47 0.44 0.36 0.44 0.41 0.51 0.42 0.49 0.50 0.38 0.44 0.51 0.37 0.42 0.45 0.40 0.36 0.41 0.52 0.47 0.42 0.52 0.36 0.52 0.45 0.38 0.42 0.39 0.33 0.50 0.37 0.52 0.50 0.51 0.34 0.38 0.47 -9999 -9999 -9999 -9999 -9999 -9999 -9999 -9999 -9999 -9999 -9999 -9999 -9999 -9999 -9999 -9999 -9999 -9999 -9999 -9999 -9999 -9999 -9999
0.40 0.37 0.34 0.34 0.49 0.35 0.44 0.49 0.49 0.45 0.41 0.39 0.44 0.39 0.51 0.51 0.33 0.40 0.43 0.40 0.47 0.49 0.38 0.49 0.41 0.52 0.34 0.46 0.47 0.50 0.40 0.36 0.43 0.40 0.35 0.40 0.46 0.52 0.36 0.36 0.46 0.34 0.48 0.45 0.46 0.49 0.37 0.47 0.33 0.37 0.48 0.46 0.35 0.50 0.40 0.48 0.35 0.41 0.39 0.38 0.51 0.49 0.41 0.44 0.47 0.33 0.45 0.37 0.35 0.35 0.49 0.42 0.42 0.46 0.52 0.47 0.33 0.38 0.34 0.48 0.46 0.52 0.46 0.45 0.37 0.40 0.40 0.49 0.50 0.52 0.39 0.43 0.42 0.47 0.38 0.39 0.47 0.45 0.36 0.52 0.33 0.43 0.52 0.35 0.46 0.50 0.33 0.38 0.47 0.33 0.39 0.49 0.52 0.46 0.41 0.50 0.50 0.43 0.46 0.49 0.44 0.49 0.36 0.51 0.35 0.52 0.52 0.47 0.34 0.43 0.50 0.41 0.52 0.48 0.48 0.48 0.44 0.46 0.40 0.49 0.48 0.53 0.38 0.43 0.45 0.49 0.36 0.48 0.35 0.47 0.41 0.38 0.40 0.38 0.34 0.35 0.47 0.40 0.45 0.46 0.46 0.33 0.51 0.45 0.50 0.37 0.47 0.44 0.33 0.36 0.36 0.48 0.40 0.48 0.52 0.47 0.51 0.44 0.44 0.48 0.48 0.34 0.35 0.38 0.49 0.46 0.41 0.51 0.36 0.36 0.49 0.50 -9999 -9999 -9999 -9999 -9999 -9999 -9999 -9999 -9999 -9999 -9999 -9999 -9999 -9999 -9999 -9999 -9999 -9999 -9999 -9999 -9999 -9999 -9999
0.44 0.46 0.44 0.37 0.37 0.35 0.42 0.34 0.46 0.53 0.38 0.38 0.41 0.52 0.52 0.51 0.39 0.45 0.41 0.42 0.35 0.49 0.49 0.38 0.50 0.46 0.52 0.47 0.50 0.38 0.37 0.38 0.47 0.52 0.39 0.48 0.51 0.35 0.45 0.41 0.39 0.52 0.42 0.35 0.38 0.52 0.51 0.45 0.48 0.33 0.44 0.36 0.46 0.37 0.38 0.37 0.50 0.37 0.40 0.50 0.49 0.42 0.43 0.47 0.40 0.51 0.43 0.49 0.49 0.45 0.43 0.42 0.40 0.45 0.36 0.42 0.42 0.35 0.45 0.40 0.38 0.52 0.42 0.43 0.37 0.39 0.36 0.42 0.52 0.36 0.49 0.38 0.33 0.49 0.38 0.38 0.36 0.44 0.53 0.49 0.51 0.48 0.51 0.41 0.47 0.48 0.47 0.33 0.36 0.34 0.41 0.47 0.34 0.34 0.37 0.44 0.39 0.52 0.48 0.47 0.50 0.51 0.37 0.43 0.43 0.34 0.50 0.38 0.46 0.51 0.45 0.46 0.42 0.34 0.44 0.44 0.48 0.42 0.49 0.48 0.35 0.51 0.42 0.37 0.52 0.39 0.42 0.51 0.45 0.42 0.36 0.34 0.40 0.46 0.36 0.48 0.45 0.43 0.46 0.45 0.52 0.37 0.39 0.51 0.49 0.51 0.41 0.45 0.40 0.43 0.45 0.42 0.45 0.51 0.47 0.49 0.42 0.47 0.36 0.52 0.39 0.39 0.52 0.44 0.43 0.52 0.40 0.48 0.49 0.46 0.35 0.39 0.40 -9999 -9999 -9999 -9999 -9999 -9999 -9999 -9999 -9999 -9999 -9999 -9999 -9999 -9999 -9999 -9999 -9999 -9999 -9999 -9999 -9999 -9999
0.34 0.33 0.44 0.49 0.40 0.53 0.48 0.43 0.42 0.37 0.34 0.34 0.40 0.36 0.52 0.38 0.33 0.41 0.41 0.45 0.50 0.33 0.40 0.53 0.39 0.39 0.42 0.36 0.45 0.46 0.45 0.45 0.34 0.45 0.39 0.37 0.49 0.51 0.46 0.33 0.50 0.47 0.36 0.49 0.51 0.44 0.45 0.44 0.44 0.38 0.40 0.49 0.38 0.39 0.43 0.41 0.39 0.50 0.38 0.43 0.36 0.52 0.36 0.39 0.52 0.40 0.48 0.47 0.41 0.47 0.39 0.39 0.45 0.41 0.49 0.48 0.37 0.49 0.50 0.34 0.39 0.47 0.49 0.33 0.44 0.33 0.36 0.38 0.51 0.45 0.36 0.34 0.41 0.35 0.44 0.43 0.52 0.44 0.39 0.38 0.33 0.41 0.50 0.35 0.35 0.50 0.40 0.44 0.46 0.34 0.50 0.36 0.44 0.37 0.34 0.46 0.46 0.46 0.43 0.45 0.52 0.38 0.37 0.50 0.40 0.49 0.42 0.48 0.39 0.39 0.44 0.43 0.40 0.41 0.47 0.39 0.44 0.46 0.33 0.40 0.52 0.41 0.40 0.47 0.38 0.39 0.44 0.33 0.40 0.44 0.46 0.43 0.39 0.47 0.38 0.44 0.47 0.44 0.42 0.35 0.43 0.51 0.51 0.46 0.41 0.43 0.48 0.50 0.50 0.39 0.37 0.52 0.34 0.47 0.45 0.44 0.40 0.36 0.45 0.44 0.40 0.45 0.41 0.45 0.50 0.43 0.42 0.52 0.43 0.52 0.46 0.46 0.49 -9999 -9999 -9999 -9999 -9999 -9999 -9999 -9999 -9999 -9999 -9999 -9999 -9999 -9999 -9999 -9999 -9999 -9999 -9999 -9999 -9999 -9999
0.52 0.45 0.35 0.37 0.41 0.43 0.51 0.39 0.46 0.34 0.44 0.37 0.44 0.42 0.52 0.39 0.36 0.35 0.49 0.39 0.40 0.45 0.45 0.43 0.38 0.41 0.46 0.37 0.43 0.38 0.48 0.33 0.50 0.41 0.36 0.39 0.40 0.42 0.42 0.36 0.48 0.47 0.50 0.43 0.39 0.43 0.45 0.38 0.45 0.33 0.38 0.49 0.36 0.34 0.47 0.36 0.44 0.43 0.37 0.47 0.47 0.48 0.40 0.42 0.35 0.46 0.44 0.49 0.43 0.34 0.39 0.39 0.36 0.36 0.40 0.50 0.34 0.37 0.45 0.43 0.49 0.50 0.40 0.34 0.35 0.36 0.41 0.50 0.34 0.49 0.33 0.43 0.52 0.46 0.50 0.49 0.42 0.34 0.41 0.36 0.52 0.51 0.48 0.45 0.50 0.42 0.47 0.40 0.42 0.33 0.35 0.50 0.42 0.39 0.50 0.36 0.47 0.48 0.36 0.41 0.49 0.40 0.40 0.45 0.53 0.41 0.46 0.44 0.33 0.47 0.43 0.46 0.44 0.35 0.35 0.50 0.41 0.36 0.36 0.46 0.52 0.43 0.37 0.50 0.43 0.37 0.51 0.48 0.40 0.47 0.35 0.38 0.51 0.35 0.50 0.40 0.42 0.46 0.53 0.39 0.50 0.51 0.48 0.34 0.51 0.50 0.46 0.50 0.49 0.44 0.38 0.52 0.41 0.35 0.46 0.46 0.37 0.38 0.47 0.45 0.40 0.33 0.35 0.44 0.51 0.40 0.49 0.39 0.47 0.34 0.49 0.38 0.41 -9999 -9999 -9999 -9999 -9999 -9999 -9999 -9999 -9999 -9999 -9999 -9999 -9999 -9999 -9999 -9999 -9999 -9999 -9999 -9999 -9999 -9999
0.40 0.43 0.46 0.40 0.34 0.43 0.38 0.50 0.43 0.47 0.47 0.45 0.35 0.50 0.33 0.41 0.43 0.39 0.34 0.47 0.33 0.41 0.33 0.35 0.52 0.35 0.37 0.38 0.35 0.53 0.46 0.34 0.42 0.41 0.39 0.34 0.52 0.35 0.42 0.35 0.35 0.44 0.41 0.38 0.38 0.48 0.47 0.39 0.40 0.46 0.46 0.34 0.38 0.41 0.44 0.45 0.39 0.33 0.40 0.39 0.42 0.43 0.46 0.52 0.48 0.45 0.45 0.36 0.41 0.40 0.47 0.34 0.49 0.38 0.35 0.39 0.43 0.50 0.41 0.33 0.38 0.43 0.49 0.34 0.46 0.52 0.49 0.36 0.35 0.44 0.51 0.52 0.45 0.41 0.36 0.46 0.37 0.45 0.33 0.48 0.39 0.35 0.36 0.35 0.41 0.47 0.35 0.49 0.43 0.33 0.36 0.42 0.33 0.36 0.33 0.33 0.40 0.37 0.37 0.49 0.44 0.46 0.34 0.50 0.33 0.34 0.50 0.41 0.39 0.50 0.37 0.44 0.43 0.46 0.45 0.33 0.33 0.39 0.42 0.33 0.41 0.53 0.40 0.33 0.42 0.52 0.41 0.41 0.41 0.38 0.43 0.47 0.41 0.39 0.44 0.41 0.38 0.42 0.47 0.52 0.50 0.38 0.43 0.38 0.51 0.33 0.37 0.44 0.43 0.49 0.47 0.49 0.49 0.35 0.34 0.45 0.43 0.43 0.40 0.38 0.38 0.41 0.47 0.52 0.35 0.46 0.33 0.43 0.51 0.52 0.34 0.44 0.43 -9999 -9999 -9999 -9999 -9999 -9999 -9999 -9999 -9999 -9999 -9999 -9999 -9999 -9999 -9999 -9999 -9999 -9999 -9999 -9999 -9999 -9999
0.50 0.36 0.37 0.35 0.45 0.38 0.45 0.52 0.40 0.39 0.51 0.34 0.41 0.34 0.50 0.48 0.45 0.39 0.49 0.45 0.47 0.38 0.34 0.33 0.44 0.45 0.42 0.39 0.36 0.41 0.47 0.35 0.36 0.34 0.41 0.50 0.43 0.48 0.44 0.42 0.40 0.34 0.38 0.43 0.33 0.40 0.50 0.42 0.35 0.43 0.35 0.44 0.51 0.46 0.43 0.46 0.37 0.47 0.49 0.41 0.34 0.50 0.52 0.47 0.34 0.35 0.33 0.49 0.34 0.50 0.49 0.43 0.34 0.41 0.44 0.41 0.48 0.36 0.51 0.43 0.47 0.34 0.52 0.34 0.36 0.38 0.48 0.42 0.44 0.37 0.48 0.48 0.46 0.50 0.43 0.45 0.36 0.41 0.51 0.34 0.41 0.41 0.42 0.46 0.51 0.36 0.40 0.44 0.51 0.52 0.47 0.43 0.35 0.39 0.52 0.46 0.47 0.39 0.50 0.44 0.45 0.49 0.41 0.40 0.33 0.44 0.38 0.51 0.52 0.51 0.46 0.47 0.48 0.37 0.46 0.35 0.42 0.37 0.44 0.46 0.37 0.53 0.46 0.39 0.41 0.41 0.33 0.34 0.43 0.48 0.34 0.39 0.52 0.37 0.41 0.37 0.48 0.48 0.51 0.48 0.50 0.52 0.51 0.34 0.52 0.37 0.39 0.40 0.50 0.34 0.48 0.37 0.42 0.39 0.50 0.46 0.46 0.42 0.46 0.49 0.45 0.46 0.39 0.40 0.52 0.50 0.52 0.43 0.36 0.41 0.43 0.46 0.45 -9999 -9999 -9999 -9999 -9999 -9999 -9999 -9999 -9999 -9999 -9999 -9999 -9999 -9999 -9999 -9999 -9999 -9999 -9999 -9999 -9999 -9999
0.47 0.45 0.47 0.43 0.37 0.49 0.43 0.44 0.36 0.37 0.41 0.33 0.43 0.52 0.46 0.44 0.52 0.49 0.42 0.47 0.43 0.35 0.44 0.34 0.35 0.36 0.49 0.49 0.44 0.46 0.43 0.50 0.33 0.34 0.33 0.46 0.33 0.43 0.52 0.40 0.52 0.51 0.35 0.50 0.35 0.43 0.50 0.42 0.49 0.49 0.45 0.39 0.51 0.45 0.53 0.37 0.50 0.41 0.46 0.43 0.37 0.52 0.34 0.40 0.43 0.51 0.52 0.43 0.44 0.52 0.49 0.47 0.46 0.45 0.45 0.39 0.51 0.50 0.51 0.51 0.39 0.53 0.35 0.41 0.43 0.50 0.36 0.49 0.51 0.50 0.38 0.43 0.34 0.37 0.36 0.40 0.49 0.33 0.35 0.33 0.33 0.50 0.50 0.46 0.41 0.42 0.43 0.34 0.34 0.33 0.40 0.44 0.34 0.37 0.39 0.52 0.51 0.43 0.35 0.35 0.48 0.47 0.53 0.36 0.49 0.34 0.36 0.34 0.48 0.49 0.34 0.47 0.39 0.33 0.40 0.43 0.44 0.51 0.47 0.50 0.38 0.50 0.46 0.37 0.52 0.43 0.47 0.33 0.50 0.49 0.46 0.39 0.46 0.52 0.37 0.33 0.45 0.51 0.53 0.52 0.41 0.37 0.45 0.40 0.34 0.50 0.34 0.52 0.34 0.42 0.45 0.51 0.38 0.50 0.51 0.38 0.37 0.42 0.41 0.47 0.47 0.42 0.47 0.40 0.37 0.40 0.37 0.52 0.47 0.50 0.51 0.37 0.35 -9999 -9999 -9999 -9999 -9999 -9999 -9999 -9999 -9999 -9999 -9999 -9999 -9999 -9999 -9999 -9999 -9999 -9999 -9999 -9999 -9999 -9999
0.51 0.39 0.33 0.49 0.47 0.36 0.52 0.44 0.34 0.38 0.44 0.40 0.47 0.52 0.41 0.34 0.33 0.36 0.39 0.38 0.38 0.43 0.48 0.36 0.42 0.52 0.52 0.43 0.45 0.44 0.33 0.35 0.33 0.35 0.37 0.35 0.36 0.44 0.43 0.34 0.34 0.41 0.45 0.36 0.34 0.42 0.47 0.43 0.37 0.43 0.41 0.35 0.50 0.49 0.34 0.38 0.47 0.51 0.34 0.43 0.34 0.47 0.50 0.43 0.35 0.38 0.48 0.39 0.45 0.34 0.48 0.45 0.35 0.43 0.52 0.38 0.34 0.38 0.42 0.47 0.39 0.45 0.34 0.38 0.48 0.39 0.36 0.33 0.49 0.42 0.41 0.43 0.40 0.37 0.48 0.45 0.41 0.43 0.34 0.41 0.47 0.40 0.39 0.48 0.42 0.40 0.39 0.35 0.52 0.41 0.47 0.52 0.46 0.41 0.39 0.44 0.51 0.50 0.46 0.36 0.44 0.49 0.34 0.41 0.51 0.36 0.48 0.35 0.35 0.45 0.36 0.49 0.52 0.46 0.39 0.37 0.45 0.42 0.44 0.38 0.39 0.33 0.44 0.41 0.51 0.44 0.48 0.48 0.47 0.51 0.45 0.42 0.51 0.39 0.38 0.50 0.36 0.39 0.43 0.41 0.40 0.33 0.51 0.35 0.39 0.33 0.39 0.41 0.51 0.44 0.46 0.51 0.48 0.51 0.37 0.40 0.36 0.44 0.36 0.42 0.52 0.43 0.50 0.40 0.44 0.33 0.52 0.35 0.49 0.47 0.40 0.41 0.33 0.37 -9999 -9999 -9999 -9999 -9999 -9999 -9999 -9999 -9999 -9999 -9999 -9999 -9999 -9999 -9999 -9999 -9999 -9999 -9999 -9999 -9999
0.52 0.44 0.33 0.41 0.50 0.39 0.42 0.44 0.39 0.43 0.39 0.38 0.46 0.44 0.48 0.39 0.34 0.45 0.42 0.42 0.50 0.41 0.39 0.48 0.35 0.46 0.50 0.33 0.47 0.35 0.52 0.42 0.39 0.37 0.41 0.33 0.48 0.42 0.45 0.51 0.37 0.41 0.38 0.37 0.50 0.36 0.45 0.48 0.48 0.50 0.43 0.52 0.49 0.43 0.45 0.34 0.34 0.44 0.50 0.33 0.33 0.33 0.42 0.34 0.33 0.36 0.34 0.45 0.44 0.36 0.51 0.50 0.39 0.35 0.49 0.37 0.44 0.42 0.36 0.39 0.34 0.37 0.34 0.42 0.48 0.48 0.47 0.35 0.50 0.36 0.35 0.51 0.33 0.43 0.50 0.52 0.44 0.47 0.46 0.49 0.37 0.35 0.41 0.43 0.42 0.38 0.38 0.45 0.42 0.36 0.51 0.39 0.36 0.42 0.34 0.49 0.43 0.52 0.52 0.46 0.43 0.36 0.52 0.52 0.36 0.47 0.41 0.39 0.48 0.45 0.42 0.43 0.46 0.34 0.46 0.38 0.40 0.38 0.35 0.34 0.37 0.35 0.37 0.45 0.47 0.36 0.46 0.45 0.45 0.37 0.33 0.48 0.40 0.46 0.45 0.40 0.33 0.34 0.46 0.41 0.47 0.35 0.37 0.37 0.36 0.35 0.48 0.50 0.47 0.47 0.38 0.43 0.39 0.44 0.46 0.41 0.40 0.39 0.45 0.52 0.41 0.52 0.41 0.48 0.50 0.34 0.46 0.43 0.34 0.43 0.50 0.43 0.33 0.40 -9999 -9999 -9999 -9999 -9999 -9999 -9999 -9999 -9999 -9999 -9999 -9999 -9999 -9999 -9999 -9999 -9999 -9999 -9999 -9999 -9999
0.48 0.47 0.41 0.49 0.48 0.49 0.52 0.49 0.35 0.35 0.43 0.43 0.34 0.36 0.50 0.43 0.48 0.36 0.39 0.48 0.35 0.48 0.37 0.49 0.48 0.47 0.38 0.41 0.35 0.52 0.39 0.38 0.45 0.44 0.53 0.48 0.34 0.50 0.39 0.42 0.38 0.51 0.38 0.38 0.44 0.37 0.36 0.42 0.37 0.46 0.52 0.39 0.37 0.44 0.34 0.49 0.35 0.51 0.43 0.51 0.48 0.44 0.42 0.50 0.45 0.48 0.52 0.42 0.48 0.33 0.33 0.50 0.37 0.38 0.41 0.49 0.36 0.48 0.51 0.38 0.43 0.50 0.51 0.38 0.51 0.36 0.48 0.52 0.37 0.41 0.44 0.46 0.42 0.36 0.46 0.42 0.50 0.35 0.39 0.49 0.33 0.52 0.38 0.42 0.37 0.40 0.34 0.45 0.40 0.46 0.50 0.52 0.37 0.36 0.35 0.41 0.46 0.35 0.33 0.35 0.38 0.49 0.43 0.35 0.44 0.39 0.45 0.44 0.36 0.48 0.38 0.45 0.51 0.49 0.46 0.44 0.42 0.40 0.43 0.52 0.44 0.50 0.34 0.52 0.46 0.52 0.51 0.52 0.40 0.33 0.48 0.44 0.36 0.45 0.45 0.45 0.34 0.48 0.48 0.52 0.52 0.41 0.39 0.35 0.42 0.52 0.45 0.43 0.46 0.51 0.52 0.33 0.46 0.44 0.43 0.46 0.39 0.51 0.40 0.47 0.34 0.34 0.50 0.44 0.46 0.37 0.41 0.42 0.34 0.39 0.43 0.46 0.51 0.33 -9999 -9999 -9999 -9999 -9999 -9999 -9999 -9999 -9999 -9999 -9999 -9999 -9999 -9999 -9999 -9999 -9999 -9999 -9999 -9999 -9999
0.35 0.46 0.40 0.40 0.34 0.51 0.43 0.40 0.46 0.45 0.45 0.42 0.46 0.45 0.51 0.36 0.52 0.36 0.51 0.46 0.44 0.42 0.41 0.48 0.43 0.49 0.40 0.42 0.48 0.42 0.33 0.35 0.46 0.52 0.49 0.40 0.38 0.48 0.53 0.42 0.42 0.41 0.47 0.49 0.48 0.52 0.49 0.49 0.44 0.44 0.44 0.47 0.43 0.45 0.35 0.49 0.36 0.51 0.43 0.51 0.42 0.47 0.33 0.36 0.44 0.52 0.47 0.44 0.52 0.35 0.33 0.44 0.44 0.45 0.40 0.36 0.48 0.38 0.41 0.51 0.39 0.48 0.51 0.36 0.42 0.45 0.52 0.38 0.33 0.44 0.47 0.34 0.34 0.33 0.33 0.38 0.47 0.33 0.50 0.49 0.46 0.52 0.45 0.50 0.34 0.34 0.36 0.44 0.46 0.49 0.51 0.37 0.43 0.49 0.46 0.37 0.37 0.51 0.35 0.34 0.46 0.44 0.48 0.40 0.48 0.43 0.46 0.50 0.45 0.50 0.46 0.51 0.47 0.34 0.49 0.36 0.49 0.43 0.33 0.49 0.46 0.50 0.53 0.46 0.44 0.42 0.49 0.48 0.44 0.41 0.33 0.33 0.39 0.45 0.40 0.47 0.35 0.45 0.49 0.50 0.38 0.43 0.40 0.39 0.42 0.49 0.37 0.34 0.45 0.41 0.34 0.35 0.33 0.39 0.46 0.48 0.45 0.36 0.37 0.44 0.49 0.36 0.40 0.42 0.52 0.40 0.44 0.49 0.49 0.38 0.43 0.49 0.33 0.37 -9999 -9999 -9999 -9999 -9999 -9999 -9999 -9999 -9999 -9999 -9999 -9999 -9999 -9999 -9999 -9999 -9999 -9999 -9999 -9999 -9999
0.50 0.44 0.52 0.52 0.52 0.52 0.34 0.46 0.39 0.43 0.40 0.48 0.36 0.37 0.41 0.41 0.38 0.51 0.34 0.45 0.42 0.40 0.38 0.38 0.47 0.50 0.39 0.33 0.48 0.42 0.45 0.34 0.47 0.39 0.35 0.33 0.43 0.41 0.46 0.50 0.35 0.44 0.52 0.43 0.35 0.38 0.46 0.47 0.49 0.41 0.35 0.38 0.40 0.48 0.43 0.47 0.36 0.35 0.37 0.52 0.39 0.41 0.38 0.49 0.45 0.49 0.42 0.49 0.44 0.52 0.38 0.37 0.36 0.36 0.46 0.33 0.52 0.42 0.38 0.36 0.48 0.41 0.50 0.53 0.43 0.46 0.43 0.45 0.49 0.41 0.34 0.35 0.40 0.46 0.44 0.39 0.44 0.47 0.41 0.43 0.42 0.46 0.45 0.36 0.34 0.40 0.50 0.36 0.50 0.47 0.48 0.38 0.44 0.40 0.35 0.51 0.38 0.49 0.37 0.39 0.41 0.35 0.52 0.47 0.38 0.34 0.39 0.52 0.40 0.47 0.53 0.35 0.44 0.47 0.36 0.48 0.52 0.40 0.46 0.46 0.44 0.41 0.33 0.37 0.44 0.37 0.41 0.40 0.44 0.49 0.46 0.46 0.50 0.39 0.42 0.46 0.44 0.44 0.36 0.43 0.38 0.43 0.46 0.51 0.36 0.43 0.42 0.48 0.40 0.33 0.41 0.35 0.50 0.33 0.36 0.34 0.40 0.39 0.43 0.41 0.53 0.47 0.34 0.52 0.45 0.43 0.50 0.35 0.49 0.46 0.49 0.33 0.34 0.37 -9999 -9999 -9999 -9999 -9999 -9999 -9999 -9999 -9999 -9999 -9999 -9999 -9999 -9999 -9999 -9999 -9999 -9999 -9999 -9999 -9999
0.48 0.36 0.47 0.36 0.33 0.49 0.52 0.38 0.41 0.47 0.33 0.46 0.40 0.52 0.43 0.50 0.34 0.37 0.40 0.46 0.38 0.39 0.39 0.45 0.40 0.50 0.37 0.34 0.52 0.51 0.45 0.34 0.43 0.44 0.50 0.38 0.49 0.47 0.35 0.47 0.51 0.34 0.41 0.41 0.52 0.41 0.35 0.37 0.39 0.45 0.34 0.51 0.36 0.51 0.34 0.48 0.38 0.51 0.48 0.44 0.34 0.42 0.39 0.52 0.51 0.50 0.35 0.36 0.37 0.40 0.37 0.40 0.47 0.52 0.41 0.36 0.44 0.40 0.36 0.50 0.46 0.41 0.46 0.33 0.46 0.47 0.41 0.52 0.41 0.44 0.48 0.51 0.51 0.33 0.48 0.48 0.33 0.41 0.36 0.45 0.33 0.33 0.33 0.50 0.48 0.44 0.39 0.37 0.37 0.42 0.50 0.49 0.35 0.35 0.48 0.37 0.44 0.53 0.39 0.52 0.37 0.43 0.38 0.44 0.37 0.46 0.37 0.34 0.40 0.43 0.47 0.44 0.45 0.40 0.51 0.48 0.39 0.35 0.42 0.46 0.41 0.49 0.42 0.43 0.37 0.37 0.46 0.52 0.45 0.40 0.42 0.51 0.46 0.35 0.42 0.35 0.40 0.48 0.49 0.52 0.43 0.41 0.50 0.48 0.46 0.49 0.51 0.37 0.42 0.51 0.51 0.35 0.46 0.33 0.48 0.46 0.41 0.43 0.51 0.51 0.51 0.35 0.40 0.51 0.49 0.37 0.36 0.45 0.46 0.41 0.52 0.34 0.35 0.43 -9999 -9999 -9999 -9999 -9999 -9999 -9999 -9999 -9999 -9999 -9999 -9999 -9999 -9999 -9999 -9999 -9999 -9999 -9999 -9999 -9999
0.49 0.40 0.33 0.33 0.50 0.47 0.38 0.51 0.47 0.45 0.48 0.41 0.41 0.50 0.36 0.43 0.42 0.34 0.51 0.41 0.51 0.45 0.53 0.41 0.42 0.52 0.43 0.35 0.38 0.48 0.42 0.35 0.43 0.35 0.46 0.41 0.44 0.47 0.45 0.52 0.49 0.43 0.33 0.50 0.40 0.37 0.39 0.43 0.40 0.36 0.37 0.33 0.40 0.43 0.33 0.47 0.44 0.33 0.37 0.45 0.34 0.41 0.48 0.42 0.41 0.46 0.40 0.33 0.43 0.33 0.34 0.33 0.42 0.42 0.33 0.49 0.34 0.53 0.50 0.45 0.47 0.45 0.39 0.35 0.46 0.40 0.49 0.52 0.49 0.43 0.45 0.38 0.39 0.45 0.50 0.40 0.38 0.51 0.51 0.39 0.45 0.45 0.46 0.52 0.46 0.33 0.34 0.45 0.44 0.51 0.38 0.36 0.37 0.35 0.44 0.47 0.44 0.33 0.39 0.47 0.39 0.51 0.46 0.36 0.41 0.37 0.33 0.39 0.40 0.36 0.50 0.51 0.33 0.47 0.39 0.50 0.38 0.38 0.39 0.52 0.39 0.42 0.44 0.33 0.35 0.46 0.38 0.43 0.36 0.49 0.43 0.43 0.45 0.41 0.38 0.38 0.36 0.43 0.50 0.42 0.51 0.37 0.41 0.37 0.40 0.41 0.35 0.42 0.38 0.51 0.38 0.41 0.41 0.44 0.41 0.51 0.43 0.38 0.45 0.41 0.38 0.42 0.43 0.38 0.52 0.52 0.42 0.34 0.44 0.33 0.34 0.45 0.50 0.43 0.49 -9999 -9999 -9999 -9999 -9999 -9999 -9999 -9999 -9999 -9999 -9999 -9999 -9999 -9999 -9999 -9999 -9999 -9999 -9999 -9999
0.42 0.39 0.36 0.50 0.38 0.47 0.50 0.47 0.40 0.37 0.47 0.52 0.45 0.49 0.45 0.44 0.48 0.49 0.38 0.35 0.40 0.44 0.52 0.53 0.34 0.43 0.35 0.35 0.46 0.41 0.45 0.43 0.33 0.46 0.47 0.40 0.44 0.37 0.42 0.39 0.38 0.41 0.41 0.38 0.46 0.46 0.42 0.34 0.37 0.49 0.45 0.44 0.47 0.34 0.48 0.40 0.40 0.42 0.46 0.45 0.44 0.48 0.36 0.48 0.52 0.46 0.35 0.41 0.39 0.37 0.33 0.52 0.44 0.50 0.45 0.50 0.51 0.34 0.42 0.51 0.35 0.48 0.34 0.42 0.42 0.51 0.46 0.34 0.34 0.44 0.46 0.46 0.49 0.51 0.39 0.45 0.47 0.38 0.37 0.51 0.44 0.48 0.40 0.39 0.38 0.35 0.47 0.50 0.41 0.39 0.50 0.33 0.41 0.48 0.51 0.52 0.38 0.43 0.49 0.50 0.42 0.45 0.51 0.33 0.42 0.52 0.52 0.49 0.40 0.34 0.49 0.35 0.34 0.36 0.47 0.50 0.38 0.36 0.49 0.36 0.38 0.50 0.45 0.39 0.49 0.43 0.52 0.48 0.33 0.37 0.41 0.49 0.33 0.36 0.47 0.37 0.52 0.40 0.43 0.37 0.53 0.45 0.35 0.42 0.39 0.49 0.41 0.38 0.38 0.37 0.50 0.42 0.48 0.39 0.50 0.51 0.49 0.42 0.33 0.34 0.48 0.36 0.37 0.47 0.50 0.34 0.36 0.34 0.39 0.35 0.40 0.46 0.48 0.44 0.42 -9999 -9999 -9999 -9999 -9999 -9999 -9999 -9999 -9999 -9999 -9999 -9999 -9999 -9999 -9999 -9999 -9999 -9999 -9999 -9999
0.36 0.39 0.50 0.34 0.51 0.44 0.50 0.33 0.47 0.37 0.50 0.35 0.52 0.50 0.40 0.50 0.50 0.43 0.42 0.40 0.42 0.50 0.40 0.48 0.51 0.48 0.39 0.46 0.45 0.34 0.41 0.44 0.36 0.40 0.46 0.42 0.33 0.43 0.40 0.38 0.41 0.41 0.36 0.40 0.41 0.45 0.37 0.36 0.41 0.44 0.42 0.39 0.35 0.49 0.44 0.46 0.42 0.46 0.33 0.53 0.42 0.37 0.47 0.49 0.52 0.48 0.48 0.34 0.43 0.39 0.49 0.37 0.42 0.37 0.44 0.34 0.49 0.45 0.48 0.44 0.34 0.51 0.34 0.48 0.52 0.45 0.47 0.37 0.40 0.36 0.49 0.44 0.41 0.37 0.43 0.51 0.35 0.36 0.51 0.40 0.49 0.39 0.46 0.37 0.42 0.41 0.42 0.36 0.42 0.51 0.41 0.47 0.40 0.34 0.45 0.47 0.43 0.42 0.36 0.42 0.47 0.53 0.45 0.47 0.33 0.47 0.45 0.37 0.44 0.36 0.39 0.35 0.49 0.45 0.45 0.51 0.37 0.44 0.35 0.37 0.47 0.34 0.43 0.37 0.49 0.47 0.34 0.53 0.43 0.52 0.45 0.52 0.47 0.45 0.50 0.42 0.34 0.46 0.48 0.33 0.48 0.45 0.46 0.39 0.44 0.48 0.51 0.46 0.45 0.46 0.43 0.41 0.44 0.50 0.38 0.41 0.52 0.34 0.41 0.46 0.42 0.39 0.52 0.38 0.45 0.49 0.42 0.38 0.35 0.34 0.35 0.43 0.52 0.36 0.35 -9999 -9999 -9999 -9999 -9999 -9999 -9999 -9999 -9999 -9999 -9999 -9999 -9999 -9999 -9999 -9999 -9999 -9999 -9999 -9999
0.45 0.52 0.51 0.41 0.37 0.45 0.47 0.36 0.52 0.46 0.33 0.40 0.35 0.40 0.45 0.41 0.38 0.43 0.40 0.52 0.51 0.52 0.41 0.45 0.47 0.40 0.45 0.41 0.50 0.41 0.34 0.43 0.40 0.50 0.46 0.35 0.42 0.42 0.33 0.50 0.53 0.40 0.39 0.43 0.33 0.37 0.45 0.36 0.45 0.44 0.39 0.51 0.34 0.45 0.36 0.46 0.48 0.36 0.33 0.35 0.46 0.47 0.41 0.47 0.46 0.52 0.36 0.48 0.50 0.50 0.33 0.43 0.44 0.39 0.48 0.48 0.35 0.33 0.50 0.41 0.51 0.44 0.45 0.44 0.53 0.45 0.45 0.43 0.49 0.48 0.46 0.45 0.47 0.51 0.45 0.43 0.37 0.42 0.33 0.39 0.52 0.38 0.51 0.47 0.42 0.45 0.36 0.47 0.36 0.46 0.45 0.51 0.49 0.44 0.40 0.42 0.48 0.50 0.45 0.45 0.42 0.48 0.34 0.39 0.37 0.48 0.46 0.33 0.39 0.34 0.39 0.41 0.34 0.41 0.47 0.33 0.45 0.47 0.38 0.52 0.48 0.42 0.42 0.52 0.53 0.50 0.41 0.41 0.36 0.44 0.46 0.37 0.39 0.45 0.40 0.47 0.36 0.44 0.40 0.39 0.45 0.38 0.33 0.40 0.34 0.45 0.36 0.45 0.39 0.43 0.47 0.49 0.39 0.33 0.44 0.45 0.46 0.48 0.52 0.37 0.46 0.36 0.42 0.47 0.46 0.53 0.35 0.47 0.51 0.50 0.40 0.37 0.36 0.49 0.43 -9999 -9999 -9999 -9999 -9999 -9999 -9999 -9999 -9999 -9999 -9999 -9999 -9999 -9999 -9999 -9999 -9999 -9999 -9999 -9999
0.51 0.49 0.48 0.51 0.48 0.51 0.35 0.43 0.35 0.45 0.52 0.38 0.37 0.43 0.37 0.46 0.34 0.42 0.47 0.34 0.53 0.47 0.43 0.41 0.33 0.48 0.40 0.44 0.49 0.50 0.41 0.35 0.47 0.40 0.52 0.42 0.43 0.52 0.41 0.37 0.42 0.46 0.41 0.50 0.46 0.37 0.46 0.49 0.34 0.41 0.47 0.43 0.50 0.49 0.40 0.44 0.49 0.52 0.42 0.45 0.44 0.38 0.38 0.48 0.36 0.47 0.50 0.52 0.46 0.43 0.49 0.33 0.51 0.45 0.51 0.51 0.40 0.41 0.43 0.33 0.40 0.39 0.39 0.40 0.36 0.38 0.36 0.37 0.34 0.51 0.46 0.38 0.44 0.36 0.33 0.37 0.46 0.52 0.46 0.38 0.35 0.37 0.50 0.40 0.38 0.43 0.46 0.46 0.53 0.50 0.34 0.45 0.49 0.36 0.38 0.50 0.35 0.43 0.37 0.36 0.38 0.36 0.41 0.47 0.33 0.46 0.47 0.45 0.51 0.52 0.47 0.47 0.45 0.33 0.46 0.44 0.39 0.48 0.35 0.49 0.38 0.39 0.41 0.34 0.37 0.41 0.36 0.47 0.38 0.37 0.36 0.42 0.40 0.41 0.48 0.48 0.43 0.51 0.46 0.36 0.47 0.42 0.44 0.47 0.44 0.33 0.42 0.40 0.43 0.51 0.52 0.42 0.38 0.42 0.37 0.52 0.35 0.46 0.38 0.39 0.52 0.43 0.33 0.40 0.43 0.43 0.41 0.51 0.37 0.43 0.43 0.43 0.39 0.49 0.51 -9999 -9999 -9999 -9999 -9999 -9999 -9999 -9999 -9999 -9999 -9999 -9999 -9999 -9999 -9999 -9999 -9999 -9999 -9999 -9999
0.33 0.38 0.49 0.47 0.40 0.53 0.33 0.49 0.37 0.41 0.43 0.49 0.50 0.46 0.33 0.44 0.50 0.44 0.33 0.33 0.42 0.36 0.42 0.41 0.39 0.51 0.50 0.41 0.50 0.43 0.41 0.44 0.41 0.44 0.37 0.51 0.40 0.46 0.36 0.50 0.33 0.51 0.33 0.50 0.36 0.36 0.38 0.42 0.47 0.42 0.47 0.50 0.50 0.49 0.35 0.43 0.48 0.40 0.34 0.40 0.48 0.45 0.40 0.42 0.37 0.37 0.36 0.33 0.34 0.45 0.49 0.45 0.51 0.39 0.45 0.50 0.38 0.35 0.37 0.51 0.46 0.39 0.43 0.42 0.44 0.50 0.38 0.39 0.36 0.40 0.40 0.41 0.34 0.42 0.45 0.33 0.36 0.36 0.46 0.52 0.38 0.34 0.39 0.36 0.42 0.45 0.37 0.52 0.50 0.33 0.49 0.33 0.42 0.37 0.50 0.39 0.49 0.33 0.44 0.51 0.37 0.38 0.45 0.36 0.39 0.51 0.35 0.41 0.38 0.38 0.50 0.49 0.43 0.52 0.49 0.44 0.34 0.47 0.44 0.44 0.52 0.42 0.50 0.35 0.34 0.53 0.33 0.39 0.48 0.41 0.40 0.47 0.48 0.37 0.35 0.47 0.44 0.41 0.33 0.36 0.51 0.33 0.48 0.35 0.34 0.41 0.47 0.41 0.34 0.46 0.45 0.39 0.46 0.41 0.38 0.34 0.46 0.40 0.52 0.43 0.50 0.49 0.45 0.49 0.35 0.49 0.46 0.45 0.48 0.42 0.37 0.43 0.39 0.33 0.40 -9999 -9999 -9999 -9999 -9999 -9999 -9999 -9999 -9999 -9999 -9999 -9999 -9999 -9999 -9999 -9999 -9999 -9999 -9999 -9999
0.41 0.44 0.39 0.37 0.34 0.51 0.41 0.49 0.52 0.36 0.33 0.38 0.35 0.45 0.37 0.46 0.47 0.45 0.46 0.34 0.42 0.46 0.42 0.48 0.41 0.42 0.49 0.41 0.40 0.50 0.47 0.44 0.39 0.34 0.51 0.46 0.36 0.50 0.37 0.35 0.38 0.49 0.45 0.44 0.43 0.46 0.42 0.37 0.38 0.51 0.50 0.42 0.43 0.36 0.38 0.49 0.34 0.45 0.42 0.47 0.39 0.52 0.36 0.37 0.48 0.35 0.43 0.33 0.46 0.52 0.39 0.38 0.41 0.35 0.36 0.51 0.42 0.43 0.33 0.45 0.51 0.52 0.38 0.52 0.38 0.51 0.47 0.52 0.49 0.34 0.41 0.47 0.41 0.50 0.33 0.38 0.36 0.42 0.48 0.52 0.40 0.41 0.38 0.53 0.51 0.38 0.52 0.45 0.40 0.42 0.47 0.39 0.36 0.50 0.39 0.38 0.40 0.47 0.47 0.48 0.39 0.49 0.42 0.51 0.45 0.45 0.43 0.44 0.38 0.50 0.45 0.36 0.50 0.52 0.36 0.47 0.47 0.52 0.51 0.51 0.44 0.33 0.38 0.49 0.39 0.46 0.49 0.42 0.49 0.47 0.41 0.35 0.47 0.46 0.44 0.38 0.46 0.45 0.46 0.47 0.49 0.36 0.45 0.50 0.37 0.37 0.44 0.34 0.41 0.43 0.49 0.45 0.37 0.44 0.33 0.39 0.49 0.34 0.44 0.52 0.36 0.34 0.41 0.44 0.45 0.33 0.49 0.47 0.47 0.40 0.36 0.33 0.37 0.36 0.36 -9999 -9999 -9999 -9999 -9999 -9999 -9999 -9999 -9999 -9999 -9999 -9999 -9999 -9999 -9999 -9999 -9999 -9999 -9999 -9999
0.44 0.50 0.41 0.50 0.52 0.45 0.46 0.45 0.36 0.49 0.45 0.36 0.51 0.51 0.48 0.40 0.44 0.44 0.48 0.39 0.35 0.35 0.44 0.45 0.37 0.49 0.49 0.50 0.49 0.50 0.46 0.48 0.33 0.40 0.34 0.42 0.43 0.47 0.44 0.44 0.38 0.34 0.47 0.37 0.40 0.34 0.34 0.34 0.37 0.50 0.51 0.50 0.46 0.40 0.34 0.35 0.39 0.42 0.35 0.40 0.38 0.52 0.47 0.42 0.36 0.34 0.38 0.44 0.40 0.37 0.46 0.52 0.36 0.49 0.38 0.50 0.41 0.46 0.35 0.40 0.46 0.33 0.42 0.34 0.42 0.49 0.38 0.52 0.33 0.36 0.37 0.45 0.36 0.38 0.44 0.52 0.33 0.47 0.39 0.50 0.39 0.46 0.52 0.37 0.40 0.44 0.45 0.50 0.39 0.51 0.46 0.46 0.49 0.52 0.49 0.52 0.36 0.46 0.44 0.50 0.41 0.50 0.34 0.44 0.36 0.39 0.47 0.39 0.45 0.39 0.44 0.37 0.37 0.46 0.51 0.36 0.48 0.52 0.39 0.49 0.39 0.37 0.33 0.51 0.40 0.51 0.48 0.40 0.44 0.42 0.38 0.37 0.45 0.45 0.38 0.47 0.39 0.42 0.49 0.44 0.51 0.42 0.49 0.52 0.42 0.44 0.42 0.52 0.47 0.38 0.46 0.36 0.37 0.38 0.40 0.45 0.44 0.51 0.41 0.35 0.45 0.44 0.43 0.40 0.34 0.49 0.43 0.37 0.35 0.43 0.41 0.49 0.35 0.39 0.40 0.49 -9999 -9999 -9999 -9999 -9999 -9999 -9999 -9999 -9999 -9999 -9999 -9999 -9999 -9999 -9999 -9999 -9999 -9999 -9999
0.38 0.48 0.36 0.51 0.39 0.46 0.48 0.33 0.46 0.51 0.49 0.52 0.52 0.50 0.43 0.44 0.52 0.43 0.35 0.45 0.38 0.46 0.36 0.36 0.46 0.40 0.47 0.49 0.47 0.37 0.35 0.37 0.37 0.38 0.43 0.41 0.47 0.48 0.52 0.49 0.50 0.47 0.51 0.43 0.52 0.35 0.40 0.37 0.34 0.38 0.47 0.33 0.49 0.36 0.37 0.39 0.48 0.40 0.40 0.41 0.41 0.50 0.46 0.35 0.46 0.51 0.49 0.45 0.48 0.51 0.35 0.48 0.34 0.37 0.40 0.39 0.42 0.46 0.52 0.48 0.34 0.49 0.39 0.33 0.44 0.45 0.36 0.45 0.34 0.50 0.45 0.34 0.45 0.34 0.41 0.41 0.37 0.38 0.33 0.39 0.45 0.40 0.51 0.44 0.43 0.47 0.41 0.43 0.41 0.45 0.35 0.37 0.35 0.38 0.37 0.40 0.38 0.35 0.51 0.34 0.47 0.51 0.33 0.33 0.33 0.39 0.51 0.38 0.42 0.36 0.43 0.42 0.51 0.49 0.48 0.40 0.48 0.40 0.38 0.40 0.44 0.40 0.42 0.34 0.41 0.51 0.35 0.46 0.50 0.52 0.33 0.41 0.42 0.34 0.43 0.38 0.43 0.33 0.43 0.39 0.33 0.39 0.38 0.37 0.37 0.53 0.48 0.51 0.35 0.37 0.43 0.35 0.34 0.42 0.48 0.36 0.33 0.51 0.35 0.36 0.42 0.45 0.42 0.39 0.41 0.37 0.49 0.41 0.40 0.39 0.43 0.46 0.35 0.38 0.45 0.42 -9999 -9999 -9999 -9999 -9999 -9999 -9999 -9999 -9999 -9999 -9999 -9999 -9999 -9999 -9999 -9999 -9999 -9999 -9999
0.43 0.38 0.51 0.39 0.50 0.36 0.41 0.47 0.47 0.42 0.44 0.42 0.51 0.50 0.42 0.45 0.46 0.35 0.40 0.49 0.40 0.46 0.38 0.44 0.45 0.35 0.50 0.48 0.43 0.37 0.37 0.39 0.44 0.44 0.43 0.40 0.40 0.40 0.51 0.46 0.52 0.45 0.43 0.35 0.45 0.40 0.45 0.37 0.42 0.46 0.47 0.44 0.45 0.41 0.49 0.43 0.50 0.44 0.50 0.43 0.33 0.40 0.34 0.50 0.47 0.45 0.42 0.34 0.33 0.45 0.49 0.49 0.47 0.39 0.38 0.38 0.33 0.35 0.43 0.41 0.37 0.42 0.40 0.39 0.46 0.48 0.35 0.51 0.41 0.42 0.45 0.50 0.37 0.48 0.44 0.34 0.47 0.36 0.49 0.48 0.35 0.38 0.47 0.40 0.46 0.51 0.36 0.50 0.35 0.51 0.43 0.49 0.40 0.42 0.37 0.36 0.43 0.36 0.45 0.35 0.40 0.47 0.42 0.37 0.49 0.36 0.39 0.48 0.45 0.36 0.46 0.34 0.45 0.49 0.51 0.48 0.48 0.51 0.45 0.49 0.42 0.46 0.51 0.52 0.47 0.36 0.38 0.41 0.43 0.47 0.47 0.38 0.51 0.49 0.39 0.50 0.39 0.43 0.36 0.40 0.50 0.47 0.44 0.46 0.33 0.33 0.45 0.52 0.39 0.33 0.46 0.42 0.49 0.38 0.36 0.40 0.42 0.38 0.45 0.47 0.43 0.34 0.45 0.43 0.51 0.38 0.49 0.33 0.34 0.41 0.44 0.46 0.37 0.46 0.35 0.37 -9999 -9999 -9999 -9999 -9999 -9999 -9999 -9999 -9999 -9999 -9999 -9999 -9999 -9999 -9999 -9999 -9999 -9999 -9999
0.48 0.39 0.39 0.44 0.35 0.50 0.51 0.34 0.44 0.44 0.44 0.49 0.51 0.39 0.52 0.43 0.42 0.39 0.43 0.40 0.50 0.43 0.35 0.37 0.35 0.41 0.42 0.49 0.34 0.52 0.38 0.35 0.39 0.48 0.48 0.39 0.46 0.51 0.39 0.47 0.39 0.34 0.33 0.48 0.39 0.40 0.45 0.40 0.51 0.52 0.46 0.48 0.52 0.41 0.37 0.38 0.39 0.39 0.52 0.49 0.48 0.42 0.47 0.42 0.46 0.47 0.37 0.47 0.43 0.51 0.51 0.49 0.45 0.38 0.35 0.48 0.33 0.45 0.50 0.42 0.44 0.49 0.46 0.50 0.35 0.52 0.45 0.35 0.52 0.50 0.42 0.35 0.35 0.48 0.43 0.46 0.41 0.41 0.38 0.41 0.45 0.42 0.36 0.45 0.48 0.40 0.47 0.39 0.37 0.41 0.33 0.51 0.36 0.35 0.42 0.49 0.49 0.39 0.50 0.42 0.44 0.43 0.46 0.46 0.44 0.51 0.36 0.42 0.40 0.41 0.45 0.50 0.50 0.43 0.36 0.40 0.42 0.39 0.33 0.34 0.35 0.37 0.50 0.33 0.38 0.47 0.41 0.47 0.36 0.45 0.34 0.42 0.35 0.35 0.33 0.40 0.34 0.47 0.38 0.49 0.52 0.51 0.37 0.51 0.40 0.41 0.33 0.47 0.33 0.45 0.36 0.49 0.52 0.48 0.40 0.37 0.37 0.52 0.35 0.44 0.50 0.40 0.39 0.36 0.36 0.49 0.42 0.40 0.35 0.45 0.39 0.37 0.44 0.52 0.46 0.37 -9999 -9999 -9999 -9999 -9999 -9999 -9999 -9999 -9999 -9999 -9999 -9999 -9999 -9999 -9999 -9999 -9999 -9999 -9999
0.43 0.36 0.47 0.49 0.51 0.49 0.35 0.42 0.39 0.43 0.40 0.40 0.46 0.52 0.41 0.36 0.37 0.44 0.51 0.46 0.38 0.49 0.52 0.39 0.43 0.47 0.47 0.38 0.52 0.50 0.42 0.43 0.41 0.42 0.42 0.42 0.45 0.49 0.36 0.44 0.39 0.50 0.42 0.38 0.44 0.50 0.39 0.37 0.38 0.34 0.44 0.39 0.34 0.44 0.42 0.52 0.38 0.35 0.37 0.52 0.50 0.38 0.34 0.44 0.38 0.33 0.37 0.52 0.34 0.46 0.40 0.40 0.52 0.40 0.39 0.37 0.46 0.52 0.50 0.39 0.47 0.45 0.33 0.48 0.49 0.37 0.42 0.38 0.35 0.45 0.42 0.47 0.37 0.45 0.44 0.52 0.50 0.45 0.42 0.52 0.41 0.51 0.40 0.50 0.40 0.50 0.33 0.46 0.43 0.44 0.36 0.51 0.38 0.36 0.43 0.34 0.52 0.51 0.37 0.34 0.38 0.37 0.48 0.35 0.35 0.41 0.47 0.49 0.45 0.33 0.51 0.50 0.44 0.36 0.42 0.37 0.52 0.40 0.42 0.49 0.51 0.43 0.38 0.50 0.53 0.48 0.51 0.36 0.37 0.50 0.34 0.43 0.36 0.52 0.49 0.44 0.46 0.48 0.36 0.40 0.46 0.34 0.34 0.42 0.42 0.33 0.51 0.48 0.52 0.41 0.50 0.38 0.42 0.48 0.46 0.52 0.46 0.35 0.37 0.36 0.33 0.52 0.47 0.39 0.49 0.42 0.40 0.52 0.39 0.49 0.44 0.39 0.43 0.50 0.33 0.36 -9999 -9999 -9999 -9999 -9999 -9999 -9999 -9999 -9999 -9999 -9999 -9999 -9999 -9999 -9999 -9999 -9999 -9999 -9999
0.39 0.37 0.50 0.40 0.51 0.48 0.33 0.47 0.43 0.46 0.51 0.35 0.35 0.35 0.44 0.39 0.48 0.40 0.36 0.45 0.42 0.36 0.42 0.45 0.40 0.35 0.47 0.42 0.48 0.48 0.33 0.38 0.51 0.51 0.45 0.34 0.33 0.45 0.40 0.36 0.52 0.46 0.34 0.35 0.35 0.40 0.48 0.47 0.45 0.44 0.39 0.35 0.34 0.36 0.43 0.52 0.41 0.50 0.42 0.41 0.52 0.51 0.46 0.45 0.48 0.47 0.43 0.49 0.50 0.38 0.46 0.41 0.40 0.40 0.47 0.39 0.44 0.44 0.35 0.40 0.53 0.43 0.35 0.39 0.46 0.42 0.51 0.34 0.48 0.51 0.50 0.34 0.52 0.45 0.33 0.46 0.46 0.41 0.51 0.44 0.51 0.46 0.48 0.45 0.48 0.50 0.47 0.50 0.38 0.42 0.42 0.37 0.49 0.34 0.35 0.38 0.39 0.35 0.43 0.46 0.52 0.51 0.34 0.41 0.36 0.46 0.34 0.36 0.35 0.46 0.43 0.39 0.47 0.34 0.50 0.45 0.33 0.44 0.47 0.33 0.49 0.46 0.40 0.41 0.47 0.50 0.48 0.35 0.39 0.41 0.39 0.48 0.52 0.45 0.43 0.47 0.34 0.43 0.48 0.45 0.37 0.45 0.41 0.42 0.37 0.33 0.51 0.47 0.50 0.35 0.38 0.36 0.34 0.50 0.46 0.46 0.48 0.37 0.36 0.34 0.37 0.41 0.44 0.51 0.38 0.50 0.45 0.39 0.50 0.44 0.45 0.43 0.49 0.39 0.34 0.50 -9999 -9999 -9999 -9999 -9999 -9999 -9999 -9999 -9999 -9999 -9999 -9999 -9999 -9999 -9999 -9999 -9999 -9999 -9999
0.46 0.38 0.44 0.35 0.39 0.44 0.37 0.42 0.50 0.40 0.51 0.48 0.43 0.34 0.50 0.42 0.38 0.51 0.33 0.52 0.38 0.52 0.35 0.45 0.48 0.34 0.37 0.45 0.38 0.47 0.41 0.47 0.34 0.42 0.41 0.36 0.34 0.37 0.44 0.39 0.44 0.45 0.49 0.48 0.50 0.35 0.33 0.43 0.49 0.43 0.35 0.43 0.36 0.48 0.44 0.51 0.39 0.40 0.52 0.37 0.40 0.49 0.37 0.41 0.39 0.47 0.39 0.43 0.48 0.39 0.39 0.51 0.37 0.53 0.38 0.49 0.43 0.42 0.50 0.37 0.48 0.42 0.48 0.43 0.49 0.44 0.49 0.35 0.40 0.44 0.48 0.43 0.46 0.48 0.51 0.41 0.33 0.34 0.37 0.40 0.51 0.47 0.49 0.48 0.49 0.38 0.45 0.44 0.44 0.40 0.43 0.48 0.52 0.49 0.45 0.36 0.42 0.36 0.45 0.34 0.39 0.38 0.38 0.40 0.48 0.37 0.40 0.40 0.40 0.50 0.38 0.45 0.40 0.35 0.38 0.41 0.37 0.36 0.45 0.48 0.39 0.37 0.52 0.52 0.39 0.48 0.42 0.33 0.46 0.50 0.51 0.41 0.37 0.39 0.48 0.37 0.49 0.50 0.51 0.52 0.47 0.49 0.46 0.35 0.34 0.50 0.42 0.43 0.36 0.42 0.37 0.42 0.36 0.47 0.51 0.48 0.34 0.50 0.48 0.47 0.40 0.46 0.42 0.45 0.50 0.39 0.37 0.51 0.44 0.50 0.45 0.48 0.43 0.51 0.38 0.47 0.47 -9999 -9999 -9999 -9999 -9999 -9999 -9999 -9999 -9999 -9999 -9999 -9999 -9999 -9999 -9999 -9999 -9999 -9999
0.41 0.46 0.47 0.52 0.52 0.51 0.36 0.45 0.37 0.36 0.46 0.47 0.43 0.48 0.43 0.47 0.52 0.41 0.42 0.50 0.36 0.34 0.47 0.41 0.48 0.45 0.51 0.40 0.41 0.49 0.43 0.37 0.41 0.49 0.38 0.37 0.52 0.47 0.38 0.49 0.37 0.49 0.35 0.34 0.44 0.36 0.52 0.35 0.51 0.41 0.41 0.33 0.39 0.51 0.52 0.43 0.33 0.43 0.33 0.40 0.49 0.33 0.52 0.48 0.46 0.48 0.46 0.39 0.43 0.35 0.47 0.51 0.45 0.46 0.49 0.52 0.47 0.47 0.52 0.39 0.49 0.51 0.37 0.50 0.35 0.38 0.42 0.34 0.52 0.40 0.49 0.40 0.52 0.49 0.33 0.40 0.38 0.34 0.52 0.48 0.51 0.42 0.47 0.49 0.43 0.51 0.51 0.34 0.52 0.49 0.46 0.51 0.43 0.35 0.40 0.38 0.49 0.44 0.39 0.33 0.35 0.48 0.48 0.50 0.42 0.36 0.36 0.40 0.36 0.33 0.41 0.50 0.37 0.49 0.42 0.53 0.47 0.42 0.41 0.34 0.41 0.50 0.50 0.48 0.34 0.33 0.43 0.49 0.46 0.52 0.45 0.45 0.41 0.51 0.35 0.48 0.45 0.46 0.33 0.42 0.46 0.33 0.45 0.34 0.43 0.40 0.43 0.40 0.47 0.41 0.41 0.34 0.49 0.38 0.52 0.49 0.36 0.42 0.50 0.49 0.49 0.41 0.45 0.40 0.43 0.50 0.47 0.40 0.40 0.45 0.42 0.36 0.48 0.44 0.34 0.42 0.45 -9999 -9999 -9999 -9999 -9999 -9999 -9999 -9999 -9999 -9999 -9999 -9999 -9999 -9999 -9999 -9999 -9999 -9999
0.35 0.49 0.35 0.43 0.40 0.49 0.45 0.51 0.36 0.33 0.36 0.39 0.39 0.38 0.50 0.35 0.49 0.41 0.36 0.42 0.42 0.38 0.48 0.49 0.47 0.46 0.40 0.42 0.51 0.37 0.41 0.39 0.49 0.50 0.52 0.34 0.44 0.39 0.39 0.34 0.45 0.49 0.36 0.35 0.38 0.39 0.33 0.36 0.48 0.43 0.52 0.48 0.49 0.47 0.46 0.40 0.43 0.52 0.45 0.41 0.34 0.51 0.35 0.42 0.49 0.49 0.45 0.43 0.44 0.42 0.52 0.49 0.52 0.43 0.47 0.49 0.48 0.39 0.45 0.38 0.43 0.41 0.35 0.33 0.50 0.37 0.53 0.38 0.47 0.43 0.35 0.44 0.48 0.49 0.47 0.39 0.35 0.50 0.42 0.35 0.35 0.46 0.51 0.42 0.43 0.47 0.37 0.44 0.42 0.39 0.47 0.35 0.40 0.33 0.48 0.34 0.37 0.42 0.37 0.35 0.34 0.36 0.40 0.39 0.43 0.36 0.42 0.40 0.40 0.42 0.50 0.51 0.42 0.40 0.49 0.48 0.38 0.40 0.39 0.37 0.40 0.34 0.47 0.37 0.38 0.42 0.40 0.49 0.40 0.41 0.34 0.38 0.51 0.37 0.34 0.37 0.37 0.47 0.36 0.36 0.45 0.39 0.47 0.35 0.33 0.51 0.37 0.48 0.42 0.38 0.45 0.44 0.33 0.44 0.41 0.34 0.34 0.35 0.47 0.41 0.39 0.50 0.43 0.34 0.36 0.40 0.34 0.50 0.43 0.48 0.46 0.37 0.44 0.45 0.52 0.51 0.38 -9999 -9999 -9999 -9999 -9999 -9999 -9999 -9999 -9999 -9999 -9999 -9999 -9999 -9999 -9999 -9999 -9999 -9999
0.46 0.43 0.49 0.36 0.35 0.37 0.33 0.43 0.39 0.47 0.42 0.44 0.52 0.45 0.33 0.41 0.43 0.45 0.51 0.50 0.47 0.33 0.48 0.52 0.40 0.43 0.37 0.33 0.39 0.47 0.36 0.52 0.53 0.36 0.42 0.46 0.43 0.35 0.51 0.45 0.36 0.43 0.38 0.49 0.50 0.41 0.49 0.35 0.36 0.38 0.45 0.47 0.39 0.51 0.51 0.52 0.38 0.39 0.42 0.36 0.36 0.51 0.44 0.46 0.49 0.34 0.40 0.46 0.39 0.45 0.52 0.48 0.41 0.36 0.50 0.51 0.48 0.33 0.51 0.45 0.52 0.39 0.35 0.47 0.44 0.34 0.47 0.44 0.42 0.36 0.40 0.47 0.48 0.40 0.39 0.37 0.38 0.50 0.50 0.46 0.43 0.40 0.42 0.38 0.36 0.33 0.48 0.49 0.39 0.34 0.52 0.33 0.51 0.39 0.42 0.43 0.38 0.34 0.39 0.44 0.50 0.47 0.35 0.35 0.43 0.49 0.52 0.34 0.34 0.50 0.36 0.40 0.48 0.46 0.33 0.38 0.34 0.52 0.40 0.50 0.47 0.42 0.48 0.50 0.44 0.33 0.39 0.38 0.44 0.49 0.44 0.33 0.34 0.53 0.35 0.52 0.52 0.48 0.42 0.34 0.46 0.49 0.44 0.38 0.39 0.42 0.38 0.47 0.45 0.48 0.49 0.43 0.51 0.51 0.34 0.53 0.48 0.36 0.36 0.50 0.40 0.46 0.37 0.45 0.35 0.38 0.49 0.38 0.33 0.50 0.49 0.37 0.46 0.37 0.41 0.38 0.42 -9999 -9999 -9999 -9999 -9999 -9999 -9999 -9999 -9999 -9999 -9999 -9999 -9999 -9999 -9999 -9999 -9999 -9999
0.52 0.51 0.38 0.38 0.33 0.52 0.51 0.33 0.38 0.46 0.52 0.44 0.36 0.46 0.34 0.35 0.45 0.48 0.39 0.46 0.36 0.36 0.50 0.44 0.37 0.52 0.39 0.36 0.34 0.44 0.48 0.47 0.46 0.38 0.33 0.33 0.53 0.49 0.38 0.52 0.44 0.40 0.39 0.42 0.51 0.42 0.49 0.37 0.38 0.36 0.44 0.35 0.42 0.40 0.48 0.38 0.43 0.36 0.34 0.46 0.43 0.33 0.48 0.51 0.35 0.40 0.48 0.39 0.44 0.44 0.41 0.38 0.38 0.45 0.48 0.34 0.38 0.41 0.40 0.45 0.45 0.50 0.37 0.42 0.46 0.37 0.35 0.36 0.50 0.50 0.52 0.52 0.49 0.45 0.39 0.46 0.36 0.44 0.44 0.40 0.37 0.37 0.49 0.49 0.35 0.48 0.44 0.51 0.40 0.41 0.33 0.49 0.41 0.48 0.47 0.37 0.45 0.37 0.39 0.39 0.43 0.51 0.33 0.34 0.33 0.45 0.53 0.48 0.41 0.47 0.49 0.34 0.33 0.41 0.39 0.45 0.44 0.42 0.46 0.36 0.52 0.40 0.43 0.42 0.49 0.46 0.40 0.40 0.48 0.35 0.36 0.47 0.43 0.49 0.34 0.47 0.52 0.36 0.52 0.33 0.52 0.46 0.52 0.35 0.51 0.50 0.42 0.47 0.47 0.47 0.36 0.51 0.33 0.37 0.44 0.39 0.52 0.47 0.50 0.40 0.34 0.34 0.41 0.44 0.39 0.47 0.44 0.41 0.39 0.37 -9999 -9999 -9999 -9999 -9999 -9999 -9999 -9999 -9999 -9999 -9999 -9999 -9999 -9999 -9999 -9999 -9999 -9999 -9999 -9999 -9999 -9999 -9999 -9999 -9999
0.43 0.38 0.48 0.48 0.39 0.42 0.46 0.37 0.49 0.36 0.51 0.38 0.38 0.41 0.41 0.37 0.52 0.37 0.40 0.36 0.36 0.47 0.49 0.44 0.46 0.36 0.49 0.47 0.49 0.48 0.52 0.52 0.46 0.40 0.42 0.38 0.39 0.41 0.35 0.41 0.42 0.46 0.38 0.35 0.42 0.34 0.41 0.49 0.34 0.44 0.34 0.45 0.40 0.37 0.51 0.43 0.48 0.49 0.50 0.41 0.44 0.51 0.46 0.43 0.35 0.44 0.45 0.40 0.33 0.46 0.35 0.50 0.35 0.40 0.42 0.46 0.39 0.45 0.33 0.35 0.40 0.36 0.35 0.38 0.46 0.34 0.45 0.44 0.36 0.42 0.52 0.37 0.42 0.45 0.42 0.52 0.35 0.52 0.33 0.52 0.45 0.50 0.34 0.42 0.33 0.35 0.38 0.45 0.36 0.47 0.40 0.48 0.44 0.41 0.42 0.45 0.44 0.45 0.45 0.36 0.48 0.50 0.46 0.37 0.49 0.47 0.34 0.47 0.44 0.33 0.41 0.47 0.50 0.50 0.33 0.41 0.43 0.38 0.35 0.36 0.34 0.43 0.37 0.44 0.41 0.52 0.48 0.33 0.39 0.34 0.40 0.51 0.33 0.53 0.33 0.50 0.42 0.47 0.44 0.39 0.48 0.36 0.36 0.51 0.34 0.41 0.49 0.44 0.43 0.46 0.42 0.41 0.51 0.40 0.50 0.42 0.46 0.34 0.52 0.48 0.36 0.36 0.37 0.48 0.37 0.33 0.36 0.45 -9999 -9999 -9999 -9999 -9999 -9999 -9999 -9999 -9999 -9999 -9999 -9999 -9999 -9999 -9999 -9999 -9999 -9999 -9999 -9999 -9999 -9999 -9999 -9999 -9999 -9999 -9999
0.33 0.43 0.47 0.39 0.50 0.51 0.41 0.34 0.45 0.52 0.48 0.44 0.51 0.51 0.44 0.42 0.36 0.50 0.50 0.47 0.49 0.34 0.52 0.33 0.35 0.47 0.44 0.48 0.42 0.50 0.33 0.48 0.42 0.46 0.38 0.37 0.34 0.42 0.33 0.46 0.49 0.35 0.47 0.49 0.45 0.46 0.38 0.44 0.41 0.51 0.34 0.48 0.36 0.50 0.44 0.38 0.52 0.35 0.43 0.33 0.43 0.50 0.49 0.36 0.43 0.40 0.33 0.34 0.37 0.48 0.42 0.36 0.40 0.42 0.39 0.44 0.44 0.44 0.50 0.44 0.50 0.50 0.35 0.43 0.34 0.50 0.45 0.49 0.36 0.52 0.38 0.45 0.37 0.39 0.50 0.52 0.44 0.36 0.52 0.36 0.45 0.52 0.38 0.45 0.37 0.39 0.36 0.43 0.46 0.35 0.33 0.43 0.47 0.39 0.40 0.44 0.52 0.34 0.40 0.44 0.47 0.49 0.45 0.49 0.40 0.51 0.43 0.39 0.46 0.51 0.34 0.49 0.36 0.40 0.36 0.50 0.39 0.52 0.52 0.52 0.47 0.35 0.44 0.52 0.33 0.43 0.37 0.50 0.51 0.49 0.45 0.34 0.37 0.38 0.33 0.42 0.33 0.53 0.51 0.43 0.47 0.36 0.50 0.48 0.47 0.43 0.36 0.45 0.49 0.36 0.35 0.50 0.43 0.42 0.41 0.48 0.46 0.45 0.37 0.48 0.43 0.34 0.51 0.36 0.45 0.50 0.33 0.47 -9999 -9999 -9999 -9999 -9999 -9999 -9999 -9999 -9999 -9999 -9999 -9999 -9999 -9999 -9999 -9999 -9999 -9999 -9999 -9999 -9999 -9999 -9999 -9999 -9999 -9999 -9999
0.51 0.42 0.35 0.40 0.40 0.34 0.40 0.52 0.36 0.47 0.37 0.38 0.33 0.39 0.44 0.36 0.49 0.53 0.42 0.47 0.42 0.50 0.44 0.38 0.40 0.52 0.36 0.35 0.36 0.39 0.43 0.52 0.47 0.48 0.48 0.34 0.38 0.44 0.38 0.33 0.48 0.47 0.38 0.43 0.48 0.43 0.44 0.35 0.40 0.35 0.51 0.43 0.40 0.48 0.43 0.47 0.36 0.33 0.44 0.48 0.46 0.51 0.45 0.37 0.41 0.37 0.50 0.43 0.40 0.44 0.41 0.34 0.37 0.45 0.37 0.48 0.46 0.44 0.40 0.51 0.39 0.44 0.40 0.34 0.36 0.46 0.46 0.44 0.38 0.33 0.37 0.49 0.45 0.35 0.50 0.38 0.44 0.33 0.46 0.47 0.37 0.44 0.44 0.33 0.33 0.47 0.38 0.35 0.39 0.47 0.43 0.42 0.37 0.33 0.43 0.40 0.46 0.52 0.39 0.34 0.35 0.44 0.39 0.33 0.37 0.52 0.39 0.52 0.49 0.33 0.41 0.40 0.49 0.35 0.34 0.33 0.41 0.39 0.46 0.37 0.38 0.52 0.50 0.43 0.51 0.35 0.44 0.34 0.46 0.38 0.33 0.46 0.44 0.41 0.46 0.36 0.47 0.33 0.39 0.40 0.49 0.46 0.42 0.52 0.42 0.51 0.35 0.51 0.41 0.35 0.48 0.35 0.42 0.35 0.48 0.41 0.47 0.44 0.41 0.45 0.51 0.47 0.52 0.47 0.40 0.52 0.35 0.51 -9999 -9999 -9999 -9999 -9999 -9999 -9999 -9999 -9999 -9999 -9999 -9999 -9999 -9999 -9999 -9999 -9999 -9999 -9999 -9999 -9999 -9999 -9999 -9999 -9999 -9999 -9999
0.53 0.50 0.41 0.36 0.44 0.39 0.47 0.48 0.39 0.50 0.50 0.51 0.49 0.38 0.48 0.36 0.37 0.46 0.38 0.41 0.49 0.46 0.49 0.34 0.34 0.48 0.37 0.39 0.47 0.36 0.46 0.37 0.35 0.36 0.46 0.44 0.36 0.39 0.37 0.46 0.47 0.38 0.33 0.38 0.45 0.46 0.51 0.52 0.46 0.34 0.47 0.36 0.49 0.39 0.53 0.40 0.33 0.42 0.52 0.49 0.34 0.47 0.47 0.34 0.43 0.52 0.38 0.39 0.45 0.41 0.49 0.33 0.39 0.47 0.47 0.52 0.34 0.49 0.43 0.36 0.47 0.37 0.48 0.45 0.47 0.36 0.33 0.48 0.42 0.38 0.41 0.45 0.49 0.48 0.34 0.47 0.40 0.37 0.36 0.52 0.50 0.43 0.43 0.41 0.52 0.36 0.40 0.34 0.53 0.45 0.37 0.41 0.51 0.48 0.52 0.45 0.46 0.34 0.45 0.43 0.41 0.43 0.45 0.52 0.50 0.51 0.38 0.40 0.51 0.43 0.51 0.36 0.43 0.48 0.43 0.41 0.49 0.42 0.45 0.34 0.48 0.49 0.46 0.50 0.38 0.45 0.50 0.40 0.43 0.44 0.42 0.37 0.38 0.43 0.49 0.36 0.34 0.34 0.41 0.36 0.47 0.47 0.39 0.49 0.51 0.44 0.51 0.36 0.41 0.48 0.34 0.34 0.45 0.48 0.48 0.47 0.39 0.33 0.46 0.38 0.46 0.41 0.46 0.36 0.49 0.39 0.39 0.49 -9999 -9999 -9999 -9999 -9999 -9999 -9999 -9999 -9999 -9999 -9999 -9999 -9999 -9999 -9999 -9999 -9999 -9999 -9999 -9999 -9999 -9999 -9999 -9999 -9999 -9999 -9999
0.41 0.51 0.41 0.51 0.47 0.49 0.49 0.36 0.49 0.42 0.38 0.52 0.45 0.35 0.33 0.48 0.41 0.41 0.49 0.36 0.40 0.42 0.43 0.49 0.45 0.41 0.52 0.43 0.40 0.37 0.50 0.38 0.44 0.45 0.47 0.44 0.40 0.42 0.33 0.45 0.52 0.35 0.48 0.36 0.35 0.38 0.52 0.39 0.35 0.51 0.43 0.37 0.37 0.41 0.35 0.42 0.51 0.48 0.52 0.41 0.51 0.51 0.41 0.37 0.53 0.42 0.52 0.44 0.43 0.50 0.37 0.49 0.44 0.35 0.49 0.52 0.34 0.42 0.48 0.52 0.36 0.47 0.51 0.52 0.47 0.45 0.37 0.38 0.35 0.41 0.45 0.35 0.35 0.51 0.36 0.44 0.41 0.34 0.44 0.37 0.42 0.47 0.36 0.33 0.49 0.45 0.44 0.36 0.35 0.35 0.49 0.40 0.43 0.40 0.50 0.34 0.34 0.40 0.39 0.48 0.48 0.38 0.34 0.42 0.37 0.34 0.33 0.45 0.45 0.35 0.50 0.49 0.39 0.35 0.43 0.34 0.46 0.36 0.37 0.45 0.37 0.42 0.37 0.44 0.41 0.40 0.49 0.49 0.40 0.51 0.42 0.34 0.35 0.45 0.36 0.45 0.41 0.35 0.41 0.49 0.48 0.46 0.34 0.35 0.50 0.48 0.40 0.47 0.39 0.49 0.50 0.37 0.48 0.49 0.34 0.35 0.36 0.43 0.50 0.38 0.52 0.34 0.34 0.38 0.45 0.37 0.33 0.47 0.46 -9999 -9999 -9999 -9999 -9999 -9999 -9999 -9999 -9999 -9999 -9999 -9999 -9999 -9999 -9999 -9999 -9999 -9999 -9999 -9999 -9999 -9999 -9999 -9999 -9999 -9999
0.41 0.42 0.44 0.41 0.45 0.43 0.51 0.48 0.45 0.49 0.45 0.51 0.37 0.46 0.36 0.46 0.47 0.40 0.45 0.43 0.35 0.49 0.39 0.52 0.47 0.51 0.51 0.47 0.44 0.43 0.49 0.52 0.40 0.46 0.44 0.40 0.33 0.49 0.42 0.35 0.43 0.46 0.49 0.52 0.40 0.48 0.49 0.50 0.52 0.51 0.36 0.49 0.35 0.52 0.36 0.46 0.47 0.36 0.43 0.38 0.47 0.49 0.39 0.36 0.45 0.40 0.44 0.35 0.48 0.35 0.45 0.42 0.51 0.52 0.44 0.39 0.40 0.47 0.45 0.39 0.35 0.45 0.50 0.51 0.37 0.45 0.34 0.42 0.34 0.48 0.51 0.36 0.46 0.53 0.33 0.43 0.34 0.45 0.52 0.33 0.36 0.38 0.38 0.34 0.45 0.42 0.49 0.35 0.45 0.38 0.52 0.45 0.47 0.46 0.36 0.50 0.52 0.40 0.36 0.36 0.51 0.45 0.49 0.49 0.39 0.40 0.38 0.44 0.42 0.36 0.44 0.51 0.52 0.36 0.36 0.38 0.37 0.52 0.48 0.37 0.45 0.40 0.36 0.46 0.35 0.33 0.49 0.36 0.38 0.47 0.40 0.36 0.34 0.50 0.34 0.51 0.43 0.42 0.41 0.45 0.51 0.37 0.43 0.45 0.43 0.48 0.47 0.40 0.35 0.49 0.36 0.42 0.49 0.50 0.42 0.44 0.47 0.41 0.50 0.41 0.34 0.41 0.49 0.35 0.46 0.40 0.38 0.47 0.44 -9999 -9999 -9999 -9999 -9999 -9999 -9999 -9999 -9999 -9999 -9999 -9999 -9999 -9999 -9999 -9999 -9999 -9999 -9999 -9999 -9999 -9999 -9999 -9999 -9999 -9999
0.39 0.44 0.51 0.35 0.47 0.49 0.48 0.42 0.36 0.35 0.34 0.35 0.36 0.41 0.53 0.44 0.42 0.37 0.37 0.51 0.45 0.39 0.50 0.45 0.41 0.51 0.38 0.53 0.42 0.41 0.33 0.33 0.46 0.49 0.42 0.45 0.50 0.52 0.44 0.50 0.40 0.42 0.43 0.37 0.33 0.42 0.41 0.45 0.44 0.33 0.52 0.39 0.38 0.45 0.35 0.39 0.52 0.36 0.47 0.41 0.52 0.43 0.41 0.51 0.41 0.44 0.38 0.50 0.48 0.46 0.49 0.51 0.51 0.34 0.50 0.48 0.46 0.52 0.38 0.39 0.38 0.39 0.40 0.46 0.36 0.35 0.44 0.41 0.43 0.34 0.51 0.44 0.41 0.36 0.33 0.40 0.48 0.39 0.47 0.50 0.42 0.51 0.49 0.51 0.51 0.34 0.33 0.40 0.50 0.45 0.35 0.40 0.42 0.46 0.52 0.49 0.38 0.36 0.48 0.48 0.45 0.47 0.37 0.46 0.52 0.45 0.47 0.50 0.41 0.47 0.43 0.48 0.43 0.39 0.52 0.40 0.48 0.50 0.34 0.52 0.53 0.33 0.47 0.42 0.34 0.51 0.45 0.38 0.52 0.39 0.35 0.34 0.52 0.52 0.37 0.40 0.38 0.39 0.33 0.34 0.50 0.42 0.46 0.41 0.45 0.41 0.39 0.39 0.48 0.53 0.44 0.43 0.46 0.51 0.38 0.52 0.33 0.47 0.38 0.39 0.38 0.50 0.34 0.34 0.49 0.36 0.52 0.34 0.52 -9999 -9999 -9999 -9999 -9999 -9999 -9999 -9999 -9999 -9999 -9999 -9999 -9999 -9999 -9999 -9999 -9999 -9999 -9999 -9999 -9999 -9999 -9999 -9999 -9999 -9999
0.40 0.45 0.49 0.37 0.46 0.47 0.37 0.52 0.46 0.36 0.47 0.33 0.45 0.48 0.52 0.44 0.36 0.42 0.40 0.48 0.51 0.45 0.48 0.46 0.41 0.34 0.37 0.40 0.38 0.52 0.52 0.49 0.42 0.38 0.44 0.45 0.42 0.50 0.50 0.38 0.38 0.44 0.34 0.51 0.42 0.42 0.51 0.39 0.48 0.40 0.46 0.37 0.39 0.42 0.51 0.45 0.48 0.37 0.38 0.36 0.34 0.34 0.48 0.37 0.40 0.34 0.51 0.40 0.48 0.50 0.53 0.49 0.41 0.48 0.41 0.49 0.38 0.41 0.51 0.48 0.40 0.38 0.49 0.37 0.37 0.42 0.52 0.45 0.45 0.33 0.34 0.38 0.43 0.52 0.47 0.44 0.47 0.45 0.38 0.38 0.34 0.52 0.50 0.51 0.47 0.38 0.41 0.38 0.41 0.47 0.47 0.47 0.36 0.33 0.48 0.38 0.52 0.45 0.37 0.47 0.43 0.42 0.46 0.48 0.44 0.49 0.46 0.52 0.39 0.47 0.33 0.44 0.36 0.48 0.38 0.47 0.44 0.35 0.38 0.48 0.36 0.39 0.36 0.50 0.37 0.34 0.37 0.48 0.38 0.44 0.42 0.38 0.36 0.33 0.35 0.52 0.46 0.50 0.33 0.39 0.34 0.45 0.47 0.38 0.38 0.35 0.44 0.47 0.45 0.36 0.46 0.39 0.33 0.50 0.51 0.49 0.42 0.42 0.53 0.51 0.48 0.47 0.48 0.33 0.33 0.44 0.49 0.42 0.36 -9999 -9999 -9999 -9999 -9999 -9999 -9999 -9999 -9999 -9999 -9999 -9999 -9999 -9999 -9999 -9999 -9999 -9999 -9999 -9999 -9999 -9999 -9999 -9999 -9999 -9999
0.37 0.43 0.44 0.39 0.36 0.41 0.50 0.42 0.36 0.35 0.38 0.47 0.45 0.40 0.39 0.38 0.49 0.43 0.49 0.44 0.44 0.36 0.46 0.41 0.38 0.47 0.51 0.34 0.34 0.40 0.47 0.52 0.51 0.42 0.51 0.38 0.42 0.34 0.33 0.39 0.52 0.41 0.42 0.36 0.46 0.38 0.42 0.35 0.46 0.47 0.33 0.51 0.45 0.34 0.36 0.40 0.47 0.47 0.39 0.40 0.49 0.39 0.49 0.46 0.34 0.51 0.49 0.43 0.39 0.39 0.36 0.48 0.33 0.35 0.42 0.34 0.48 0.51 0.49 0.45 0.50 0.41 0.46 0.40 0.38 0.50 0.36 0.35 0.38 0.35 0.44 0.53 0.47 0.42 0.38 0.34 0.51 0.40 0.41 0.52 0.36 0.51 0.44 0.42 0.41 0.44 0.35 0.36 0.37 0.38 0.44 0.42 0.48 0.40 0.33 0.49 0.46 0.34 0.47 0.35 0.35 0.34 0.46 0.53 0.35 0.50 0.36 0.48 0.40 0.51 0.51 0.44 0.37 0.52 0.33 0.52 0.48 0.51 0.35 0.46 0.46 0.50 0.45 0.39 0.35 0.49 0.37 0.44 0.53 0.44 0.35 0.50 0.44 0.35 0.33 0.47 0.41 0.52 0.43 0.34 0.38 0.37 0.48 0.49 0.52 0.48 0.41 0.47 0.37 0.34 0.45 0.47 0.45 0.40 0.46 0.46 0.40 0.33 0.39 0.50 0.43 0.35 0.36 0.34 0.46 0.38 0.35 0.46 0.49 -9999 -9999 -9999 -9999 -9999 -9999 -9999 -9999 -9999 -9999 -9999 -9999 -9999 -9999 -9999 -9999 -9999 -9999 -9999 -9999 -9999 -9999 -9999 -9999 -9999 -9999
0.37 0.40 0.49 0.45 0.48 0.43 0.34 0.51 0.51 0.48 0.34 0.50 0.35 0.51 0.36 0.36 0.47 0.51 0.52 0.39 0.38 0.39 0.46 0.38 0.51 0.44 0.37 0.37 0.43 0.36 0.46 0.44 0.37 0.51 0.42 0.34 0.36 0.50 0.35 0.44 0.45 0.36 0.36 0.33 0.46 0.43 0.36 0.46 0.36 0.51 0.34 0.33 0.38 0.42 0.49 0.52 0.53 0.49 0.35 0.40 0.40 0.35 0.48 0.46 0.42 0.37 0.37 0.42 0.50 0.51 0.35 0.39 0.47 0.33 0.45 0.47 0.33 0.40 0.35 0.48 0.50 0.41 0.47 0.39 0.48 0.36 0.50 0.52 0.37 0.44 0.44 0.40 0.50 0.50 0.34 0.50 0.49 0.47 0.43 0.38 0.36 0.35 0.36 0.33 0.34 0.51 0.41 0.41 0.52 0.49 0.36 0.45 0.37 0.34 0.42 0.47 0.44 0.50 0.33 0.38 0.37 0.43 0.43 0.41 0.50 0.34 0.39 0.51 0.38 0.47 0.40 0.49 0.35 0.48 0.36 0.50 0.36 0.52 0.39 0.47 0.50 0.45 0.48 0.41 0.52 0.51 0.41 0.39 0.34 0.50 0.50 0.38 0.38 0.39 0.41 0.51 0.45 0.38 0.44 0.48 0.52 0.39 0.45 0.46 0.50 0.43 0.49 0.41 0.49 0.37 0.51 0.48 0.40 0.37 0.35 0.33 0.37 0.49 0.46 0.48 0.43 0.40 0.37 0.38 0.37 0.43 0.52 0.42 0.33 -9999 -9999 -9999 -9999 -9999 -9999 -9999 -9999 -9999 -9999 -9999 -9999 -9999 -9999 -9999 -9999 -9999 -9999 -9999 -9999 -9999 -9999 -9999 -9999 -9999 -9999
0.51 0.42 0.50 0.38 0.52 0.44 0.40 0.52 0.34 0.37 0.41 0.51 0.36 0.40 0.52 0.41 0.34 0.36 0.51 0.48 0.40 0.51 0.39 0.45 0.37 0.38 0.34 0.43 0.39 0.48 0.43 0.50 0.39 0.34 0.34 0.43 0.34 0.36 0.44 0.47 0.42 0.52 0.48 0.35 0.35 0.36 0.47 0.50 0.38 0.34 0.36 0.37 0.46 0.44 0.35 0.44 0.37 0.49 0.36 0.47 0.47 0.37 0.35 0.45 0.51 0.34 0.37 0.46 0.42 0.33 0.50 0.40 0.44 0.35 0.37 0.41 0.37 0.46 0.43 0.50 0.41 0.48 0.36 0.44 0.50 0.42 0.47 0.35 0.51 0.41 0.41 0.49 0.35 0.38 0.34 0.52 0.50 0.51 0.42 0.50 0.43 0.49 0.47 0.33 0.39 0.36 0.37 0.47 0.35 0.47 0.51 0.38 0.49 0.38 0.51 0.48 0.36 0.35 0.39 0.41 0.47 0.42 0.41 0.34 0.42 0.45 0.40 0.44 0.42 0.45 0.36 0.49 0.38 0.40 0.43 0.36 0.36 0.39 0.48 0.39 0.35 0.41 0.49 0.48 0.44 0.52 0.48 0.37 0.36 0.43 0.49 0.47 0.38 0.43 0.41 0.33 0.37 0.41 0.43 0.37 0.47 0.49 0.46 0.48 0.52 0.41 0.39 0.50 0.51 0.40 0.45 0.38 0.36 0.52 0.47 0.52 0.42 0.52 0.52 0.34 0.43 0.52 0.50 0.42 0.45 0.39 0.44 0.37 0.40 -9999 -9999 -9999 -9999 -9999 -9999 -9999 -9999 -9999 -9999 -9999 -9999 -9999 -9999 -9999 -9999 -9999 -9999 -9999 -9999 -9999 -9999 -9999 -9999 -9999 -9999
0.49 0.44 0.47 0.34 0.49 0.44 0.45 0.36 0.51 0.47 0.45 0.44 0.49 0.42 0.47 0.42 0.45 0.37 0.35 0.45 0.43 0.40 0.47 0.45 0.40 0.37 0.42 0.38 0.39 0.38 0.42 0.53 0.52 0.46 0.33 0.34 0.38 0.53 0.37 0.50 0.41 0.40 0.50 0.44 0.38 0.37 0.33 0.41 0.39 0.40 0.50 0.46 0.38 0.33 0.38 0.42 0.40 0.42 0.41 0.44 0.35 0.44 0.48 0.51 0.50 0.37 0.44 0.52 0.49 0.49 0.33 0.52 0.34 0.39 0.51 0.50 0.39 0.50 0.49 0.37 0.37 0.48 0.33 0.38 0.43 0.36 0.37 0.50 0.34 0.43 0.52 0.35 0.52 0.41 0.51 0.50 0.51 0.41 0.40 0.41 0.48 0.47 0.40 0.45 0.37 0.38 0.38 0.42 0.38 0.34 0.47 0.48 0.36 0.50 0.36 0.43 0.44 0.46 0.37 0.37 0.51 0.44 0.38 0.39 0.33 0.37 0.49 0.44 0.38 0.33 0.46 0.35 0.33 0.40 0.39 0.47 0.33 0.36 0.51 0.40 0.37 0.45 0.50 0.48 0.44 0.51 0.45 0.42 0.39 0.42 0.40 0.41 0.47 0.37 0.35 0.35 0.40 0.47 0.46 0.36 0.37 0.46 0.49 0.48 0.34 0.45 0.35 0.44 0.44 0.44 0.44 0.34 0.49 0.52 0.37 0.51 0.48 0.44 0.43 0.36 0.52 0.50 0.45 0.35 0.33 0.42 0.35 0.33 0.52 0.51 -9999 -9999 -9999 -9999 -9999 -9999 -9999 -9999 -9999 -9999 -9999 -9999 -9999 -9999 -9999 -9999 -9999 -9999 -9999 -9999 -9999 -9999 -9999 -9999 -9999
0.36 0.39 0.40 0.37 0.40 0.35 0.43 0.35 0.47 0.34 0.44 0.34 0.45 0.39 0.50 0.39 0.45 0.40 0.38 0.43 0.44 0.36 0.37 0.44 0.35 0.46 0.34 0.43 0.39 0.37 0.53 0.37 0.35 0.36 0.40 0.38 0.34 0.39 0.38 0.34 0.37 0.35 0.40 0.36 0.41 0.43 0.42 0.47 0.36 0.44 0.44 0.50 0.51 0.43 0.33 0.44 0.35 0.40 0.53 0.45 0.44 0.47 0.41 0.37 0.38 0.40 0.41 0.47 0.37 0.48 0.47 0.51 0.37 0.39 0.38 0.43 0.50 0.37 0.52 0.52 0.40 0.44 0.49 0.33 0.42 0.42 0.51 0.34 0.42 0.37 0.44 0.45 0.42 0.40 0.46 0.36 0.41 0.34 0.47 0.44 0.50 0.43 0.34 0.37 0.36 0.40 0.45 0.43 0.34 0.43 0.37 0.37 0.50 0.49 0.34 0.43 0.43 0.44 0.48 0.36 0.42 0.51 0.47 0.51 0.51 0.45 0.44 0.50 0.35 0.47 0.41 0.45 0.35 0.43 0.43 0.39 0.46 0.46 0.43 0.45 0.43 0.47 0.45 0.45 0.50 0.51 0.46 0.35 0.48 0.34 0.40 0.53 0.38 0.37 0.38 0.48 0.50 0.38 0.33 0.33 0.37 0.50 0.41 0.52 0.52 0.33 0.37 0.48 0.43 0.39 0.41 0.35 0.38 0.42 0.46 0.42 0.52 0.43 0.49 0.50 0.42 0.35 0.33 0.44 0.45 0.52 0.48 0.37 0.46 0.45 -9999 -9999 -9999 -9999 -9999 -9999 -9999 -9999 -9999 -9999 -9999 -9999 -9999 -9999 -9999 -9999 -9999 -9999 -9999 -9999 -9999 -9999 -9999 -9999 -9999
0.39 0.50 0.47 0.50 0.51 0.36 0.40 0.43 0.39 0.33 0.49 0.40 0.42 0.39 0.46 0.50 0.43 0.44 0.47 0.52 0.34 0.38 0.35 0.42 0.40 0.52 0.36 0.47 0.48 0.34 0.36 0.43 0.46 0.50 0.49 0.33 0.40 0.35 0.48 0.45 0.49 0.50 0.37 0.39 0.43 0.46 0.43 0.52 0.39 0.38 0.34 0.45 0.48 0.47 0.46 0.49 0.50 0.52 0.46 0.45 0.38 0.39 0.42 0.46 0.45 0.48 0.42 0.34 0.39 0.51 0.34 0.41 0.35 0.41 0.42 0.38 0.39 0.44 0.37 0.43 0.38 0.39 0.36 0.37 0.52 0.35 0.49 0.42 0.52 0.41 0.46 0.44 0.39 0.36 0.40 0.46 0.35 0.45 0.36 0.40 0.51 0.41 0.33 0.37 0.51 0.39 0.46 0.44 0.48 0.40 0.35 0.44 0.43 0.48 0.40 0.38 0.44 0.36 0.50 0.43 0.50 0.47 0.52 0.49 0.49 0.36 0.40 0.48 0.36 0.39 0.48 0.40 0.41 0.38 0.48 0.34 0.47 0.42 0.37 0.45 0.50 0.52 0.50 0.33 0.52 0.40 0.48 0.36 0.52 0.44 0.44 0.46 0.43 0.38 0.45 0.49 0.39 0.48 0.34 0.40 0.48 0.34 0.40 0.44 0.33 0.48 0.52 0.38 0.49 0.33 0.46 0.35 0.36 0.49 0.51 0.50 0.44 0.41 0.38 0.41 0.50 0.41 0.35 0.36 0.34 0.37 0.37 0.50 0.44 0.40 -9999 -9999 -9999 -9999 -9999 -9999 -9999 -9999 -9999 -9999 -9999 -9999 -9999 -9999 -9999 -9999 -9999 -9999 -9999 -9999 -9999 -9999 -9999 -9999 -9999
0.34 0.47 0.34 0.39 0.33 0.42 0.37 0.37 0.51 0.42 0.45 0.36 0.33 0.48 0.52 0.38 0.49 0.41 0.36 0.44 0.34 0.38 0.41 0.45 0.41 0.47 0.48 0.33 0.45 0.41 0.41 0.47 0.49 0.50 0.41 0.47 0.38 0.49 0.35 0.37 0.50 0.47 0.40 0.35 0.36 0.45 0.35 0.43 0.41 0.42 0.37 0.33 0.35 0.40 0.46 0.46 0.35 0.39 0.48 0.42 0.38 0.37 0.35 0.41 0.43 0.38 0.53 0.34 0.50 0.34 0.40 0.37 0.33 0.48 0.36 0.43 0.37 0.52 0.37 0.43 0.40 0.52 0.47 0.40 0.33 0.35 0.42 0.40 0.47 0.45 0.51 0.41 0.49 0.36 0.46 0.34 0.34 0.44 0.41 0.39 0.49 0.41 0.41 0.48 0.49 0.52 0.36 0.36 0.35 0.50 0.35 0.41 0.34 0.37 0.33 0.45 0.45 0.48 0.51 0.52 0.43 0.35 0.45 0.39 0.37 0.46 0.51 0.52 0.37 0.39 0.50 0.45 0.46 0.52 0.43 0.40 0.41 0.50 0.51 0.43 0.48 0.40 0.35 0.37 0.44 0.42 0.33 0.33 0.38 0.43 0.47 0.49 0.47 0.39 0.47 0.36 0.52 0.36 0.37 0.41 0.51 0.39 0.50 0.51 0.36 0.52 0.49 0.40 0.48 0.46 0.47 0.43 0.37 0.53 0.38 0.49 0.50 0.42 0.36 0.33 0.33 0.49 0.51 0.38 0.47 0.50 0.38 0.41 0.35 0.43 -9999 -9999 -9999 -9999 -9999 -9999 -9999 -9999 -9999 -9999 -9999 -9999 -9999 -9999 -9999 -9999 -9999 -9999 -9999 -9999 -9999 -9999 -9999 -9999 -9999
0.35 0.42 0.51 0.49 0.52 0.34 0.46 0.34 0.38 0.42 0.46 0.35 0.35 0.37 0.50 0.38 0.53 0.40 0.41 0.33 0.36 0.36 0.33 0.49 0.35 0.49 0.41 0.41 0.39 0.39 0.35 0.41 0.36 0.48 0.36 0.53 0.39 0.38 0.44 0.42 0.43 0.36 0.44 0.50 0.34 0.47 0.34 0.44 0.43 0.40 0.43 0.41 0.35 0.51 0.33 0.46 0.34 0.34 0.42 0.47 0.38 0.51 0.38 0.34 0.48 0.37 0.52 0.36 0.47 0.45 0.35 0.43 0.42 0.51 0.45 0.48 0.47 0.34 0.40 0.41 0.36 0.52 0.43 0.43 0.36 0.35 0.46 0.38 0.52 0.45 0.52 0.48 0.51 0.37 0.50 0.41 0.52 0.36 0.43 0.48 0.40 0.39 0.45 0.39 0.37 0.51 0.45 0.51 0.42 0.52 0.51 0.42 0.42 0.45 0.38 0.39 0.40 0.45 0.49 0.42 0.41 0.53 0.53 0.47 0.44 0.38 0.41 0.37 0.47 0.34 0.40 0.35 0.48 0.47 0.47 0.38 0.40 0.40 0.48 0.43 0.49 0.51 0.35 0.50 0.40 0.48 0.40 0.52 0.34 0.42 0.39 0.37 0.50 0.33 0.39 0.34 0.45 0.45 0.45 0.43 0.40 0.41 0.51 0.50 0.33 0.44 0.40 0.42 0.37 0.34 0.53 0.34 0.40 0.43 0.35 0.34 0.50 0.33 0.38 0.48 0.33 0.53 0.35 0.52 0.48 0.41 0.36 0.39 0.35 0.39 -9999 -9999 -9999 -9999 -9999 -9999 -9999 -9999 -9999 -9999 -9999 -9999 -9999 -9999 -9999 -9999 -9999 -9999 -9999 -9999 -9999 -9999 -9999 -9999 -9999
0.33 0.45 0.33 0.45 0.33 0.47 0.52 0.36 0.43 0.36 0.36 0.51 0.51 0.41 0.49 0.35 0.36 0.45 0.40 0.42 0.38 0.38 0.35 0.39 0.34 0.33 0.38 0.44 0.48 0.46 0.51 0.47 0.51 0.47 0.39 0.34 0.33 0.43 0.34 0.49 0.43 0.49 0.35 0.52 0.35 0.37 0.40 0.44 0.52 0.49 0.47 0.51 0.48 0.34 0.39 0.42 0.42 0.41 0.46 0.47 0.43 0.34 0.36 0.52 0.36 0.42 0.36 0.47 0.49 0.38 0.35 0.41 0.33 0.51 0.46 0.51 0.37 0.48 0.52 0.47 0.36 0.44 0.51 0.51 0.39 0.44 0.38 0.52 0.45 0.50 0.50 0.43 0.35 0.51 0.40 0.52 0.37 0.33 0.37 0.46 0.41 0.38 0.47 0.47 0.35 0.51 0.38 0.46 0.51 0.52 0.47 0.51 0.35 0.39 0.39 0.52 0.48 0.35 0.47 0.35 0.39 0.37 0.44 0.51 0.48 0.33 0.51 0.38 0.52 0.40 0.48 0.37 0.43 0.33 0.50 0.37 0.35 0.38 0.33 0.41 0.52 0.43 0.44 0.43 0.40 0.49 0.34 0.45 0.52 0.48 0.40 0.39 0.36 0.36 0.49 0.41 0.46 0.47 0.39 0.37 0.43 0.41 0.35 0.51 0.39 0.41 0.39 0.51 0.46 0.34 0.46 0.35 0.46 0.39 0.50 0.43 0.46 0.48 0.35 0.52 0.36 0.46 0.47 0.42 0.49 0.49 0.35 0.49 0.46 0.37 -9999 -9999 -9999 -9999 -9999 -9999 -9999 -9999 -9999 -9999 -9999 -9999 -9999 -9999 -9999 -9999 -9999 -9999 -9999 -9999 -9999 -9999 -9999 -9999 -9999
0.36 0.44 0.51 0.40 0.34 0.47 0.52 0.47 0.35 0.40 0.34 0.44 0.45 0.40 0.39 0.39 0.47 0.48 0.37 0.37 0.50 0.43 0.40 0.42 0.35 0.34 0.43 0.41 0.50 0.46 0.36 0.36 0.47 0.38 0.52 0.45 0.47 0.51 0.38 0.50 0.51 0.47 0.40 0.44 0.48 0.33 0.46 0.44 0.34 0.43 0.49 0.39 0.50 0.34 0.41 0.46 0.41 0.44 0.38 0.51 0.37 0.42 0.34 0.47 0.37 0.41 0.33 0.50 0.38 0.50 0.43 0.40 0.35 0.37 0.39 0.34 0.44 0.34 0.48 0.44 0.37 0.34 0.38 0.39 0.51 0.44 0.43 0.53 0.51 0.38 0.38 0.48 0.39 0.37 0.47 0.44 0.41 0.51 0.47 0.47 0.34 0.37 0.51 0.50 0.44 0.38 0.49 0.41 0.37 0.46 0.43 0.43 0.49 0.50 0.41 0.37 0.48 0.38 0.53 0.47 0.35 0.40 0.50 0.50 0.47 0.51 0.51 0.48 0.33 0.34 0.49 0.42 0.51 0.42 0.44 0.53 0.49 0.46 0.51 0.44 0.49 0.50 0.48 0.36 0.47 0.52 0.50 0.37 0.41 0.34 0.36 0.48 0.43 0.41 0.45 0.47 0.40 0.46 0.46 0.41 0.33 0.39 0.37 0.43 0.34 0.47 0.50 0.46 0.50 0.52 0.38 0.42 0.46 0.49 0.43 0.51 0.38 0.51 0.41 0.47 0.49 0.37 0.45 0.34 0.50 0.49 0.48 0.50 0.52 0.35 0.47 -9999 -9999 -9999 -9999 -9999 -9999 -9999 -9999 -9999 -9999 -9999 -9999 -9999 -9999 -9999 -9999 -9999 -9999 -9999 -9999 -9999 -9999 -9999 -9999
0.34 0.46 0.40 0.35 0.53 0.44 0.33 0.52 0.41 0.42 0.41 0.47 0.47 0.41 0.44 0.37 0.39 0.38 0.44 0.49 0.44 0.43 0.39 0.37 0.43 0.39 0.52 0.50 0.51 0.36 0.38 0.42 0.33 0.44 0.34 0.50 0.49 0.47 0.52 0.42 0.47 0.34 0.41 0.44 0.40 0.35 0.41 0.40 0.34 0.43 0.52 0.41 0.38 0.52 0.39 0.41 0.33 0.34 0.38 0.39 0.35 0.49 0.38 0.51 0.44 0.39 0.41 0.41 0.41 0.46 0.37 0.46 0.49 0.35 0.35 0.52 0.50 0.52 0.33 0.36 0.47 0.35 0.33 0.48 0.41 0.46 0.41 0.43 0.45 0.33 0.52 0.50 0.39 0.50 0.48 0.44 0.48 0.39 0.40 0.43 0.41 0.40 0.45 0.42 0.42 0.35 0.49 0.50 0.34 0.45 0.50 0.36 0.34 0.41 0.52 0.50 0.51 0.38 0.43 0.50 0.35 0.36 0.46 0.38 0.39 0.38 0.34 0.44 0.44 0.40 0.34 0.38 0.51 0.50 0.47 0.41 0.44 0.49 0.41 0.51 0.45 0.52 0.53 0.41 0.41 0.33 0.33 0.47 0.52 0.52 0.47 0.34 0.48 0.41 0.41 0.52 0.44 0.50 0.46 0.37 0.41 0.38 0.40 0.52 0.44 0.49 0.34 0.46 0.36 0.46 0.42 0.34 0.38 0.42 0.36 0.51 0.38 0.47 0.35 0.40 0.48 0.41 0.37 0.34 0.38 0.52 0.44 0.39 0.47 0.48 0.48 -9999 -9999 -9999 -9999 -9999 -9999 -9999 -9999 -9999 -9999 -9999 -9999 -9999 -9999 -9999 -9999 -9999 -9999 -9999 -9999 -9999 -9999 -9999 -9999
0.46 0.43 0.46 0.48 0.33 0.42 0.41 0.46 0.48 0.40 0.35 0.36 0.45 0.51 0.38 0.34 0.49 0.46 0.51 0.36 0.46 0.36 0.41 0.37 0.42 0.49 0.51 0.46 0.35 0.39 0.48 0.47 0.51 0.40 0.38 0.35 0.53 0.34 0.47 0.49 0.49 0.48 0.52 0.46 0.45 0.36 0.39 0.37 0.49 0.37 0.44 0.51 0.34 0.35 0.35 0.33 0.49 0.47 0.40 0.46 0.50 0.41 0.46 0.45 0.49 0.42 0.35 0.43 0.37 0.46 0.46 0.40 0.43 0.42 0.50 0.40 0.44 0.52 0.35 0.52 0.52 0.42 0.43 0.40 0.34 0.43 0.35 0.44 0.37 0.47 0.39 0.50 0.47 0.47 0.49 0.52 0.50 0.53 0.39 0.45 0.49 0.33 0.35 0.50 0.47 0.43 0.48 0.39 0.45 0.35 0.35 0.50 0.38 0.36 0.37 0.37 0.49 0.39 0.45 0.51 0.47 0.46 0.50 0.51 0.52 0.37 0.36 0.52 0.39 0.44 0.34 0.43 0.47 0.47 0.33 0.39 0.44 0.51 0.47 0.46 0.46 0.37 0.38 0.44 0.37 0.48 0.34 0.49 0.36 0.42 0.38 0.50 0.36 0.43 0.44 0.35 0.43 0.51 0.37 0.38 0.48 0.47 0.45 0.34 0.43 0.41 0.52 0.36 0.35 0.47 0.34 0.34 0.38 0.38 0.39 0.45 0.49 0.48 0.44 0.48 0.43 0.48 0.51 0.52 0.37 0.33 0.51 0.41 0.46 0.35 0.42 -9999 -9999 -9999 -9999 -9999 -9999 -9999 -9999 -9999 -9999 -9999 -9999 -9999 -9999 -9999 -9999 -9999 -9999 -9999 -9999 -9999 -9999 -9999 -9999
0.37 0.41 0.42 0.50 0.35 0.37 0.42 0.40 0.46 0.35 0.43 0.44 0.36 0.43 0.48 0.40 0.35 0.42 0.51 0.48 0.43 0.45 0.41 0.39 0.46 0.43 0.34 0.49 0.49 0.34 0.36 0.47 0.33 0.49 0.36 0.48 0.44 0.41 0.43 0.45 0.34 0.47 0.51 0.38 0.43 0.51 0.44 0.41 0.46 0.47 0.37 0.43 0.33 0.52 0.45 0.35 0.43 0.47 0.43 0.50 0.36 0.36 0.46 0.45 0.38 0.51 0.51 0.35 0.36 0.40 0.50 0.34 0.33 0.39 0.49 0.40 0.34 0.33 0.36 0.34 0.46 0.48 0.34 0.37 0.33 0.39 0.39 0.47 0.39 0.43 0.52 0.48 0.51 0.33 0.38 0.33 0.35 0.33 0.52 0.52 0.33 0.36 0.39 0.38 0.37 0.37 0.45 0.42 0.49 0.47 0.50 0.42 0.41 0.44 0.52 0.38 0.39 0.39 0.40 0.46 0.47 0.51 0.46 0.33 0.51 0.36 0.48 0.37 0.34 0.46 0.50 0.37 0.47 0.50 0.37 0.33 0.44 0.53 0.40 0.35 0.42 0.38 0.43 0.39 0.39 0.44 0.52 0.37 0.51 0.53 0.38 0.37 0.49 0.45 0.40 0.39 0.44 0.50 0.42 0.37 0.37 0.40 0.51 0.43 0.37 0.53 0.42 0.47 0.46 0.36 0.36 0.53 0.41 0.36 0.48 0.53 0.35 0.48 0.35 0.34 0.45 0.50 0.48 0.39 0.45 0.40 0.49 0.34 0.38 0.47 0.33 -9999 -9999 -9999 -9999 -9999 -9999 -9999 -9999 -9999 -9999 -9999 -9999 -9999 -9999 -9999 -9999 -9999 -9999 -9999 -9999 -9999 -9999 -9999 -9999
0.35 0.43 0.50 0.33 0.35 0.50 0.34 0.33 0.39 0.50 0.34 0.36 0.42 0.39 0.42 0.35 0.51 0.44 0.33 0.45 0.46 0.49 0.44 0.48 0.38 0.35 0.39 0.42 0.49 0.33 0.39 0.50 0.45 0.37 0.36 0.38 0.42 0.46 0.41 0.46 0.50 0.36 0.44 0.36 0.48 0.43 0.34 0.41 0.36 0.33 0.45 0.49 0.35 0.35 0.48 0.34 0.48 0.40 0.38 0.37 0.41 0.35 0.41 0.48 0.52 0.35 0.37 0.50 0.42 0.49 0.48 0.43 0.44 0.34 0.38 0.50 0.48 0.42 0.37 0.37 0.37 0.52 0.40 0.51 0.52 0.47 0.48 0.49 0.38 0.50 0.39 0.45 0.39 0.34 0.49 0.36 0.49 0.48 0.43 0.47 0.38 0.52 0.36 0.50 0.46 0.33 0.35 0.35 0.50 0.49 0.43 0.45 0.47 0.52 0.46 0.35 0.40 0.40 0.40 0.35 0.49 0.49 0.43 0.37 0.40 0.36 0.39 0.47 0.38 0.51 0.49 0.51 0.48 0.35 0.40 0.40 0.41 0.49 0.34 0.52 0.33 0.50 0.44 0.44 0.39 0.51 0.50 0.36 0.42 0.37 0.40 0.41 0.45 0.33 0.42 0.36 0.35 0.35 0.34 0.41 0.48 0.36 0.34 0.37 0.37 0.51 0.50 0.37 0.42 0.42 0.47 0.50 0.46 0.37 0.52 0.34 0.36 0.34 0.50 0.47 0.51 0.53 0.47 0.43 0.47 0.41 0.44 0.46 0.48 0.37 0.38 -9999 -9999 -9999 -9999 -9999 -9999 -9999 -9999 -9999 -9999 -9999 -9999 -9999 -9999 -9999 -9999 -9999 -9999 -9999 -9999 -9999 -9999 -9999 -9999
0.37 0.46 0.39 0.45 0.44 0.40 0.35 0.47 0.43 0.42 0.37 0.41 0.43 0.52 0.47 0.51 0.47 0.50 0.48 0.42 0.35 0.46 0.51 0.47 0.50 0.39 0.42 0.42 0.37 0.33 0.38 0.46 0.40 0.40 0.42 0.37 0.45 0.44 0.36 0.45 0.44 0.52 0.37 0.48 0.34 0.42 0.37 0.33 0.50 0.50 0.40 0.47 0.45 0.36 0.44 0.51 0.43 0.41 0.38 0.33 0.37 0.42 0.52 0.39 0.50 0.36 0.48 0.34 0.50 0.37 0.52 0.44 0.46 0.40 0.40 0.35 0.50 0.39 0.47 0.44 0.52 0.37 0.46 0.43 0.39 0.44 0.47 0.52 0.33 0.45 0.36 0.39 0.47 0.45 0.38 0.40 0.38 0.52 0.50 0.41 0.36 0.37 0.37 0.52 0.44 0.45 0.52 0.47 0.47 0.42 0.37 0.37 0.38 0.36 0.53 0.35 0.40 0.47 0.35 0.34 0.38 0.33 0.36 0.33 0.40 0.49 0.45 0.37 0.44 0.47 0.52 0.39 0.36 0.45 0.45 0.43 0.34 0.47 0.40 0.33 0.33 0.42 0.51 0.43 0.35 0.42 0.39 0.45 0.42 0.43 0.48 0.49 0.45 0.38 0.49 0.50 0.43 0.34 0.36 0.43 0.37 0.46 0.43 0.38 0.52 0.46 0.35 0.37 0.35 0.41 0.38 0.52 0.43 0.47 0.35 0.45 0.43 0.40 0.49 0.52 0.33 0.49 0.37 0.50 0.40 0.42 0.51 0.33 0.36 0.44 0.52 -9999 -9999 -9999 -9999 -9999 -9999 -9999 -9999 -9999 -9999 -9999 -9999 -9999 -9999 -9999 -9999 -9999 -9999 -9999 -9999 -9999 -9999 -9999 -9999
0.47 0.49 0.52 0.48 0.47 0.49 0.52 0.42 0.46 0.44 0.33 0.52 0.49 0.52 0.44 0.45 0.43 0.39 0.46 0.38 0.41 0.50 0.47 0.33 0.33 0.36 0.39 0.35 0.49 0.45 0.47 0.49 0.43 0.38 0.37 0.43 0.41 0.35 0.43 0.40 0.35 0.46 0.35 0.43 0.37 0.35 0.50 0.34 0.45 0.48 0.33 0.41 0.37 0.47 0.36 0.44 0.51 0.47 0.51 0.52 0.53 0.47 0.36 0.41 0.49 0.34 0.52 0.33 0.39 0.47 0.40 0.40 0.34 0.38 0.36 0.46 0.39 0.35 0.45 0.47 0.44 0.35 0.52 0.47 0.52 0.52 0.52 0.42 0.44 0.41 0.36 0.52 0.36 0.50 0.40 0.51 0.47 0.48 0.47 0.51 0.35 0.47 0.48 0.41 0.41 0.37 0.41 0.34 0.44 0.39 0.49 0.48 0.44 0.50 0.46 0.49 0.50 0.49 0.35 0.49 0.51 0.34 0.42 0.33 0.34 0.37 0.33 0.47 0.52 0.45 0.42 0.37 0.51 0.52 0.48 0.45 0.49 0.38 0.44 0.48 0.43 0.34 0.47 0.40 0.42 0.42 0.33 0.36 0.52 0.50 0.52 0.40 0.49 0.49 0.46 0.37 0.36 0.47 0.36 0.49 0.43 0.35 0.50 0.35 0.50 0.51 0.46 0.45 0.38 0.45 0.41 0.37 0.47 0.36 0.51 0.44 0.49 0.43 0.34 0.49 0.48 0.40 0.51 0.51 0.34 0.52 0.51 0.51 0.42 0.34 0.37 -9999 -9999 -9999 -9999 -9999 -9999 -9999 -9999 -9999 -9999 -9999 -9999 -9999 -9999 -9999 -9999 -9999 -9999 -9999 -9999 -9999 -9999 -9999 -9999
0.36 0.50 0.43 0.35 0.45 0.35 0.52 0.40 0.46 0.34 0.37 0.45 0.47 0.48 0.41 0.44 0.51 0.38 0.39 0.44 0.33 0.37 0.40 0.48 0.44 0.36 0.33 0.35 0.40 0.52 0.42 0.52 0.50 0.52 0.33 0.49 0.35 0.36 0.36 0.44 0.33 0.37 0.37 0.33 0.39 0.48 0.50 0.44 0.40 0.48 0.53 0.50 0.46 0.42 0.51 0.52 0.40 0.45 0.35 0.40 0.40 0.40 0.48 0.39 0.50 0.49 0.41 0.35 0.52 0.45 0.35 0.47 0.33 0.48 0.47 0.39 0.51 0.46 0.46 0.44 0.42 0.37 0.34 0.40 0.37 0.40 0.34 0.35 0.33 0.41 0.38 0.46 0.51 0.43 0.42 0.41 0.39 0.33 0.46 0.52 0.46 0.45 0.50 0.38 0.44 0.51 0.33 0.42 0.37 0.50 0.52 0.40 0.51 0.50 0.43 0.40 0.46 0.37 0.40 0.42 0.51 0.51 0.38 0.41 0.47 0.52 0.35 0.49 0.42 0.36 0.43 0.33 0.42 0.36 0.44 0.47 0.42 0.36 0.33 0.49 0.41 0.38 0.36 0.43 0.48 0.41 0.52 0.51 0.35 0.42 0.37 0.43 0.47 0.48 0.34 0.48 0.39 0.36 0.43 0.42 0.43 0.49 0.33 0.39 0.34 0.50 0.33 0.50 0.48 0.49 0.42 0.48 0.52 0.50 0.41 0.43 0.37 0.35 0.37 0.36 0.48 0.49 0.41 0.42 0.46 0.44 0.52 0.48 0.49 0.37 0.37 0.40 -9999 -9999 -9999 -9999 -9999 -9999 -9999 -9999 -9999 -9999 -9999 -9999 -9999 -9999 -9999 -9999 -9999 -9999 -9999 -9999 -9999 -9999 -9999
0.45 0.43 0.45 0.36 0.49 0.47 0.46 0.35 0.51 0.40 0.45 0.35 0.42 0.53 0.46 0.45 0.51 0.50 0.48 0.40 0.42 0.46 0.39 0.37 0.44 0.36 0.35 0.49 0.46 0.50 0.40 0.35 0.36 0.36 0.43 0.43 0.50 0.46 0.40 0.36 0.35 0.35 0.46 0.38 0.37 0.53 0.36 0.43 0.48 0.42 0.45 0.50 0.34 0.45 0.52 0.52 0.48 0.39 0.35 0.35 0.39 0.38 0.47 0.34 0.33 0.52 0.52 0.45 0.44 0.33 0.40 0.51 0.37 0.48 0.41 0.42 0.47 0.38 0.39 0.48 0.52 0.41 0.34 0.34 0.40 0.42 0.39 0.41 0.44 0.35 0.34 0.37 0.37 0.39 0.47 0.43 0.39 0.52 0.44 0.34 0.34 0.41 0.44 0.38 0.52 0.51 0.33 0.33 0.36 0.44 0.50 0.49 0.47 0.49 0.44 0.50 0.36 0.37 0.44 0.42 0.40 0.51 0.49 0.46 0.33 0.52 0.38 0.47 0.38 0.43 0.50 0.45 0.48 0.33 0.40 0.45 0.36 0.45 0.46 0.50 0.38 0.45 0.42 0.42 0.34 0.41 0.46 0.35 0.37 0.52 0.38 0.41 0.38 0.33 0.53 0.38 0.35 0.51 0.42 0.40 0.52 0.44 0.44 0.39 0.40 0.42 0.46 0.43 0.50 0.51 0.44 0.42 0.46 0.38 0.44 0.41 0.37 0.36 0.42 0.47 0.34 0.39 0.38 0.42 0.49 0.35 0.48 0.50 0.40 0.38 0.46 0.39 -9999 -9999 -9999 -9999 -9999 -9999 -9999 -9999 -9999 -9999 -9999 -9999 -9999 -9999 -9999 -9999 -9999 -9999 -9999 -9999 -9999 -9999 -9999
0.33 0.47 0.33 0.37 0.51 0.45 0.50 0.48 0.33 0.46 0.50 0.38 0.40 0.47 0.50 0.47 0.51 0.52 0.33 0.35 0.49 0.38 0.45 0.33 0.51 0.45 0.33 0.33 0.44 0.52 0.41 0.40 0.49 0.38 0.35 0.41 0.47 0.45 0.52 0.36 0.42 0.44 0.36 0.48 0.51 0.43 0.39 0.51 0.36 0.44 0.44 0.34 0.48 0.40 0.42 0.33 0.44 0.42 0.45 0.42 0.42 0.39 0.37 0.42 0.44 0.35 0.33 0.46 0.33 0.40 0.50 0.41 0.42 0.39 0.51 0.52 0.38 0.51 0.39 0.43 0.46 0.50 0.38 0.49 0.45 0.49 0.47 0.45 0.44 0.44 0.44 0.38 0.38 0.49 0.49 0.50 0.37 0.40 0.50 0.47 0.41 0.43 0.47 0.50 0.52 0.50 0.37 0.41 0.42 0.37 0.45 0.44 0.37 0.35 0.51 0.41 0.38 0.41 0.52 0.40 0.41 0.48 0.48 0.51 0.44 0.49 0.40 0.46 0.50 0.38 0.44 0.43 0.44 0.46 0.51 0.38 0.46 0.35 0.49 0.52 0.36 0.53 0.43 0.51 0.48 0.49 0.50 0.33 0.33 0.41 0.45 0.45 0.47 0.46 0.33 0.48 0.35 0.34 0.46 0.44 0.34 0.48 0.53 0.50 0.45 0.33 0.51 0.33 0.40 0.37 0.46 0.46 0.51 0.37 0.49 0.35 0.43 0.42 0.35 0.49 0.39 0.44 0.42 0.41 0.47 0.47 0.42 0.41 0.34 0.46 0.41 0.42 -9999 -9999 -9999 -9999 -9999 -9999 -9999 -9999 -9999 -9999 -9999 -9999 -9999 -9999 -9999 -9999 -9999 -9999 -9999 -9999 -9999 -9999 -9999
0.41 0.39 0.37 0.46 0.46 0.33 0.34 0.49 0.38 0.50 0.52 0.33 0.45 0.34 0.39 0.46 0.41 0.36 0.46 0.34 0.48 0.52 0.37 0.49 0.50 0.52 0.36 0.41 0.44 0.39 0.34 0.48 0.44 0.51 0.39 0.41 0.40 0.39 0.43 0.36 0.38 0.43 0.47 0.46 0.47 0.47 0.46 0.47 0.52 0.49 0.36 0.46 0.47 0.45 0.34 0.50 0.49 0.34 0.48 0.34 0.51 0.49 0.45 0.42 0.34 0.45 0.41 0.38 0.46 0.33 0.45 0.40 0.52 0.40 0.39 0.40 0.39 0.50 0.50 0.33 0.36 0.52 0.35 0.48 0.35 0.46 0.51 0.51 0.35 0.39 0.51 0.40 0.42 0.48 0.40 0.46 0.35 0.48 0.36 0.52 0.51 0.46 0.40 0.45 0.38 0.36 0.52 0.50 0.42 0.47 0.50 0.51 0.43 0.49 0.41 0.43 0.34 0.40 0.34 0.33 0.33 0.48 0.39 0.34 0.45 0.41 0.47 0.42 0.44 0.50 0.34 0.36 0.39 0.47 0.50 0.44 0.53 0.50 0.39 0.48 0.45 0.50 0.36 0.39 0.45 0.50 0.46 0.37 0.51 0.34 0.45 0.34 0.49 0.36 0.46 0.40 0.38 0.51 0.37 0.34 0.37 0.44 0.42 0.39 0.52 0.45 0.51 0.42 0.51 0.35 0.51 0.42 0.43 0.44 0.42 0.37 0.50 0.33 0.45 0.44 0.35 0.34 0.35 0.34 0.38 0.43 0.47 0.38 0.47 0.44 0.44 0.46 -9999 -9999 -9999 -9999 -9999 -9999 -9999 -9999 -9999 -9999 -9999 -9999 -9999 -9999 -9999 -9999 -9999 -9999 -9999 -9999 -9999 -9999 -9999
0.49 0.42 0.41 0.47 0.34 0.38 0.45 0.41 0.39 0.41 0.51 0.44 0.49 0.39 0.43 0.45 0.52 0.43 0.51 0.39 0.45 0.41 0.42 0.40 0.51 0.40 0.46 0.35 0.35 0.52 0.42 0.41 0.47 0.41 0.39 0.44 0.37 0.36 0.48 0.41 0.47 0.46 0.37 0.39 0.50 0.43 0.40 0.35 0.36 0.45 0.35 0.42 0.49 0.34 0.44 0.48 0.33 0.40 0.34 0.43 0.38 0.41 0.50 0.34 0.51 0.36 0.37 0.51 0.43 0.35 0.39 0.43 0.52 0.38 0.39 0.49 0.42 0.47 0.38 0.35 0.52 0.42 0.46 0.50 0.43 0.37 0.39 0.46 0.44 0.52 0.36 0.47 0.49 0.34 0.39 0.52 0.34 0.33 0.50 0.44 0.49 0.45 0.36 0.38 0.39 0.40 0.46 0.41 0.34 0.51 0.44 0.50 0.40 0.49 0.43 0.45 0.38 0.41 0.33 0.43 0.42 0.35 0.39 0.39 0.35 0.49 0.41 0.52 0.50 0.46 0.46 0.50 0.51 0.49 0.39 0.36 0.49 0.39 0.33 0.40 0.45 0.33 0.49 0.40 0.51 0.51 0.38 0.37 0.37 0.44 0.47 0.37 0.43 0.39 0.49 0.36 0.40 0.51 0.49 0.38 0.47 0.38 0.34 0.39 0.40 0.33 0.41 0.50 0.43 0.50 0.38 0.41 0.42 0.35 0.48 0.45 0.45 0.36 0.47 0.41 0.53 0.49 0.41 0.34 0.40 0.36 0.39 0.46 0.38 0.42 0.35 0.44 -9999 -9999 -9999 -9999 -9999 -9999 -9999 -9999 -9999 -9999 -9999 -9999 -9999 -9999 -9999 -9999 -9999 -9999 -9999 -9999 -9999 -9999 -9999
0.46 0.49 0.43 0.46 0.34 0.44 0.36 0.46 0.49 0.41 0.43 0.33 0.46 0.47 0.50 0.34 0.44 0.36 0.45 0.38 0.38 0.42 0.42 0.49 0.34 0.46 0.48 0.34 0.35 0.45 0.35 0.43 0.46 0.37 0.48 0.52 0.52 0.37 0.47 0.44 0.48 0.35 0.48 0.49 0.39 0.50 0.38 0.52 0.33 0.37 0.43 0.48 0.41 0.33 0.44 0.40 0.53 0.48 0.35 0.46 0.49 0.36 0.46 0.37 0.35 0.34 0.39 0.37 0.52 0.48 0.42 0.50 0.38 0.49 0.51 0.41 0.50 0.40 0.50 0.51 0.41 0.44 0.38 0.36 0.37 0.47 0.40 0.37 0.47 0.35 0.39 0.48 0.47 0.45 0.39 0.35 0.34 0.47 0.42 0.46 0.53 0.49 0.35 0.35 0.48 0.37 0.34 0.52 0.45 0.52 0.50 0.48 0.36 0.44 0.46 0.40 0.48 0.40 0.45 0.52 0.44 0.42 0.48 0.48 0.52 0.39 0.43 0.33 0.36 0.36 0.43 0.53 0.44 0.45 0.49 0.47 0.36 0.45 0.50 0.39 0.41 0.50 0.37 0.39 0.50 0.47 0.43 0.52 0.36 0.46 0.33 0.47 0.38 0.48 0.35 0.34 0.48 0.47 0.48 0.40 0.50 0.48 0.44 0.34 0.44 0.36 0.37 0.33 0.49 0.45 0.45 0.39 0.46 0.34 0.39 0.52 0.39 0.45 0.48 0.38 0.48 0.47 0.44 0.35 0.36 0.47 0.48 0.42 0.40 0.38 0.42 0.33 -9999 -9999 -9999 -9999 -9999 -9999 -9999 -9999 -9999 -9999 -9999 -9999 -9999 -9999 -9999 -9999 -9999 -9999 -9999 -9999 -9999 -9999 -9999
0.44 0.46 0.49 0.42 0.52 0.44 0.44 0.37 0.49 0.51 0.40 0.43 0.35 0.48 0.39 0.34 0.49 0.36 0.45 0.34 0.49 0.40 0.43 0.36 0.37 0.49 0.46 0.41 0.41 0.43 0.47 0.40 0.33 0.36 0.36 0.33 0.48 0.50 0.45 0.51 0.33 0.43 0.47 0.44 0.38 0.48 0.39 0.40 0.40 0.40 0.36 0.38 0.35 0.34 0.52 0.42 0.47 0.50 0.51 0.40 0.53 0.34 0.39 0.49 0.35 0.48 0.33 0.40 0.38 0.50 0.40 0.42 0.43 0.38 0.52 0.45 0.45 0.37 0.42 0.49 0.51 0.35 0.41 0.44 0.45 0.48 0.50 0.46 0.41 0.37 0.37 0.42 0.37 0.43 0.39 0.38 0.51 0.47 0.41 0.53 0.48 0.41 0.40 0.48 0.34 0.33 0.44 0.52 0.44 0.34 0.40 0.50 0.40 0.41 0.45 0.46 0.46 0.52 0.47 0.39 0.39 0.35 0.46 0.37 0.35 0.47 0.38 0.42 0.42 0.48 0.38 0.42 0.43 0.43 0.49 0.36 0.47 0.44 0.35 0.36 0.37 0.34 0.42 0.42 0.44 0.42 0.42 0.34 0.39 0.52 0.47 0.42 0.39 0.51 0.51 0.52 0.51 0.38 0.34 0.38 0.47 0.50 0.38 0.36 0.44 0.53 0.39 0.39 0.38 0.45 0.47 0.34 0.37 0.37 0.34 0.36 0.35 0.50 0.40 0.35 0.47 0.43 0.33 0.39 0.35 0.44 0.44 0.40 0.39 0.47 0.42 0.49 0.51 -9999 -9999 -9999 -9999 -9999 -9999 -9999 -9999 -9999 -9999 -9999 -9999 -9999 -9999 -9999 -9999 -9999 -9999 -9999 -9999 -9999 -9999
0.35 0.39 0.46 0.50 0.46 0.38 0.41 0.46 0.34 0.49 0.34 0.42 0.42 0.37 0.35 0.50 0.35 0.38 0.33 0.46 0.37 0.52 0.52 0.37 0.50 0.39 0.37 0.37 0.42 0.35 0.34 0.48 0.39 0.46 0.47 0.44 0.37 0.51 0.42 0.34 0.50 0.35 0.33 0.38 0.34 0.41 0.33 0.46 0.43 0.38 0.51 0.49 0.37 0.46 0.35 0.43 0.51 0.45 0.39 0.50 0.50 0.49 0.39 0.34 0.35 0.34 0.51 0.45 0.47 0.48 0.40 0.47 0.42 0.37 0.44 0.38 0.39 0.38 0.43 0.51 0.48 0.51 0.45 0.39 0.50 0.39 0.49 0.53 0.42 0.39 0.42 0.42 0.37 0.40 0.44 0.48 0.40 0.34 0.37 0.50 0.50 0.52 0.36 0.50 0.38 0.41 0.51 0.43 0.41 0.42 0.42 0.37 0.38 0.46 0.38 0.38 0.49 0.52 0.43 0.50 0.48 0.46 0.50 0.52 0.49 0.36 0.38 0.43 0.46 0.43 0.49 0.43 0.33 0.34 0.45 0.47 0.51 0.38 0.38 0.51 0.52 0.35 0.49 0.33 0.40 0.35 0.41 0.34 0.52 0.45 0.41 0.45 0.35 0.36 0.45 0.43 0.36 0.45 0.41 0.44 0.38 0.48 0.35 0.34 0.36 0.48 0.41 0.34 0.46 0.40 0.53 0.35 0.34 0.38 0.33 0.47 0.45 0.34 0.47 0.47 0.47 0.43 0.35 0.36 0.35 0.40 0.40 0.34 0.46 0.49 0.38 0.34 0.43 -9999 -9999 -9999 -9999 -9999 -9999 -9999 -9999 -9999 -9999 -9999 -9999 -9999 -9999 -9999 -9999 -9999 -9999 -9999 -9999 -9999 -9999
0.52 0.41 0.41 0.34 0.50 0.51 0.40 0.33 0.45 0.46 0.46 0.39 0.34 0.34 0.40 0.45 0.42 0.37 0.44 0.52 0.43 0.42 0.49 0.34 0.41 0.49 0.46 0.38 0.38 0.38 0.45 0.53 0.43 0.40 0.38 0.36 0.37 0.39 0.36 0.34 0.35 0.36 0.52 0.48 0.51 0.39 0.48 0.43 0.41 0.37 0.45 0.49 0.45 0.52 0.48 0.43 0.38 0.40 0.46 0.38 0.48 0.39 0.34 0.44 0.36 0.53 0.44 0.43 0.39 0.45 0.46 0.35 0.38 0.41 0.49 0.45 0.52 0.43 0.50 0.44 0.44 0.42 0.45 0.36 0.52 0.50 0.48 0.38 0.34 0.36 0.51 0.47 0.49 0.33 0.35 0.41 0.42 0.53 0.35 0.46 0.42 0.46 0.51 0.52 0.33 0.42 0.40 0.48 0.52 0.33 0.41 0.38 0.50 0.41 0.36 0.33 0.52 0.48 0.43 0.41 0.51 0.45 0.50 0.50 0.44 0.37 0.43 0.46 0.43 0.46 0.47 0.34 0.42 0.46 0.38 0.41 0.35 0.48 0.39 0.35 0.35 0.45 0.33 0.39 0.48 0.37 0.48 0.39 0.34 0.47 0.38 0.33 0.36 0.37 0.39 0.47 0.45 0.49 0.33 0.47 0.41 0.39 0.46 0.42 0.41 0.34 0.37 0.35 0.53 0.35 0.43 0.45 0.33 0.39 0.49 0.37 0.39 0.38 0.41 0.42 0.51 0.40 0.47 0.38 0.37 0.38 0.52 0.35 0.35 0.38 0.41 0.47 0.51 -9999 -9999 -9999 -9999 -9999 -9999 -9999 -9999 -9999 -9999 -9999 -9999 -9999 -9999 -9999 -9999 -9999 -9999 -9999 -9999 -9999 -9999
0.37 0.36 0.40 0.49 0.41 0.37 0.37 0.50 0.50 0.50 0.39 0.38 0.47 0.40 0.35 0.42 0.40 0.38 0.33 0.48 0.52 0.52 0.52 0.34 0.34 0.50 0.39 0.51 0.46 0.44 0.44 0.36 0.52 0.37 0.39 0.48 0.46 0.49 0.52 0.35 0.45 0.46 0.52 0.44 0.45 0.51 0.40 0.42 0.34 0.45 0.46 0.51 0.52 0.44 0.51 0.37 0.41 0.51 0.39 0.46 0.36 0.41 0.40 0.47 0.44 0.38 0.51 0.33 0.39 0.45 0.39 0.34 0.46 0.33 0.38 0.40 0.42 0.46 0.45 0.48 0.48 0.44 0.51 0.51 0.46 0.52 0.39 0.51 0.49 0.35 0.42 0.49 0.42 0.48 0.49 0.42 0.39 0.34 0.47 0.38 0.41 0.52 0.38 0.39 0.42 0.37 0.44 0.49 0.35 0.46 0.50 0.51 0.47 0.53 0.44 0.40 0.34 0.36 0.51 0.52 0.37 0.44 0.46 0.42 0.47 0.48 0.43 0.38 0.44 0.47 0.39 0.39 0.47 0.41 0.41 0.33 0.40 0.51 0.50 0.42 0.41 0.37 0.40 0.33 0.33 0.51 0.37 0.52 0.35 0.51 0.53 0.45 0.34 0.44 0.50 0.35 0.51 0.38 0.50 0.47 0.45 0.37 0.38 0.45 0.51 0.33 0.47 0.52 0.33 0.45 0.40 0.51 0.48 0.47 0.34 0.36 0.42 0.45 0.53 0.51 0.38 0.51 0.45 0.39 0.50 0.37 0.42 0.37 0.50 0.38 0.38 0.35 0.46 -9999 -9999 -9999 -9999 -9999 -9999 -9999 -9999 -9999 -9999 -9999 -9999 -9999 -9999 -9999 -9999 -9999 -9999 -9999 -9999 -9999 -9999
0.51 0.42 0.38 0.36 0.41 0.39 0.35 0.41 0.39 0.49 0.52 0.38 0.52 0.36 0.42 0.37 0.35 0.47 0.43 0.42 0.39 0.42 0.45 0.46 0.46 0.43 0.39 0.47 0.52 0.37 0.42 0.38 0.34 0.51 0.41 0.43 0.41 0.37 0.52 0.42 0.50 0.33 0.47 0.51 0.46 0.37 0.51 0.42 0.48 0.49 0.52 0.51 0.50 0.42 0.50 0.37 0.35 0.42 0.37 0.46 0.47 0.39 0.50 0.40 0.33 0.49 0.49 0.52 0.49 0.48 0.51 0.51 0.35 0.47 0.35 0.42 0.34 0.52 0.51 0.36 0.42 0.48 0.38 0.44 0.35 0.34 0.36 0.33 0.50 0.48 0.45 0.36 0.51 0.34 0.40 0.34 0.37 0.51 0.51 0.41 0.34 0.42 0.45 0.38 0.45 0.34 0.52 0.37 0.50 0.37 0.35 0.52 0.34 0.36 0.38 0.46 0.47 0.48 0.49 0.46 0.37 0.37 0.39 0.40 0.49 0.47 0.43 0.42 0.34 0.42 0.33 0.47 0.48 0.41 0.39 0.37 0.41 0.43 0.45 0.53 0.46 0.45 0.52 0.39 0.44 0.47 0.46 0.42 0.52 0.45 0.38 0.49 0.42 0.50 0.44 0.40 0.35 0.33 0.40 0.52 0.52 0.51 0.49 0.40 0.51 0.40 0.50 0.47 0.51 0.52 0.37 0.44 0.49 0.42 0.33 0.45 0.51 0.34 0.47 0.51 0.39 0.44 0.47 0.51 0.52 0.45 0.52 0.36 0.38 0.50 0.37 0.49 0.37 -9999 -9999 -9999 -9999 -9999 -9999 -9999 -9999 -9999 -9999 -9999 -9999 -9999 -9999 -9999 -9999 -9999 -9999 -9999 -9999 -9999 -9999
0.38 0.35 0.34 0.49 0.50 0.35 0.49 0.37 0.52 0.45 0.38 0.36 0.51 0.43 0.35 0.34 0.40 0.37 0.50 0.50 0.39 0.33 0.33 0.41 0.46 0.39 0.34 0.44 0.41 0.34 0.49 0.37 0.45 0.52 0.35 0.34 0.47 0.37 0.35 0.51 0.49 0.42 0.48 0.44 0.48 0.50 0.47 0.39 0.47 0.47 0.35 0.42 0.43 0.37 0.50 0.52 0.43 0.45 0.37 0.38 0.38 0.39 0.39 0.51 0.36 0.39 0.39 0.46 0.33 0.33 0.43 0.42 0.41 0.48 0.49 0.44 0.45 0.48 0.41 0.36 0.41 0.51 0.48 0.36 0.47 0.43 0.37 0.53 0.46 0.33 0.49 0.35 0.41 0.39 0.48 0.40 0.33 0.48 0.43 0.46 0.45 0.34 0.51 0.44 0.40 0.51 0.45 0.42 0.39 0.49 0.35 0.35 0.44 0.44 0.38 0.45 0.37 0.45 0.37 0.35 0.34 0.51 0.46 0.49 0.38 0.38 0.51 0.42 0.33 0.43 0.51 0.39 0.47 0.43 0.36 0.36 0.48 0.34 0.51 0.49 0.34 0.39 0.45 0.35 0.48 0.35 0.43 0.45 0.47 0.37 0.42 0.51 0.50 0.50 0.43 0.49 0.35 0.47 0.41 0.47 0.48 0.46 0.52 0.42 0.35 0.37 0.36 0.47 0.38 0.38 0.42 0.51 0.41 0.51 0.36 0.36 0.44 0.39 0.43 0.35 0.46 0.39 0.33 0.34 0.51 0.34 0.43 0.52 0.35 0.49 0.44 0.41 0.36 -9999 -9999 -9999 -9999 -9999 -9999 -9999 -9999 -9999 -9999 -9999 -9999 -9999 -9999 -9999 -9999 -9999 -9999 -9999 -9999 -9999 -9999
0.39 0.49 0.51 0.33 0.40 0.48 0.44 0.41 0.47 0.41 0.46 0.45 0.48 0.40 0.47 0.40 0.35 0.41 0.39 0.51 0.45 0.40 0.52 0.37 0.45 0.49 0.33 0.52 0.36 0.45 0.40 0.44 0.48 0.40 0.51 0.44 0.36 0.42 0.40 0.50 0.46 0.33 0.43 0.46 0.35 0.46 0.34 0.42 0.37 0.51 0.36 0.43 0.37 0.35 0.51 0.40 0.52 0.34 0.49 0.52 0.39 0.48 0.50 0.52 0.48 0.49 0.52 0.46 0.48 0.50 0.39 0.51 0.52 0.35 0.34 0.45 0.45 0.35 0.42 0.40 0.50 0.44 0.41 0.34 0.48 0.48 0.37 0.39 0.39 0.48 0.49 0.36 0.41 0.50 0.40 0.37 0.37 0.51 0.50 0.40 0.51 0.47 0.36 0.52 0.43 0.44 0.52 0.34 0.42 0.38 0.38 0.47 0.35 0.42 0.36 0.40 0.48 0.41 0.39 0.35 0.39 0.38 0.52 0.34 0.48 0.43 0.41 0.42 0.38 0.34 0.49 0.35 0.41 0.45 0.48 0.48 0.38 0.33 0.41 0.34 0.42 0.42 0.53 0.51 0.48 0.39 0.36 0.39 0.46 0.46 0.33 0.33 0.33 0.45 0.41 0.39 0.45 0.41 0.48 0.41 0.37 0.33 0.43 0.41 0.35 0.37 0.46 0.35 0.51 0.50 0.36 0.43 0.40 0.51 0.50 0.34 0.45 0.52 0.33 0.41 0.50 0.51 0.33 0.52 0.45 0.50 0.33 0.48 0.51 0.44 0.45 0.36 0.41 0.52 -9999 -9999 -9999 -9999 -9999 -9999 -9999 -9999 -9999 -9999 -9999 -9999 -9999 -9999 -9999 -9999 -9999 -9999 -9999 -9999 -9999
0.47 0.33 0.51 0.37 0.39 0.38 0.37 0.44 0.42 0.43 0.37 0.48 0.33 0.53 0.53 0.42 0.39 0.38 0.33 0.45 0.49 0.43 0.51 0.52 0.41 0.39 0.44 0.36 0.46 0.40 0.40 0.45 0.43 0.33 0.42 0.36 0.51 0.41 0.37 0.44 0.37 0.37 0.53 0.36 0.37 0.46 0.50 0.39 0.36 0.35 0.34 0.41 0.45 0.41 0.37 0.52 0.51 0.51 0.52 0.37 0.36 0.47 0.39 0.48 0.37 0.46 0.52 0.36 0.48 0.53 0.35 0.39 0.44 0.41 0.42 0.44 0.45 0.45 0.37 0.33 0.48 0.47 0.44 0.41 0.40 0.53 0.41 0.34 0.38 0.50 0.51 0.43 0.43 0.48 0.43 0.52 0.47 0.46 0.47 0.38 0.36 0.40 0.51 0.48 0.35 0.34 0.38 0.51 0.35 0.42 0.37 0.50 0.45 0.42 0.37 0.38 0.34 0.35 0.33 0.46 0.45 0.42 0.34 0.42 0.50 0.44 0.43 0.44 0.36 0.49 0.49 0.37 0.51 0.35 0.37 0.40 0.45 0.47 0.35 0.42 0.42 0.46 0.42 0.42 0.35 0.35 0.44 0.34 0.35 0.51 0.42 0.45 0.51 0.40 0.41 0.34 0.44 0.33 0.35 0.40 0.33 0.38 0.34 0.35 0.46 0.48 0.46 0.48 0.39 0.36 0.40 0.50 0.43 0.37 0.42 0.52 0.37 0.34 0.46 0.49 0.51 0.51 0.43 0.33 0.46 0.51 0.52 0.35 0.40 0.42 0.52 0.45 0.35 0.34 -9999 -9999 -9999 -9999 -9999 -9999 -9999 -9999 -9999 -9999 -9999 -9999 -9999 -9999 -9999 -9999 -9999 -9999 -9999 -9999 -9999
0.45 0.37 0.51 0.52 0.47 0.51 0.52 0.39 0.39 0.52 0.43 0.41 0.38 0.38 0.42 0.33 0.34 0.51 0.37 0.37 0.33 0.47 0.42 0.51 0.43 0.37 0.45 0.46 0.38 0.50 0.35 0.37 0.53 0.50 0.43 0.41 0.42 0.42 0.43 0.38 0.41 0.42 0.34 0.46 0.41 0.38 0.34 0.47 0.40 0.35 0.51 0.42 0.38 0.34 0.52 0.38 0.39 0.38 0.36 0.47 0.37 0.37 0.52 0.33 0.33 0.48 0.37 0.37 0.48 0.40 0.51 0.36 0.50 0.35 0.43 0.36 0.40 0.47 0.51 0.42 0.51 0.34 0.44 0.42 0.40 0.37 0.33 0.49 0.44 0.39 0.46 0.43 0.51 0.47 0.36 0.36 0.52 0.50 0.47 0.37 0.41 0.44 0.44 0.50 0.40 0.47 0.33 0.33 0.33 0.44 0.40 0.37 0.44 0.38 0.35 0.35 0.45 0.43 0.52 0.35 0.35 0.34 0.33 0.34 0.34 0.35 0.36 0.44 0.51 0.53 0.42 0.42 0.38 0.38 0.45 0.36 0.35 0.44 0.33 0.38 0.48 0.39 0.46 0.36 0.47 0.38 0.33 0.45 0.34 0.42 0.49 0.38 0.44 0.40 0.47 0.40 0.33 0.45 0.40 0.39 0.50 0.49 0.36 0.39 0.39 0.48 0.38 0.36 0.48 0.43 0.34 0.38 0.51 0.34 0.51 0.51 0.37 0.46 0.42 0.39 0.38 0.42 0.46 0.47 0.35 0.40 0.45 0.44 0.52 0.36 0.43 0.33 0.38 0.45 -9999 -9999 -9999 -9999 -9999 -9999 -9999 -9999 -9999 -9999 -9999 -9999 -9999 -9999 -9999 -9999 -9999 -9999 -9999 -9999 -9999
0.33 0.36 0.44 0.46 0.34 0.41 0.40 0.37 0.48 0.39 0.43 0.45 0.52 0.46 0.48 0.38 0.46 0.44 0.50 0.38 0.40 0.48 0.40 0.34 0.40 0.41 0.37 0.47 0.37 0.33 0.43 0.43 0.34 0.51 0.46 0.37 0.53 0.47 0.43 0.36 0.46 0.50 0.44 0.50 0.47 0.47 0.47 0.50 0.48 0.36 0.53 0.43 0.47 0.44 0.37 0.40 0.41 0.43 0.37 0.47 0.49 0.34 0.41 0.49 0.51 0.33 0.40 0.52 0.37 0.43 0.50 0.47 0.36 0.45 0.45 0.48 0.33 0.48 0.36 0.39 0.41 0.51 0.33 0.48 0.44 0.46 0.44 0.42 0.43 0.39 0.52 0.43 0.42 0.47 0.42 0.45 0.38 0.37 0.40 0.37 0.47 0.43 0.43 0.42 0.48 0.37 0.39 0.40 0.37 0.51 0.50 0.38 0.51 0.49 0.35 0.47 0.35 0.37 0.42 0.41 0.44 0.33 0.51 0.38 0.51 0.40 0.43 0.39 0.45 0.38 0.50 0.41 0.42 0.35 0.44 0.40 0.39 0.52 0.47 0.45 0.50 0.35 0.35 0.46 0.33 0.42 0.47 0.48 0.43 0.36 0.34 0.42 0.44 0.42 0.35 0.51 0.44 0.45 0.42 0.50 0.53 0.34 0.45 0.52 0.44 0.37 0.43 0.37 0.49 0.51 0.33 0.50 0.48 0.42 0.48 0.43 0.47 0.52 0.34 0.46 0.41 0.41 0.43 0.41 0.43 0.46 0.52 0.33 0.49 0.49 0.46 0.47 0.47 0.33 -9999 -9999 -9999 -9999 -9999 -9999 -9999 -9999 -9999 -9999 -9999 -9999 -9999 -9999 -9999 -9999 -9999 -9999 -9999 -9999 -9999
0.34 0.42 0.52 0.52 0.35 0.39 0.52 0.51 0.38 0.50 0.41 0.37 0.41 0.44 0.39 0.34 0.34 0.41 0.43 0.42 0.35 0.50 0.34 0.48 0.51 0.35 0.34 0.40 0.52 0.33 0.35 0.34 0.38 0.47 0.47 0.46 0.42 0.42 0.52 0.37 0.43 0.49 0.44 0.49 0.45 0.45 0.42 0.46 0.45 0.35 0.45 0.49 0.33 0.35 0.44 0.35 0.52 0.38 0.35 0.48 0.49 0.34 0.45 0.52 0.46 0.44 0.38 0.40 0.35 0.34 0.33 0.43 0.37 0.38 0.33 0.47 0.33 0.44 0.51 0.37 0.50 0.43 0.49 0.40 0.41 0.35 0.37 0.48 0.46 0.48 0.48 0.40 0.33 0.37 0.42 0.52 0.46 0.34 0.49 0.37 0.45 0.41 0.46 0.36 0.53 0.53 0.43 0.43 0.40 0.33 0.43 0.37 0.43 0.44 0.42 0.45 0.34 0.46 0.44 0.48 0.39 0.43 0.33 0.39 0.49 0.37 0.52 0.51 0.51 0.39 0.48 0.38 0.43 0.49 0.33 0.51 0.39 0.47 0.49 0.42 0.45 0.47 0.43 0.38 0.52 0.45 0.48 0.40 0.36 0.43 0.40 0.35 0.49 0.45 0.33 0.34 0.46 0.38 0.38 0.51 0.44 0.36 0.45 0.33 0.49 0.49 0.39 0.35 0.36 0.39 0.45 0.40 0.36 0.49 0.42 0.52 0.40 0.34 0.51 0.34 0.40 0.37 0.41 0.39 0.35 0.42 0.41 0.36 0.36 0.40 0.44 0.46 0.33 0.33 -9999 -9999 -9999 -9999 -9999 -9999 -9999 -9999 -9999 -9999 -9999 -9999 -9999 -9999 -9999 -9999 -9999 -9999 -9999 -9999 -9999
0.40 0.45 0.46 0.47 0.36 0.42 0.42 0.35 0.34 0.46 0.42 0.33 0.37 0.48 0.44 0.48 0.43 0.53 0.40 0.37 0.40 0.36 0.39 0.38 0.47 0.41 0.42 0.36 0.41 0.44 0.39 0.51 0.48 0.48 0.40 0.39 0.33 0.46 0.48 0.49 0.51 0.41 0.44 0.48 0.40 0.45 0.38 0.51 0.38 0.39 0.50 0.48 0.35 0.43 0.39 0.37 0.46 0.50 0.45 0.38 0.46 0.34 0.41 0.52 0.51 0.48 0.44 0.42 0.38 0.44 0.34 0.51 0.42 0.49 0.33 0.36 0.52 0.47 0.35 0.46 0.46 0.34 0.42 0.37 0.43 0.45 0.48 0.37 0.33 0.37 0.41 0.46 0.43 0.38 0.44 0.35 0.52 0.40 0.48 0.47 0.41 0.38 0.47 0.47 0.49 0.50 0.51 0.53 0.50 0.49 0.38 0.51 0.33 0.48 0.45 0.41 0.47 0.37 0.38 0.44 0.52 0.45 0.47 0.35 0.52 0.34 0.38 0.37 0.44 0.42 0.51 0.50 0.43 0.51 0.49 0.45 0.43 0.37 0.42 0.48 0.49 0.42 0.47 0.50 0.50 0.48 0.42 0.47 0.36 0.44 0.34 0.40 0.51 0.51 0.52 0.33 0.41 0.41 0.39 0.51 0.38 0.50 0.34 0.52 0.46 0.48 0.47 0.36 0.45 0.42 0.38 0.44 0.34 0.40 0.51 0.37 0.47 0.35 0.38 0.51 0.50 0.47 0.33 0.41 0.43 0.39 0.36 0.33 0.48 0.35 0.41 0.44 0.43 0.48 -9999 -9999 -9999 -9999 -9999 -9999 -9999 -9999 -9999 -9999 -9999 -9999 -9999 -9999 -9999 -9999 -9999 -9999 -9999 -9999 -9999
0.34 0.46 0.40 0.50 0.35 0.49 0.49 0.44 0.39 0.51 0.44 0.41 0.33 0.42 0.47 0.49 0.52 0.44 0.41 0.48 0.36 0.46 0.36 0.42 0.50 0.42 0.37 0.44 0.46 0.44 0.37 0.34 0.40 0.47 0.38 0.48 0.39 0.35 0.40 0.46 0.49 0.48 0.36 0.45 0.46 0.36 0.36 0.39 0.40 0.48 0.43 0.35 0.42 0.42 0.48 0.42 0.35 0.48 0.35 0.39 0.38 0.37 0.51 0.40 0.44 0.34 0.40 0.43 0.42 0.52 0.37 0.48 0.36 0.46 0.47 0.38 0.44 0.49 0.44 0.48 0.44 0.49 0.44 0.37 0.52 0.33 0.43 0.51 0.43 0.42 0.38 0.40 0.49 0.52 0.33 0.46 0.50 0.39 0.51 0.45 0.39 0.33 0.52 0.53 0.51 0.52 0.45 0.44 0.38 0.46 0.37 0.33 0.45 0.34 0.36 0.39 0.33 0.34 0.49 0.39 0.34 0.33 0.41 0.52 0.51 0.52 0.35 0.47 0.35 0.52 0.43 0.35 0.41 0.53 0.34 0.44 0.36 0.47 0.39 0.50 0.52 0.46 0.47 0.41 0.45 0.49 0.34 0.41 0.40 0.36 0.38 0.49 0.46 0.47 0.44 0.37 0.44 0.45 0.49 0.42 0.37 0.46 0.45 0.35 0.46 0.38 0.36 0.45 0.48 0.48 0.50 0.52 0.51 0.46 0.44 0.41 0.48 0.37 0.43 0.52 0.48 0.50 0.43 0.33 0.46 0.39 0.35 0.44 0.33 0.50 0.49 0.49 0.34 0.47 -9999 -9999 -9999 -9999 -9999 -9999 -9999 -9999 -9999 -9999 -9999 -9999 -9999 -9999 -9999 -9999 -9999 -9999 -9999 -9999 -9999
0.50 0.44 0.48 0.38 0.52 0.37 0.42 0.42 0.39 0.33 0.34 0.50 0.41 0.36 0.48 0.45 0.36 0.39 0.42 0.47 0.41 0.43 0.47 0.53 0.42 0.41 0.44 0.46 0.35 0.36 0.42 0.33 0.38 0.49 0.36 0.38 0.38 0.40 0.43 0.40 0.47 0.40 0.49 0.40 0.39 0.36 0.50 0.35 0.43 0.45 0.50 0.40 0.44 0.42 0.34 0.49 0.48 0.48 0.36 0.33 0.36 0.47 0.39 0.42 0.50 0.35 0.48 0.33 0.38 0.50 0.41 0.51 0.39 0.50 0.33 0.49 0.40 0.36 0.35 0.46 0.38 0.45 0.43 0.33 0.43 0.49 0.47 0.51 0.46 0.40 0.42 0.38 0.52 0.39 0.45 0.47 0.52 0.48 0.48 0.52 0.42 0.34 0.35 0.40 0.53 0.36 0.40 0.44 0.34 0.50 0.48 0.49 0.37 0.52 0.42 0.47 0.38 0.36 0.36 0.47 0.34 0.40 0.52 0.40 0.33 0.42 0.33 0.47 0.50 0.50 0.34 0.44 0.51 0.46 0.51 0.51 0.50 0.42 0.33 0.44 0.45 0.49 0.37 0.49 0.45 0.38 0.35 0.45 0.47 0.42 0.39 0.45 0.44 0.44 0.43 0.43 0.46 0.50 0.48 0.33 0.34 0.40 0.35 0.52 0.33 0.37 0.43 0.49 0.49 0.34 0.42 0.52 0.34 0.39 0.44 0.37 0.36 0.35 0.40 0.45 0.45 0.39 0.38 0.48 0.34 0.47 0.52 0.38 0.38 0.40 0.43 0.45 0.40 0.48 0.53 -9999 -9999 -9999 -9999 -9999 -9999 -9999 -9999 -9999 -9999 -9999 -9999 -9999 -9999 -9999 -9999 -9999 -9999 -9999 -9999
0.46 0.45 0.50 0.35 0.37 0.33 0.42 0.47 0.49 0.38 0.52 0.50 0.44 0.41 0.37 0.36 0.53 0.35 0.43 0.40 0.47 0.36 0.39 0.40 0.43 0.49 0.46 0.53 0.43 0.45 0.53 0.40 0.48 0.50 0.36 0.45 0.45 0.39 0.39 0.46 0.51 0.45 0.47 0.45 0.35 0.40 0.35 0.44 0.43 0.40 0.52 0.48 0.49 0.50 0.38 0.40 0.33 0.33 0.42 0.46 0.47 0.36 0.37 0.36 0.40 0.34 0.47 0.37 0.35 0.46 0.39 0.35 0.49 0.49 0.46 0.36 0.33 0.42 0.53 0.43 0.46 0.50 0.37 0.34 0.51 0.49 0.46 0.38 0.48 0.36 0.46 0.49 0.45 0.52 0.50 0.50 0.48 0.37 0.49 0.53 0.45 0.52 0.46 0.53 0.43 0.49 0.39 0.42 0.34 0.48 0.46 0.37 0.50 0.34 0.48 0.50 0.53 0.48 0.41 0.49 0.42 0.50 0.47 0.38 0.46 0.36 0.37 0.52 0.44 0.35 0.51 0.36 0.36 0.39 0.39 0.41 0.49 0.45 0.46 0.36 0.50 0.47 0.36 0.44 0.36 0.50 0.43 0.42 0.37 0.38 0.35 0.35 0.36 0.39 0.51 0.33 0.35 0.34 0.34 0.46 0.33 0.45 0.48 0.35 0.41 0.51 0.48 0.39 0.46 0.51 0.49 0.42 0.47 0.45 0.42 0.46 0.34 0.38 0.35 0.36 0.47 0.43 0.43 0.41 0.43 0.44 0.46 0.47 0.34 0.50 0.36 0.35 0.46 0.35 0.52 -9999 -9999 -9999 -9999 -9999 -9999 -9999 -9999 -9999 -9999 -9999 -9999 -9999 -9999 -9999 -9999 -9999 -9999 -9999 -9999
0.38 0.51 0.41 0.42 0.49 0.38 0.34 0.43 0.50 0.44 0.36 0.46 0.47 0.43 0.52 0.42 0.36 0.47 0.35 0.46 0.39 0.33 0.44 0.36 0.43 0.47 0.33 0.40 0.38 0.39 0.42 0.47 0.36 0.34 0.35 0.40 0.49 0.45 0.43 0.49 0.40 0.34 0.39 0.44 0.34 0.35 0.46 0.46 0.34 0.43 0.43 0.45 0.44 0.52 0.48 0.33 0.47 0.47 0.50 0.51 0.51 0.42 0.37 0.49 0.52 0.41 0.48 0.39 0.43 0.39 0.48 0.39 0.50 0.45 0.37 0.35 0.50 0.41 0.43 0.38 0.50 0.47 0.41 0.34 0.48 0.36 0.42 0.42 0.40 0.47 0.44 0.36 0.37 0.35 0.52 0.42 0.44 0.50 0.36 0.34 0.35 0.45 0.37 0.42 0.48 0.50 0.41 0.34 0.50 0.37 0.50 0.40 0.44 0.46 0.41 0.35 0.37 0.47 0.35 0.36 0.37 0.37 0.46 0.46 0.52 0.40 0.37 0.40 0.34 0.47 0.45 0.49 0.47 0.34 0.38 0.40 0.46 0.40 0.37 0.50 0.33 0.48 0.50 0.43 0.43 0.38 0.46 0.49 0.40 0.40 0.35 0.34 0.42 0.38 0.42 0.49 0.40 0.40 0.45 0.49 0.40 0.47 0.44 0.49 0.38 0.35 0.51 0.49 0.38 0.51 0.37 0.40 0.36 0.40 0.47 0.35 0.49 0.39 0.37 0.42 0.48 0.49 0.46 0.52 0.47 0.36 0.43 0.36 0.40 0.40 0.33 0.39 0.35 0.48 0.33 -9999 -9999 -9999 -9999 -9999 -9999 -9999 -9999 -9999 -9999 -9999 -9999 -9999 -9999 -9999 -9999 -9999 -9999 -9999 -9999
0.51 0.41 0.50 0.50 0.51 0.52 0.41 0.45 0.50 0.45 0.34 0.47 0.50 0.45 0.44 0.36 0.50 0.51 0.49 0.36 0.36 0.51 0.34 0.48 0.33 0.36 0.38 0.41 0.49 0.46 0.44 0.41 0.36 0.40 0.35 0.50 0.42 0.46 0.42 0.51 0.41 0.41 0.46 0.42 0.44 0.51 0.39 0.43 0.40 0.52 0.37 0.33 0.42 0.47 0.50 0.36 0.40 0.50 0.47 0.41 0.45 0.39 0.46 0.47 0.47 0.51 0.48 0.47 0.45 0.33 0.42 0.52 0.49 0.38 0.49 0.49 0.44 0.37 0.45 0.44 0.36 0.52 0.41 0.51 0.34 0.35 0.44 0.38 0.38 0.40 0.44 0.33 0.43 0.45 0.46 0.33 0.33 0.37 0.46 0.38 0.52 0.40 0.37 0.44 0.52 0.48 0.33 0.36 0.50 0.39 0.48 0.44 0.47 0.36 0.34 0.39 0.39 0.39 0.42 0.40 0.37 0.44 0.43 0.39 0.41 0.45 0.43 0.49 0.44 0.36 0.39 0.37 0.36 0.34 0.37 0.51 0.39 0.51 0.33 0.45 0.51 0.38 0.49 0.45 0.43 0.43 0.45 0.41 0.35 0.42 0.41 0.39 0.41 0.48 0.42 0.49 0.37 0.49 0.50 0.40 0.44 0.42 0.36 0.51 0.45 0.42 0.33 0.51 0.48 0.35 0.47 0.44 0.48 0.39 0.47 0.35 0.36 0.39 0.33 0.36 0.52 0.33 0.37 0.44 0.50 0.52 0.48 0.47 0.41 0.42 0.33 0.41 0.49 0.40 0.45 -9999 -9999 -9999 -9999 -9999 -9999 -9999 -9999 -9999 -9999 -9999 -9999 -9999 -9999 -9999 -9999 -9999 -9999 -9999 -9999
0.48 0.37 0.50 0.45 0.42 0.43 0.42 0.35 0.43 0.45 0.42 0.49 0.46 0.42 0.38 0.44 0.41 0.35 0.43 0.39 0.39 0.51 0.44 0.45 0.49 0.43 0.44 0.52 0.52 0.39 0.36 0.37 0.37 0.43 0.52 0.47 0.52 0.35 0.36 0.50 0.35 0.36 0.36 0.43 0.48 0.45 0.47 0.51 0.49 0.41 0.49 0.45 0.46 0.35 0.36 0.33 0.44 0.50 0.37 0.33 0.51 0.44 0.47 0.49 0.52 0.45 0.42 0.52 0.33 0.44 0.35 0.36 0.37 0.41 0.33 0.43 0.50 0.38 0.45 0.49 0.35 0.52 0.33 0.45 0.35 0.45 0.49 0.44 0.44 0.48 0.42 0.47 0.39 0.52 0.46 0.43 0.50 0.53 0.41 0.44 0.48 0.34 0.41 0.35 0.44 0.43 0.48 0.51 0.49 0.46 0.38 0.43 0.52 0.43 0.42 0.39 0.46 0.45 0.34 0.45 0.52 0.43 0.33 0.51 0.45 0.33 0.51 0.46 0.49 0.37 0.45 0.33 0.48 0.36 0.48 0.35 0.43 0.36 0.35 0.44 0.42 0.44 0.52 0.38 0.33 0.34 0.45 0.44 0.45 0.37 0.38 0.46 0.39 0.52 0.36 0.42 0.36 0.36 0.47 0.43 0.37 0.37 0.36 0.43 0.41 0.47 0.37 0.47 0.37 0.45 0.48 0.34 0.41 0.50 0.46 0.38 0.45 0.42 0.47 0.50 0.46 0.46 0.46 0.42 0.42 0.46 0.44 0.36 0.52 0.40 0.33 0.34 0.42 0.39 0.37 -9999 -9999 -9999 -9999 -9999 -9999 -9999 -9999 -9999 -9999 -9999 -9999 -9999 -9999 -9999 -9999 -9999 -9999 -9999 -9999
0.43 0.50 0.35 0.44 0.38 0.43 0.47 0.42 0.43 0.41 0.44 0.47 0.35 0.48 0.35 0.43 0.49 0.36 0.36 0.39 0.46 0.44 0.45 0.46 0.52 0.39 0.40 0.49 0.34 0.49 0.37 0.38 0.39 0.48 0.42 0.39 0.45 0.37 0.51 0.34 0.41 0.44 0.44 0.33 0.51 0.41 0.33 0.50 0.46 0.35 0.34 0.37 0.39 0.38 0.36 0.49 0.47 0.41 0.39 0.41 0.38 0.34 0.48 0.44 0.41 0.39 0.49 0.39 0.35 0.52 0.39 0.47 0.33 0.53 0.48 0.38 0.36 0.34 0.48 0.37 0.37 0.48 0.43 0.47 0.46 0.38 0.45 0.46 0.34 0.35 0.41 0.34 0.37 0.38 0.42 0.37 0.49 0.45 0.52 0.52 0.48 0.38 0.47 0.35 0.41 0.37 0.38 0.38 0.40 0.43 0.45 0.33 0.47 0.45 0.37 0.51 0.40 0.35 0.43 0.42 0.38 0.36 0.49 0.40 0.40 0.48 0.51 0.52 0.51 0.39 0.46 0.40 0.34 0.42 0.49 0.35 0.37 0.39 0.50 0.47 0.45 0.38 0.52 0.47 0.46 0.39 0.41 0.33 0.46 0.48 0.40 0.41 0.42 0.51 0.52 0.36 0.46 0.35 0.40 0.39 0.53 0.39 0.35 0.41 0.34 0.52 0.45 0.44 0.43 0.44 0.50 0.44 0.49 0.45 0.50 0.47 0.41 0.36 0.44 0.46 0.49 0.34 0.36 0.51 0.46 0.50 0.41 0.40 0.34 0.43 0.35 0.45 0.51 0.47 0.41 -9999 -9999 -9999 -9999 -9999 -9999 -9999 -9999 -9999 -9999 -9999 -9999 -9999 -9999 -9999 -9999 -9999 -9999 -9999 -9999
0.40 0.47 0.39 0.41 0.38 0.44 0.49 0.35 0.49 0.43 0.44 0.46 0.38 0.51 0.41 0.39 0.47 0.43 0.44 0.45 0.47 0.45 0.44 0.42 0.48 0.49 0.38 0.43 0.41 0.33 0.38 0.34 0.50 0.34 0.38 0.41 0.43 0.46 0.41 0.51 0.42 0.41 0.34 0.38 0.42 0.45 0.38 0.34 0.37 0.48 0.34 0.35 0.39 0.51 0.34 0.45 0.36 0.51 0.49 0.35 0.37 0.49 0.41 0.38 0.45 0.42 0.50 0.33 0.39 0.47 0.48 0.33 0.37 0.37 0.45 0.39 0.35 0.34 0.37 0.36 0.46 0.39 0.43 0.38 0.44 0.41 0.41 0.35 0.44 0.38 0.52 0.46 0.38 0.33 0.37 0.52 0.50 0.37 0.50 0.39 0.33 0.33 0.37 0.49 0.36 0.37 0.48 0.38 0.42 0.41 0.33 0.50 0.36 0.34 0.49 0.45 0.35 0.44 0.41 0.51 0.49 0.34 0.52 0.45 0.50 0.53 0.41 0.33 0.48 0.34 0.34 0.44 0.38 0.42 0.49 0.37 0.43 0.46 0.45 0.51 0.33 0.42 0.33 0.52 0.46 0.50 0.34 0.50 0.33 0.35 0.46 0.47 0.52 0.44 0.38 0.33 0.51 0.44 0.46 0.45 0.48 0.43 0.49 0.35 0.39 0.40 0.41 0.51 0.46 0.51 0.47 0.36 0.49 0.34 0.37 0.36 0.40 0.38 0.48 0.38 0.43 0.44 0.34 0.45 0.45 0.35 0.52 0.36 0.43 0.38 0.51 0.52 0.35 0.33 0.35 0.51 -9999 -9999 -9999 -9999 -9999 -9999 -9999 -9999 -9999 -9999 -9999 -9999 -9999 -9999 -9999 -9999 -9999 -9999 -9999
0.51 0.48 0.36 0.33 0.44 0.36 0.35 0.43 0.42 0.41 0.42 0.44 0.34 0.40 0.38 0.44 0.34 0.37 0.39 0.34 0.46 0.46 0.33 0.33 0.34 0.38 0.53 0.44 0.50 0.39 0.46 0.52 0.52 0.49 0.46 0.52 0.46 0.51 0.44 0.41 0.45 0.41 0.48 0.48 0.46 0.42 0.51 0.39 0.37 0.39 0.52 0.37 0.43 0.40 0.34 0.39 0.40 0.48 0.46 0.50 0.34 0.51 0.47 0.36 0.38 0.48 0.35 0.36 0.49 0.39 0.35 0.49 0.50 0.36 0.43 0.37 0.34 0.49 0.40 0.44 0.43 0.35 0.42 0.39 0.42 0.38 0.47 0.34 0.45 0.50 0.48 0.47 0.41 0.48 0.37 0.34 0.49 0.37 0.53 0.44 0.36 0.47 0.41 0.43 0.33 0.42 0.34 0.39 0.34 0.43 0.48 0.39 0.33 0.36 0.33 0.41 0.33 0.49 0.46 0.45 0.49 0.52 0.40 0.37 0.52 0.41 0.46 0.48 0.45 0.41 0.52 0.49 0.52 0.46 0.43 0.45 0.46 0.45 0.38 0.47 0.44 0.34 0.46 0.42 0.42 0.40 0.42 0.43 0.49 0.43 0.34 0.35 0.46 0.44 0.44 0.47 0.46 0.37 0.37 0.39 0.36 0.42 0.43 0.43 0.39 0.39 0.42 0.48 0.47 0.34 0.41 0.44 0.43 0.48 0.49 0.51 0.36 0.34 0.42 0.36 0.50 0.45 0.50 0.37 0.34 0.42 0.46 0.51 0.36 0.37 0.34 0.49 0.35 0.51 0.46 0.33 -9999 -9999 -9999 -9999 -9999 -9999 -9999 -9999 -9999 -9999 -9999 -9999 -9999 -9999 -9999 -9999 -9999 -9999 -9999
0.51 0.37 0.35 0.43 0.35 0.33 0.37 0.51 0.44 0.43 0.39 0.36 0.35 0.46 0.50 0.36 0.37 0.51 0.33 0.35 0.38 0.42 0.49 0.48 0.52 0.49 0.37 0.40 0.42 0.40 0.50 0.44 0.50 0.48 0.44 0.38 0.50 0.47 0.46 0.52 0.47 0.41 0.52 0.47 0.40 0.35 0.50 0.34 0.48 0.36 0.41 0.51 0.46 0.48 0.49 0.43 0.52 0.41 0.34 0.50 0.38 0.47 0.39 0.34 0.40 0.49 0.39 0.36 0.44 0.48 0.43 0.52 0.38 0.44 0.46 0.35 0.43 0.38 0.36 0.33 0.51 0.52 0.49 0.45 0.36 0.47 0.44 0.48 0.47 0.35 0.40 0.50 0.35 0.49 0.38 0.51 0.34 0.43 0.52 0.42 0.45 0.34 0.41 0.36 0.36 0.39 0.38 0.40 0.44 0.41 0.46 0.51 0.38 0.43 0.34 0.46 0.34 0.42 0.33 0.39 0.42 0.45 0.39 0.51 0.38 0.41 0.41 0.43 0.39 0.38 0.42 0.41 0.48 0.44 0.40 0.52 0.48 0.33 0.41 0.49 0.37 0.47 0.36 0.46 0.33 0.47 0.41 0.42 0.34 0.36 0.50 0.46 0.33 0.40 0.41 0.50 0.39 0.52 0.49 0.51 0.51 0.37 0.34 0.47 0.38 0.41 0.33 0.33 0.39 0.39 0.43 0.48 0.38 0.37 0.36 0.41 0.47 0.37 0.46 0.47 0.37 0.34 0.38 0.40 0.43 0.41 0.40 0.51 0.38 0.40 0.42 0.35 0.39 0.45 0.34 0.37 -9999 -9999 -9999 -9999 -9999 -9999 -9999 -9999 -9999 -9999 -9999 -9999 -9999 -9999 -9999 -9999 -9999 -9999 -9999
0.44 0.37 0.34 0.44 0.36 0.35 0.36 0.52 0.47 0.35 0.42 0.47 0.50 0.40 0.50 0.52 0.48 0.43 0.43 0.52 0.37 0.42 0.34 0.48 0.47 0.39 0.36 0.48 0.43 0.42 0.38 0.35 0.42 0.51 0.42 0.50 0.35 0.41 0.35 0.52 0.36 0.44 0.44 0.33 0.42 0.46 0.35 0.38 0.33 0.49 0.47 0.37 0.36 0.36 0.34 0.53 0.43 0.49 0.43 0.43 0.38 0.35 0.43 0.45 0.52 0.50 0.43 0.42 0.49 0.39 0.43 0.47 0.52 0.44 0.51 0.37 0.44 0.46 0.49 0.42 0.35 0.45 0.35 0.49 0.43 0.35 0.46 0.33 0.50 0.33 0.50 0.47 0.49 0.48 0.52 0.43 0.45 0.53 0.48 0.42 0.50 0.38 0.42 0.37 0.52 0.50 0.40 0.49 0.36 0.40 0.42 0.34 0.48 0.40 0.34 0.44 0.38 0.35 0.42 0.36 0.52 0.37 0.49 0.49 0.36 0.35 0.34 0.35 0.48 0.46 0.50 0.45 0.41 0.47 0.46 0.34 0.45 0.37 0.52 0.37 0.50 0.36 0.45 0.41 0.39 0.40 0.42 0.47 0.49 0.53 0.39 0.46 0.43 0.37 0.50 0.41 0.47 0.49 0.39 0.43 0.45 0.47 0.48 0.46 0.38 0.39 0.37 0.35 0.33 0.39 0.36 0.36 0.43 0.43 0.49 0.33 0.49 0.40 0.37 0.37 0.41 0.36 0.33 0.45 0.50 0.34 0.47 0.46 0.52 0.44 0.40 0.33 0.52 0.42 0.45 0.46 -9999 -9999 -9999 -9999 -9999 -9999 -9999 -9999 -9999 -9999 -9999 -9999 -9999 -9999 -9999 -9999 -9999 -9999 -9999
0.45 0.34 0.42 0.38 0.45 0.39 0.51 0.42 0.51 0.43 0.49 0.42 0.42 0.51 0.46 0.49 0.35 0.40 0.34 0.42 0.36 0.44 0.36 0.47 0.53 0.33 0.40 0.35 0.35 0.36 0.46 0.39 0.35 0.45 0.37 0.34 0.43 0.41 0.42 0.41 0.47 0.37 0.52 0.34 0.37 0.45 0.51 0.38 0.41 0.37 0.52 0.35 0.48 0.44 0.45 0.47 0.42 0.37 0.37 0.49 0.47 0.51 0.34 0.33 0.53 0.43 0.49 0.43 0.37 0.48 0.42 0.41 0.45 0.42 0.34 0.51 0.34 0.46 0.51 0.48 0.45 0.40 0.51 0.38 0.33 0.34 0.45 0.39 0.37 0.47 0.47 0.44 0.37 0.34 0.35 0.43 0.46 0.47 0.34 0.40 0.38 0.45 0.39 0.50 0.46 0.35 0.41 0.50 0.44 0.40 0.49 0.44 0.39 0.47 0.37 0.41 0.45 0.37 0.40 0.48 0.33 0.38 0.37 0.33 0.44 0.38 0.51 0.37 0.34 0.38 0.50 0.50 0.36 0.42 0.33 0.48 0.48 0.34 0.33 0.48 0.38 0.50 0.35 0.42 0.43 0.39 0.43 0.50 0.52 0.37 0.42 0.35 0.49 0.39 0.49 0.42 0.36 0.43 0.47 0.35 0.38 0.33 0.33 0.44 0.47 0.38 0.45 0.37 0.36 0.35 0.36 0.41 0.42 0.47 0.43 0.41 0.43 0.49 0.38 0.49 0.43 0.45 0.50 0.38 0.52 0.33 0.37 0.51 0.48 0.46 0.34 0.39 0.47 0.41 0.43 0.52 -9999 -9999 -9999 -9999 -9999 -9999 -9999 -9999 -9999 -9999 -9999 -9999 -9999 -9999 -9999 -9999 -9999 -9999 -9999
0.48 0.50 0.50 0.46 0.40 0.40 0.35 0.43 0.44 0.39 0.46 0.40 0.41 0.39 0.36 0.51 0.38 0.35 0.35 0.36 0.42 0.38 0.53 0.43 0.47 0.37 0.34 0.39 0.38 0.42 0.33 0.51 0.38 0.34 0.44 0.38 0.36 0.39 0.38 0.48 0.47 0.41 0.36 0.51 0.43 0.36 0.34 0.44 0.50 0.49 0.45 0.43 0.43 0.48 0.44 0.48 0.33 0.40 0.47 0.50 0.36 0.51 0.50 0.50 0.33 0.39 0.49 0.38 0.51 0.52 0.51 0.43 0.37 0.40 0.33 0.35 0.37 0.36 0.38 0.48 0.34 0.45 0.52 0.44 0.37 0.33 0.49 0.37 0.37 0.41 0.49 0.47 0.52 0.48 0.43 0.41 0.36 0.52 0.38 0.36 0.38 0.34 0.40 0.34 0.51 0.38 0.37 0.36 0.44 0.46 0.37 0.38 0.44 0.36 0.46 0.35 0.35 0.38 0.40 0.51 0.38 0.36 0.38 0.41 0.52 0.38 0.37 0.52 0.33 0.44 0.33 0.44 0.49 0.37 0.35 0.45 0.42 0.38 0.41 0.40 0.39 0.48 0.44 0.49 0.34 0.50 0.35 0.35 0.34 0.47 0.50 0.50 0.47 0.41 0.44 0.40 0.52 0.52 0.34 0.49 0.39 0.42 0.38 0.34 0.36 0.52 0.45 0.50 0.43 0.41 0.41 0.35 0.35 0.47 0.51 0.41 0.42 0.43 0.42 0.49 0.34 0.33 0.45 0.39 0.39 0.37 0.40 0.41 0.44 0.47 0.48 0.50 0.48 0.43 0.44 0.36 -9999 -9999 -9999 -9999 -9999 -9999 -9999 -9999 -9999 -9999 -9999 -9999 -9999 -9999 -9999 -9999 -9999 -9999 -9999
0.50 0.43 0.49 0.42 0.38 0.44 0.40 0.43 0.52 0.45 0.47 0.50 0.35 0.33 0.46 0.51 0.40 0.47 0.43 0.49 0.36 0.35 0.45 0.36 0.40 0.37 0.39 0.51 0.43 0.45 0.50 0.42 0.48 0.49 0.50 0.43 0.46 0.48 0.40 0.40 0.50 0.40 0.40 0.35 0.52 0.43 0.44 0.47 0.34 0.37 0.51 0.35 0.43 0.34 0.39 0.33 0.51 0.46 0.37 0.48 0.45 0.48 0.41 0.43 0.38 0.44 0.42 0.39 0.50 0.51 0.52 0.49 0.38 0.51 0.44 0.38 0.46 0.50 0.48 0.48 0.45 0.46 0.48 0.45 0.43 0.52 0.37 0.37 0.47 0.40 0.37 0.51 0.44 0.48 0.45 0.41 0.35 0.42 0.44 0.39 0.42 0.43 0.37 0.35 0.46 0.39 0.47 0.51 0.51 0.46 0.40 0.49 0.48 0.50 0.47 0.46 0.42 0.34 0.38 0.38 0.36 0.38 0.48 0.36 0.48 0.49 0.35 0.41 0.51 0.41 0.52 0.52 0.35 0.42 0.46 0.47 0.45 0.48 0.51 0.34 0.52 0.37 0.50 0.51 0.36 0.46 0.41 0.44 0.43 0.34 0.41 0.40 0.50 0.37 0.40 0.42 0.40 0.46 0.49 0.45 0.42 0.37 0.37 0.44 0.43 0.52 0.38 0.43 0.43 0.52 0.35 0.40 0.40 0.41 0.37 0.39 0.47 0.50 0.46 0.48 0.34 0.52 0.49 0.49 0.45 0.49 0.34 0.50 0.47 0.44 0.50 0.47 0.50 0.46 0.40 0.37 -9999 -9999 -9999 -9999 -9999 -9999 -9999 -9999 -9999 -9999 -9999 -9999 -9999 -9999 -9999 -9999 -9999 -9999 -9999
0.37 0.51 0.43 0.37 0.46 0.34 0.51 0.40 0.40 0.35 0.43 0.50 0.47 0.44 0.48 0.35 0.40 0.39 0.39 0.48 0.35 0.50 0.33 0.42 0.49 0.48 0.46 0.52 0.43 0.34 0.34 0.43 0.46 0.45 0.52 0.41 0.43 0.49 0.39 0.38 0.38 0.37 0.43 0.46 0.38 0.50 0.45 0.43 0.36 0.52 0.37 0.36 0.34 0.33 0.35 0.38 0.38 0.36 0.37 0.47 0.38 0.52 0.41 0.45 0.37 0.49 0.38 0.35 0.40 0.48 0.51 0.52 0.47 0.49 0.46 0.39 0.35 0.42 0.49 0.37 0.37 0.40 0.51 0.50 0.33 0.49 0.42 0.41 0.51 0.38 0.39 0.43 0.34 0.45 0.40 0.50 0.36 0.36 0.33 0.52 0.51 0.34 0.52 0.38 0.47 0.51 0.37 0.40 0.35 0.49 0.45 0.34 0.40 0.38 0.41 0.35 0.42 0.49 0.41 0.49 0.40 0.46 0.35 0.46 0.38 0.44 0.38 0.50 0.38 0.44 0.33 0.35 0.41 0.39 0.39 0.45 0.50 0.40 0.34 0.39 0.44 0.48 0.34 0.44 0.49 0.36 0.35 0.50 0.43 0.51 0.33 0.48 0.37 0.36 0.50 0.48 0.40 0.52 0.35 0.35 0.41 0.48 0.39 0.45 0.37 0.53 0.36 0.50 0.50 0.36 0.40 0.35 0.33 0.49 0.49 0.50 0.34 0.37 0.53 0.33 0.43 0.47 0.44 0.42 0.45 0.44 0.34 0.36 0.37 0.37 0.45 0.36 0.39 0.37 0.45 0.44 0.43 -9999 -9999 -9999 -9999 -9999 -9999 -9999 -9999 -9999 -9999 -9999 -9999 -9999 -9999 -9999 -9999 -9999 -9999
0.33 0.39 0.52 0.46 0.43 0.37 0.33 0.36 0.49 0.42 0.37 0.52 0.38 0.52 0.37 0.37 0.33 0.48 0.40 0.47 0.43 0.51 0.33 0.43 0.48 0.33 0.46 0.36 0.41 0.51 0.48 0.52 0.45 0.36 0.39 0.43 0.47 0.47 0.39 0.35 0.50 0.48 0.44 0.46 0.38 0.48 0.33 0.40 0.53 0.51 0.49 0.39 0.49 0.48 0.51 0.47 0.42 0.37 0.51 0.52 0.33 0.35 0.51 0.43 0.47 0.40 0.50 0.48 0.35 0.36 0.39 0.47 0.49 0.51 0.50 0.48 0.49 0.41 0.34 0.47 0.36 0.46 0.39 0.50 0.45 0.42 0.37 0.49 0.44 0.46 0.49 0.50 0.41 0.52 0.39 0.52 0.45 0.46 0.46 0.40 0.48 0.47 0.35 0.46 0.49 0.42 0.35 0.48 0.40 0.46 0.39 0.43 0.48 0.50 0.48 0.46 0.49 0.44 0.35 0.33 0.43 0.41 0.33 0.44 0.48 0.47 0.47 0.43 0.34 0.33 0.35 0.50 0.44 0.36 0.52 0.35 0.48 0.51 0.49 0.44 0.44 0.43 0.37 0.45 0.45 0.38 0.39 0.37 0.52 0.47 0.50 0.47 0.34 0.41 0.44 0.39 0.37 0.47 0.43 0.47 0.38 0.48 0.44 0.41 0.51 0.41 0.52 0.43 0.47 0.48 0.42 0.43 0.50 0.43 0.49 0.41 0.33 0.37 0.34 0.43 0.39 0.34 0.34 0.38 0.50 0.41 0.34 0.40 0.47 0.34 0.33 0.47 0.37 0.41 0.51 0.38 0.41 -9999 -9999 -9999 -9999 -9999 -9999 -9999 -9999 -9999 -9999 -9999 -9999 -9999 -9999 -9999 -9999 -9999 -9999
0.50 0.34 0.39 0.50 0.45 0.40 0.47 0.43 0.34 0.40 0.41 0.52 0.40 0.49 0.48 0.49 0.49 0.42 0.41 0.45 0.35 0.41 0.52 0.49 0.49 0.43 0.50 0.43 0.36 0.35 0.42 0.48 0.48 0.36 0.39 0.51 0.42 0.33 0.33 0.34 0.42 0.44 0.45 0.37 0.40 0.44 0.44 0.41 0.48 0.43 0.53 0.37 0.41 0.33 0.37 0.34 0.45 0.49 0.48 0.35 0.35 0.36 0.50 0.36 0.38 0.45 0.35 0.37 0.51 0.33 0.39 0.50 0.33 0.50 0.44 0.45 0.46 0.40 0.45 0.41 0.38 0.47 0.34 0.49 0.39 0.38 0.48 0.49 0.40 0.43 0.37 0.39 0.46 0.45 0.46 0.48 0.39 0.45 0.43 0.40 0.42 0.39 0.51 0.39 0.38 0.49 0.33 0.45 0.45 0.49 0.39 0.48 0.39 0.43 0.37 0.38 0.38 0.47 0.44 0.48 0.52 0.35 0.34 0.33 0.39 0.46 0.51 0.48 0.47 0.33 0.46 0.36 0.45 0.48 0.41 0.53 0.48 0.38 0.45 0.33 0.46 0.43 0.38 0.39 0.44 0.52 0.50 0.35 0.34 0.40 0.44 0.33 0.47 0.36 0.39 0.36 0.36 0.38 0.47 0.40 0.37 0.35 0.44 0.42 0.36 0.48 0.46 0.48 0.45 0.34 0.44 0.52 0.47 0.33 0.44 0.48 0.40 0.51 0.42 0.42 0.33 0.41 0.37 0.33 0.36 0.42 0.49 0.52 0.46 0.46 0.37 0.46 0.39 0.43 0.33 0.38 0.49 -9999 -9999 -9999 -9999 -9999 -9999 -9999 -9999 -9999 -9999 -9999 -9999 -9999 -9999 -9999 -9999 -9999 -9999
0.36 0.52 0.38 0.49 0.43 0.45 0.43 0.48 0.52 0.37 0.43 0.37 0.48 0.49 0.52 0.51 0.44 0.36 0.53 0.45 0.43 0.52 0.52 0.36 0.46 0.44 0.49 0.46 0.45 0.34 0.42 0.35 0.34 0.50 0.47 0.48 0.33 0.38 0.51 0.41 0.44 0.48 0.36 0.39 0.50 0.42 0.43 0.40 0.38 0.34 0.52 0.43 0.36 0.37 0.47 0.46 0.46 0.44 0.37 0.39 0.43 0.38 0.46 0.36 0.44 0.37 0.48 0.44 0.52 0.37 0.39 0.36 0.40 0.35 0.45 0.44 0.52 0.36 0.37 0.52 0.50 0.45 0.50 0.51 0.37 0.37 0.48 0.33 0.37 0.51 0.36 0.45 0.42 0.40 0.35 0.45 0.38 0.37 0.50 0.45 0.38 0.45 0.46 0.41 0.47 0.35 0.34 0.48 0.43 0.41 0.44 0.52 0.51 0.47 0.34 0.46 0.39 0.47 0.48 0.36 0.34 0.34 0.43 0.48 0.46 0.47 0.33 0.37 0.39 0.37 0.40 0.45 0.40 0.51 0.41 0.53 0.37 0.50 0.44 0.43 0.40 0.48 0.35 0.47 0.47 0.51 0.33 0.39 0.43 0.43 0.36 0.37 0.47 0.34 0.36 0.52 0.50 0.46 0.37 0.50 0.37 0.45 0.45 0.39 0.40 0.48 0.50 0.49 0.39 0.33 0.33 0.46 0.39 0.37 0.36 0.49 0.52 0.38 0.33 0.45 0.38 0.45 0.36 0.35 0.40 0.48 0.46 0.52 0.52 0.48 0.44 0.34 0.47 0.41 0.49 0.49 0.36 -9999 -9999 -9999 -9999 -9999 -9999 -9999 -9999 -9999 -9999 -9999 -9999 -9999 -9999 -9999 -9999 -9999 -9999
0.41 0.36 0.34 0.50 0.52 0.39 0.44 0.46 0.44 0.38 0.51 0.34 0.33 0.46 0.42 0.36 0.39 0.36 0.47 0.43 0.35 0.43 0.45 0.50 0.38 0.39 0.35 0.50 0.45 0.39 0.41 0.44 0.44 0.40 0.46 0.44 0.45 0.34 0.52 0.45 0.51 0.43 0.33 0.37 0.45 0.44 0.42 0.45 0.43 0.51 0.52 0.45 0.35 0.46 0.40 0.47 0.45 0.51 0.35 0.38 0.40 0.38 0.48 0.34 0.45 0.36 0.35 0.33 0.45 0.34 0.50 0.52 0.49 0.43 0.41 0.43 0.47 0.34 0.39 0.44 0.35 0.42 0.42 0.41 0.33 0.49 0.50 0.45 0.48 0.37 0.50 0.49 0.39 0.44 0.45 0.40 0.40 0.43 0.45 0.46 0.42 0.43 0.39 0.46 0.44 0.41 0.43 0.35 0.42 0.37 0.50 0.34 0.46 0.51 0.35 0.39 0.45 0.38 0.40 0.48 0.33 0.45 0.41 0.44 0.40 0.40 0.49 0.51 0.51 0.35 0.45 0.35 0.38 0.50 0.47 0.44 0.49 0.41 0.50 0.51 0.36 0.34 0.47 0.38 0.48 0.47 0.34 0.43 0.46 0.40 0.43 0.43 0.48 0.35 0.34 0.51 0.46 0.50 0.45 0.45 0.53 0.50 0.43 0.42 0.39 0.51 0.45 0.45 0.45 0.41 0.37 0.40 0.39 0.53 0.46 0.41 0.51 0.47 0.43 0.42 0.44 0.38 0.50 0.42 0.45 0.50 0.52 0.46 0.46 0.38 0.49 0.42 0.52 0.40 0.43 0.46 0.46 -9999 -9999 -9999 -9999 -9999 -9999 -9999 -9999 -9999 -9999 -9999 -9999 -9999 -9999 -9999 -9999 -9999 -9999
0.48 0.36 0.34 0.34 0.45 0.36 0.47 0.40 0.50 0.52 0.47 0.42 0.33 0.46 0.52 0.42 0.46 0.37 0.46 0.50 0.52 0.45 0.43 0.49 0.51 0.51 0.52 0.49 0.46 0.41 0.49 0.53 0.53 0.34 0.36 0.42 0.48 0.52 0.44 0.48 0.41 0.49 0.42 0.40 0.42 0.44 0.36 0.52 0.37 0.50 0.41 0.51 0.44 0.36 0.46 0.44 0.36 0.42 0.50 0.37 0.33 0.50 0.39 0.36 0.52 0.45 0.36 0.47 0.42 0.42 0.46 0.46 0.52 0.47 0.47 0.36 0.48 0.37 0.42 0.36 0.51 0.33 0.45 0.49 0.42 0.37 0.38 0.45 0.36 0.46 0.45 0.40 0.52 0.45 0.51 0.50 0.48 0.52 0.51 0.38 0.42 0.42 0.38 0.46 0.43 0.50 0.46 0.47 0.50 0.51 0.52 0.49 0.47 0.37 0.42 0.49 0.51 0.35 0.34 0.39 0.46 0.34 0.35 0.49 0.43 0.43 0.46 0.51 0.49 0.33 0.52 0.42 0.40 0.37 0.51 0.51 0.51 0.33 0.49 0.39 0.36 0.45 0.52 0.44 0.44 0.35 0.37 0.47 0.40 0.52 0.45 0.35 0.39 0.50 0.40 0.52 0.35 0.43 0.48 0.35 0.35 0.33 0.36 0.47 0.51 0.47 0.42 0.41 0.52 0.46 0.38 0.52 0.35 0.43 0.37 0.39 0.44 0.36 0.44 0.38 0.34 0.44 0.40 0.52 0.37 0.33 0.36 0.39 0.36 0.49 0.44 0.52 0.52 0.49 0.33 0.41 0.36 -9999 -9999 -9999 -9999 -9999 -9999 -9999 -9999 -9999 -9999 -9999 -9999 -9999 -9999 -9999 -9999 -9999 -9999
0.38 0.49 0.51 0.40 0.40 0.38 0.45 0.45 0.48 0.46 0.40 0.40 0.50 0.38 0.49 0.37 0.46 0.52 0.44 0.49 0.46 0.46 0.39 0.46 0.34 0.33 0.45 0.49 0.35 0.39 0.44 0.40 0.41 0.39 0.43 0.38 0.42 0.46 0.41 0.46 0.41 0.50 0.41 0.51 0.40 0.33 0.38 0.40 0.40 0.35 0.51 0.45 0.41 0.36 0.44 0.50 0.37 0.42 0.50 0.52 0.40 0.44 0.49 0.43 0.53 0.36 0.50 0.34 0.50 0.50 0.36 0.35 0.40 0.39 0.50 0.37 0.34 0.49 0.52 0.52 0.39 0.36 0.39 0.42 0.44 0.34 0.41 0.38 0.49 0.37 0.45 0.45 0.44 0.42 0.42 0.37 0.38 0.52 0.37 0.39 0.45 0.52 0.40 0.38 0.33 0.36 0.36 0.38 0.45 0.44 0.35 0.40 0.49 0.49 0.48 0.43 0.36 0.34 0.43 0.51 0.44 0.44 0.45 0.37 0.50 0.34 0.38 0.41 0.46 0.43 0.41 0.34 0.33 0.35 0.40 0.38 0.41 0.45 0.42 0.43 0.51 0.48 0.35 0.51 0.37 0.38 0.37 0.45 0.34 0.41 0.33 0.48 0.37 0.42 0.34 0.42 0.49 0.34 0.38 0.35 0.39 0.43 0.34 0.46 0.44 0.45 0.35 0.40 0.47 0.52 0.40 0.48 0.52 0.44 0.38 0.36 0.45 0.49 0.34 0.42 0.47 0.50 0.35 0.50 0.46 0.53 0.33 0.50 0.36 0.51 0.36 0.47 0.52 0.37 0.48 0.44 0.42 0.45 -9999 -9999 -9999 -9999 -9999 -9999 -9999 -9999 -9999 -9999 -9999 -9999 -9999 -9999 -9999 -9999 -9999
0.35 0.42 0.37 0.49 0.44 0.39 0.47 0.49 0.43 0.47 0.48 0.52 0.35 0.40 0.48 0.36 0.35 0.42 0.47 0.39 0.45 0.44 0.34 0.51 0.46 0.35 0.50 0.44 0.35 0.34 0.50 0.49 0.35 0.44 0.37 0.34 0.44 0.51 0.41 0.50 0.38 0.40 0.47 0.42 0.45 0.37 0.47 0.35 0.36 0.37 0.42 0.48 0.46 0.49 0.38 0.48 0.47 0.39 0.49 0.52 0.39 0.34 0.34 0.43 0.51 0.36 0.40 0.52 0.38 0.46 0.39 0.51 0.33 0.51 0.33 0.40 0.50 0.37 0.46 0.46 0.38 0.38 0.35 0.50 0.47 0.34 0.36 0.39 0.45 0.45 0.34 0.37 0.40 0.42 0.42 0.42 0.46 0.38 0.35 0.50 0.51 0.43 0.46 0.47 0.48 0.33 0.51 0.40 0.36 0.36 0.47 0.51 0.37 0.37 0.51 0.51 0.42 0.41 0.33 0.52 0.43 0.51 0.46 0.37 0.39 0.33 0.39 0.48 0.37 0.41 0.50 0.37 0.49 0.43 0.49 0.45 0.38 0.44 0.47 0.36 0.39 0.35 0.48 0.51 0.37 0.41 0.40 0.36 0.37 0.43 0.43 0.34 0.41 0.39 0.36 0.48 0.46 0.48 0.34 0.39 0.39 0.43 0.45 0.38 0.34 0.48 0.45 0.37 0.48 0.35 0.49 0.52 0.35 0.35 0.42 0.43 0.47 0.44 0.41 0.33 0.49 0.52 0.48 0.44 0.35 0.51 0.50 0.50 0.52 0.36 0.45 0.43 0.51 0.50 0.52 0.49 0.45 0.34 -9999 -9999 -9999 -9999 -9999 -9999 -9999 -9999 -9999 -9999 -9999 -9999 -9999 -9999 -9999 -9999 -9999
0.41 0.41 0.48 0.42 0.43 0.33 0.39 0.48 0.48 0.39 0.36 0.37 0.45 0.42 0.46 0.42 0.50 0.41 0.41 0.40 0.53 0.34 0.35 0.38 0.51 0.38 0.40 0.52 0.49 0.39 0.49 0.40 0.45 0.46 0.48 0.43 0.52 0.49 0.35 0.38 0.45 0.37 0.43 0.46 0.46 0.47 0.41 0.40 0.44 0.44 0.34 0.43 0.50 0.36 0.47 0.40 0.49 0.34 0.35 0.45 0.52 0.38 0.40 0.38 0.35 0.40 0.35 0.43 0.51 0.33 0.37 0.37 0.35 0.47 0.40 0.51 0.47 0.46 0.43 0.40 0.37 0.36 0.43 0.42 0.38 0.43 0.51 0.35 0.41 0.43 0.39 0.52 0.49 0.46 0.40 0.51 0.40 0.46 0.42 0.47 0.35 0.49 0.52 0.51 0.48 0.50 0.40 0.52 0.40 0.50 0.44 0.52 0.48 0.40 0.41 0.43 0.43 0.35 0.52 0.41 0.34 0.40 0.34 0.39 0.37 0.52 0.44 0.47 0.48 0.45 0.51 0.34 0.48 0.50 0.38 0.33 0.37 0.49 0.42 0.39 0.35 0.36 0.48 0.34 0.40 0.47 0.52 0.38 0.38 0.40 0.35 0.49 0.50 0.45 0.34 0.45 0.34 0.49 0.36 0.51 0.36 0.47 0.38 0.51 0.47 0.42 0.49 0.39 0.46 0.33 0.42 0.42 0.40 0.47 0.36 0.48 0.42 0.42 0.49 0.51 0.37 0.36 0.38 0.45 0.38 0.45 0.43 0.40 0.42 0.40 0.43 0.46 0.35 0.37 0.52 0.50 0.40 0.53 -9999 -9999 -9999 -9999 -9999 -9999 -9999 -9999 -9999 -9999 -9999 -9999 -9999 -9999 -9999 -9999 -9999
0.43 0.46 0.49 0.46 0.35 0.40 0.33 0.53 0.34 0.45 0.42 0.48 0.43 0.35 0.43 0.45 0.48 0.49 0.35 0.36 0.50 0.33 0.41 0.51 0.40 0.35 0.36 0.36 0.35 0.46 0.49 0.35 0.51 0.41 0.45 0.45 0.39 0.51 0.51 0.35 0.42 0.37 0.41 0.35 0.42 0.46 0.33 0.39 0.52 0.39 0.47 0.46 0.38 0.41 0.40 0.44 0.37 0.49 0.46 0.33 0.51 0.50 0.38 0.38 0.41 0.33 0.50 0.33 0.47 0.51 0.38 0.40 0.49 0.36 0.41 0.36 0.37 0.51 0.44 0.37 0.44 0.51 0.37 0.35 0.40 0.44 0.33 0.38 0.47 0.40 0.49 0.52 0.44 0.52 0.41 0.43 0.37 0.34 0.46 0.35 0.34 0.44 0.39 0.43 0.51 0.36 0.34 0.41 0.47 0.41 0.42 0.39 0.43 0.48 0.44 0.49 0.48 0.40 0.46 0.41 0.42 0.39 0.42 0.48 0.48 0.41 0.36 0.45 0.42 0.51 0.37 0.39 0.34 0.33 0.51 0.36 0.52 0.39 0.35 0.45 0.38 0.51 0.41 0.35 0.39 0.46 0.41 0.39 0.46 0.52 0.41 0.52 0.52 0.44 0.40 0.42 0.34 0.39 0.52 0.33 0.34 0.44 0.43 0.43 0.41 0.49 0.43 0.35 0.37 0.39 0.33 0.36 0.35 0.33 0.38 0.50 0.44 0.43 0.35 0.48 0.37 0.49 0.51 0.34 0.46 0.37 0.46 0.46 0.49 0.40 0.45 0.43 0.35 0.35 0.36 0.37 0.47 0.42 -9999 -9999 -9999 -9999 -9999 -9999 -9999 -9999 -9999 -9999 -9999 -9999 -9999 -9999 -9999 -9999 -9999
0.42 0.43 0.37 0.43 0.39 0.41 0.34 0.33 0.50 0.46 0.51 0.52 0.44 0.33 0.36 0.39 0.49 0.47 0.34 0.42 0.42 0.42 0.34 0.49 0.34 0.47 0.45 0.49 0.33 0.38 0.37 0.33 0.38 0.46 0.38 0.47 0.38 0.35 0.35 0.33 0.52 0.47 0.50 0.34 0.34 0.50 0.43 0.45 0.35 0.35 0.42 0.48 0.39 0.42 0.37 0.51 0.33 0.44 0.36 0.37 0.46 0.33 0.47 0.33 0.40 0.41 0.51 0.48 0.43 0.33 0.41 0.37 0.45 0.47 0.52 0.42 0.47 0.52 0.52 0.52 0.39 0.51 0.35 0.52 0.35 0.41 0.37 0.43 0.52 0.39 0.51 0.38 0.52 0.40 0.37 0.46 0.36 0.40 0.49 0.44 0.49 0.39 0.34 0.33 0.40 0.51 0.52 0.33 0.50 0.36 0.39 0.42 0.51 0.49 0.40 0.42 0.38 0.35 0.51 0.35 0.43 0.42 0.47 0.50 0.50 0.39 0.38 0.47 0.46 0.42 0.44 0.36 0.35 0.39 0.35 0.45 0.47 0.42 0.40 0.37 0.39 0.36 0.48 0.43 0.37 0.51 0.36 0.39 0.43 0.33 0.39 0.37 0.43 0.53 0.47 0.41 0.35 0.48 0.33 0.39 0.46 0.47 0.38 0.38 0.52 0.33 0.38 0.42 0.47 0.46 0.52 0.34 0.51 0.48 0.39 0.39 0.43 0.47 0.47 0.41 0.38 0.48 0.37 0.49 0.37 0.52 0.35 0.41 0.42 0.42 0.34 0.34 0.47 0.43 0.48 0.49 0.44 0.35 -9999 -9999 -9999 -9999 -9999 -9999 -9999 -9999 -9999 -9999 -9999 -9999 -9999 -9999 -9999 -9999 -9999
0.47 0.34 0.34 0.49 0.46 0.52 0.35 0.44 0.46 0.52 0.45 0.52 0.49 0.49 0.40 0.37 0.46 0.48 0.51 0.40 0.34 0.45 0.48 0.37 0.44 0.51 0.47 0.51 0.38 0.35 0.37 0.50 0.36 0.47 0.48 0.45 0.50 0.52 0.40 0.51 0.52 0.40 0.49 0.44 0.43 0.36 0.37 0.39 0.43 0.40 0.36 0.45 0.35 0.42 0.39 0.35 0.42 0.46 0.37 0.37 0.37 0.37 0.44 0.51 0.48 0.50 0.36 0.37 0.36 0.38 0.45 0.34 0.52 0.38 0.33 0.42 0.45 0.35 0.45 0.33 0.47 0.51 0.37 0.42 0.42 0.40 0.49 0.46 0.42 0.51 0.48 0.39 0.49 0.46 0.41 0.37 0.45 0.37 0.42 0.52 0.49 0.35 0.49 0.36 0.48 0.43 0.41 0.41 0.34 0.34 0.46 0.48 0.51 0.35 0.47 0.50 0.50 0.49 0.47 0.33 0.49 0.33 0.39 0.51 0.36 0.37 0.37 0.42 0.52 0.41 0.49 0.35 0.44 0.35 0.36 0.41 0.43 0.48 0.33 0.35 0.45 0.34 0.38 0.46 0.36 0.41 0.53 0.40 0.46 0.49 0.33 0.44 0.36 0.44 0.48 0.35 0.36 0.34 0.48 0.49 0.51 0.42 0.37 0.46 0.46 0.35 0.43 0.44 0.34 0.44 0.38 0.33 0.49 0.51 0.47 0.33 0.39 0.38 0.51 0.47 0.52 0.49 0.43 0.43 0.34 0.47 0.51 0.47 0.48 0.47 0.33 0.46 0.42 0.41 0.52 0.35 0.35 0.43 -9999 -9999 -9999 -9999 -9999 -9999 -9999 -9999 -9999 -9999 -9999 -9999 -9999 -9999 -9999 -9999 -9999
0.33 0.49 0.37 0.48 0.48 0.51 0.48 0.38 0.35 0.40 0.47 0.38 0.36 0.35 0.43 0.46 0.40 0.35 0.51 0.51 0.39 0.50 0.34 0.47 0.35 0.44 0.48 0.52 0.43 0.42 0.41 0.41 0.36 0.37 0.34 0.40 0.38 0.33 0.41 0.43 0.42 0.46 0.46 0.36 0.34 0.33 0.40 0.51 0.47 0.52 0.52 0.52 0.36 0.52 0.37 0.38 0.45 0.36 0.42 0.44 0.43 0.40 0.49 0.47 0.49 0.46 0.44 0.48 0.35 0.33 0.34 0.47 0.45 0.40 0.42 0.47 0.37 0.52 0.48 0.45 0.42 0.36 0.39 0.38 0.34 0.36 0.38 0.46 0.49 0.42 0.43 0.42 0.46 0.35 0.46 0.37 0.44 0.52 0.49 0.48 0.47 0.38 0.33 0.45 0.49 0.53 0.38 0.44 0.48 0.41 0.50 0.49 0.36 0.36 0.33 0.35 0.43 0.39 0.35 0.41 0.36 0.34 0.43 0.36 0.51 0.45 0.48 0.45 0.52 0.39 0.47 0.35 0.52 0.48 0.47 0.49 0.45 0.51 0.39 0.37 0.46 0.34 0.39 0.36 0.50 0.47 0.35 0.42 0.50 0.41 0.33 0.37 0.48 0.51 0.40 0.52 0.37 0.36 0.34 0.33 0.47 0.41 0.43 0.46 0.43 0.51 0.46 0.46 0.33 0.40 0.40 0.49 0.37 0.38 0.47 0.33 0.52 0.33 0.45 0.44 0.49 0.38 0.46 0.41 0.49 0.48 0.36 0.44 0.47 0.35 0.39 0.50 0.42 0.44 0.45 0.37 0.46 0.45 -9999 -9999 -9999 -9999 -9999 -9999 -9999 -9999 -9999 -9999 -9999 -9999 -9999 -9999 -9999 -9999 -9999
0.37 0.46 0.34 0.45 0.49 0.37 0.44 0.44 0.53 0.51 0.51 0.33 0.49 0.38 0.45 0.35 0.48 0.37 0.41 0.49 0.48 0.40 0.39 0.40 0.37 0.41 0.48 0.44 0.39 0.33 0.36 0.37 0.50 0.34 0.36 0.42 0.43 0.44 0.52 0.38 0.48 0.34 0.35 0.40 0.37 0.45 0.48 0.45 0.41 0.42 0.35 0.48 0.52 0.43 0.44 0.46 0.34 0.36 0.52 0.33 0.48 0.48 0.43 0.40 0.43 0.34 0.36 0.39 0.38 0.49 0.51 0.35 0.39 0.42 0.41 0.44 0.41 0.47 0.34 0.52 0.42 0.42 0.33 0.50 0.38 0.36 0.49 0.45 0.36 0.50 0.47 0.50 0.34 0.46 0.46 0.38 0.37 0.41 0.38 0.45 0.47 0.43 0.33 0.47 0.47 0.37 0.45 0.50 0.41 0.38 0.38 0.39 0.43 0.37 0.40 0.51 0.36 0.38 0.41 0.43 0.39 0.33 0.40 0.39 0.44 0.52 0.34 0.40 0.38 0.39 0.47 0.50 0.41 0.48 0.45 0.36 0.46 0.33 0.48 0.48 0.37 0.35 0.43 0.48 0.40 0.51 0.38 0.50 0.36 0.39 0.42 0.45 0.36 0.35 0.50 0.41 0.50 0.43 0.33 0.42 0.48 0.37 0.34 0.42 0.50 0.42 0.50 0.34 0.49 0.40 0.50 0.49 0.47 0.47 0.44 0.51 0.36 0.38 0.52 0.45 0.52 0.50 0.49 0.40 0.48 0.38 0.52 0.35 0.49 0.36 0.37 0.34 0.52 0.44 0.44 0.46 0.45 0.42 0.36 -9999 -9999 -9999 -9999 -9999 -9999 -9999 -9999 -9999 -9999 -9999 -9999 -9999 -9999 -9999 -9999
0.52 0.51 0.50 0.40 0.48 0.47 0.42 0.41 0.49 0.49 0.36 0.44 0.50 0.47 0.44 0.37 0.35 0.46 0.52 0.43 0.36 0.49 0.41 0.49 0.45 0.44 0.51 0.45 0.43 0.47 0.44 0.52 0.42 0.33 0.34 0.45 0.36 0.44 0.46 0.48 0.42 0.38 0.44 0.50 0.52 0.50 0.37 0.41 0.36 0.43 0.33 0.41 0.38 0.46 0.49 0.41 0.33 0.47 0.52 0.40 0.41 0.41 0.39 0.34 0.50 0.39 0.34 0.42 0.38 0.48 0.51 0.46 0.45 0.39 0.42 0.48 0.46 0.45 0.43 0.47 0.47 0.51 0.51 0.45 0.46 0.38 0.43 0.39 0.38 0.39 0.38 0.52 0.36 0.47 0.41 0.52 0.35 0.44 0.37 0.34 0.51 0.36 0.36 0.50 0.51 0.35 0.34 0.41 0.50 0.47 0.38 0.33 0.37 0.47 0.37 0.39 0.51 0.42 0.48 0.45 0.51 0.43 0.38 0.40 0.46 0.37 0.36 0.49 0.47 0.36 0.51 0.46 0.41 0.52 0.37 0.36 0.48 0.48 0.43 0.47 0.38 0.49 0.48 0.33 0.46 0.49 0.52 0.41 0.46 0.41 0.43 0.33 0.48 0.42 0.48 0.36 0.34 0.41 0.50 0.49 0.45 0.40 0.36 0.51 0.36 0.48 0.43 0.37 0.47 0.38 0.44 0.48 0.52 0.45 0.42 0.41 0.49 0.33 0.46 0.41 0.47 0.43 0.38 0.47 0.34 0.39 0.46 0.40 0.38 0.50 0.45 0.51 0.47 0.51 0.36 0.48 0.50 0.50 0.46 -9999 -9999 -9999 -9999 -9999 -9999 -9999 -9999 -9999 -9999 -9999 -9999 -9999 -9999 -9999 -9999
0.37 0.36 0.39 0.51 0.38 0.48 0.39 0.46 0.51 0.41 0.50 0.49 0.51 0.46 0.35 0.34 0.33 0.40 0.37 0.41 0.39 0.49 0.38 0.48 0.51 0.43 0.42 0.37 0.43 0.41 0.34 0.36 0.50 0.46 0.38 0.41 0.47 0.49 0.45 0.37 0.41 0.48 0.50 0.49 0.43 0.50 0.45 0.40 0.41 0.47 0.52 0.45 0.44 0.46 0.40 0.42 0.46 0.38 0.38 0.40 0.47 0.45 0.51 0.35 0.40 0.42 0.34 0.51 0.52 0.38 0.50 0.51 0.43 0.41 0.49 0.41 0.43 0.38 0.35 0.35 0.39 0.35 0.40 0.42 0.38 0.47 0.39 0.46 0.46 0.46 0.51 0.44 0.40 0.42 0.45 0.50 0.35 0.47 0.48 0.43 0.50 0.34 0.47 0.34 0.51 0.45 0.46 0.51 0.34 0.45 0.39 0.40 0.37 0.42 0.44 0.39 0.50 0.50 0.46 0.37 0.51 0.35 0.42 0.49 0.47 0.36 0.38 0.52 0.37 0.37 0.36 0.52 0.36 0.36 0.49 0.47 0.37 0.46 0.39 0.41 0.51 0.37 0.41 0.51 0.42 0.39 0.43 0.38 0.42 0.40 0.46 0.39 0.39 0.39 0.49 0.48 0.38 0.43 0.43 0.38 0.52 0.37 0.41 0.47 0.41 0.36 0.47 0.34 0.53 0.48 0.41 0.40 0.40 0.41 0.37 0.34 0.51 0.36 0.42 0.48 0.49 0.49 0.33 0.39 0.37 0.49 0.34 0.50 0.47 0.47 0.38 0.34 0.34 0.34 0.39 0.44 0.40 0.45 0.40 -9999 -9999 -9999 -9999 -9999 -9999 -9999 -9999 -9999 -9999 -9999 -9999 -9999 -9999 -9999 -9999
0.46 0.45 0.42 0.47 0.36 0.48 0.46 0.52 0.51 0.45 0.45 0.44 0.49 0.38 0.46 0.34 0.49 0.44 0.51 0.43 0.44 0.48 0.46 0.48 0.33 0.52 0.47 0.38 0.43 0.52 0.48 0.35 0.36 0.42 0.50 0.35 0.40 0.41 0.43 0.46 0.44 0.36 0.52 0.48 0.41 0.35 0.42 0.38 0.40 0.52 0.52 0.40 0.35 0.52 0.50 0.46 0.47 0.40 0.48 0.41 0.48 0.34 0.39 0.42 0.35 0.41 0.45 0.47 0.34 0.44 0.48 0.48 0.36 0.38 0.43 0.34 0.41 0.37 0.52 0.48 0.47 0.38 0.47 0.44 0.47 0.51 0.50 0.37 0.36 0.42 0.38 0.52 0.33 0.44 0.40 0.52 0.45 0.41 0.37 0.39 0.44 0.45 0.47 0.39 0.41 0.52 0.40 0.51 0.43 0.48 0.34 0.49 0.48 0.35 0.35 0.33 0.42 0.42 0.45 0.41 0.39 0.39 0.38 0.48 0.45 0.50 0.39 0.46 0.43 0.38 0.36 0.38 0.36 0.43 0.49 0.35 0.34 0.36 0.36 0.40 0.37 0.51 0.47 0.35 0.47 0.39 0.50 0.43 0.43 0.50 0.52 0.43 0.44 0.46 0.50 0.43 0.34 0.50 0.47 0.36 0.50 0.45 0.44 0.45 0.42 0.42 0.49 0.47 0.49 0.33 0.52 0.37 0.39 0.34 0.36 0.33 0.50 0.48 0.35 0.37 0.50 0.49 0.49 0.38 0.45 0.38 0.33 0.52 0.44 0.42 0.43 0.43 0.35 0.49 0.37 0.34 0.37 0.41 0.51 -9999 -9999 -9999 -9999 -9999 -9999 -9999 -9999 -9999 -9999 -9999 -9999 -9999 -9999 -9999 -9999
0.53 0.39 0.37 0.39 0.39 0.48 0.49 0.46 0.43 0.44 0.37 0.43 0.36 0.44 0.39 0.36 0.45 0.47 0.41 0.39 0.35 0.45 0.43 0.38 0.44 0.45 0.43 0.49 0.50 0.37 0.39 0.36 0.47 0.49 0.53 0.35 0.37 0.40 0.36 0.48 0.42 0.40 0.45 0.39 0.45 0.52 0.37 0.49 0.51 0.34 0.40 0.40 0.38 0.38 0.42 0.35 0.38 0.45 0.38 0.52 0.42 0.51 0.37 0.49 0.34 0.40 0.38 0.43 0.50 0.40 0.49 0.48 0.41 0.50 0.47 0.42 0.36 0.51 0.34 0.51 0.34 0.50 0.36 0.39 0.35 0.35 0.33 0.42 0.40 0.50 0.42 0.39 0.50 0.46 0.45 0.52 0.37 0.35 0.41 0.42 0.35 0.50 0.35 0.39 0.34 0.35 0.37 0.46 0.40 0.36 0.44 0.44 0.50 0.33 0.47 0.39 0.44 0.36 0.50 0.52 0.40 0.42 0.35 0.51 0.37 0.44 0.40 0.36 0.41 0.52 0.44 0.46 0.37 0.37 0.37 0.39 0.38 0.52 0.45 0.45 0.37 0.46 0.48 0.44 0.41 0.36 0.43 0.51 0.40 0.46 0.35 0.38 0.51 0.48 0.51 0.50 0.35 0.50 0.46 0.48 0.41 0.44 0.39 0.33 0.45 0.53 0.49 0.48 0.50 0.50 0.37 0.35 0.47 0.45 0.44 0.51 0.44 0.50 0.44 0.34 0.44 0.49 0.41 0.38 0.48 0.48 0.34 0.39 0.46 0.42 0.43 0.44 0.51 0.33 0.46 0.49 0.34 0.40 0.36 -9999 -9999 -9999 -9999 -9999 -9999 -9999 -9999 -9999 -9999 -9999 -9999 -9999 -9999 -9999 -9999
0.50 0.39 0.38 0.33 0.39 0.51 0.42 0.52 0.41 0.39 0.45 0.45 0.33 0.43 0.43 0.43 0.47 0.43 0.35 0.47 0.43 0.48 0.52 0.48 0.33 0.47 0.44 0.50 0.51 0.39 0.49 0.41 0.51 0.52 0.34 0.49 0.37 0.34 0.41 0.46 0.37 0.45 0.42 0.45 0.35 0.50 0.40 0.43 0.50 0.42 0.42 0.49 0.34 0.46 0.51 0.49 0.44 0.50 0.47 0.52 0.35 0.46 0.45 0.50 0.40 0.35 0.38 0.34 0.49 0.36 0.47 0.39 0.40 0.44 0.49 0.38 0.45 0.37 0.36 0.47 0.36 0.46 0.44 0.47 0.40 0.42 0.38 0.33 0.40 0.45 0.47 0.42 0.47 0.51 0.43 0.36 0.43 0.39 0.44 0.38 0.41 0.51 0.47 0.52 0.40 0.49 0.35 0.50 0.39 0.44 0.47 0.39 0.46 0.47 0.44 0.51 0.35 0.34 0.43 0.40 0.35 0.35 0.47 0.42 0.42 0.48 0.42 0.47 0.36 0.44 0.49 0.51 0.45 0.40 0.52 0.50 0.47 0.45 0.39 0.44 0.49 0.42 0.44 0.33 0.33 0.44 0.35 0.45 0.33 0.40 0.46 0.39 0.42 0.37 0.42 0.43 0.36 0.44 0.38 0.47 0.52 0.34 0.34 0.50 0.49 0.37 0.38 0.37 0.49 0.49 0.44 0.39 0.38 0.35 0.48 0.49 0.42 0.45 0.50 0.50 0.48 0.35 0.35 0.49 0.48 0.37 0.51 0.45 0.40 0.39 0.39 0.50 0.47 0.46 0.47 0.51 0.35 0.53 0.40 -9999 -9999 -9999 -9999 -9999 -9999 -9999 -9999 -9999 -9999 -9999 -9999 -9999 -9999 -9999 -9999
0.40 0.34 0.35 0.41 0.46 0.37 0.38 0.36 0.38 0.49 0.39 0.41 0.50 0.50 0.41 0.48 0.38 0.46 0.45 0.44 0.36 0.43 0.51 0.41 0.41 0.51 0.50 0.35 0.33 0.43 0.37 0.37 0.46 0.49 0.52 0.33 0.42 0.42 0.35 0.33 0.49 0.39 0.41 0.38 0.38 0.52 0.42 0.34 0.50 0.37 0.41 0.40 0.41 0.42 0.48 0.36 0.51 0.37 0.42 0.49 0.47 0.35 0.50 0.37 0.46 0.51 0.44 0.42 0.45 0.38 0.42 0.52 0.40 0.39 0.50 0.41 0.52 0.51 0.44 0.36 0.37 0.36 0.42 0.42 0.50 0.52 0.48 0.51 0.47 0.35 0.47 0.42 0.47 0.50 0.35 0.35 0.37 0.37 0.51 0.47 0.35 0.49 0.52 0.36 0.49 0.49 0.34 0.43 0.46 0.48 0.48 0.38 0.39 0.37 0.37 0.44 0.44 0.38 0.42 0.52 0.38 0.48 0.39 0.53 0.45 0.48 0.39 0.36 0.35 0.33 0.46 0.51 0.34 0.46 0.40 0.41 0.41 0.43 0.52 0.34 0.40 0.35 0.49 0.52 0.52 0.35 0.34 0.44 0.45 0.49 0.45 0.39 0.41 0.42 0.46 0.43 0.41 0.42 0.47 0.52 0.35 0.36 0.46 0.43 0.51 0.46 0.48 0.41 0.37 0.50 0.46 0.34 0.38 0.36 0.37 0.46 0.35 0.35 0.38 0.42 0.40 0.50 0.47 0.44 0.52 0.52 0.46 0.51 0.38 0.39 0.47 0.44 0.43 0.44 0.52 0.50 0.41 0.40 0.51 0.51 -9999 -9999 -9999 -9999 -9999 -9999 -9999 -9999 -9999 -9999 -9999 -9999 -9999 -9999 -9999
0.43 0.44 0.44 0.52 0.44 0.50 0.42 0.53 0.34 0.36 0.39 0.33 0.50 0.48 0.52 0.47 0.47 0.50 0.46 0.43 0.41 0.48 0.43 0.37 0.34 0.49 0.33 0.33 0.44 0.36 0.50 0.49 0.34 0.42 0.37 0.49 0.35 0.46 0.47 0.42 0.45 0.47 0.49 0.51 0.47 0.49 0.48 0.36 0.39 0.44 0.46 0.39 0.52 0.39 0.41 0.37 0.45 0.42 0.51 0.45 0.46 0.44 0.48 0.46 0.39 0.33 0.48 0.44 0.48 0.51 0.40 0.41 0.34 0.49 0.46 0.38 0.36 0.41 0.41 0.35 0.47 0.36 0.43 0.52 0.38 0.44 0.47 0.35 0.49 0.52 0.34 0.46 0.40 0.42 0.52 0.39 0.47 0.44 0.33 0.47 0.38 0.34 0.46 0.51 0.39 0.44 0.33 0.34 0.33 0.36 0.50 0.52 0.52 0.41 0.40 0.49 0.33 0.40 0.44 0.33 0.34 0.52 0.41 0.36 0.47 0.46 0.43 0.48 0.39 0.48 0.51 0.37 0.51 0.48 0.49 0.45 0.37 0.35 0.41 0.42 0.34 0.47 0.44 0.35 0.37 0.41 0.52 0.51 0.49 0.39 0.45 0.48 0.53 0.44 0.38 0.34 0.51 0.39 0.39 0.42 0.37 0.35 0.44 0.39 0.40 0.33 0.46 0.39 0.39 0.38 0.44 0.33 0.38 0.46 0.46 0.46 0.42 0.45 0.42 0.40 0.49 0.38 0.44 0.51 0.42 0.48 0.49 0.36 0.50 0.41 0.46 0.39 0.49 0.38 0.40 0.41 0.48 0.47 0.33 0.53 -9999 -9999 -9999 0.51 0.51 0.34 0.33 0.37 0.37 -9999 -9999 -9999 -9999 -9999 -9999
0.35 0.42 0.40 0.43 0.46 0.48 0.47 0.40 0.45 0.38 0.40 0.41 0.51 0.45 0.38 0.50 0.44 0.36 0.35 0.48 0.41 0.47 0.48 0.41 0.43 0.49 0.46 0.42 0.37 0.52 0.47 0.33 0.43 0.45 0.45 0.43 0.47 0.34 0.42 0.38 0.40 0.50 0.43 0.37 0.48 0.42 0.39 0.39 0.50 0.50 0.38 0.34 0.40 0.41 0.39 0.37 0.42 0.41 0.52 0.37 0.43 0.47 0.50 0.37 0.50 0.34 0.42 0.45 0.42 0.51 0.34 0.46 0.35 0.45 0.43 0.49 0.47 0.41 0.39 0.49 0.49 0.33 0.44 0.48 0.45 0.41 0.38 0.48 0.46 0.39 0.38 0.51 0.50 0.35 0.42 0.35 0.34 0.40 0.36 0.36 0.38 0.51 0.43 0.33 0.38 0.34 0.52 0.52 0.38 0.34 0.41 0.49 0.37 0.36 0.43 0.38 0.39 0.43 0.50 0.47 0.46 0.37 0.51 0.50 0.52 0.46 0.42 0.52 0.43 0.40 0.33 0.34 0.50 0.42 0.40 0.48 0.36 0.45 0.42 0.52 0.33 0.49 0.40 0.42 0.35 0.33 0.44 0.49 0.42 0.34 0.47 0.40 0.49 0.34 0.51 0.52 0.52 0.46 0.45 0.37 0.39 0.39 0.50 0.50 0.35 0.47 0.51 0.45 0.38 0.36 0.39 0.38 0.39 0.49 0.43 0.48 0.52 0.34 0.34 0.33 0.35 0.41 0.35 0.38 0.51 0.52 0.38 0.34 0.46 0.34 0.48 0.51 0.35 0.36 0.44 0.47 0.42 0.44 0.51 0.42 0.47 0.40 0.47 0.49 0.47 0.44 0.51 0.52 0.50 0.42 -9999 -9999 -9999 -9999 -9999
0.39 0.44 0.39 0.35 0.44 0.51 0.44 0.41 0.45 0.34 0.34 0.37 0.40 0.50 0.47 0.34 0.44 0.39 0.41 0.49 0.40 0.44 0.48 0.33 0.52 0.46 0.39 0.51 0.39 0.43 0.36 0.49 0.45 0.51 0.45 0.38 0.37 0.48 0.43 0.40 0.52 0.42 0.49 0.33 0.46 0.45 0.36 0.35 0.52 0.39 0.47 0.36 0.41 0.41 0.50 0.49 0.36 0.41 0.49 0.38 0.41 0.38 0.46 0.47 0.43 0.42 0.40 0.39 0.52 0.50 0.46 0.52 0.47 0.36 0.42 0.34 0.45 0.33 0.45 0.42 0.41 0.35 0.49 0.50 0.40 0.36 0.46 0.44 0.36 0.50 0.39 0.52 0.37 0.33 0.51 0.37 0.41 0.48 0.51 0.50 0.34 0.45 0.40 0.35 0.43 0.45 0.49 0.51 0.38 0.46 0.41 0.36 0.38 0.34 0.36 0.50 0.51 0.37 0.37 0.43 0.38 0.33 0.46 0.47 0.44 0.45 0.46 0.41 0.34 0.41 0.37 0.33 0.38 0.46 0.48 0.34 0.34 0.45 0.36 0.48 0.50 0.37 0.33 0.46 0.40 0.37 0.48 0.41 0.37 0.45 0.40 0.45 0.51 0.52 0.44 0.40 0.40 0.43 0.51 0.35 0.44 0.45 0.39 0.47 0.34 0.46 0.48 0.50 0.47 0.42 0.37 0.36 0.42 0.44 0.39 0.43 0.50 0.47 0.49 0.42 0.39 0.40 0.46 0.33 0.51 0.39 0.39 0.43 0.38 0.41 0.42 0.39 0.48 0.38 0.38 0.33 0.42 0.44 0.51 0.43 0.48 0.40 0.52 0.36 0.43 0.51 0.37 0.50 0.41 0.52 -9999 -9999 -9999 -9999 -9999
0.34 0.52 0.49 0.37 0.49 0.52 0.38 0.44 0.43 0.38 0.34 0.46 0.50 0.42 0.47 0.40 0.47 0.39 0.50 0.41 0.51 0.48 0.35 0.47 0.35 0.51 0.41 0.47 0.48 0.37 0.33 0.37 0.52 0.42 0.35 0.40 0.36 0.43 0.37 0.51 0.38 0.33 0.51 0.35 0.42 0.43 0.41 0.49 0.36 0.36 0.36 0.49 0.42 0.40 0.50 0.36 0.42 0.36 0.34 0.33 0.45 0.40 0.35 0.45 0.50 0.45 0.45 0.35 0.42 0.46 0.49 0.42 0.38 0.36 0.36 0.33 0.39 0.33 0.40 0.40 0.49 0.44 0.49 0.47 0.42 0.34 0.39 0.37 0.47 0.40 0.48 0.38 0.40 0.35 0.40 0.50 0.45 0.41 0.43 0.38 0.46 0.41 0.46 0.48 0.48 0.45 0.34 0.51 0.34 0.43 0.35 0.43 0.36 0.45 0.37 0.48 0.51 0.44 0.33 0.38 0.44 0.45 0.50 0.42 0.35 0.36 0.38 0.41 0.53 0.33 0.42 0.34 0.52 0.49 0.52 0.48 0.49 0.37 0.52 0.38 0.37 0.41 0.47 0.39 0.50 0.48 0.49 0.35 0.52 0.51 0.42 0.39 0.47 0.52 0.49 0.33 0.49 0.39 0.35 0.36 0.36 0.49 0.45 0.34 0.39 0.45 0.39 0.45 0.36 0.46 0.52 0.44 0.43 0.39 0.36 0.52 0.37 0.36 0.42 0.36 0.36 0.43 0.45 0.50 0.47 0.42 0.53 0.49 0.44 0.34 0.38 0.52 0.44 0.44 0.42 0.52 0.37 0.38 0.51 0.47 0.43 0.35 0.44 0.33 0.42 0.35 0.51 0.51 0.40 0.33 -9999 -9999 -9999 -9999 -9999
0.48 0.47 0.41 0.46 0.37 0.34 0.33 0.43 0.36 0.41 0.51 0.48 0.38 0.53 0.50 0.51 0.44 0.40 0.36 0.48 0.45 0.38 0.51 0.46 0.47 0.52 0.49 0.47 0.42 0.52 0.45 0.47 0.41 0.47 0.43 0.47 0.45 0.38 0.43 0.45 0.51 0.37 0.37 0.34 0.49 0.41 0.40 0.42 0.51 0.42 0.46 0.49 0.47 0.49 0.33 0.46 0.40 0.38 0.51 0.43 0.47 0.48 0.41 0.49 0.37 0.47 0.35 0.39 0.38 0.52 0.43 0.40 0.40 0.40 0.50 0.33 0.48 0.39 0.35 0.51 0.40 0.34 0.40 0.45 0.46 0.41 0.35 0.36 0.44 0.41 0.45 0.34 0.36 0.49 0.44 0.45 0.42 0.33 0.38 0.38 0.46 0.50 0.46 0.43 0.50 0.53 0.41 0.45 0.47 0.41 0.43 0.37 0.39 0.52 0.48 0.47 0.49 0.50 0.44 0.48 0.47 0.40 0.35 0.37 0.38 0.51 0.38 0.47 0.41 0.39 0.43 0.37 0.41 0.34 0.40 0.38 0.43 0.51 0.48 0.34 0.39 0.50 0.45 0.44 0.49 0.36 0.52 0.43 0.36 0.39 0.37 0.50 0.41 0.48 0.48 0.50 0.41 0.43 0.35 0.50 0.43 0.46 0.49 0.37 0.45 0.47 0.43 0.45 0.48 0.50 0.50 0.44 0.35 0.52 0.39 0.49 0.41 0.51 0.48 0.34 0.51 0.39 0.40 0.47 0.36 0.36 0.52 0.45 0.39 0.33 0.37 0.42 0.48 0.49 0.49 0.50 0.47 0.44 0.42 0.49 0.46 0.43 0.51 0.48 0.38 0.34 0.41 0.51 0.37 0.49 -9999 -9999 -9999 -9999 -9999
0.52 0.37 0.33 0.47 0.46 0.41 0.33 0.51 0.33 0.49 0.35 0.47 0.39 0.45 0.45 0.33 0.38 0.41 0.34 0.42 0.49 0.48 0.50 0.44 0.38 0.34 0.51 0.39 0.40 0.37 0.42 0.50 0.45 0.51 0.36 0.41 0.42 0.42 0.45 0.35 0.45 0.36 0.52 0.52 0.35 0.40 0.37 0.39 0.52 0.46 0.44 0.39 0.41 0.34 0.33 0.51 0.36 0.45 0.45 0.47 0.46 0.49 0.50 0.37 0.43 0.46 0.48 0.36 0.38 0.38 0.38 0.42 0.45 0.38 0.42 0.41 0.52 0.51 0.48 0.47 0.33 0.37 0.49 0.38 0.39 0.37 0.41 0.49 0.46 0.39 0.50 0.39 0.43 0.48 0.49 0.48 0.47 0.48 0.35 0.36 0.38 0.48 0.50 0.45 0.40 0.43 0.38 0.43 0.50 0.49 0.46 0.33 0.40 0.45 0.35 0.40 0.37 0.50 0.40 0.48 0.44 0.46 0.40 0.39 0.52 0.37 0.45 0.40 0.41 0.40 0.37 0.33 0.33 0.49 0.48 0.34 0.33 0.51 0.48 0.46 0.46 0.45 0.40 0.39 0.33 0.50 0.46 0.37 0.34 0.49 0.45 0.33 0.48 0.38 0.51 0.44 0.39 0.42 0.45 0.52 0.48 0.51 0.49 0.39 0.51 0.34 0.34 0.40 0.51 0.43 0.38 0.44 0.41 0.48 0.36 0.51 0.51 0.44 0.47 0.53 0.45 0.42 0.44 0.44 0.42 0.50 0.45 0.35 0.47 0.49 0.51 0.48 0.42 0.33 0.35 0.43 0.43 0.39 0.48 0.45 0.44 0.38 0.36 0.36 0.43 0.45 0.36 0.48 0.34 0.37 -9999 -9999 -9999 -9999 -9999
0.49 0.38 0.46 0.49 0.47 0.49 0.36 0.36 0.50 0.43 0.47 0.39 0.35 0.51 0.43 0.37 0.36 0.46 0.48 0.47 0.51 0.33 0.34 0.38 0.46 0.50 0.38 0.37 0.51 0.51 0.44 0.41 0.51 0.51 0.46 0.45 0.38 0.44 0.49 0.37 0.40 0.42 0.37 0.35 0.38 0.49 0.34 0.42 0.52 0.44 0.45 0.50 0.51 0.33 0.34 0.38 0.49 0.50 0.34 0.44 0.52 0.37 0.35 0.52 0.46 0.45 0.47 0.52 0.40 0.47 0.45 0.42 0.36 0.49 0.43 0.52 0.46 0.52 0.50 0.34 0.51 0.52 0.46 0.42 0.33 0.47 0.36 0.49 0.38 0.36 0.38 0.48 0.45 0.33 0.38 0.40 0.49 0.37 0.44 0.51 0.49 0.43 0.40 0.49 0.49 0.50 0.40 0.38 0.50 0.48 0.40 0.44 0.48 0.38 0.42 0.40 0.39 0.44 0.39 0.41 0.42 0.37 0.38 0.47 0.43 0.33 0.42 0.47 0.49 0.45 0.38 0.52 0.47 0.48 0.43 0.46 0.40 0.35 0.52 0.53 0.42 0.37 0.51 0.46 0.50 0.46 0.47 0.42 0.51 0.37 0.40 0.38 0.42 0.35 0.47 0.51 0.40 0.52 0.47 0.40 0.52 0.45 0.53 0.46 0.48 0.42 0.49 0.34 0.39 0.48 0.53 0.36 0.41 0.45 0.41 0.48 0.51 0.37 0.47 0.35 0.35 0.35 0.46 0.43 0.46 0.52 0.40 0.50 0.41 0.40 0.48 0.39 0.33 0.48 0.52 0.42 0.44 0.51 0.35 0.34 0.46 0.52 0.35 0.52 0.47 0.36 0.48 0.49 0.36 0.40 -9999 -9999 -9999 -9999 -9999
0.51 0.38 0.33 0.48 0.34 0.50 0.48 0.50 0.47 0.43 0.49 0.38 0.50 0.45 0.41 0.39 0.44 0.36 0.50 0.49 0.37 0.38 0.37 0.51 0.40 0.38 0.36 0.37 0.50 0.42 0.38 0.50 0.36 0.49 0.39 0.43 0.52 0.37 0.35 0.48 0.35 0.45 0.42 0.43 0.50 0.43 0.52 0.50 0.44 0.52 0.39 0.51 0.41 0.45 0.34 0.35 0.35 0.34 0.49 0.52 0.33 0.49 0.40 0.44 0.34 0.41 0.44 0.37 0.47 0.35 0.44 0.36 0.39 0.38 0.51 0.35 0.39 0.46 0.40 0.45 0.33 0.35 0.42 0.42 0.45 0.45 0.45 0.47 0.43 0.48 0.36 0.40 0.37 0.37 0.33 0.49 0.47 0.45 0.42 0.36 0.50 0.41 0.44 0.36 0.35 0.44 0.43 0.33 0.38 0.48 0.43 0.52 0.50 0.49 0.44 0.36 0.48 0.49 0.43 0.35 0.43 0.36 0.42 0.51 0.36 0.48 0.33 0.38 0.52 0.44 0.36 0.46 0.39 0.44 0.46 0.37 0.42 0.47 0.49 0.44 0.49 0.42 0.33 0.52 0.43 0.36 0.33 0.47 0.44 0.43 0.50 0.39 0.39 0.37 0.41 0.34 0.33 0.38 0.34 0.37 0.35 0.38 0.33 0.51 0.49 0.42 0.45 0.43 0.45 0.36 0.39 0.47 0.50 0.47 0.42 0.35 0.43 0.36 0.41 0.47 0.34 0.43 0.33 0.49 0.45 0.37 0.50 0.35 0.38 0.48 0.47 0.48 0.43 0.43 0.34 0.45 0.34 0.38 0.39 0.35 0.41 0.33 0.50 0.49 0.41 0.52 0.44 0.52 0.52 0.35 -9999 -9999 -9999 -9999 -9999
0.43 0.51 0.46 0.39 0.52 0.40 0.44 0.46 0.49 0.52 0.37 0.37 0.41 0.34 0.36 0.40 0.34 0.34 0.37 0.41 0.44 0.41 0.45 0.52 0.42 0.39 0.50 0.51 0.47 0.39 0.33 0.38 0.40 0.49 0.38 0.44 0.33 0.47 0.44 0.46 0.49 0.48 0.48 0.46 0.43 0.36 0.45 0.35 0.33 0.38 0.38 0.50 0.43 0.43 0.42 0.44 0.34 0.33 0.42 0.48 0.37 0.38 0.50 0.43 0.33 0.48 0.37 0.51 0.43 0.41 0.52 0.39 0.43 0.46 0.47 0.44 0.47 0.38 0.41 0.51 0.44 0.33 0.38 0.36 0.50 0.38 0.33 0.45 0.36 0.50 0.34 0.47 0.34 0.52 0.41 0.41 0.36 0.42 0.34 0.49 0.38 0.45 0.40 0.37 0.36 0.42 0.45 0.52 0.52 0.45 0.39 0.48 0.50 0.34 0.47 0.51 0.51 0.48 0.46 0.48 0.47 0.46 0.41 0.49 0.52 0.44 0.51 0.45 0.50 0.41 0.41 0.33 0.34 0.42 0.33 0.38 0.49 0.46 0.52 0.49 0.47 0.33 0.51 0.50 0.34 0.43 0.34 0.46 0.41 0.34 0.40 0.36 0.47 0.47 0.49 0.47 0.37 0.36 0.40 0.51 0.52 0.43 0.46 0.46 0.49 0.48 0.38 0.33 0.48 0.36 0.48 0.52 0.41 0.48 0.41 0.51 0.37 0.45 0.50 0.45 0.33 0.38 0.34 0.42 0.50 0.40 0.40 0.35 0.50 0.41 0.41 0.45 0.49 0.36 0.47 0.43 0.38 0.39 0.40 0.43 0.36 0.49 0.45 0.48 0.44 0.37 0.36 0.35 0.35 0.43 0.41 -9999 -9999 -9999 -9999
0.39 0.35 0.36 0.34 0.33 0.34 0.52 0.38 0.34 0.33 0.52 0.50 0.36 0.42 0.36 0.42 0.41 0.45 0.41 0.49 0.43 0.34 0.53 0.45 0.40 0.52 0.52 0.39 0.50 0.51 0.37 0.34 0.51 0.39 0.50 0.37 0.50 0.48 0.35 0.33 0.34 0.34 0.47 0.46 0.36 0.36 0.52 0.42 0.47 0.34 0.45 0.40 0.49 0.36 0.46 0.39 0.52 0.52 0.41 0.37 0.43 0.35 0.44 0.53 0.41 0.52 0.42 0.41 0.48 0.33 0.47 0.49 0.40 0.46 0.39 0.41 0.34 0.44 0.52 0.35 0.52 0.36 0.33 0.42 0.51 0.44 0.35 0.42 0.34 0.38 0.39 0.51 0.51 0.46 0.48 0.39 0.49 0.42 0.36 0.41 0.39 0.44 0.46 0.42 0.34 0.33 0.39 0.50 0.49 0.36 0.51 0.47 0.38 0.51 0.52 0.41 0.41 0.42 0.43 0.48 0.52 0.52 0.51 0.48 0.34 0.35 0.45 0.38 0.37 0.45 0.44 0.50 0.35 0.46 0.37 0.35 0.41 0.35 0.49 0.49 0.35 0.36 0.43 0.47 0.44 0.39 0.36 0.35 0.44 0.33 0.48 0.48 0.41 0.34 0.46 0.49 0.49 0.43 0.35 0.50 0.41 0.52 0.47 0.51 0.38 0.34 0.33 0.38 0.50 0.42 0.37 0.50 0.46 0.43 0.47 0.34 0.48 0.36 0.37 0.44 0.40 0.45 0.44 0.46 0.34 0.50 0.51 0.51 0.34 0.52 0.35 0.48 0.51 0.44 0.44 0.35 0.45 0.42 0.41 0.51 0.51 0.36 0.34 0.49 0.47 0.44 0.40 0.53 0.47 0.48 0.37 -9999 -9999 -9999 -9999
0.52 0.51 0.46 0.35 0.41 0.42 0.36 0.43 0.45 0.44 0.35 0.46 0.51 0.43 0.45 0.45 0.34 0.53 0.49 0.36 0.47 0.52 0.38 0.33 0.44 0.43 0.34 0.33 0.42 0.38 0.49 0.39 0.35 0.44 0.44 0.50 0.43 0.36 0.46 0.38 0.36 0.36 0.52 0.51 0.39 0.33 0.43 0.38 0.36 0.35 0.34 0.40 0.47 0.33 0.36 0.39 0.48 0.43 0.43 0.46 0.45 0.44 0.34 0.33 0.36 0.36 0.45 0.51 0.52 0.33 0.38 0.45 0.43 0.36 0.42 0.47 0.46 0.41 0.44 0.47 0.36 0.52 0.51 0.43 0.35 0.51 0.36 0.47 0.46 0.44 0.47 0.51 0.46 0.40 0.49 0.42 0.40 0.49 0.39 0.35 0.42 0.37 0.50 0.43 0.35 0.39 0.44 0.51 0.50 0.52 0.45 0.45 0.34 0.37 0.53 0.43 0.52 0.48 0.47 0.45 0.41 0.36 0.44 0.37 0.35 0.43 0.39 0.37 0.48 0.51 0.47 0.42 0.49 0.39 0.36 0.45 0.42 0.52 0.51 0.38 0.44 0.43 0.33 0.49 0.51 0.53 0.36 0.37 0.50 0.48 0.50 0.44 0.50 0.41 0.39 0.53 0.47 0.34 0.46 0.41 0.36 0.34 0.50 0.47 0.42 0.38 0.36 0.37 0.44 0.35 0.33 0.51 0.51 0.42 0.49 0.49 0.37 0.36 0.48 0.48 0.37 0.47 0.34 0.49 0.38 0.36 0.41 0.39 0.44 0.51 0.34 0.49 0.46 0.35 0.34 0.45 0.37 0.46 0.33 0.33 0.33 0.52 0.43 0.39 0.41 0.52 0.41 0.52 0.34 0.38 0.52 -9999 -9999 -9999 -9999
0.44 0.46 0.50 0.35 0.39 0.46 0.46 0.38 0.38 0.36 0.52 0.38 0.51 0.39 0.49 0.36 0.44 0.34 0.34 0.51 0.50 0.46 0.51 0.42 0.40 0.37 0.49 0.34 0.46 0.34 0.41 0.42 0.42 0.41 0.52 0.38 0.43 0.41 0.41 0.52 0.35 0.38 0.41 0.35 0.45 0.46 0.52 0.45 0.51 0.38 0.42 0.50 0.46 0.39 0.39 0.52 0.47 0.44 0.50 0.47 0.38 0.39 0.36 0.48 0.50 0.43 0.34 0.43 0.33 0.34 0.46 0.49 0.35 0.49 0.51 0.52 0.33 0.42 0.45 0.38 0.44 0.52 0.47 0.43 0.35 0.42 0.35 0.35 0.49 0.47 0.49 0.50 0.47 0.46 0.52 0.45 0.33 0.37 0.50 0.36 0.36 0.40 0.44 0.35 0.36 0.39 0.39 0.34 0.34 0.33 0.38 0.47 0.46 0.51 0.44 0.48 0.48 0.46 0.43 0.45 0.44 0.44 0.50 0.45 0.40 0.47 0.51 0.42 0.47 0.45 0.47 0.34 0.34 0.39 0.47 0.36 0.41 0.40 0.34 0.37 0.35 0.34 0.46 0.34 0.45 0.38 0.50 0.52 0.51 0.51 0.38 0.44 0.39 0.41 0.47 0.38 0.38 0.47 0.33 0.39 0.50 0.41 0.51 0.40 0.40 0.35 0.46 0.39 0.45 0.39 0.51 0.40 0.38 0.38 0.34 0.41 0.52 0.35 0.47 0.43 0.42 0.52 0.34 0.34 0.44 0.43 0.40 0.39 0.50 0.40 0.45 0.45 0.52 0.50 0.34 0.44 0.52 0.39 0.38 0.39 0.47 0.53 0.45 0.35 0.40 0.43 0.35 0.37 0.51 0.38 0.52 -9999 -9999 -9999 -9999
0.49 0.45 0.34 0.50 0.41 0.46 0.38 0.46 0.51 0.40 0.50 0.48 0.37 0.47 0.36 0.33 0.50 0.52 0.37 0.44 0.40 0.49 0.51 0.38 0.49 0.41 0.42 0.38 0.40 0.38 0.34 0.44 0.47 0.42 0.33 0.35 0.42 0.34 0.51 0.51 0.49 0.47 0.44 0.35 0.51 0.46 0.45 0.34 0.37 0.42 0.48 0.42 0.46 0.37 0.33 0.34 0.44 0.52 0.49 0.38 0.42 0.35 0.37 0.36 0.36 0.48 0.52 0.48 0.43 0.48 0.35 0.44 0.48 0.48 0.52 0.50 0.33 0.48 0.39 0.37 0.38 0.44 0.47 0.49 0.52 0.52 0.46 0.45 0.38 0.36 0.41 0.49 0.34 0.38 0.35 0.47 0.35 0.36 0.37 0.45 0.45 0.42 0.40 0.47 0.48 0.33 0.49 0.35 0.44 0.50 0.35 0.34 0.43 0.45 0.52 0.44 0.39 0.33 0.35 0.51 0.49 0.33 0.41 0.43 0.48 0.33 0.39 0.49 0.38 0.51 0.51 0.45 0.36 0.50 0.47 0.45 0.51 0.50 0.39 0.42 0.45 0.44 0.46 0.49 0.48 0.51 0.43 0.37 0.37 0.38 0.50 0.40 0.37 0.45 0.49 0.49 0.52 0.43 0.47 0.37 0.47 0.35 0.33 0.46 0.46 0.43 0.42 0.33 0.40 0.42 0.36 0.39 0.43 0.43 0.44 0.44 0.40 0.41 0.38 0.38 0.49 0.42 0.53 0.51 0.49 0.47 0.51 0.41 0.49 0.46 0.49 0.34 0.45 0.41 0.37 0.52 0.47 0.49 0.51 0.50 0.36 0.45 0.36 0.52 0.47 0.52 0.37 0.34 0.33 0.42 0.37 -9999 -9999 -9999 -9999
0.33 0.53 0.43 0.36 0.35 0.47 0.45 0.37 0.38 0.42 0.34 0.33 0.38 0.35 0.40 0.52 0.50 0.39 0.51 0.49 0.50 0.34 0.33 0.46 0.47 0.41 0.49 0.34 0.38 0.50 0.37 0.45 0.45 0.33 0.44 0.39 0.36 0.51 0.43 0.34 0.49 0.34 0.52 0.40 0.41 0.39 0.46 0.38 0.37 0.49 0.38 0.48 0.50 0.48 0.44 0.44 0.46 0.50 0.34 0.51 0.38 0.33 0.48 0.34 0.35 0.34 0.47 0.49 0.34 0.51 0.47 0.38 0.44 0.36 0.50 0.50 0.51 0.43 0.40 0.43 0.39 0.40 0.37 0.35 0.44 0.40 0.52 0.48 0.42 0.48 0.52 0.34 0.47 0.37 0.44 0.39 0.49 0.34 0.40 0.50 0.43 0.44 0.40 0.50 0.33 0.49 0.47 0.40 0.41 0.44 0.44 0.34 0.39 0.37 0.42 0.36 0.43 0.49 0.46 0.51 0.42 0.48 0.49 0.35 0.37 0.40 0.52 0.35 0.33 0.38 0.42 0.42 0.42 0.41 0.35 0.46 0.42 0.44 0.48 0.47 0.50 0.48 0.36 0.40 0.33 0.47 0.46 0.48 0.34 0.47 0.47 0.49 0.34 0.33 0.34 0.45 0.36 0.44 0.35 0.46 0.45 0.33 0.39 0.40 0.42 0.33 0.46 0.48 0.52 0.47 0.42 0.38 0.34 0.39 0.41 0.52 0.34 0.35 0.46 0.43 0.52 0.35 0.37 0.44 0.38 0.33 0.51 0.39 0.48 0.42 0.35 0.38 0.46 0.52 0.40 0.49 0.36 0.47 0.34 0.52 0.53 0.46 0.41 0.44 0.33 0.41 0.49 0.44 0.42 0.41 0.48 -9999 -9999 -9999 -9999
0.47 0.45 0.46 0.43 0.40 0.42 0.41 0.52 0.45 0.47 0.45 0.44 0.43 0.48 0.40 0.35 0.38 0.46 0.35 0.50 0.36 0.50 0.43 0.40 0.52 0.49 0.41 0.37 0.41 0.44 0.50 0.49 0.48 0.51 0.37 0.37 0.52 0.35 0.51 0.43 0.44 0.42 0.42 0.48 0.44 0.50 0.44 0.52 0.40 0.48 0.41 0.50 0.44 0.51 0.43 0.40 0.52 0.36 0.45 0.44 0.36 0.42 0.38 0.42 0.33 0.37 0.43 0.37 0.34 0.33 0.45 0.39 0.33 0.48 0.51 0.40 0.48 0.35 0.45 0.47 0.50 0.44 0.39 0.36 0.42 0.43 0.44 0.38 0.51 0.35 0.35 0.51 0.43 0.45 0.38 0.35 0.45 0.42 0.40 0.48 0.37 0.49 0.52 0.45 0.47 0.37 0.40 0.50 0.43 0.43 0.46 0.42 0.47 0.52 0.51 0.51 0.50 0.34 0.45 0.35 0.38 0.34 0.38 0.35 0.40 0.51 0.40 0.48 0.35 0.37 0.49 0.46 0.46 0.37 0.44 0.46 0.37 0.38 0.40 0.37 0.49 0.48 0.48 0.40 0.40 0.41 0.40 0.52 0.36 0.49 0.49 0.46 0.45 0.47 0.45 0.39 0.38 0.44 0.52 0.45 0.40 0.48 0.51 0.42 0.42 0.53 0.41 0.36 0.49 0.43 0.49 0.41 0.45 0.39 0.41 0.39 0.34 0.42 0.45 0.40 0.35 0.41 0.49 0.50 0.49 0.44 0.40 0.34 0.48 0.47 0.48 0.52 0.51 0.37 0.45 0.33 0.34 0.51 0.36 0.39 0.39 0.46 0.42 0.43 0.50 0.50 0.33 0.42 0.40 0.45 0.35 0.44 -9999 -9999 -9999
0.49 0.51 0.46 0.36 0.48 0.39 0.46 0.34 0.42 0.41 0.39 0.41 0.36 0.53 0.49 0.50 0.48 0.50 0.47 0.35 0.45 0.48 0.44 0.51 0.47 0.49 0.35 0.34 0.35 0.36 0.52 0.37 0.35 0.51 0.41 0.42 0.35 0.39 0.42 0.37 0.35 0.39 0.50 0.37 0.52 0.34 0.45 0.37 0.33 0.34 0.34 0.42 0.33 0.46 0.52 0.35 0.37 0.50 0.41 0.51 0.43 0.48 0.41 0.42 0.50 0.33 0.52 0.47 0.38 0.45 0.44 0.51 0.46 0.51 0.47 0.53 0.35 0.42 0.38 0.47 0.52 0.44 0.44 0.37 0.52 0.50 0.51 0.52 0.48 0.43 0.34 0.40 0.42 0.43 0.35 0.37 0.44 0.33 0.41 0.35 0.42 0.38 0.45 0.47 0.37 0.43 0.42 0.38 0.51 0.50 0.40 0.53 0.42 0.47 0.39 0.38 0.35 0.52 0.35 0.45 0.52 0.44 0.37 0.39 0.46 0.36 0.43 0.40 0.50 0.38 0.41 0.36 0.51 0.52 0.50 0.45 0.52 0.50 0.45 0.47 0.45 0.42 0.46 0.44 0.45 0.48 0.47 0.49 0.38 0.47 0.48 0.36 0.49 0.39 0.42 0.40 0.48 0.41 0.50 0.39 0.35 0.47 0.38 0.51 0.49 0.38 0.37 0.36 0.39 0.33 0.50 0.48 0.53 0.49 0.41 0.45 0.43 0.41 0.47 0.41 0.43 0.41 0.50 0.33 0.46 0.33 0.34 0.48 0.36 0.39 0.41 0.33 0.44 0.51 0.41 0.47 0.46 0.52 0.52 0.40 0.48 0.50 0.48 0.40 0.35 0.38 0.45 0.38 0.34 0.52 0.43 0.51 -9999 -9999 -9999
0.33 0.39 0.47 0.50 0.42 0.35 0.46 0.47 0.42 0.46 0.35 0.51 0.44 0.34 0.37 0.45 0.47 0.50 0.33 0.42 0.37 0.40 0.45 0.47 0.50 0.40 0.39 0.38 0.43 0.51 0.46 0.47 0.39 0.36 0.46 0.51 0.39 0.51 0.37 0.33 0.39 0.48 0.33 0.52 0.43 0.44 0.40 0.49 0.51 0.49 0.36 0.42 0.48 0.52 0.42 0.51 0.41 0.43 0.37 0.39 0.34 0.38 0.34 0.41 0.48 0.53 0.34 0.44 0.44 0.39 0.49 0.42 0.43 0.40 0.34 0.45 0.42 0.49 0.42 0.48 0.33 0.38 0.40 0.48 0.48 0.34 0.42 0.33 0.43 0.46 0.52 0.40 0.49 0.34 0.45 0.37 0.46 0.51 0.37 0.50 0.37 0.51 0.34 0.42 0.42 0.47 0.33 0.40 0.35 0.35 0.51 0.42 0.49 0.41 0.42 0.34 0.36 0.47 0.43 0.39 0.40 0.40 0.36 0.46 0.44 0.41 0.43 0.51 0.49 0.37 0.43 0.51 0.42 0.42 0.38 0.51 0.49 0.49 0.44 0.46 0.43 0.45 0.39 0.41 0.47 0.44 0.49 0.49 0.51 0.33 0.39 0.34 0.34 0.33 0.45 0.51 0.42 0.41 0.40 0.44 0.41 0.45 0.45 0.50 0.37 0.37 0.38 0.52 0.44 0.42 0.35 0.35 0.35 0.48 0.50 0.51 0.43 0.41 0.43 0.47 0.35 0.45 0.38 0.44 0.44 0.47 0.50 0.49 0.50 0.35 0.52 0.48 0.39 0.52 0.48 0.52 0.47 0.39 0.51 0.47 0.37 0.49 0.49 0.52 0.35 0.48 0.49 0.34 0.50 0.42 0.46 0.35 -9999 -9999 -9999
0.34 0.38 0.45 0.51 0.37 0.46 0.41 0.34 0.38 0.49 0.40 0.36 0.37 0.42 0.51 0.36 0.33 0.43 0.44 0.46 0.51 0.42 0.51 0.49 0.33 0.37 0.52 0.52 0.49 0.50 0.52 0.43 0.35 0.45 0.36 0.38 0.51 0.40 0.47 0.35 0.34 0.47 0.45 0.52 0.41 0.49 0.35 0.42 0.38 0.51 0.37 0.50 0.38 0.44 0.42 0.46 0.35 0.46 0.37 0.50 0.37 0.44 0.38 0.42 0.48 0.40 0.41 0.41 0.40 0.46 0.34 0.43 0.48 0.46 0.47 0.50 0.46 0.53 0.49 0.44 0.43 0.53 0.41 0.45 0.42 0.50 0.34 0.39 0.39 0.44 0.37 0.33 0.50 0.48 0.35 0.33 0.36 0.40 0.46 0.43 0.38 0.44 0.37 0.41 0.48 0.45 0.35 0.41 0.45 0.38 0.36 0.34 0.35 0.39 0.43 0.39 0.46 0.51 0.40 0.41 0.33 0.39 0.42 0.48 0.43 0.34 0.34 0.45 0.46 0.35 0.39 0.49 0.46 0.39 0.49 0.52 0.44 0.50 0.45 0.35 0.49 0.36 0.45 0.37 0.39 0.36 0.51 0.48 0.38 0.45 0.47 0.45 0.49 0.46 0.36 0.50 0.42 0.38 0.41 0.42 0.48 0.39 0.52 0.45 0.38 0.38 0.49 0.34 0.33 0.42 0.34 0.44 0.44 0.40 0.42 0.46 0.38 0.46 0.34 0.35 0.42 0.46 0.38 0.52 0.49 0.46 0.46 0.45 0.33 0.48 0.39 0.36 0.49 0.52 0.52 0.37 0.45 0.44 0.36 0.48 0.50 0.40 0.42 0.41 0.43 0.34 0.51 0.45 0.39 0.34 0.45 0.43 -9999 -9999 -9999
0.51 0.43 0.47 0.34 0.48 0.46 0.34 0.39 0.36 0.43 0.39 0.40 0.36 0.49 0.40 0.50 0.51 0.43 0.39 0.51 0.50 0.42 0.37 0.50 0.49 0.33 0.35 0.49 0.38 0.39 0.48 0.40 0.34 0.44 0.34 0.37 0.34 0.46 0.41 0.33 0.47 0.40 0.38 0.38 0.42 0.48 0.35 0.41 0.51 0.40 0.44 0.35 0.50 0.50 0.43 0.44 0.51 0.52 0.33 0.38 0.52 0.52 0.35 0.40 0.42 0.39 0.47 0.45 0.51 0.48 0.37 0.44 0.34 0.44 0.43 0.44 0.40 0.34 0.34 0.48 0.46 0.40 0.45 0.35 0.44 0.51 0.49 0.46 0.44 0.49 0.33 0.52 0.34 0.33 0.49 0.51 0.50 0.51 0.53 0.35 0.46 0.46 0.40 0.33 0.49 0.42 0.45 0.36 0.45 0.35 0.46 0.40 0.33 0.50 0.35 0.45 0.41 0.51 0.46 0.46 0.52 0.49 0.49 0.43 0.48 0.52 0.43 0.40 0.44 0.37 0.39 0.48 0.34 0.37 0.52 0.41 0.41 0.35 0.47 0.38 0.33 0.38 0.53 0.44 0.35 0.49 0.34 0.34 0.38 0.34 0.37 0.45 0.41 0.46 0.44 0.47 0.46 0.49 0.51 0.35 0.51 0.51 0.46 0.47 0.48 0.49 0.39 0.50 0.50 0.50 0.38 0.41 0.51 0.39 0.48 0.46 0.49 0.43 0.44 0.41 0.45 0.50 0.44 0.41 0.45 0.49 0.49 0.41 0.39 0.36 0.37 0.36 0.39 0.52 0.41 0.46 0.40 0.38 0.42 0.37 0.36 0.52 0.41 0.42 0.52 0.52 0.52 0.43 0.47 0.52 0.51 0.44 -9999 -9999 -9999
0.37 0.40 0.33 0.38 0.33 0.40 0.37 0.49 0.46 0.44 0.42 0.34 0.39 0.46 0.37 0.36 0.45 0.33 0.42 0.40 0.36 0.45 0.47 0.38 0.51 0.38 0.38 0.44 0.41 0.42 0.51 0.46 0.48 0.50 0.37 0.42 0.38 0.50 0.50 0.51 0.39 0.47 0.36 0.52 0.35 0.42 0.47 0.34 0.50 0.34 0.44 0.38 0.44 0.50 0.33 0.36 0.41 0.42 0.47 0.35 0.45 0.37 0.48 0.50 0.35 0.34 0.36 0.38 0.48 0.41 0.50 0.37 0.45 0.37 0.42 0.44 0.41 0.33 0.35 0.33 0.42 0.52 0.39 0.35 0.37 0.39 0.49 0.44 0.41 0.33 0.40 0.33 0.37 0.46 0.43 0.43 0.49 0.47 0.33 0.40 0.49 0.52 0.52 0.37 0.49 0.37 0.34 0.34 0.41 0.49 0.45 0.42 0.38 0.39 0.34 0.41 0.44 0.50 0.46 0.51 0.33 0.41 0.40 0.48 0.42 0.34 0.43 0.37 0.50 0.46 0.45 0.33 0.49 0.50 0.37 0.53 0.35 0.33 0.37 0.49 0.34 0.49 0.49 0.52 0.50 0.47 0.38 0.38 0.51 0.35 0.36 0.42 0.43 0.51 0.50 0.52 0.48 0.36 0.44 0.48 0.41 0.51 0.51 0.44 0.34 0.50 0.45 0.34 0.50 0.37 0.42 0.48 0.41 0.40 0.46 0.44 0.35 0.48 0.43 0.52 0.42 0.49 0.43 0.47 0.48 0.38 0.34 0.43 0.36 0.42 0.48 0.43 0.41 0.39 0.52 0.42 0.51 0.42 0.33 0.42 0.42 0.51 0.49 0.33 0.35 0.33 0.37 0.51 0.51 0.34 0.50 0.34 -9999 -9999 -9999
0.35 0.48 0.42 0.48 0.46 0.51 0.38 0.47 0.42 0.37 0.38 0.36 0.50 0.33 0.50 0.38 0.40 0.34 0.37 0.37 0.38 0.48 0.50 0.34 0.35 0.34 0.47 0.51 0.49 0.51 0.47 0.49 0.36 0.46 0.36 0.45 0.44 0.39 0.49 0.42 0.44 0.44 0.52 0.44 0.42 0.35 0.39 0.47 0.43 0.35 0.35 0.44 0.40 0.38 0.42 0.52 0.52 0.51 0.34 0.49 0.36 0.50 0.37 0.41 0.48 0.51 0.48 0.52 0.50 0.49 0.45 0.39 0.42 0.49 0.38 0.38 0.44 0.36 0.43 0.52 0.49 0.35 0.50 0.51 0.42 0.51 0.53 0.51 0.39 0.46 0.37 0.42 0.42 0.46 0.34 0.41 0.33 0.44 0.40 0.48 0.47 0.39 0.51 0.48 0.42 0.45 0.46 0.43 0.44 0.52 0.48 0.44 0.49 0.33 0.46 0.47 0.37 0.39 0.39 0.37 0.52 0.41 0.34 0.49 0.34 0.34 0.44 0.34 0.36 0.47 0.46 0.49 0.50 0.37 0.48 0.37 0.47 0.37 0.45 0.44 0.38 0.39 0.52 0.48 0.36 0.43 0.44 0.37 0.47 0.34 0.50 0.52 0.48 0.40 0.34 0.44 0.40 0.40 0.49 0.44 0.46 0.46 0.34 0.38 0.48 0.35 0.46 0.34 0.33 0.48 0.41 0.47 0.45 0.46 0.43 0.43 0.37 0.38 0.40 0.49 0.48 0.44 0.42 0.52 0.42 0.41 0.37 0.46 0.52 0.37 0.33 0.35 0.51 0.38 0.51 0.34 0.35 0.35 0.46 0.47 0.35 0.47 0.44 0.44 0.46 0.35 0.46 0.43 0.41 0.44 0.36 0.48 0.48 -9999 -9999
0.50 0.36 0.42 0.52 0.33 0.40 0.35 0.38 0.41 0.50 0.44 0.47 0.37 0.51 0.49 0.42 0.42 0.53 0.43 0.40 0.48 0.40 0.43 0.42 0.46 0.37 0.51 0.40 0.38 0.51 0.49 0.50 0.52 0.37 0.52 0.52 0.38 0.43 0.39 0.34 0.47 0.51 0.51 0.35 0.43 0.38 0.53 0.49 0.48 0.36 0.43 0.52 0.40 0.52 0.42 0.46 0.42 0.50 0.52 0.44 0.38 0.36 0.48 0.48 0.48 0.36 0.46 0.52 0.47 0.41 0.33 0.36 0.44 0.50 0.36 0.42 0.39 0.33 0.39 0.42 0.37 0.39 0.42 0.41 0.44 0.36 0.41 0.34 0.34 0.38 0.49 0.49 0.49 0.42 0.40 0.49 0.41 0.35 0.40 0.39 0.52 0.43 0.36 0.49 0.35 0.47 0.52 0.47 0.34 0.38 0.50 0.52 0.47 0.42 0.40 0.49 0.45 0.51 0.52 0.37 0.50 0.33 0.36 0.46 0.41 0.49 0.47 0.51 0.38 0.33 0.44 0.47 0.50 0.36 0.41 0.34 0.40 0.40 0.46 0.40 0.38 0.40 0.41 0.41 0.45 0.42 0.39 0.43 0.40 0.45 0.44 0.52 0.52 0.35 0.42 0.40 0.45 0.50 0.37 0.38 0.42 0.47 0.47 0.52 0.38 0.36 0.48 0.48 0.49 0.38 0.43 0.51 0.46 0.39 0.37 0.49 0.50 0.44 0.45 0.36 0.49 0.49 0.33 0.42 0.50 0.42 0.51 0.47 0.33 0.41 0.33 0.40 0.50 0.47 0.39 0.46 0.42 0.50 0.47 0.42 0.39 0.49 0.39 0.51 0.37 0.43 0.51 0.34 0.33 0.49 0.37 0.48 0.40 -9999 -9999
0.35 0.44 0.44 0.33 0.50 0.48 0.43 0.37 0.36 0.49 0.35 0.52 0.38 0.43 0.45 0.50 0.37 0.33 0.46 0.36 0.51 0.51 0.48 0.34 0.50 0.47 0.52 0.47 0.41 0.35 0.39 0.40 0.51 0.39 0.40 0.46 0.49 0.34 0.44 0.46 0.46 0.50 0.38 0.43 0.38 0.48 0.51 0.48 0.43 0.46 0.52 0.51 0.44 0.51 0.34 0.41 0.45 0.42 0.33 0.34 0.44 0.50 0.41 0.50 0.34 0.38 0.47 0.42 0.40 0.42 0.44 0.49 0.42 0.34 0.49 0.43 0.41 0.35 0.36 0.46 0.50 0.45 0.52 0.36 0.52 0.41 0.51 0.38 0.35 0.38 0.49 0.38 0.48 0.52 0.36 0.50 0.33 0.47 0.43 0.39 0.38 0.37 0.47 0.37 0.43 0.34 0.47 0.40 0.39 0.47 0.43 0.37 0.37 0.49 0.39 0.41 0.44 0.40 0.52 0.40 0.52 0.34 0.45 0.40 0.49 0.37 0.43 0.48 0.45 0.46 0.39 0.52 0.37 0.51 0.47 0.47 0.45 0.44 0.47 0.47 0.37 0.36 0.44 0.49 0.37 0.40 0.47 0.47 0.37 0.34 0.40 0.41 0.35 0.44 0.37 0.45 0.36 0.42 0.51 0.51 0.49 0.44 0.48 0.46 0.41 0.38 0.33 0.36 0.42 0.43 0.37 0.34 0.43 0.51 0.49 0.48 0.45 0.47 0.39 0.33 0.44 0.50 0.40 0.52 0.51 0.34 0.44 0.33 0.49 0.47 0.40 0.35 0.52 0.40 0.44 0.38 0.43 0.37 0.36 0.43 0.37 0.44 0.50 0.34 0.39 0.51 0.33 0.34 0.39 0.46 0.52 0.36 0.49 -9999 -9999
0.44 0.40 0.45 0.41 0.38 0.34 0.44 0.34 0.43 0.42 0.36 0.40 0.39 0.41 0.49 0.41 0.40 0.45 0.41 0.46 0.44 0.48 0.52 0.53 0.42 0.47 0.42 0.37 0.34 0.53 0.34 0.44 0.36 0.40 0.41 0.39 0.39 0.46 0.42 0.51 0.49 0.49 0.47 0.47 0.47 0.38 0.36 0.38 0.43 0.42 0.36 0.35 0.48 0.41 0.38 0.46 0.47 0.43 0.33 0.36 0.50 0.42 0.51 0.42 0.44 0.35 0.33 0.49 0.36 0.52 0.44 0.40 0.44 0.37 0.50 0.48 0.39 0.42 0.49 0.39 0.50 0.46 0.38 0.37 0.46 0.38 0.33 0.35 0.40 0.36 0.49 0.48 0.43 0.46 0.37 0.52 0.44 0.45 0.50 0.45 0.50 0.33 0.35 0.40 0.49 0.40 0.52 0.49 0.49 0.44 0.52 0.42 0.33 0.43 0.47 0.33 0.40 0.35 0.47 0.34 0.45 0.39 0.34 0.43 0.46 0.49 0.43 0.49 0.40 0.46 0.37 0.39 0.51 0.52 0.39 0.47 0.48 0.49 0.51 0.48 0.49 0.46 0.51 0.49 0.37 0.47 0.52 0.48 0.34 0.40 0.50 0.38 0.50 0.37 0.51 0.49 0.37 0.52 0.44 0.38 0.43 0.41 0.43 0.41 0.46 0.50 0.40 0.50 0.43 0.45 0.51 0.52 0.42 0.52 0.48 0.50 0.41 0.39 0.45 0.39 0.40 0.47 0.41 0.36 0.42 0.40 0.43 0.47 0.45 0.53 0.40 0.36 0.52 0.51 0.34 0.50 0.33 0.42 0.43 0.48 0.40 0.51 0.52 0.37 0.42 0.46 0.47 0.48 0.44 0.37 0.36 0.49 0.38 -9999 -9999
0.51 0.39 0.33 0.36 0.42 0.49 0.44 0.44 0.50 0.43 0.37 0.49 0.35 0.42 0.49 0.39 0.47 0.35 0.44 0.34 0.34 0.41 0.37 0.50 0.39 0.33 0.36 0.48 0.34 0.49 0.41 0.50 0.44 0.45 0.40 0.34 0.40 0.52 0.36 0.36 0.39 0.33 0.36 0.49 0.41 0.48 0.33 0.33 0.47 0.51 0.38 0.37 0.48 0.39 0.34 0.43 0.37 0.52 0.43 0.49 0.33 0.53 0.35 0.52 0.52 0.48 0.36 0.35 0.41 0.53 0.44 0.49 0.40 0.38 0.36 0.51 0.46 0.39 0.37 0.51 0.35 0.45 0.44 0.44 0.40 0.48 0.33 0.47 0.38 0.37 0.51 0.49 0.48 0.51 0.44 0.33 0.52 0.46 0.44 0.35 0.34 0.43 0.53 0.51 0.41 0.50 0.38 0.50 0.40 0.42 0.34 0.34 0.46 0.37 0.48 0.41 0.36 0.40 0.47 0.34 0.51 0.33 0.49 0.37 0.43 0.47 0.41 0.40 0.51 0.42 0.50 0.37 0.52 0.44 0.43 0.41 0.50 0.46 0.33 0.42 0.38 0.34 0.40 0.42 0.42 0.51 0.40 0.37 0.52 0.38 0.47 0.42 0.41 0.38 0.34 0.39 0.34 0.47 0.47 0.33 0.39 0.51 0.52 0.39 0.47 0.37 0.37 0.35 0.37 0.40 0.51 0.33 0.40 0.38 0.35 0.52 0.52 0.39 0.44 0.40 0.38 0.39 0.35 0.45 0.33 0.33 0.52 0.34 0.35 0.36 0.40 0.38 0.44 0.47 0.47 0.36 0.37 0.35 0.38 0.50 0.38 0.45 0.44 0.44 0.52 0.35 0.52 0.38 0.51 0.48 0.37 0.35 0.36 -9999 -9999
0.46 0.36 0.52 0.33 0.47 0.38 0.40 0.36 0.50 0.47 0.43 0.44 0.36 0.43 0.37 0.52 0.33 0.50 0.46 0.49 0.33 0.50 0.51 0.44 0.37 0.36 0.42 0.53 0.46 0.36 0.40 0.52 0.35 0.35 0.44 0.47 0.35 0.38 0.48 0.47 0.37 0.44 0.39 0.45 0.37 0.44 0.41 0.44 0.41 0.50 0.52 0.37 0.48 0.51 0.40 0.52 0.45 0.49 0.50 0.48 0.38 0.49 0.42 0.48 0.39 0.34 0.52 0.37 0.45 0.36 0.33 0.47 0.43 0.38 0.39 0.45 0.47 0.49 0.41 0.42 0.37 0.33 0.41 0.43 0.35 0.47 0.38 0.44 0.47 0.51 0.42 0.49 0.50 0.45 0.49 0.46 0.37 0.49 0.40 0.43 0.51 0.38 0.46 0.45 0.40 0.52 0.47 0.51 0.38 0.47 0.43 0.40 0.40 0.43 0.46 0.35 0.43 0.45 0.44 0.35 0.51 0.43 0.42 0.47 0.46 0.46 0.41 0.36 0.52 0.52 0.50 0.37 0.51 0.39 0.43 0.47 0.52 0.34 0.50 0.33 0.41 0.41 0.50 0.38 0.35 0.43 0.37 0.38 0.49 0.33 0.37 0.46 0.35 0.39 0.34 0.40 0.37 0.48 0.42 0.49 0.40 0.45 0.35 0.50 0.52 0.35 0.50 0.42 0.44 0.41 0.33 0.40 0.37 0.41 0.46 0.38 0.41 0.40 0.40 0.45 0.39 0.52 0.45 0.48 0.40 0.34 0.46 0.37 0.34 0.33 0.44 0.44 0.37 0.40 0.40 0.45 0.44 0.34 0.52 0.33 0.48 0.36 0.49 0.42 0.44 0.47 0.46 0.46 0.47 0.38 0.43 0.39 0.33 -9999 -9999
0.41 0.44 0.39 0.47 0.40 0.45 0.48 0.40 0.44 0.45 0.43 0.36 0.50 0.42 0.39 0.52 0.37 0.44 0.37 0.39 0.33 0.40 0.36 0.41 0.52 0.48 0.41 0.44 0.46 0.44 0.37 0.52 0.45 0.34 0.40 0.49 0.38 0.37 0.50 0.35 0.44 0.50 0.41 0.49 0.38 0.33 0.49 0.43 0.45 0.52 0.45 0.37 0.41 0.45 0.39 0.36 0.36 0.35 0.42 0.46 0.47 0.35 0.53 0.53 0.48 0.47 0.48 0.37 0.33 0.48 0.33 0.49 0.36 0.46 0.49 0.45 0.43 0.46 0.35 0.45 0.35 0.48 0.38 0.42 0.50 0.45 0.41 0.52 0.40 0.40 0.43 0.41 0.34 0.50 0.36 0.49 0.41 0.45 0.42 0.33 0.42 0.40 0.47 0.44 0.39 0.49 0.34 0.44 0.45 0.45 0.36 0.50 0.40 0.50 0.37 0.52 0.48 0.47 0.50 0.45 0.50 0.35 0.43 0.36 0.48 0.33 0.44 0.40 0.44 0.44 0.41 0.48 0.49 0.52 0.35 0.41 0.41 0.42 0.50 0.52 0.42 0.51 0.43 0.49 0.35 0.45 0.39 0.36 0.45 0.49 0.42 0.43 0.48 0.38 0.47 0.46 0.46 0.52 0.52 0.52 0.37 0.38 0.36 0.52 0.34 0.35 0.36 0.51 0.39 0.50 0.36 0.36 0.50 0.47 0.34 0.35 0.42 0.50 0.33 0.37 0.40 0.49 0.39 0.50 0.51 0.35 0.49 0.39 0.34 0.44 0.51 0.49 0.51 0.39 0.42 0.37 0.45 0.40 0.36 0.52 0.36 0.49 0.52 0.46 0.39 0.38 0.46 0.46 0.36 0.46 0.50 0.38 0.48 -9999 -9999
0.43 0.48 0.38 0.39 0.35 0.50 0.38 0.46 0.52 0.46 0.38 0.33 0.48 0.44 0.41 0.46 0.34 0.50 0.47 0.52 0.44 0.49 0.42 0.46 0.41 0.48 0.50 0.40 0.37 0.51 0.52 0.52 0.45 0.38 0.38 0.47 0.41 0.42 0.44 0.37 0.37 0.39 0.34 0.35 0.35 0.46 0.37 0.48 0.37 0.34 0.33 0.44 0.38 0.37 0.49 0.44 0.50 0.40 0.42 0.33 0.42 0.38 0.41 0.36 0.37 0.36 0.50 0.43 0.43 0.46 0.50 0.50 0.42 0.35 0.36 0.37 0.36 0.43 0.47 0.52 0.43 0.37 0.52 0.33 0.50 0.40 0.52 0.45 0.43 0.34 0.46 0.45 0.52 0.45 0.45 0.50 0.44 0.51 0.50 0.46 0.44 0.33 0.45 0.46 0.45 0.42 0.51 0.33 0.36 0.50 0.48 0.47 0.44 0.45 0.33 0.41 0.52 0.43 0.49 0.49 0.46 0.46 0.35 0.34 0.43 0.40 0.44 0.44 0.35 0.38 0.46 0.50 0.50 0.36 0.43 0.49 0.42 0.46 0.42 0.52 0.43 0.34 0.44 0.42 0.40 0.39 0.40 0.39 0.34 0.46 0.42 0.48 0.42 0.40 0.39 0.37 0.41 0.39 0.52 0.37 0.35 0.49 0.33 0.37 0.43 0.41 0.36 0.47 0.46 0.35 0.37 0.50 0.34 0.35 0.49 0.49 0.51 0.42 0.40 0.46 0.38 0.39 0.41 0.35 0.39 0.52 0.37 0.45 0.35 0.35 0.35 0.49 0.49 0.36 0.47 0.45 0.52 0.47 0.36 0.37 0.49 0.40 0.46 0.35 0.47 0.38 0.34 0.33 0.38 0.35 0.49 -9999 -9999 -9999 -9999
0.43 0.46 0.50 0.43 0.43 0.49 0.41 0.46 0.42 0.36 0.37 0.39 0.49 0.39 0.35 0.44 0.45 0.44 0.43 0.47 0.42 0.38 0.46 0.38 0.52 0.40 0.42 0.36 0.52 0.39 0.48 0.49 0.52 0.41 0.39 0.36 0.48 0.50 0.52 0.52 0.52 0.47 0.38 0.44 0.44 0.47 0.46 0.45 0.34 0.50 0.38 0.47 0.49 0.49 0.51 0.46 0.37 0.49 0.34 0.50 0.40 0.34 0.44 0.43 0.47 0.53 0.51 0.46 0.45 0.43 0.39 0.51 0.46 0.38 0.45 0.33 0.33 0.43 0.42 0.45 0.36 0.44 0.47 0.43 0.39 0.40 0.50 0.40 0.39 0.42 0.36 0.49 0.37 0.42 0.41 0.42 0.36 0.51 0.33 0.34 0.42 0.51 0.35 0.39 0.49 0.48 0.48 0.49 0.49 0.48 0.40 0.39 0.36 0.38 0.49 0.33 0.48 0.41 0.47 0.52 0.38 0.47 0.45 0.52 0.45 0.41 0.33 0.46 0.47 0.40 0.41 0.51 0.36 0.51 0.50 0.45 0.38 0.37 0.38 0.38 0.49 0.51 0.36 0.45 0.43 0.39 0.38 0.46 0.35 0.47 0.53 0.34 0.49 0.39 0.47 0.41 0.37 0.37 0.49 0.52 0.43 0.45 0.48 0.33 0.48 0.50 0.37 0.34 0.35 0.35 0.47 0.38 0.39 0.47 0.37 0.33 0.41 0.40 0.45 0.39 0.35 0.48 0.37 0.45 0.41 0.35 0.45 0.38 0.35 0.40 0.45 0.50 0.45 0.41 0.42 0.44 0.52 0.36 0.44 0.47 0.34 0.50 0.41 0.51 -9999 -9999 -9999 -9999 -9999 -9999 -9999 -9999 -9999 -9999 -9999
0.49 0.41 0.50 0.35 0.45 0.36 0.49 0.38 0.36 0.44 0.50 0.49 0.34 0.40 0.33 0.47 0.43 0.52 0.39 0.48 0.41 0.49 0.38 0.41 0.42 0.43 0.40 0.38 0.50 0.33 0.37 0.35 0.45 0.49 0.39 0.37 0.43 0.45 0.46 0.43 0.37 0.40 0.34 0.42 0.36 0.33 0.49 0.39 0.46 0.44 0.43 0.41 0.51 0.48 0.43 0.48 0.35 0.50 0.43 0.40 0.38 0.36 0.36 0.37 0.36 0.51 0.41 0.35 0.38 0.41 0.45 0.41 0.51 0.41 0.46 0.38 0.51 0.52 0.43 0.48 0.42 0.33 0.46 0.48 0.33 0.36 0.41 0.34 0.51 0.52 0.36 0.46 0.47 0.36 0.33 0.50 0.47 0.49 0.49 0.42 0.34 0.51 0.38 0.43 0.51 0.41 0.34 0.42 0.40 0.38 0.52 0.33 0.35 0.49 0.36 0.46 0.53 0.37 0.38 0.52 0.51 0.51 0.50 0.46 0.41 0.34 0.48 0.50 0.39 0.42 0.38 0.49 0.48 0.34 0.47 0.51 0.51 0.51 0.39 0.33 0.48 0.33 0.48 0.36 0.52 0.41 0.42 0.50 0.37 0.48 0.43 0.49 0.41 0.42 0.33 0.47 0.51 0.45 0.50 0.36 0.45 0.41 0.47 0.46 0.45 0.48 0.43 0.36 0.41 0.43 0.43 0.43 0.35 0.41 0.38 0.52 0.48 0.42 0.33 0.50 0.41 0.48 0.43 0.52 0.33 0.52 0.42 0.40 0.42 0.46 0.41 0.38 0.37 0.44 0.49 0.44 0.41 0.42 -9999 -9999 -9999 -9999 -9999 -9999 -9999 -9999 -9999 -9999 -9999 -9999 -9999 -9999 -9999 -9999 -9999
0.40 0.44 0.45 0.46 0.43 0.48 0.38 0.36 0.48 0.39 0.46 0.33 0.39 0.44 0.34 0.34 0.45 0.37 0.52 0.35 0.48 0.49 0.51 0.47 0.49 0.36 0.33 0.44 0.43 0.43 0.39 0.36 0.38 0.45 0.35 0.49 0.43 0.38 0.35 0.43 0.42 0.37 0.40 0.38 0.34 0.41 0.39 0.51 0.51 0.46 0.39 0.53 0.37 0.44 0.40 0.35 0.51 0.41 0.43 0.41 0.35 0.51 0.37 0.50 0.35 0.52 0.38 0.36 0.51 0.40 0.34 0.34 0.39 0.39 0.49 0.42 0.37 0.43 0.53 0.36 0.35 0.34 0.44 0.41 0.45 0.45 0.33 0.33 0.51 0.33 0.39 0.35 0.34 0.45 0.42 0.41 0.36 0.33 0.48 0.38 0.42 0.43 0.47 0.38 0.45 0.47 0.34 0.43 0.36 0.37 0.41 0.50 0.48 0.51 0.39 0.35 0.41 0.52 0.50 0.44 0.45 0.41 0.52 0.41 0.38 0.34 0.36 0.48 0.33 0.53 0.37 0.38 0.50 0.38 0.48 0.41 0.47 0.42 0.33 0.45 0.48 0.49 0.43 0.36 0.46 0.37 0.36 0.42 0.33 0.37 0.34 0.40 0.40 0.34 0.43 0.40 0.50 0.46 0.50 0.37 0.46 0.39 0.39 0.42 0.48 0.43 0.47 0.45 0.45 0.43 0.40 0.48 0.49 0.53 0.34 0.34 0.41 0.49 0.46 0.41 0.37 0.44 0.51 0.43 0.52 0.37 0.48 0.51 0.47 0.38 0.40 -9999 -9999 -9999 -9999 -9999 -9999 -9999 -9999 -9999 -9999 -9999 -9999 -9999 -9999 -9999 -9999 -9999 -9999 -9999 -9999 -9999 -9999 -9999 -9999
0.43 0.51 0.45 0.40 0.51 0.47 0.40 0.44 0.45 0.40 0.39 0.42 0.35 0.38 0.50 0.36 0.41 0.43 0.34 0.53 0.40 0.51 0.53 0.41 0.40 0.45 0.39 0.45 0.33 0.51 0.47 0.43 0.53 0.49 0.48 0.36 0.42 0.49 0.51 0.50 0.34 0.34 0.33 0.43 0.36 0.39 0.36 0.38 0.35 0.42 0.34 0.41 0.48 0.44 0.48 0.40 0.44 0.43 0.43 0.45 0.35 0.49 0.46 0.47 0.42 0.41 0.33 0.51 0.42 0.51 0.38 0.34 0.36 0.51 0.50 0.48 0.46 0.37 0.51 0.35 0.35 0.37 0.43 0.49 0.36 0.49 0.36 0.33 0.51 0.44 0.39 0.42 0.34 0.42 0.52 0.34 0.46 0.39 0.52 0.37 0.43 0.46 0.36 0.48 0.46 0.38 0.45 0.35 0.34 0.35 0.49 0.41 0.49 0.50 0.39 0.35 0.35 0.36 0.45 0.40 0.36 0.42 0.48 0.39 0.34 0.53 0.46 0.36 0.33 0.39 0.48 0.44 0.46 0.42 0.44 0.45 0.49 0.37 0.36 0.52 0.51 0.45 0.45 0.45 0.34 0.40 0.37 0.52 0.50 0.39 0.35 0.44 0.35 0.35 0.37 0.33 0.38 0.42 0.40 0.49 0.50 0.49 0.36 0.34 0.47 0.37 0.38 0.51 0.45 0.44 0.48 0.44 0.35 0.48 0.46 0.34 0.35 0.34 0.38 0.44 0.35 0.49 0.50 0.46 -9999 -9999 -9999 -9999 -9999 -9999 -9999 -9999 -9999 -9999 -9999 -9999 -9999 -9999 -9999 -9999 -9999 -9999 -9999 -9999 -9999 -9999 -9999 -9999 -9999 -9999 -9999 -9999 -9999 -9999 -9999
0.48 0.37 0.39 0.41 0.49 0.39 0.34 0.50 0.45 0.39 0.35 0.35 0.42 0.42 0.48 0.40 0.42 0.44 0.36 0.40 0.38 0.36 0.35 0.51 0.51 0.44 0.39 0.38 0.40 0.48 0.34 0.37 0.35 0.39 0.45 0.40 0.34 0.42 0.36 0.35 0.38 0.39 0.38 0.36 0.40 0.35 0.37 0.40 0.49 0.43 0.52 0.47 0.46 0.41 0.43 0.35 0.38 0.38 0.47 0.33 0.50 0.44 0.42 0.39 0.44 0.46 0.39 0.37 0.42 0.46 0.49 0.50 0.34 0.48 0.39 0.34 0.35 0.35 0.46 0.40 0.33 0.45 0.46 0.36 0.51 0.52 0.39 0.41 0.46 0.51 0.33 0.46 0.45 0.48 0.40 0.41 0.36 0.43 0.44 0.42 0.38 0.37 0.37 0.40 0.47 0.44 0.42 0.51 0.42 0.49 0.44 0.47 0.43 0.49 0.38 0.36 0.50 0.40 0.43 0.35 0.52 0.38 0.43 0.45 0.39 0.52 0.46 0.38 0.47 0.51 0.37 0.46 0.51 0.49 0.36 0.52 0.44 0.46 0.39 0.41 0.49 0.44 0.49 0.33 0.47 0.42 0.47 0.44 0.38 0.34 0.47 0.46 0.48 0.40 0.51 0.51 0.38 0.39 0.37 0.49 0.37 0.38 0.51 0.44 0.34 0.46 0.41 0.48 0.35 0.52 0.38 0.51 0.35 0.47 0.46 0.41 0.41 -9999 -9999 -9999 -9999 -9999 -9999 -9999 -9999 -9999 -9999 -9999 -9999 -9999 -9999 -9999 -9999 -9999 -9999 -9999 -9999 -9999 -9999 -9999 -9999 -9999 -9999 -9999 -9999 -9999 -9999 -9999 -9999 -9999 -9999 -9999 -9999 -9999 -9999
0.48 0.47 0.51 0.35 0.36 0.34 0.43 0.39 0.38 0.35 0.45 0.44 0.39 0.46 0.43 0.51 0.39 0.39 0.52 0.46 0.49 0.41 0.47 0.39 0.48 0.49 0.34 0.33 0.39 0.49 0.45 0.49 0.42 0.51 0.41 0.33 0.48 0.46 0.46 0.37 0.46 0.44 0.44 0.40 0.43 0.51 0.34 0.51 0.44 0.51 0.46 0.38 0.45 0.41 0.51 0.41 0.47 0.44 0.36 0.46 0.37 0.42 0.50 0.37 0.37 0.36 0.40 0.35 0.33 0.33 0.35 0.40 0.40 0.47 0.50 0.33 0.52 0.51 0.45 0.49 0.41 0.41 0.38 0.34 0.37 0.51 0.41 0.38 0.53 0.43 0.46 0.36 0.43 0.41 0.48 0.42 0.50 0.45 0.36 0.45 0.50 0.37 0.43 0.52 0.43 0.47 0.41 0.42 0.33 0.39 0.42 0.51 0.41 0.35 0.33 0.50 0.38 0.49 0.42 0.40 0.41 0.46 0.41 0.46 0.44 0.42 0.47 0.41 0.35 0.34 0.44 0.44 0.41 0.49 0.35 0.42 0.49 0.43 0.46 0.51 0.33 0.53 0.48 0.50 0.46 0.46 0.39 0.43 0.42 0.38 0.39 0.39 0.38 0.36 0.50 0.38 0.52 0.48 0.33 0.42 0.50 0.48 0.41 0.51 0.51 0.49 0.51 0.35 0.46 0.46 -9999 -9999 -9999 -9999 -9999 -9999 -9999 -9999 -9999 -9999 -9999 -9999 -9999 -9999 -9999 -9999 -9999 -9999 -9999 -9999 -9999 -9999 -9999 -9999 -9999 -9999 -9999 -9999 -9999 -9999 -9999 -9999 -9999 -9999 -9999 -9999 -9999 -9999 -9999 -9999 -9999 -9999 -9999 -9999 -9999
0.45 0.40 0.48 0.34 0.40 0.49 0.46 0.47 0.33 0.41 0.40 0.45 0.42 0.36 0.49 0.51 0.34 0.49 0.44 0.33 0.38 0.49 0.36 0.46 0.39 0.33 0.42 0.50 0.46 0.42 0.46 0.44 0.46 0.51 0.52 0.41 0.35 0.44 0.49 0.36 0.43 0.43 0.35 0.48 0.52 0.41 0.35 0.37 0.44 0.46 0.33 0.43 0.37 0.47 0.45 0.42 0.47 0.44 0.37 0.51 0.48 0.33 0.34 0.35 0.38 0.39 0.49 0.40 0.34 0.37 0.44 0.48 0.47 0.42 0.44 0.34 0.34 0.36 0.43 0.42 0.50 0.50 0.50 0.40 0.37 0.42 0.34 0.36 0.46 0.46 0.36 0.36 0.35 0.46 0.42 0.41 0.41 0.37 0.48 0.50 0.47 0.39 0.33 0.36 0.50 0.36 0.51 0.35 0.40 0.49 0.51 0.51 0.49 0.49 0.52 0.47 0.39 0.45 0.51 0.36 0.48 0.40 0.36 0.48 0.40 0.39 0.50 0.40 0.48 0.52 0.46 0.39 0.51 0.41 0.43 0.40 0.50 0.39 0.39 0.42 0.41 0.35 0.43 0.40 0.33 0.36 0.35 0.52 0.45 0.51 0.37 0.45 0.33 0.43 0.47 0.33 0.35 0.38 0.35 0.44 0.45 0.35 0.35 0.53 0.45 0.50 0.46 0.49 0.41 -9999 -9999 -9999 -9999 -9999 -9999 -9999 -9999 -9999 -9999 -9999 -9999 -9999 -9999 -9999 -9999 -9999 -9999 -9999 -9999 -9999 -9999 -9999 -9999 -9999 -9999 -9999 -9999 -9999 -9999 -9999 -9999 -9999 -9999 -9999 -9999 -9999 -9999 -9999 -9999 -9999 -9999 -9999 -9999 -9999 -9999
0.36 0.36 0.39 0.52 0.52 0.36 0.40 0.50 0.48 0.38 0.38 0.33 0.39 0.48 0.35 0.51 0.41 0.52 0.37 0.35 0.43 0.50 0.34 0.38 0.36 0.45 0.51 0.38 0.40 0.45 0.37 0.44 0.35 0.35 0.49 0.36 0.33 0.42 0.44 0.50 0.45 0.52 0.38 0.46 0.48 0.35 0.45 0.37 0.40 0.53 0.51 0.45 0.45 0.49 0.40 0.39 0.38 0.46 0.43 0.46 0.35 0.39 0.37 0.51 0.33 0.46 0.45 0.45 0.45 0.34 0.51 0.44 0.36 0.45 0.36 0.44 0.40 0.51 0.39 0.34 0.45 0.37 0.39 0.35 0.51 0.37 0.36 0.40 0.50 0.49 0.48 0.50 0.49 0.46 0.50 0.47 0.37 0.42 0.34 0.38 0.34 0.40 0.48 0.47 0.51 0.34 0.40 0.37 0.34 0.40 0.42 0.40 0.35 0.35 0.37 0.37 0.39 0.49 0.35 0.53 0.46 0.38 0.49 0.51 0.43 0.43 0.39 0.44 0.42 0.52 0.34 0.36 0.52 0.34 0.46 0.43 0.49 0.43 0.47 0.50 0.52 0.33 0.35 0.40 0.51 0.35 0.46 0.40 0.48 0.53 0.50 0.37 0.42 0.49 0.50 0.38 0.48 0.49 0.33 0.50 0.52 0.37 0.42 0.39 0.42 0.34 0.41 0.42 0.41 0.37 -9999 -9999 -9999 -9999 -9999 -9999 -9999 -9999 -9999 -9999 -9999 -9999 -9999 -9999 -9999 -9999 -9999 -9999 -9999 -9999 -9999 -9999 -9999 -9999 -9999 -9999 -9999 -9999 -9999 -9999 -9999 -9999 -9999 -9999 -9999 -9999 -9999 -9999 -9999 -9999 -9999 -9999 -9999 -9999 -9999
0.42 0.37 0.51 0.44 0.45 0.44 0.43 0.49 0.50 0.50 0.45 0.48 0.48 0.51 0.36 0.33 0.47 0.48 0.38 0.52 0.45 0.36 0.46 0.46 0.52 0.52 0.51 0.44 0.45 0.34 0.47 0.51 0.44 0.38 0.36 0.49 0.33 0.37 0.33 0.46 0.50 0.52 0.46 0.39 0.47 0.40 0.39 0.50 0.46 0.35 0.42 0.34 0.38 0.53 0.41 0.47 0.43 0.51 0.45 0.37 0.50 0.53 0.44 0.52 0.53 0.42 0.42 0.34 0.43 0.36 0.49 0.49 0.45 0.43 0.45 0.40 0.51 0.34 0.38 0.49 0.41 0.41 0.43 0.52 0.35 0.50 0.34 0.33 0.47 0.48 0.38 0.39 0.51 0.42 0.34 0.36 0.44 0.45 0.48 0.39 0.46 0.48 0.45 0.37 0.47 0.39 0.43 0.52 0.44 0.41 0.51 0.52 0.41 0.41 0.40 0.50 0.53 0.52 0.42 0.34 0.50 0.38 0.51 0.41 0.39 0.42 0.44 0.46 0.51 0.51 0.45 0.44 0.33 0.48 0.43 0.47 0.51 0.50 0.33 0.41 0.49 0.35 0.38 0.41 0.52 0.33 0.41 0.43 0.48 0.36 0.36 0.33 0.34 0.46 0.41 0.35 0.51 0.46 0.33 0.44 0.39 0.42 0.46 0.37 0.39 0.36 0.43 0.45 0.49 0.35 -9999 -9999 -9999 -9999 -9999 -9999 -9999 -9999 -9999 -9999 -9999 -9999 -9999 -9999 -9999 -9999 -9999 -9999 -9999 -9999 -9999 -9999 -9999 -9999 -9999 -9999 -9999 -9999 -9999 -9999 -9999 -9999 -9999 -9999 -9999 -9999 -9999 -9999 -9999 -9999 -9999 -9999 -9999 -9999 -9999
0.47 0.44 0.50 0.34 0.41 0.38 0.44 0.37 0.37 0.38 0.47 0.52 0.37 0.38 0.44 0.46 0.40 0.35 0.50 0.46 0.52 0.37 0.35 0.37 0.34 0.49 0.47 0.39 0.40 0.37 0.44 0.44 0.40 0.42 0.49 0.36 0.36 0.33 0.37 0.40 0.50 0.45 0.42 0.47 0.42 0.53 0.50 0.42 0.41 0.38 0.37 0.45 0.35 0.49 0.47 0.50 0.35 0.53 0.41 0.42 0.51 0.46 0.50 0.44 0.41 0.46 0.52 0.50 0.34 0.34 0.34 0.35 0.49 0.35 0.46 0.42 0.47 0.47 0.41 0.50 0.50 0.48 0.38 0.42 0.44 0.33 0.36 0.39 0.40 0.50 0.38 0.37 0.36 0.41 0.45 0.45 0.49 0.49 0.43 0.52 0.38 0.46 0.35 0.35 0.39 0.35 0.38 0.40 0.35 0.42 0.46 0.49 0.33 0.35 0.34 0.35 0.36 0.40 0.34 0.48 0.50 0.37 0.47 0.48 0.50 0.34 0.34 0.48 0.35 0.33 0.35 0.43 0.46 0.48 0.35 0.46 0.45 0.39 0.50 0.48 0.43 0.40 0.43 0.45 0.52 0.45 0.43 0.34 0.46 0.35 0.44 0.43 0.50 0.41 0.41 0.40 0.47 0.46 0.42 0.42 0.43 0.40 0.38 0.49 0.47 0.42 0.47 0.52 0.51 0.41 -9999 -9999 -9999 -9999 -9999 -9999 -9999 -9999 -9999 -9999 -9999 -9999 -9999 -9999 -9999 -9999 -9999 -9999 -9999 -9999 -9999 -9999 -9999 -9999 -9999 -9999 -9999 -9999 -9999 -9999 -9999 -9999 -9999 -9999 -9999 -9999 -9999 -9999 -9999 -9999 -9999 -9999 -9999 -9999 -9999
0.36 0.40 0.48 0.46 0.40 0.51 0.44 0.49 0.43 0.33 0.44 0.37 0.34 0.39 0.44 0.46 0.43 0.38 0.33 0.41 0.34 0.37 0.33 0.43 0.43 0.38 0.44 0.40 0.50 0.49 0.39 0.44 0.51 0.43 0.41 0.43 0.45 0.52 0.48 0.39 0.48 0.36 0.36 0.41 0.51 0.33 0.39 0.51 0.51 0.38 0.47 0.38 0.40 0.44 0.45 0.48 0.37 0.52 0.33 0.43 0.50 0.39 0.35 0.49 0.45 0.44 0.41 0.37 0.51 0.49 0.35 0.35 0.52 0.48 0.37 0.33 0.47 0.34 0.49 0.52 0.40 0.48 0.42 0.50 0.51 0.39 0.50 0.51 0.38 0.40 0.42 0.38 0.39 0.35 0.50 0.51 0.48 0.47 0.43 0.53 0.52 0.39 0.47 0.36 0.46 0.44 0.46 0.44 0.52 0.41 0.36 0.50 0.38 0.33 0.36 0.43 0.44 0.35 0.49 0.47 0.45 0.33 0.35 0.36 0.49 0.42 0.52 0.46 0.46 0.41 0.51 0.39 0.50 0.50 0.48 0.51 0.47 0.47 0.47 0.43 0.37 0.53 0.50 0.42 0.47 0.35 0.42 0.43 0.49 0.47 0.47 0.44 0.40 0.36 0.43 0.45 0.46 0.50 0.48 0.42 0.35 0.49 0.41 0.36 0.52 0.39 0.41 0.45 0.48 0.38 -9999 -9999 -9999 -9999 -9999 -9999 -9999 -9999 -9999 -9999 -9999 -9999 -9999 -9999 -9999 -9999 -9999 -9999 -9999 -9999 -9999 -9999 -9999 -9999 -9999 -9999 -9999 -9999 -9999 -9999 -9999 -9999 -9999 -9999 -9999 -9999 -9999 -9999 -9999 -9999 -9999 -9999 -9999 -9999 -9999
0.45 0.46 0.43 0.48 0.42 0.45 0.37 0.41 0.48 0.33 0.42 0.42 0.45 0.38 0.42 0.39 0.49 0.50 0.52 0.47 0.46 0.38 0.51 0.33 0.36 0.50 0.43 0.44 0.52 0.52 0.49 0.33 0.35 0.37 0.38 0.42 0.51 0.49 0.52 0.46 0.45 0.43 0.49 0.49 0.43 0.40 0.50 0.48 0.51 0.35 0.45 0.33 0.36 0.36 0.39 0.50 0.52 0.43 0.37 0.34 0.48 0.33 0.48 0.35 0.34 0.35 0.49 0.48 0.42 0.43 0.42 0.34 0.38 0.40 0.34 0.37 0.37 0.33 0.45 0.34 0.48 0.49 0.39 0.48 0.44 0.41 0.42 0.45 0.40 0.36 0.45 0.50 0.35 0.45 0.36 0.39 0.45 0.50 0.47 0.49 0.42 0.37 0.36 0.51 0.49 0.47 0.48 0.33 0.42 0.45 0.43 0.48 0.38 0.40 0.38 0.48 0.39 0.35 0.35 0.41 0.43 0.33 0.33 0.34 0.38 0.40 0.51 0.36 0.47 0.35 0.49 0.46 0.33 0.39 0.52 0.45 0.37 0.47 0.40 0.34 0.39 0.40 0.42 0.33 0.37 0.52 0.37 0.38 0.37 0.40 0.37 0.40 0.41 0.40 0.52 0.52 0.44 0.49 0.50 0.41 0.44 0.39 0.46 0.46 0.36 0.42 0.38 0.49 0.53 0.52 -9999 -9999 -9999 -9999 -9999 -9999 -9999 -9999 -9999 -9999 -9999 -9999 -9999 -9999 -9999 -9999 -9999 -9999 -9999 -9999 -9999 -9999 -9999 -9999 -9999 -9999 -9999 -9999 -9999 -9999 -9999 -9999 -9999 -9999 -9999 -9999 -9999 -9999 -9999 -9999 -9999 -9999 -9999 -9999 -9999
0.43 0.47 0.41 0.45 0.39 0.39 0.43 0.36 0.39 0.34 0.33 0.46 0.52 0.36 0.39 0.51 0.52 0.34 0.33 0.41 0.43 0.49 0.37 0.51 0.37 0.40 0.45 0.37 0.38 0.47 0.53 0.33 0.37 0.43 0.37 0.49 0.36 0.36 0.49 0.41 0.41 0.42 0.43 0.34 0.37 0.37 0.47 0.52 0.34 0.46 0.46 0.46 0.48 0.43 0.43 0.42 0.45 0.43 0.47 0.39 0.45 0.40 0.41 0.45 0.33 0.48 0.49 0.34 0.39 0.36 0.51 0.46 0.40 0.33 0.39 0.39 0.48 0.43 0.43 0.35 0.47 0.43 0.33 0.42 0.52 0.49 0.43 0.48 0.50 0.38 0.38 0.51 0.50 0.33 0.39 0.40 0.45 0.40 0.45 0.34 0.33 0.49 0.46 0.45 0.52 0.38 0.38 0.51 0.43 0.39 0.34 0.50 0.39 0.39 0.48 0.34 0.38 0.33 0.52 0.33 0.44 0.35 0.40 0.43 0.51 0.36 0.36 0.49 0.47 0.41 0.48 0.39 0.48 0.42 0.44 0.44 0.39 0.46 0.37 0.36 0.38 0.45 0.40 0.34 0.47 0.44 0.45 0.46 0.52 0.39 0.51 0.52 0.46 0.37 0.34 0.46 0.39 0.35 0.36 0.39 0.41 0.51 0.40 0.46 0.48 0.43 0.35 0.37 0.37 0.51 -9999 -9999 -9999 -9999 -9999 -9999 -9999 -9999 -9999 -9999 -9999 -9999 -9999 -9999 -9999 -9999 -9999 -9999 -9999 -9999 -9999 -9999 -9999 -9999 -9999 -9999 -9999 -9999 -9999 -9999 -9999 -9999 -9999 -9999 -9999 -9999 -9999 -9999 -9999 -9999 -9999 -9999 -9999 -9999 -9999
0.45 0.42 0.42 0.36 0.40 0.43 0.45 0.34 0.37 0.44 0.50 0.42 0.48 0.48 0.50 0.51 0.37 0.48 0.34 0.44 0.49 0.34 0.43 0.33 0.52 0.49 0.33 0.52 0.45 0.36 0.36 0.38 0.41 0.50 0.35 0.50 0.42 0.36 0.48 0.43 0.51 0.40 0.45 0.43 0.46 0.43 0.35 0.36 0.37 0.45 0.47 0.48 0.47 0.45 0.37 0.40 0.35 0.34 0.36 0.36 0.39 0.36 0.33 0.35 0.44 0.44 0.36 0.39 0.52 0.44 0.39 0.47 0.43 0.38 0.36 0.53 0.44 0.40 0.36 0.47 0.41 0.41 0.40 0.50 0.34 0.40 0.51 0.52 0.49 0.51 0.43 0.39 0.36 0.52 0.43 0.38 0.33 0.49 0.51 0.40 0.49 0.38 0.37 0.42 0.49 0.37 0.40 0.39 0.39 0.38 0.44 0.35 0.47 0.52 0.48 0.37 0.41 0.45 0.43 0.35 0.44 0.47 0.36 0.41 0.41 0.51 0.36 0.34 0.44 0.35 0.45 0.43 0.45 0.47 0.38 0.37 0.46 0.52 0.41 0.44 0.43 0.45 0.38 0.36 0.51 0.52 0.45 0.43 0.51 0.49 0.42 0.36 0.40 0.48 0.49 0.45 0.34 0.50 0.37 0.48 0.39 0.35 0.48 0.36 0.37 0.40 0.36 0.42 0.42 0.40 -9999 -9999 -9999 -9999 -9999 -9999 -9999 -9999 -9999 -9999 -9999 -9999 -9999 -9999 -9999 -9999 -9999 -9999 -9999 -9999 -9999 -9999 -9999 -9999 -9999 -9999 -9999 -9999 -9999 -9999 -9999 -9999 -9999 -9999 -9999 -9999 -9999 -9999 -9999 -9999 -9999 -9999 -9999 -9999 -9999
0.52 0.43 0.37 0.48 0.52 0.48 0.51 0.47 0.50 0.33 0.34 0.52 0.33 0.42 0.40 0.41 0.50 0.36 0.50 0.44 0.46 0.44 0.37 0.33 0.44 0.42 0.44 0.50 0.51 0.37 0.45 0.51 0.39 0.43 0.33 0.47 0.44 0.37 0.52 0.34 0.41 0.40 0.33 0.47 0.44 0.42 0.49 0.35 0.37 0.33 0.42 0.50 0.37 0.49 0.35 0.45 0.45 0.50 0.50 0.51 0.48 0.42 0.51 0.49 0.35 0.34 0.42 0.41 0.42 0.40 0.42 0.45 0.42 0.42 0.48 0.33 0.38 0.36 0.51 0.48 0.51 0.46 0.33 0.34 0.40 0.39 0.34 0.40 0.40 0.40 0.36 0.47 0.37 0.44 0.45 0.52 0.52 0.42 0.40 0.51 0.49 0.35 0.38 0.51 0.38 0.41 0.41 0.48 0.43 0.41 0.38 0.37 0.36 0.52 0.35 0.35 0.52 0.38 0.52 0.40 0.52 0.50 0.45 0.41 0.37 0.40 0.38 0.50 0.45 0.42 0.52 0.37 0.47 0.39 0.35 0.45 0.43 0.35 0.48 0.46 0.41 0.39 0.41 0.43 0.42 0.50 0.39 0.40 0.39 0.35 0.46 0.51 0.51 0.48 0.44 0.41 0.40 0.38 0.41 0.51 0.38 0.50 0.34 0.48 0.45 0.38 0.33 0.35 0.42 0.38 0.37 -9999 -9999 -9999 -9999 -9999 -9999 -9999 -9999 -9999 -9999 -9999 -9999 -9999 -9999 -9999 -9999 -9999 -9999 -9999 -9999 -9999 -9999 -9999 -9999 -9999 -9999 -9999 -9999 -9999 -9999 -9999 -9999 -9999 -9999 -9999 -9999 -9999 -9999 -9999 -9999 -9999 -9999 -9999 -9999
0.37 0.45 0.36 0.38 0.36 0.41 0.48 0.43 0.37 0.47 0.39 0.35 0.49 0.45 0.34 0.44 0.33 0.42 0.37 0.49 0.36 0.39 0.45 0.35 0.52 0.51 0.52 0.50 0.50 0.33 0.36 0.43 0.44 0.44 0.35 0.34 0.33 0.47 0.44 0.47 0.47 0.43 0.43 0.37 0.51 0.41 0.46 0.47 0.51 0.37 0.52 0.35 0.48 0.48 0.44 0.33 0.46 0.43 0.36 0.38 0.45 0.43 0.44 0.38 0.45 0.50 0.45 0.34 0.45 0.48 0.47 0.34 0.41 0.34 0.48 0.48 0.45 0.41 0.34 0.47 0.48 0.39 0.34 0.44 0.33 0.41 0.37 0.34 0.35 0.38 0.46 0.52 0.39 0.52 0.45 0.48 0.40 0.52 0.51 0.37 0.47 0.41 0.42 0.44 0.46 0.42 0.48 0.34 0.34 0.42 0.46 0.52 0.48 0.38 0.33 0.53 0.41 0.35 0.44 0.39 0.42 0.50 0.43 0.44 0.51 0.48 0.49 0.34 0.48 0.49 0.33 0.47 0.53 0.48 0.41 0.53 0.41 0.43 0.33 0.44 0.52 0.35 0.51 0.39 0.45 0.41 0.49 0.44 0.52 0.52 0.51 0.34 0.39 0.37 0.38 0.52 0.43 0.36 0.43 0.42 0.39 0.38 0.34 0.34 0.38 0.38 0.42 0.44 0.41 0.52 0.34 -9999 -9999 -9999 -9999 -9999 -9999 -9999 -9999 -9999 -9999 -9999 -9999 -9999 -9999 -9999 -9999 -9999 -9999 -9999 -9999 -9999 -9999 -9999 -9999 -9999 -9999 -9999 -9999 -9999 -9999 -9999 -9999 -9999 -9999 -9999 -9999 -9999 -9999 -9999 -9999 -9999 -9999 -9999 -9999
0.42 0.41 0.36 0.35 0.42 0.50 0.52 0.47 0.42 0.52 0.49 0.39 0.47 0.42 0.39 0.52 0.49 0.45 0.48 0.51 0.45 0.44 0.51 0.50 0.34 0.46 0.47 0.36 0.49 0.50 0.43 0.40 0.37 0.47 0.38 0.41 0.48 0.36 0.51 0.38 0.35 0.36 0.46 0.49 0.45 0.39 0.38 0.47 0.49 0.52 0.45 0.33 0.41 0.33 0.37 0.47 0.42 0.51 0.52 0.47 0.43 0.49 0.45 0.45 0.37 0.40 0.45 0.38 0.39 0.52 0.49 0.41 0.44 0.48 0.43 0.35 0.50 0.40 0.36 0.44 0.45 0.39 0.38 0.34 0.46 0.41 0.34 0.38 0.36 0.41 0.49 0.48 0.43 0.47 0.41 0.45 0.49 0.34 0.34 0.34 0.46 0.43 0.42 0.33 0.36 0.48 0.46 0.38 0.35 0.52 0.48 0.47 0.42 0.42 0.47 0.35 0.50 0.34 0.33 0.52 0.43 0.50 0.42 0.45 0.36 0.38 0.34 0.41 0.43 0.40 0.42 0.35 0.53 0.33 0.33 0.45 0.38 0.38 0.44 0.36 0.44 0.33 0.36 0.36 0.33 0.38 0.35 0.52 0.45 0.44 0.38 0.40 0.34 0.39 0.49 0.37 0.35 0.44 0.51 0.40 0.43 0.50 0.49 0.33 0.44 0.51 0.48 0.42 0.46 0.52 0.44 -9999 -9999 -9999 -9999 -9999 -9999 -9999 -9999 -9999 -9999 -9999 -9999 -9999 -9999 -9999 -9999 -9999 -9999 -9999 -9999 -9999 -9999 -9999 -9999 -9999 -9999 -9999 -9999 -9999 -9999 -9999 -9999 -9999 -9999 -9999 -9999 -9999 -9999 -9999 -9999 -9999 -9999 -9999 -9999
0.37 0.33 0.41 0.48 0.49 0.42 0.46 0.40 0.34 0.38 0.46 0.53 0.45 0.47 0.40 0.36 0.51 0.36 0.50 0.33 0.33 0.43 0.46 0.39 0.33 0.49 0.46 0.40 0.35 0.49 0.36 0.52 0.37 0.49 0.34 0.35 0.41 0.41 0.34 0.47 0.44 0.47 0.40 0.47 0.44 0.41 0.45 0.44 0.38 0.50 0.51 0.47 0.33 0.45 0.33 0.52 0.35 0.48 0.40 0.52 0.43 0.34 0.51 0.43 0.42 0.46 0.46 0.38 0.49 0.39 0.42 0.44 0.50 0.45 0.45 0.45 0.41 0.53 0.40 0.40 0.47 0.47 0.52 0.44 0.48 0.39 0.37 0.52 0.44 0.47 0.45 0.47 0.41 0.38 0.43 0.36 0.41 0.52 0.46 0.51 0.44 0.51 0.51 0.45 0.50 0.41 0.38 0.35 0.35 0.38 0.34 0.35 0.52 0.36 0.39 0.38 0.44 0.38 0.49 0.52 0.50 0.52 0.48 0.46 0.44 0.46 0.37 0.48 0.45 0.33 0.34 0.33 0.44 0.51 0.49 0.47 0.46 0.48 0.44 0.41 0.39 0.51 0.40 0.45 0.45 0.38 0.41 0.34 0.48 0.48 0.41 0.34 0.43 0.44 0.49 0.42 0.39 0.35 0.38 0.50 0.40 0.50 0.44 0.39 0.33 0.50 0.40 0.45 0.42 0.39 0.44 -9999 -9999 -9999 -9999 -9999 -9999 -9999 -9999 -9999 -9999 -9999 -9999 -9999 -9999 -9999 -9999 -9999 -9999 -9999 -9999 -9999 -9999 -9999 -9999 -9999 -9999 -9999 -9999 -9999 -9999 -9999 -9999 -9999 -9999 -9999 -9999 -9999 -9999 -9999 -9999 -9999 -9999 -9999 -9999
0.44 0.41 0.36 0.34 0.43 0.40 0.40 0.51 0.46 0.43 0.37 0.44 0.46 0.52 0.45 0.48 0.49 0.33 0.48 0.42 0.40 0.49 0.51 0.37 0.37 0.44 0.42 0.35 0.43 0.40 0.43 0.49 0.45 0.48 0.35 0.45 0.46 0.49 0.33 0.33 0.43 0.45 0.40 0.40 0.33 0.43 0.40 0.37 0.40 0.45 0.41 0.44 0.39 0.48 0.45 0.34 0.35 0.48 0.46 0.40 0.46 0.48 0.52 0.50 0.42 0.49 0.34 0.48 0.33 0.39 0.39 0.39 0.41 0.52 0.44 0.39 0.52 0.47 0.46 0.38 0.37 0.34 0.45 0.50 0.50 0.47 0.46 0.52 0.49 0.43 0.34 0.37 0.52 0.49 0.46 0.50 0.41 0.33 0.44 0.40 0.34 0.52 0.34 0.35 0.39 0.42 0.45 0.35 0.51 0.52 0.39 0.45 0.35 0.48 0.47 0.42 0.46 0.34 0.39 0.51 0.49 0.41 0.51 0.38 0.50 0.41 0.50 0.48 0.44 0.46 0.51 0.52 0.45 0.37 0.43 0.36 0.38 0.50 0.36 0.42 0.33 0.36 0.42 0.36 0.38 0.51 0.34 0.36 0.42 0.51 0.47 0.34 0.51 0.45 0.48 0.41 0.39 0.45 0.48 0.33 0.42 0.38 0.33 0.34 0.49 0.47 0.33 0.50 0.46 0.36 0.41 -9999 -9999 -9999 -9999 -9999 -9999 -9999 -9999 -9999 -9999 -9999 -9999 -9999 -9999 -9999 -9999 -9999 -9999 -9999 -9999 -9999 -9999 -9999 -9999 -9999 -9999 -9999 -9999 -9999 -9999 -9999 -9999 -9999 -9999 -9999 -9999 -9999 -9999 -9999 -9999 -9999 -9999 -9999 -9999
0.44 0.48 0.37 0.39 0.45 0.34 0.42 0.41 0.37 0.50 0.40 0.36 0.39 0.38 0.35 0.51 0.46 0.39 0.39 0.33 0.36 0.40 0.45 0.34 0.42 0.34 0.50 0.42 0.46 0.52 0.50 0.49 0.45 0.36 0.38 0.38 0.51 0.35 0.49 0.39 0.35 0.44 0.46 0.50 0.42 0.48 0.46 0.43 0.42 0.38 0.52 0.44 0.40 0.48 0.43 0.42 0.40 0.51 0.36 0.33 0.33 0.45 0.36 0.43 0.51 0.50 0.34 0.51 0.41 0.41 0.35 0.49 0.40 0.43 0.34 0.44 0.51 0.39 0.43 0.38 0.35 0.38 0.49 0.50 0.52 0.50 0.36 0.51 0.44 0.40 0.35 0.52 0.40 0.41 0.40 0.45 0.39 0.35 0.39 0.52 0.33 0.44 0.49 0.48 0.39 0.49 0.43 0.34 0.50 0.41 0.37 0.34 0.37 0.39 0.44 0.51 0.46 0.42 0.36 0.37 0.42 0.50 0.49 0.49 0.50 0.47 0.42 0.48 0.34 0.33 0.41 0.37 0.47 0.39 0.51 0.41 0.50 0.37 0.46 0.45 0.44 0.41 0.39 0.39 0.51 0.33 0.44 0.42 0.40 0.35 0.52 0.34 0.36 0.48 0.49 0.51 0.41 0.35 0.40 0.47 0.46 0.51 0.45 0.35 0.36 0.34 0.33 0.47 0.46 0.50 0.44 -9999 -9999 -9999 -9999 -9999 -9999 -9999 -9999 -9999 -9999 -9999 -9999 -9999 -9999 -9999 -9999 -9999 -9999 -9999 -9999 -9999 -9999 -9999 -9999 -9999 -9999 -9999 -9999 -9999 -9999 -9999 -9999 -9999 -9999 -9999 -9999 -9999 -9999 -9999 -9999 -9999 -9999 -9999 -9999
0.45 0.35 0.46 0.51 0.42 0.35 0.37 0.50 0.52 0.34 0.36 0.48 0.45 0.51 0.48 0.41 0.34 0.50 0.41 0.39 0.51 0.36 0.35 0.44 0.46 0.39 0.36 0.48 0.34 0.35 0.42 0.45 0.48 0.40 0.38 0.33 0.39 0.44 0.48 0.35 0.38 0.44 0.48 0.35 0.40 0.51 0.53 0.46 0.36 0.36 0.47 0.52 0.34 0.48 0.49 0.50 0.41 0.48 0.51 0.49 0.35 0.50 0.41 0.49 0.43 0.42 0.42 0.48 0.37 0.52 0.48 0.43 0.41 0.36 0.38 0.33 0.44 0.43 0.35 0.45 0.50 0.36 0.51 0.50 0.36 0.53 0.51 0.34 0.48 0.40 0.51 0.47 0.47 0.40 0.40 0.48 0.46 0.48 0.39 0.38 0.49 0.50 0.42 0.36 0.41 0.40 0.35 0.35 0.45 0.48 0.34 0.47 0.45 0.42 0.34 0.43 0.36 0.48 0.34 0.37 0.43 0.40 0.50 0.34 0.35 0.35 0.40 0.37 0.48 0.50 0.40 0.46 0.46 0.37 0.43 0.49 0.43 0.36 0.37 0.49 0.36 0.46 0.46 0.41 0.37 0.45 0.43 0.45 0.36 0.37 0.50 0.51 0.44 0.35 0.36 0.45 0.38 0.49 0.48 0.51 0.40 0.39 0.37 0.39 0.35 0.48 0.38 0.33 0.51 0.42 0.41 -9999 -9999 -9999 -9999 -9999 -9999 -9999 -9999 -9999 -9999 -9999 -9999 -9999 -9999 -9999 -9999 -9999 -9999 -9999 -9999 -9999 -9999 -9999 -9999 -9999 -9999 -9999 -9999 -9999 -9999 -9999 -9999 -9999 -9999 -9999 -9999 -9999 -9999 -9999 -9999 -9999 -9999 -9999 -9999
0.43 0.50 0.50 0.44 0.40 0.50 0.44 0.47 0.50 0.43 0.39 0.43 0.40 0.40 0.41 0.45 0.48 0.51 0.33 0.52 0.38 0.47 0.51 0.38 0.33 0.48 0.45 0.45 0.51 0.35 0.36 0.43 0.53 0.34 0.41 0.34 0.45 0.39 0.50 0.42 0.39 0.41 0.34 0.49 0.50 0.39 0.48 0.53 0.34 0.46 0.41 0.40 0.45 0.39 0.39 0.41 0.44 0.46 0.34 0.49 0.46 0.47 0.33 0.47 0.36 0.50 0.42 0.51 0.42 0.49 0.44 0.48 0.46 0.47 0.46 0.41 0.51 0.46 0.43 0.48 0.52 0.37 0.42 0.42 0.37 0.50 0.37 0.45 0.36 0.39 0.36 0.41 0.36 0.51 0.52 0.44 0.50 0.39 0.46 0.42 0.47 0.49 0.50 0.42 0.37 0.38 0.45 0.47 0.45 0.47 0.47 0.43 0.50 0.34 0.49 0.37 0.33 0.51 0.39 0.39 0.42 0.35 0.37 0.48 0.41 0.35 0.37 0.51 0.47 0.35 0.37 0.38 0.37 0.42 0.35 0.46 0.36 0.42 0.38 0.35 0.44 0.36 0.37 0.40 0.45 0.34 0.47 0.39 0.39 0.35 0.50 0.42 0.46 0.41 0.44 0.37 0.41 0.44 0.46 0.52 0.41 0.45 0.51 0.37 0.44 0.48 0.44 0.43 0.52 0.38 0.35 0.41 -9999 -9999 -9999 -9999 -9999 -9999 -9999 -9999 -9999 -9999 -9999 -9999 -9999 -9999 -9999 -9999 -9999 -9999 -9999 -9999 -9999 -9999 -9999 -9999 -9999 -9999 -9999 -9999 -9999 -9999 -9999 -9999 -9999 -9999 -9999 -9999 -9999 -9999 -9999 -9999 -9999 -9999 -9999
0.35 0.40 0.50 0.41 0.48 0.34 0.47 0.43 0.46 0.42 0.44 0.42 0.35 0.49 0.46 0.34 0.44 0.42 0.46 0.44 0.45 0.43 0.48 0.39 0.34 0.40 0.41 0.49 0.47 0.48 0.37 0.39 0.50 0.41 0.48 0.52 0.37 0.40 0.35 0.41 0.46 0.37 0.41 0.33 0.36 0.49 0.43 0.35 0.50 0.33 0.50 0.40 0.52 0.39 0.48 0.37 0.38 0.37 0.34 0.41 0.50 0.42 0.50 0.43 0.48 0.42 0.47 0.37 0.49 0.36 0.40 0.47 0.36 0.40 0.45 0.37 0.52 0.46 0.36 0.46 0.49 0.34 0.52 0.49 0.48 0.52 0.35 0.40 0.50 0.48 0.53 0.52 0.36 0.33 0.35 0.48 0.39 0.51 0.51 0.45 0.46 0.36 0.41 0.47 0.39 0.47 0.47 0.35 0.42 0.47 0.37 0.40 0.35 0.51 0.33 0.47 0.45 0.42 0.45 0.36 0.39 0.35 0.38 0.50 0.49 0.37 0.33 0.44 0.39 0.35 0.44 0.35 0.42 0.46 0.47 0.50 0.48 0.38 0.34 0.37 0.40 0.38 0.37 0.52 0.51 0.33 0.41 0.35 0.43 0.43 0.44 0.43 0.51 0.38 0.39 0.40 0.34 0.42 0.39 0.46 0.47 0.44 0.51 0.35 0.42 0.34 0.34 0.45 0.50 0.36 0.35 0.43 -9999 -9999 -9999 -9999 -9999 -9999 -9999 -9999 -9999 -9999 -9999 -9999 -9999 -9999 -9999 -9999 -9999 -9999 -9999 -9999 -9999 -9999 -9999 -9999 -9999 -9999 -9999 -9999 -9999 -9999 -9999 -9999 -9999 -9999 -9999 -9999 -9999 -9999 -9999 -9999 -9999 -9999 -9999
0.48 0.42 0.34 0.38 0.44 0.49 0.48 0.33 0.41 0.36 0.50 0.50 0.47 0.48 0.50 0.39 0.36 0.38 0.33 0.41 0.43 0.41 0.47 0.35 0.40 0.44 0.49 0.36 0.53 0.47 0.42 0.39 0.46 0.46 0.52 0.42 0.43 0.39 0.52 0.36 0.52 0.42 0.52 0.45 0.39 0.35 0.48 0.40 0.39 0.52 0.35 0.49 0.51 0.43 0.37 0.52 0.35 0.45 0.39 0.45 0.48 0.44 0.43 0.47 0.42 0.47 0.40 0.44 0.46 0.52 0.50 0.42 0.51 0.46 0.45 0.50 0.47 0.51 0.35 0.33 0.47 0.41 0.37 0.47 0.37 0.49 0.43 0.42 0.46 0.49 0.50 0.37 0.37 0.41 0.51 0.38 0.47 0.42 0.44 0.41 0.38 0.35 0.41 0.39 0.35 0.44 0.41 0.49 0.50 0.35 0.37 0.43 0.47 0.43 0.49 0.41 0.47 0.51 0.52 0.46 0.44 0.45 0.46 0.50 0.36 0.44 0.49 0.45 0.49 0.39 0.49 0.44 0.35 0.45 0.35 0.50 0.36 0.36 0.38 0.33 0.45 0.42 0.37 0.47 0.49 0.47 0.52 0.48 0.38 0.48 0.39 0.45 0.47 0.45 0.50 0.49 0.35 0.44 0.35 0.50 0.37 0.36 0.49 0.37 0.35 0.49 0.49 0.47 0.44 0.51 0.36 0.36 -9999 -9999 -9999 -9999 -9999 -9999 -9999 -9999 -9999 -9999 -9999 -9999 -9999 -9999 -9999 -9999 -9999 -9999 -9999 -9999 -9999 -9999 -9999 -9999 -9999 -9999 -9999 -9999 -9999 -9999 -9999 -9999 -9999 -9999 -9999 -9999 -9999 -9999 -9999 -9999 -9999 -9999 -9999
0.44 0.34 0.46 0.46 0.33 0.52 0.40 0.39 0.52 0.50 0.36 0.41 0.38 0.34 0.45 0.46 0.37 0.50 0.36 0.37 0.37 0.34 0.52 0.34 0.51 0.44 0.44 0.44 0.43 0.46 0.41 0.38 0.51 0.44 0.40 0.46 0.47 0.37 0.38 0.37 0.38 0.45 0.38 0.37 0.37 0.34 0.52 0.40 0.47 0.45 0.33 0.47 0.47 0.46 0.47 0.38 0.44 0.52 0.38 0.41 0.39 0.46 0.37 0.42 0.44 0.34 0.47 0.51 0.47 0.43 0.52 0.35 0.43 0.40 0.39 0.49 0.39 0.49 0.50 0.43 0.40 0.46 0.37 0.52 0.38 0.47 0.39 0.35 0.49 0.47 0.47 0.43 0.46 0.34 0.50 0.36 0.36 0.39 0.47 0.50 0.34 0.44 0.36 0.40 0.52 0.43 0.45 0.51 0.38 0.39 0.49 0.47 0.40 0.36 0.39 0.38 0.42 0.47 0.50 0.50 0.42 0.50 0.35 0.51 0.34 0.33 0.51 0.42 0.51 0.51 0.50 0.46 0.51 0.37 0.41 0.43 0.42 0.37 0.43 0.38 0.47 0.33 0.37 0.41 0.48 0.52 0.41 0.38 0.49 0.39 0.33 0.33 0.38 0.38 0.44 0.49 0.35 0.36 0.52 0.42 0.49 0.37 0.46 0.39 0.52 0.46 0.34 0.49 0.43 0.46 0.44 0.36 -9999 -9999 -9999 -9999 -9999 -9999 -9999 -9999 -9999 -9999 -9999 -9999 -9999 -9999 -9999 -9999 -9999 -9999 -9999 -9999 -9999 -9999 -9999 -9999 -9999 -9999 -9999 -9999 -9999 -9999 -9999 -9999 -9999 -9999 -9999 -9999 -9999 -9999 -9999 -9999 -9999 -9999 -9999
0.52 0.47 0.36 0.43 0.39 0.50 0.41 0.43 0.35 0.35 0.52 0.38 0.40 0.35 0.46 0.45 0.49 0.34 0.40 0.48 0.37 0.48 0.40 0.50 0.47 0.43 0.43 0.39 0.40 0.38 0.49 0.51 0.40 0.48 0.43 0.45 0.42 0.36 0.38 0.34 0.42 0.46 0.50 0.40 0.39 0.52 0.46 0.45 0.41 0.52 0.49 0.43 0.46 0.40 0.39 0.51 0.36 0.48 0.38 0.44 0.38 0.52 0.34 0.41 0.41 0.46 0.52 0.40 0.52 0.51 0.44 0.33 0.40 0.49 0.48 0.33 0.34 0.40 0.51 0.45 0.47 0.50 0.50 0.38 0.36 0.33 0.50 0.48 0.38 0.39 0.46 0.47 0.45 0.43 0.48 0.35 0.44 0.47 0.49 0.33 0.44 0.49 0.52 0.39 0.50 0.35 0.34 0.38 0.34 0.43 0.47 0.36 0.47 0.37 0.44 0.40 0.39 0.48 0.39 0.49 0.51 0.52 0.34 0.35 0.44 0.37 0.36 0.42 0.45 0.46 0.49 0.45 0.34 0.40 0.50 0.53 0.34 0.46 0.35 0.47 0.42 0.40 0.49 0.45 0.50 0.47 0.35 0.38 0.45 0.52 0.33 0.36 0.52 0.40 0.46 0.42 0.44 0.50 0.34 0.48 0.33 0.45 0.42 0.45 0.44 0.45 0.47 0.46 0.35 0.51 0.51 0.39 -9999 -9999 -9999 -9999 -9999 -9999 -9999 -9999 -9999 -9999 -9999 -9999 -9999 -9999 -9999 -9999 -9999 -9999 -9999 -9999 -9999 -9999 -9999 -9999 -9999 -9999 -9999 -9999 -9999 -9999 -9999 -9999 -9999 -9999 -9999 -9999 -9999 -9999 -9999 -9999 -9999 -9999 -9999
0.44 0.47 0.45 0.33 0.35 0.48 0.52 0.49 0.37 0.44 0.51 0.42 0.39 0.36 0.47 0.37 0.51 0.52 0.40 0.38 0.34 0.34 0.33 0.39 0.50 0.45 0.40 0.50 0.43 0.45 0.49 0.35 0.41 0.37 0.37 0.46 0.43 0.39 0.45 0.45 0.45 0.48 0.41 0.51 0.48 0.51 0.38 0.52 0.48 0.36 0.33 0.39 0.39 0.50 0.48 0.48 0.39 0.49 0.38 0.33 0.45 0.47 0.50 0.49 0.49 0.39 0.38 0.48 0.39 0.44 0.42 0.35 0.33 0.42 0.34 0.43 0.51 0.46 0.45 0.38 0.39 0.38 0.35 0.52 0.35 0.45 0.46 0.52 0.34 0.49 0.38 0.39 0.40 0.43 0.44 0.45 0.40 0.33 0.38 0.33 0.41 0.36 0.34 0.47 0.42 0.34 0.34 0.42 0.51 0.33 0.45 0.47 0.45 0.35 0.50 0.43 0.42 0.42 0.45 0.42 0.33 0.52 0.47 0.49 0.49 0.53 0.40 0.46 0.48 0.49 0.33 0.48 0.38 0.52 0.52 0.49 0.49 0.47 0.36 0.33 0.40 0.33 0.38 0.49 0.41 0.48 0.33 0.40 0.35 0.44 0.43 0.49 0.41 0.42 0.47 0.35 0.40 0.47 0.43 0.42 0.40 0.34 0.36 0.46 0.43 0.46 0.36 0.33 0.49 0.40 0.41 0.44 -9999 -9999 -9999 -9999 -9999 -9999 -9999 -9999 -9999 -9999 -9999 -9999 -9999 -9999 -9999 -9999 -9999 -9999 -9999 -9999 -9999 -9999 -9999 -9999 -9999 -9999 -9999 -9999 -9999 -9999 -9999 -9999 -9999 -9999 -9999 -9999 -9999 -9999 -9999 -9999 -9999 -9999 -9999
0.38 0.41 0.39 0.52 0.52 0.40 0.49 0.49 0.46 0.52 0.40 0.40 0.46 0.38 0.41 0.36 0.46 0.45 0.45 0.48 0.37 0.47 0.37 0.48 0.43 0.45 0.49 0.42 0.35 0.53 0.36 0.52 0.36 0.33 0.47 0.42 0.49 0.42 0.43 0.42 0.42 0.50 0.35 0.41 0.36 0.35 0.39 0.35 0.52 0.48 0.34 0.40 0.33 0.52 0.49 0.39 0.51 0.40 0.45 0.48 0.38 0.41 0.52 0.53 0.34 0.38 0.43 0.37 0.52 0.48 0.36 0.44 0.42 0.45 0.44 0.51 0.44 0.36 0.43 0.34 0.52 0.46 0.45 0.35 0.47 0.36 0.44 0.42 0.43 0.48 0.43 0.48 0.53 0.33 0.37 0.46 0.47 0.47 0.34 0.45 0.45 0.46 0.33 0.51 0.35 0.52 0.52 0.33 0.50 0.43 0.52 0.36 0.35 0.45 0.38 0.47 0.47 0.48 0.49 0.46 0.35 0.35 0.49 0.40 0.46 0.43 0.39 0.50 0.53 0.53 0.44 0.34 0.41 0.34 0.35 0.51 0.39 0.37 0.40 0.48 0.51 0.48 0.38 0.44 0.37 0.50 0.40 0.41 0.49 0.40 0.38 0.42 0.36 0.43 0.35 0.46 0.42 0.46 0.35 0.46 0.46 0.52 0.50 0.43 0.43 0.43 0.36 0.42 0.33 0.51 0.52 0.40 0.34 -9999 -9999 -9999 -9999 -9999 -9999 -9999 -9999 -9999 -9999 -9999 -9999 -9999 -9999 -9999 -9999 -9999 -9999 -9999 -9999 -9999 -9999 -9999 -9999 -9999 -9999 -9999 -9999 -9999 -9999 -9999 -9999 -9999 -9999 -9999 -9999 -9999 -9999 -9999 -9999 -9999 -9999
0.43 0.43 0.50 0.44 0.51 0.51 0.47 0.47 0.46 0.46 0.52 0.34 0.39 0.48 0.37 0.43 0.35 0.41 0.39 0.41 0.39 0.41 0.48 0.52 0.41 0.43 0.42 0.49 0.39 0.50 0.51 0.51 0.43 0.34 0.33 0.53 0.44 0.42 0.51 0.37 0.34 0.43 0.37 0.50 0.42 0.40 0.51 0.39 0.37 0.38 0.40 0.52 0.43 0.43 0.40 0.35 0.35 0.52 0.33 0.33 0.33 0.33 0.33 0.39 0.41 0.39 0.33 0.42 0.47 0.45 0.52 0.34 0.36 0.47 0.49 0.51 0.34 0.36 0.53 0.50 0.51 0.36 0.35 0.40 0.48 0.44 0.43 0.44 0.34 0.46 0.50 0.50 0.36 0.49 0.51 0.35 0.50 0.47 0.40 0.49 0.39 0.49 0.49 0.49 0.39 0.48 0.51 0.48 0.46 0.39 0.50 0.33 0.46 0.50 0.36 0.36 0.52 0.50 0.53 0.45 0.43 0.43 0.39 0.47 0.43 0.42 0.37 0.47 0.48 0.35 0.47 0.49 0.50 0.35 0.40 0.47 0.49 0.42 0.50 0.47 0.39 0.33 0.51 0.36 0.44 0.36 0.37 0.40 0.33 0.42 0.46 0.45 0.41 0.45 0.42 0.40 0.35 0.40 0.44 0.34 0.36 0.51 0.34 0.35 0.35 0.50 0.49 0.39 0.52 0.52 0.35 0.50 0.48 -9999 -9999 -9999 -9999 -9999 -9999 -9999 -9999 -9999 -9999 -9999 -9999 -9999 -9999 -9999 -9999 -9999 -9999 -9999 -9999 -9999 -9999 -9999 -9999 -9999 -9999 -9999 -9999 -9999 -9999 -9999 -9999 -9999 -9999 -9999 -9999 -9999 -9999 -9999 -9999 -9999 -9999
0.41 0.47 0.52 0.44 0.52 0.52 0.37 0.45 0.37 0.47 0.34 0.37 0.43 0.37 0.42 0.47 0.45 0.42 0.52 0.35 0.38 0.52 0.37 0.39 0.33 0.35 0.39 0.41 0.40 0.35 0.36 0.52 0.39 0.51 0.42 0.34 0.38 0.40 0.47 0.53 0.34 0.43 0.41 0.43 0.50 0.50 0.43 0.38 0.43 0.36 0.51 0.45 0.41 0.41 0.33 0.44 0.49 0.34 0.48 0.38 0.33 0.46 0.50 0.47 0.43 0.48 0.47 0.37 0.51 0.46 0.35 0.46 0.35 0.34 0.46 0.43 0.48 0.34 0.33 0.33 0.47 0.38 0.45 0.42 0.43 0.41 0.39 0.37 0.47 0.42 0.46 0.49 0.38 0.36 0.45 0.33 0.50 0.47 0.49 0.52 0.49 0.37 0.33 0.48 0.50 0.49 0.45 0.36 0.36 0.47 0.35 0.51 0.51 0.41 0.45 0.48 0.33 0.43 0.41 0.36 0.38 0.36 0.38 0.47 0.40 0.36 0.40 0.34 0.37 0.51 0.46 0.39 0.52 0.37 0.36 0.50 0.46 0.45 0.51 0.37 0.33 0.51 0.46 0.45 0.49 0.53 0.49 0.48 0.51 0.37 0.39 0.33 0.40 0.53 0.49 0.37 0.52 0.43 0.39 0.36 0.35 0.38 0.48 0.48 0.51 0.36 0.47 0.50 0.47 0.41 0.38 0.33 0.35 -9999 -9999 -9999 -9999 -9999 -9999 -9999 -9999 -9999 -9999 -9999 -9999 -9999 -9999 -9999 -9999 -9999 -9999 -9999 -9999 -9999 -9999 -9999 -9999 -9999 -9999 -9999 -9999 -9999 -9999 -9999 -9999 -9999 -9999 -9999 -9999 -9999 -9999 -9999 -9999 -9999 -9999
0.40 0.52 0.43 0.43 0.35 0.41 0.51 0.39 0.49 0.49 0.37 0.42 0.48 0.39 0.44 0.50 0.42 0.43 0.52 0.41 0.52 0.44 0.41 0.43 0.33 0.37 0.43 0.43 0.48 0.38 0.46 0.41 0.38 0.39 0.42 0.45 0.46 0.50 0.44 0.33 0.47 0.48 0.40 0.45 0.40 0.39 0.41 0.41 0.44 0.47 0.50 0.40 0.51 0.47 0.36 0.41 0.36 0.52 0.36 0.47 0.43 0.44 0.37 0.33 0.48 0.48 0.37 0.49 0.38 0.43 0.34 0.40 0.35 0.50 0.37 0.37 0.43 0.51 0.44 0.40 0.50 0.33 0.45 0.51 0.37 0.39 0.44 0.42 0.35 0.38 0.34 0.51 0.35 0.51 0.48 0.36 0.46 0.46 0.41 0.51 0.40 0.33 0.44 0.35 0.49 0.44 0.40 0.49 0.35 0.39 0.36 0.47 0.42 0.49 0.38 0.38 0.41 0.37 0.45 0.51 0.41 0.40 0.48 0.50 0.38 0.41 0.43 0.42 0.40 0.49 0.46 0.47 0.42 0.40 0.49 0.44 0.49 0.50 0.38 0.41 0.50 0.50 0.37 0.36 0.38 0.45 0.42 0.34 0.33 0.52 0.42 0.44 0.44 0.42 0.50 0.40 0.42 0.52 0.39 0.46 0.33 0.47 0.35 0.34 0.45 0.44 0.50 0.52 0.40 0.46 0.41 0.45 0.34 -9999 -9999 -9999 -9999 -9999 -9999 -9999 -9999 -9999 -9999 -9999 -9999 -9999 -9999 -9999 -9999 -9999 -9999 -9999 -9999 -9999 -9999 -9999 -9999 -9999 -9999 -9999 -9999 -9999 -9999 -9999 -9999 -9999 -9999 -9999 -9999 -9999 -9999 -9999 -9999 -9999 -9999
0.48 0.51 0.50 0.41 0.34 0.48 0.36 0.48 0.51 0.41 0.34 0.37 0.37 0.36 0.51 0.44 0.51 0.46 0.33 0.42 0.43 0.44 0.45 0.46 0.43 0.34 0.34 0.51 0.40 0.37 0.40 0.45 0.40 0.37 0.35 0.46 0.47 0.38 0.43 0.45 0.35 0.49 0.49 0.39 0.46 0.36 0.40 0.49 0.34 0.43 0.38 0.38 0.36 0.46 0.38 0.37 0.42 0.34 0.41 0.39 0.36 0.43 0.50 0.42 0.43 0.40 0.45 0.35 0.38 0.47 0.51 0.51 0.42 0.46 0.51 0.49 0.41 0.39 0.50 0.51 0.44 0.36 0.45 0.33 0.52 0.35 0.52 0.45 0.51 0.35 0.48 0.45 0.42 0.37 0.48 0.42 0.52 0.42 0.52 0.35 0.39 0.40 0.37 0.35 0.44 0.35 0.39 0.38 0.36 0.46 0.42 0.45 0.47 0.33 0.36 0.52 0.51 0.40 0.42 0.34 0.44 0.49 0.38 0.44 0.36 0.43 0.41 0.41 0.48 0.38 0.50 0.42 0.51 0.35 0.50 0.51 0.48 0.38 0.47 0.38 0.51 0.40 0.45 0.48 0.40 0.52 0.51 0.46 0.36 0.39 0.33 0.44 0.49 0.47 0.39 0.40 0.39 0.42 0.33 0.36 0.39 0.47 0.35 0.44 0.40 0.37 0.43 0.49 0.34 0.53 0.45 0.50 0.45 -9999 -9999 -9999 -9999 -9999 -9999 -9999 -9999 -9999 -9999 -9999 -9999 -9999 -9999 -9999 -9999 -9999 -9999 -9999 -9999 -9999 -9999 -9999 -9999 -9999 -9999 -9999 -9999 -9999 -9999 -9999 -9999 -9999 -9999 -9999 -9999 -9999 -9999 -9999 -9999 -9999 -9999
0.43 0.35 0.39 0.36 0.51 0.50 0.37 0.34 0.34 0.44 0.34 0.45 0.45 0.49 0.45 0.46 0.44 0.50 0.38 0.40 0.45 0.39 0.34 0.39 0.38 0.46 0.51 0.40 0.52 0.33 0.45 0.34 0.33 0.40 0.37 0.40 0.39 0.47 0.38 0.36 0.37 0.46 0.45 0.42 0.52 0.47 0.35 0.39 0.51 0.42 0.37 0.45 0.50 0.43 0.46 0.40 0.47 0.42 0.36 0.41 0.33 0.47 0.48 0.47 0.49 0.51 0.50 0.44 0.37 0.42 0.36 0.35 0.53 0.40 0.41 0.51 0.52 0.51 0.48 0.36 0.33 0.38 0.42 0.39 0.33 0.46 0.50 0.51 0.46 0.44 0.39 0.33 0.41 0.45 0.46 0.42 0.39 0.43 0.43 0.50 0.44 0.48 0.35 0.42 0.34 0.38 0.48 0.34 0.48 0.39 0.40 0.40 0.34 0.36 0.53 0.39 0.48 0.33 0.41 0.51 0.52 0.41 0.38 0.48 0.45 0.45 0.47 0.50 0.37 0.41 0.47 0.36 0.50 0.53 0.35 0.52 0.43 0.42 0.38 0.42 0.36 0.33 0.46 0.51 0.51 0.39 0.42 0.36 0.42 0.43 0.48 0.40 0.41 0.33 0.33 0.51 0.48 0.34 0.41 0.37 0.49 0.44 0.46 0.50 0.40 0.37 0.43 0.33 0.38 0.41 0.49 0.45 0.38 -9999 -9999 -9999 -9999 -9999 -9999 -9999 -9999 -9999 -9999 -9999 -9999 -9999 -9999 -9999 -9999 -9999 -9999 -9999 -9999 -9999 -9999 -9999 -9999 -9999 -9999 -9999 -9999 -9999 -9999 -9999 -9999 -9999 -9999 -9999 -9999 -9999 -9999 -9999 -9999 -9999 -9999
0.33 0.42 0.52 0.33 0.43 0.38 0.50 0.52 0.49 0.49 0.33 0.37 0.41 0.45 0.37 0.50 0.40 0.48 0.41 0.53 0.38 0.34 0.38 0.43 0.39 0.51 0.51 0.42 0.53 0.43 0.41 0.35 0.40 0.39 0.53 0.51 0.48 0.39 0.52 0.39 0.39 0.46 0.38 0.46 0.46 0.48 0.34 0.52 0.38 0.50 0.37 0.47 0.53 0.36 0.49 0.34 0.36 0.39 0.52 0.42 0.40 0.47 0.37 0.35 0.43 0.41 0.48 0.33 0.48 0.42 0.51 0.35 0.41 0.45 0.50 0.53 0.36 0.46 0.36 0.37 0.48 0.48 0.46 0.37 0.46 0.37 0.52 0.48 0.40 0.48 0.38 0.37 0.45 0.40 0.52 0.41 0.33 0.51 0.43 0.36 0.34 0.50 0.34 0.35 0.42 0.37 0.41 0.33 0.47 0.50 0.52 0.42 0.45 0.40 0.50 0.44 0.38 0.50 0.46 0.50 0.34 0.38 0.50 0.34 0.48 0.35 0.42 0.50 0.44 0.40 0.40 0.48 0.35 0.43 0.45 0.37 0.34 0.35 0.41 0.44 0.51 0.45 0.45 0.51 0.33 0.47 0.45 0.47 0.39 0.52 0.33 0.41 0.51 0.40 0.44 0.48 0.50 0.51 0.42 0.36 0.44 0.42 0.52 0.34 0.46 0.43 0.37 0.45 0.40 0.47 0.45 0.41 0.38 -9999 -9999 -9999 -9999 -9999 -9999 -9999 -9999 -9999 -9999 -9999 -9999 -9999 -9999 -9999 -9999 -9999 -9999 -9999 -9999 -9999 -9999 -9999 -9999 -9999 -9999 -9999 -9999 -9999 -9999 -9999 -9999 -9999 -9999 -9999 -9999 -9999 -9999 -9999 -9999 -9999 -9999
0.45 0.34 0.38 0.48 0.49 0.45 0.40 0.35 0.37 0.48 0.40 0.41 0.34 0.48 0.48 0.39 0.38 0.49 0.42 0.41 0.41 0.51 0.35 0.49 0.40 0.51 0.50 0.48 0.50 0.43 0.51 0.42 0.44 0.44 0.46 0.36 0.49 0.40 0.47 0.44 0.33 0.44 0.51 0.40 0.48 0.49 0.43 0.47 0.52 0.52 0.38 0.47 0.39 0.39 0.52 0.42 0.49 0.33 0.50 0.47 0.52 0.38 0.45 0.37 0.42 0.36 0.47 0.37 0.47 0.42 0.33 0.40 0.39 0.41 0.49 0.47 0.46 0.52 0.41 0.38 0.44 0.46 0.51 0.34 0.47 0.34 0.43 0.45 0.51 0.39 0.49 0.49 0.47 0.34 0.52 0.42 0.53 0.34 0.40 0.50 0.49 0.47 0.37 0.36 0.44 0.47 0.50 0.47 0.38 0.51 0.45 0.40 0.47 0.36 0.48 0.43 0.35 0.52 0.41 0.48 0.46 0.44 0.35 0.49 0.40 0.38 0.43 0.42 0.34 0.49 0.50 0.33 0.47 0.39 0.34 0.41 0.46 0.43 0.46 0.48 0.50 0.45 0.46 0.46 0.42 0.42 0.41 0.41 0.50 0.48 0.43 0.45 0.36 0.36 0.41 0.37 0.51 0.50 0.47 0.42 0.40 0.33 0.41 0.51 0.41 0.38 0.39 0.49 0.39 0.51 0.34 0.42 0.50 0.38 -9999 -9999 -9999 -9999 -9999 -9999 -9999 -9999 -9999 -9999 -9999 -9999 -9999 -9999 -9999 -9999 -9999 -9999 -9999 -9999 -9999 -9999 -9999 -9999 -9999 -9999 -9999 -9999 -9999 -9999 -9999 -9999 -9999 -9999 -9999 -9999 -9999 -9999 -9999 -9999 -9999
0.46 0.51 0.35 0.48 0.42 0.41 0.40 0.41 0.50 0.47 0.47 0.48 0.48 0.49 0.36 0.50 0.35 0.52 0.46 0.45 0.40 0.37 0.44 0.40 0.47 0.41 0.33 0.52 0.45 0.36 0.47 0.36 0.37 0.39 0.45 0.39 0.52 0.38 0.38 0.38 0.48 0.43 0.34 0.41 0.37 0.49 0.47 0.33 0.50 0.49 0.48 0.35 0.50 0.52 0.52 0.48 0.50 0.37 0.44 0.40 0.52 0.48 0.38 0.41 0.45 0.39 0.51 0.46 0.38 0.40 0.36 0.33 0.42 0.37 0.43 0.46 0.40 0.53 0.48 0.49 0.37 0.43 0.35 0.34 0.41 0.47 0.52 0.44 0.38 0.38 0.37 0.47 0.39 0.42 0.52 0.37 0.36 0.47 0.35 0.45 0.45 0.36 0.49 0.43 0.52 0.44 0.51 0.39 0.48 0.40 0.35 0.44 0.43 0.41 0.33 0.50 0.38 0.39 0.39 0.34 0.42 0.46 0.39 0.37 0.53 0.42 0.45 0.43 0.34 0.50 0.48 0.41 0.50 0.50 0.43 0.46 0.39 0.40 0.35 0.44 0.41 0.35 0.46 0.48 0.38 0.49 0.38 0.46 0.45 0.42 0.47 0.43 0.45 0.41 0.51 0.37 0.36 0.42 0.51 0.47 0.41 0.49 0.51 0.49 0.46 0.37 0.35 0.44 0.52 0.38 0.46 0.46 0.39 0.45 -9999 -9999 -9999 -9999 -9999 -9999 -9999 -9999 -9999 -9999 -9999 -9999 -9999 -9999 -9999 -9999 -9999 -9999 -9999 -9999 -9999 -9999 -9999 -9999 -9999 -9999 -9999 -9999 -9999 -9999 -9999 -9999 -9999 -9999 -9999 -9999 -9999 -9999 -9999 -9999 -9999
0.46 0.50 0.38 0.45 0.46 0.40 0.36 0.36 0.39 0.46 0.48 0.42 0.43 0.33 0.48 0.44 0.40 0.40 0.39 0.35 0.46 0.39 0.39 0.45 0.50 0.49 0.35 0.35 0.34 0.33 0.39 0.42 0.50 0.41 0.36 0.46 0.40 0.43 0.37 0.52 0.36 0.35 0.43 0.52 0.33 0.38 0.50 0.38 0.50 0.37 0.50 0.35 0.48 0.39 0.45 0.43 0.34 0.52 0.48 0.40 0.47 0.50 0.36 0.49 0.51 0.42 0.46 0.50 0.40 0.45 0.33 0.38 0.37 0.47 0.39 0.34 0.46 0.51 0.51 0.52 0.38 0.36 0.33 0.46 0.45 0.35 0.40 0.44 0.49 0.48 0.43 0.34 0.47 0.37 0.40 0.48 0.42 0.44 0.44 0.52 0.42 0.41 0.35 0.37 0.51 0.45 0.46 0.42 0.41 0.39 0.38 0.39 0.40 0.39 0.36 0.46 0.33 0.39 0.37 0.48 0.40 0.40 0.47 0.35 0.34 0.49 0.44 0.33 0.39 0.52 0.35 0.45 0.52 0.35 0.42 0.49 0.45 0.51 0.35 0.37 0.39 0.37 0.48 0.34 0.50 0.51 0.36 0.38 0.51 0.41 0.36 0.36 0.43 0.47 0.52 0.48 0.34 0.47 0.36 0.51 0.34 0.36 0.37 0.43 0.41 0.34 0.52 0.49 0.47 0.38 0.36 0.44 0.45 0.44 -9999 -9999 -9999 -9999 -9999 -9999 -9999 -9999 -9999 -9999 -9999 -9999 -9999 -9999 -9999 -9999 -9999 -9999 -9999 -9999 -9999 -9999 -9999 -9999 -9999 -9999 -9999 -9999 -9999 -9999 -9999 -9999 -9999 -9999 -9999 -9999 -9999 -9999 -9999 -9999 -9999
0.40 0.36 0.50 0.49 0.35 0.50 0.47 0.52 0.46 0.41 0.37 0.39 0.47 0.41 0.44 0.37 0.39 0.33 0.42 0.34 0.37 0.50 0.48 0.49 0.49 0.43 0.42 0.38 0.43 0.39 0.42 0.51 0.45 0.37 0.37 0.51 0.41 0.52 0.46 0.52 0.41 0.49 0.45 0.35 0.52 0.35 0.36 0.45 0.34 0.43 0.38 0.51 0.47 0.33 0.41 0.33 0.43 0.48 0.35 0.48 0.51 0.39 0.33 0.50 0.34 0.34 0.37 0.35 0.45 0.36 0.45 0.35 0.43 0.44 0.41 0.48 0.47 0.39 0.52 0.39 0.40 0.52 0.37 0.34 0.43 0.49 0.51 0.43 0.46 0.41 0.39 0.40 0.46 0.51 0.51 0.33 0.48 0.49 0.49 0.47 0.34 0.40 0.49 0.41 0.49 0.34 0.37 0.44 0.51 0.37 0.45 0.50 0.42 0.45 0.48 0.43 0.41 0.39 0.50 0.47 0.43 0.39 0.37 0.51 0.39 0.37 0.35 0.42 0.46 0.43 0.41 0.35 0.42 0.52 0.37 0.33 0.39 0.47 0.43 0.52 0.36 0.39 0.50 0.40 0.38 0.46 0.47 0.40 0.37 0.37 0.51 0.43 0.52 0.49 0.39 0.42 0.34 0.41 0.37 0.43 0.34 0.37 0.48 0.36 0.37 0.52 0.41 0.35 0.42 0.45 0.43 0.49 0.45 0.35 -9999 -9999 -9999 -9999 -9999 -9999 -9999 -9999 -9999 -9999 -9999 -9999 -9999 -9999 -9999 -9999 -9999 -9999 -9999 -9999 -9999 -9999 -9999 -9999 -9999 -9999 -9999 -9999 -9999 -9999 -9999 -9999 -9999 -9999 -9999 -9999 -9999 -9999 -9999 -9999 -9999
0.50 0.49 0.43 0.36 0.49 0.39 0.38 0.46 0.46 0.49 0.40 0.44 0.48 0.45 0.50 0.50 0.49 0.41 0.52 0.36 0.37 0.52 0.41 0.39 0.44 0.33 0.52 0.41 0.39 0.46 0.38 0.33 0.44 0.47 0.44 0.45 0.47 0.42 0.40 0.34 0.36 0.50 0.38 0.35 0.42 0.36 0.52 0.40 0.35 0.52 0.41 0.38 0.43 0.47 0.42 0.41 0.39 0.48 0.38 0.42 0.46 0.35 0.40 0.50 0.46 0.45 0.48 0.37 0.49 0.50 0.51 0.42 0.41 0.52 0.35 0.43 0.45 0.51 0.42 0.38 0.33 0.44 0.34 0.48 0.47 0.46 0.46 0.49 0.50 0.42 0.38 0.40 0.37 0.43 0.35 0.34 0.51 0.48 0.37 0.41 0.35 0.39 0.44 0.34 0.43 0.34 0.42 0.39 0.35 0.45 0.38 0.35 0.41 0.39 0.48 0.42 0.45 0.48 0.47 0.38 0.40 0.33 0.34 0.33 0.47 0.44 0.48 0.45 0.39 0.50 0.35 0.34 0.42 0.36 0.52 0.39 0.36 0.50 0.46 0.45 0.33 0.42 0.34 0.42 0.48 0.34 0.52 0.43 0.39 0.48 0.43 0.37 0.51 0.39 0.44 0.35 0.48 0.38 0.43 0.46 0.47 0.34 0.38 0.47 0.50 0.45 0.41 0.52 0.39 0.41 0.35 0.48 0.39 0.47 -9999 -9999 -9999 -9999 -9999 -9999 -9999 -9999 -9999 -9999 -9999 -9999 -9999 -9999 -9999 -9999 -9999 -9999 -9999 -9999 -9999 -9999 -9999 -9999 -9999 -9999 -9999 -9999 -9999 -9999 -9999 -9999 -9999 -9999 -9999 -9999 -9999 -9999 -9999 -9999 -9999
0.35 0.33 0.40 0.40 0.37 0.52 0.48 0.40 0.52 0.48 0.52 0.52 0.40 0.49 0.39 0.41 0.36 0.42 0.47 0.43 0.34 0.43 0.34 0.46 0.44 0.36 0.45 0.38 0.52 0.40 0.46 0.51 0.37 0.43 0.45 0.35 0.48 0.49 0.50 0.36 0.45 0.50 0.38 0.41 0.45 0.43 0.36 0.33 0.50 0.45 0.46 0.46 0.43 0.44 0.46 0.45 0.37 0.52 0.52 0.46 0.46 0.45 0.42 0.51 0.49 0.47 0.43 0.35 0.42 0.37 0.43 0.39 0.47 0.46 0.45 0.48 0.46 0.43 0.52 0.35 0.46 0.40 0.35 0.46 0.39 0.45 0.35 0.37 0.42 0.40 0.45 0.38 0.50 0.44 0.39 0.49 0.50 0.36 0.50 0.52 0.44 0.46 0.48 0.42 0.39 0.49 0.34 0.50 0.35 0.49 0.40 0.36 0.48 0.39 0.48 0.46 0.47 0.50 0.34 0.53 0.45 0.36 0.46 0.38 0.43 0.39 0.49 0.35 0.38 0.35 0.45 0.52 0.38 0.38 0.52 0.52 0.35 0.38 0.47 0.38 0.52 0.46 0.51 0.41 0.41 0.37 0.33 0.34 0.51 0.33 0.38 0.45 0.52 0.51 0.42 0.46 0.50 0.36 0.37 0.45 0.53 0.45 0.36 0.35 0.37 0.37 0.49 0.46 0.50 0.48 0.45 0.49 0.50 0.34 -9999 -9999 -9999 -9999 -9999 -9999 -9999 -9999 -9999 -9999 -9999 -9999 -9999 -9999 -9999 -9999 -9999 -9999 -9999 -9999 -9999 -9999 -9999 -9999 -9999 -9999 -9999 -9999 -9999 -9999 -9999 -9999 -9999 -9999 -9999 -9999 -9999 -9999 -9999 -9999 -9999
0.38 0.47 0.52 0.39 0.47 0.38 0.43 0.35 0.42 0.52 0.42 0.45 0.50 0.41 0.37 0.52 0.35 0.38 0.44 0.49 0.45 0.42 0.49 0.44 0.48 0.49 0.45 0.40 0.36 0.40 0.43 0.51 0.40 0.42 0.34 0.41 0.34 0.45 0.37 0.47 0.46 0.52 0.40 0.41 0.51 0.50 0.42 0.42 0.39 0.47 0.34 0.35 0.35 0.38 0.51 0.45 0.42 0.47 0.52 0.38 0.38 0.48 0.33 0.46 0.45 0.44 0.49 0.36 0.43 0.42 0.45 0.46 0.46 0.38 0.48 0.52 0.37 0.51 0.36 0.50 0.50 0.40 0.34 0.39 0.49 0.33 0.44 0.50 0.40 0.35 0.33 0.34 0.38 0.53 0.41 0.43 0.35 0.42 0.38 0.52 0.52 0.50 0.36 0.37 0.49 0.39 0.40 0.50 0.46 0.46 0.34 0.33 0.49 0.34 0.45 0.45 0.44 0.39 0.45 0.51 0.52 0.53 0.49 0.37 0.49 0.49 0.40 0.50 0.39 0.39 0.41 0.47 0.38 0.44 0.35 0.38 0.52 0.48 0.42 0.35 0.34 0.34 0.39 0.38 0.44 0.41 0.46 0.43 0.37 0.51 0.39 0.50 0.52 0.38 0.35 0.41 0.50 0.46 0.46 0.47 0.37 0.43 0.43 0.51 0.38 0.43 0.51 0.44 0.36 0.47 0.51 0.46 0.39 0.39 -9999 -9999 -9999 -9999 -9999 -9999 -9999 -9999 -9999 -9999 -9999 -9999 -9999 -9999 -9999 -9999 -9999 -9999 -9999 -9999 -9999 -9999 -9999 -9999 -9999 -9999 -9999 -9999 -9999 -9999 -9999 -9999 -9999 -9999 -9999 -9999 -9999 -9999 -9999 -9999 -9999
0.33 0.45 0.39 0.34 0.47 0.52 0.38 0.44 0.36 0.35 0.47 0.49 0.50 0.46 0.51 0.45 0.51 0.40 0.51 0.38 0.33 0.39 0.40 0.37 0.47 0.37 0.45 0.44 0.41 0.39 0.46 0.51 0.46 0.36 0.49 0.39 0.52 0.51 0.48 0.41 0.50 0.41 0.48 0.48 0.37 0.43 0.45 0.41 0.41 0.35 0.33 0.53 0.40 0.46 0.33 0.53 0.34 0.48 0.43 0.35 0.51 0.51 0.38 0.33 0.51 0.50 0.34 0.39 0.51 0.49 0.40 0.46 0.38 0.39 0.50 0.51 0.45 0.51 0.45 0.45 0.48 0.44 0.33 0.49 0.46 0.46 0.43 0.46 0.37 0.41 0.36 0.52 0.40 0.50 0.45 0.50 0.36 0.48 0.46 0.34 0.48 0.34 0.50 0.34 0.38 0.37 0.34 0.48 0.51 0.34 0.45 0.33 0.37 0.43 0.35 0.37 0.46 0.39 0.44 0.47 0.44 0.41 0.42 0.49 0.47 0.44 0.42 0.53 0.48 0.37 0.41 0.50 0.43 0.41 0.39 0.48 0.41 0.48 0.34 0.50 0.39 0.44 0.53 0.50 0.47 0.34 0.41 0.36 0.39 0.52 0.42 0.38 0.47 0.38 0.48 0.37 0.42 0.52 0.48 0.50 0.37 0.48 0.36 0.45 0.34 0.43 0.38 0.46 0.47 0.38 0.37 0.50 0.49 0.33 0.41 -9999 -9999 -9999 -9999 -9999 -9999 -9999 -9999 -9999 -9999 -9999 -9999 -9999 -9999 -9999 -9999 -9999 -9999 -9999 -9999 -9999 -9999 -9999 -9999 -9999 -9999 -9999 -9999 -9999 -9999 -9999 -9999 -9999 -9999 -9999 -9999 -9999 -9999 -9999 -9999
0.33 0.40 0.45 0.50 0.47 0.38 0.40 0.48 0.53 0.39 0.39 0.44 0.33 0.39 0.52 0.51 0.43 0.34 0.44 0.43 0.44 0.45 0.38 0.42 0.40 0.44 0.40 0.38 0.39 0.52 0.52 0.45 0.45 0.50 0.43 0.36 0.46 0.41 0.41 0.48 0.52 0.52 0.36 0.42 0.41 0.38 0.42 0.43 0.38 0.35 0.51 0.38 0.52 0.43 0.38 0.49 0.34 0.40 0.51 0.44 0.40 0.35 0.49 0.47 0.41 0.37 0.41 0.46 0.50 0.45 0.50 0.50 0.40 0.35 0.38 0.38 0.37 0.44 0.49 0.38 0.49 0.43 0.42 0.38 0.49 0.52 0.47 0.39 0.38 0.45 0.38 0.39 0.38 0.37 0.42 0.39 0.33 0.49 0.43 0.46 0.35 0.43 0.50 0.42 0.49 0.35 0.41 0.51 0.52 0.51 0.39 0.43 0.45 0.51 0.47 0.51 0.36 0.51 0.44 0.37 0.44 0.51 0.40 0.51 0.34 0.39 0.44 0.42 0.44 0.42 0.40 0.42 0.38 0.52 0.33 0.51 0.46 0.45 0.40 0.41 0.43 0.42 0.50 0.38 0.36 0.42 0.49 0.51 0.48 0.41 0.51 0.35 0.52 0.50 0.43 0.44 0.44 0.42 0.52 0.39 0.39 0.43 0.46 0.47 0.48 0.50 0.45 0.45 0.40 0.35 0.50 0.37 0.35 0.45 0.36 -9999 -9999 -9999 -9999 -9999 -9999 -9999 -9999 -9999 -9999 -9999 -9999 -9999 -9999 -9999 -9999 -9999 -9999 -9999 -9999 -9999 -9999 -9999 -9999 -9999 -9999 -9999 -9999 -9999 -9999 -9999 -9999 -9999 -9999 -9999 -9999 -9999 -9999 -9999 -9999
0.49 0.50 0.46 0.49 0.52 0.44 0.39 0.51 0.46 0.48 0.43 0.44 0.39 0.38 0.38 0.40 0.50 0.51 0.39 0.49 0.51 0.49 0.48 0.42 0.43 0.49 0.45 0.50 0.37 0.41 0.38 0.41 0.42 0.53 0.51 0.44 0.46 0.36 0.38 0.52 0.47 0.44 0.50 0.40 0.41 0.39 0.41 0.52 0.41 0.38 0.48 0.46 0.36 0.34 0.46 0.41 0.33 0.47 0.37 0.47 0.39 0.52 0.40 0.44 0.47 0.46 0.41 0.43 0.45 0.44 0.43 0.50 0.42 0.34 0.33 0.48 0.46 0.34 0.35 0.43 0.45 0.47 0.41 0.44 0.43 0.44 0.43 0.53 0.38 0.44 0.48 0.43 0.39 0.48 0.33 0.33 0.36 0.44 0.49 0.43 0.37 0.47 0.47 0.34 0.46 0.39 0.38 0.50 0.37 0.52 0.41 0.52 0.52 0.33 0.38 0.46 0.40 0.52 0.45 0.50 0.47 0.51 0.45 0.51 0.45 0.42 0.47 0.40 0.41 0.47 0.43 0.39 0.34 0.39 0.46 0.37 0.34 0.36 0.37 0.50 0.43 0.48 0.37 0.45 0.48 0.38 0.45 0.45 0.38 0.47 0.48 0.36 0.47 0.43 0.48 0.48 0.41 0.51 0.48 0.39 0.48 0.38 0.46 0.41 0.39 0.44 0.33 0.33 0.39 0.33 0.38 0.35 0.50 0.40 0.48 -9999 -9999 -9999 -9999 -9999 -9999 -9999 -9999 -9999 -9999 -9999 -9999 -9999 -9999 -9999 -9999 -9999 -9999 -9999 -9999 -9999 -9999 -9999 -9999 -9999 -9999 -9999 -9999 -9999 -9999 -9999 -9999 -9999 -9999 -9999 -9999 -9999 -9999 -9999 -9999
0.43 0.50 0.47 0.45 0.33 0.40 0.51 0.47 0.44 0.52 0.37 0.33 0.44 0.44 0.45 0.39 0.47 0.39 0.44 0.47 0.42 0.38 0.36 0.45 0.46 0.39 0.46 0.39 0.43 0.40 0.39 0.39 0.38 0.46 0.38 0.46 0.36 0.52 0.47 0.48 0.36 0.51 0.37 0.34 0.33 0.51 0.49 0.45 0.33 0.39 0.44 0.43 0.37 0.33 0.42 0.38 0.36 0.42 0.49 0.44 0.52 0.48 0.38 0.47 0.45 0.51 0.38 0.37 0.48 0.40 0.41 0.35 0.39 0.49 0.42 0.41 0.40 0.43 0.43 0.51 0.48 0.39 0.49 0.42 0.36 0.39 0.46 0.46 0.37 0.39 0.44 0.42 0.35 0.41 0.50 0.46 0.42 0.48 0.47 0.39 0.46 0.41 0.44 0.36 0.49 0.36 0.34 0.36 0.53 0.48 0.50 0.50 0.51 0.45 0.39 0.40 0.50 0.38 0.42 0.35 0.47 0.43 0.43 0.50 0.49 0.50 0.52 0.35 0.47 0.49 0.35 0.53 0.39 0.43 0.45 0.51 0.37 0.40 0.46 0.35 0.41 0.48 0.44 0.35 0.48 0.39 0.37 0.35 0.51 0.42 0.39 0.45 0.49 0.37 0.48 0.43 0.34 0.45 0.33 0.42 0.35 0.45 0.44 0.45 0.44 0.40 0.41 0.40 0.38 0.52 0.48 0.38 0.43 0.48 0.46 -9999 -9999 -9999 -9999 -9999 -9999 -9999 -9999 -9999 -9999 -9999 -9999 -9999 -9999 -9999 -9999 -9999 -9999 -9999 -9999 -9999 -9999 -9999 -9999 -9999 -9999 -9999 -9999 -9999 -9999 -9999 -9999 -9999 -9999 -9999 -9999 -9999 -9999 -9999 -9999
0.34 0.35 0.37 0.39 0.44 0.33 0.35 0.39 0.48 0.39 0.36 0.45 0.41 0.44 0.48 0.35 0.40 0.40 0.42 0.51 0.40 0.34 0.51 0.37 0.51 0.45 0.41 0.33 0.38 0.49 0.35 0.33 0.51 0.34 0.33 0.43 0.44 0.41 0.35 0.38 0.47 0.51 0.41 0.49 0.48 0.46 0.48 0.42 0.51 0.37 0.51 0.38 0.34 0.33 0.48 0.50 0.44 0.46 0.41 0.36 0.36 0.49 0.45 0.52 0.47 0.43 0.37 0.38 0.44 0.37 0.43 0.45 0.50 0.35 0.48 0.51 0.45 0.46 0.51 0.47 0.49 0.46 0.39 0.42 0.34 0.45 0.34 0.38 0.35 0.41 0.42 0.50 0.37 0.50 0.39 0.51 0.45 0.41 0.46 0.47 0.37 0.50 0.39 0.46 0.33 0.40 0.38 0.40 0.48 0.51 0.48 0.52 0.39 0.47 0.48 0.47 0.44 0.36 0.38 0.44 0.39 0.51 0.44 0.36 0.40 0.38 0.41 0.45 0.36 0.38 0.33 0.47 0.37 0.46 0.48 0.46 0.51 0.34 0.46 0.46 0.49 0.46 0.48 0.39 0.52 0.39 0.38 0.36 0.40 0.35 0.33 0.33 0.34 0.48 0.41 0.34 0.46 0.50 0.41 0.49 0.49 0.45 0.36 0.50 0.42 0.33 0.47 0.45 0.42 0.41 0.41 0.42 0.51 0.49 0.34 -9999 -9999 -9999 -9999 -9999 -9999 -9999 -9999 -9999 -9999 -9999 -9999 -9999 -9999 -9999 -9999 -9999 -9999 -9999 -9999 -9999 -9999 -9999 -9999 -9999 -9999 -9999 -9999 -9999 -9999 -9999 -9999 -9999 -9999 -9999 -9999 -9999 -9999 -9999 -9999
0.36 0.38 0.33 0.45 0.42 0.47 0.51 0.42 0.49 0.38 0.42 0.48 0.53 0.44 0.48 0.35 0.37 0.50 0.44 0.50 0.46 0.52 0.34 0.42 0.49 0.48 0.48 0.48 0.40 0.37 0.35 0.43 0.47 0.48 0.35 0.47 0.42 0.46 0.49 0.41 0.48 0.38 0.39 0.36 0.48 0.52 0.36 0.46 0.42 0.49 0.40 0.35 0.35 0.33 0.36 0.44 0.41 0.53 0.33 0.50 0.44 0.41 0.51 0.35 0.52 0.46 0.47 0.37 0.41 0.50 0.35 0.51 0.42 0.52 0.41 0.50 0.36 0.35 0.42 0.49 0.49 0.50 0.47 0.51 0.41 0.50 0.43 0.39 0.39 0.39 0.35 0.48 0.37 0.38 0.51 0.39 0.35 0.37 0.47 0.37 0.52 0.38 0.33 0.51 0.33 0.38 0.49 0.36 0.50 0.40 0.44 0.48 0.45 0.38 0.51 0.45 0.50 0.33 0.53 0.50 0.37 0.52 0.44 0.42 0.51 0.34 0.41 0.46 0.36 0.40 0.50 0.35 0.41 0.36 0.41 0.35 0.43 0.52 0.44 0.43 0.35 0.36 0.37 0.43 0.42 0.35 0.43 0.33 0.41 0.48 0.40 0.52 0.44 0.37 0.34 0.49 0.47 0.37 0.33 0.34 0.48 0.45 0.36 0.42 0.49 0.46 0.50 0.45 0.43 0.48 0.35 0.40 0.35 0.48 0.40 -9999 -9999 -9999 -9999 -9999 -9999 -9999 -9999 -9999 -9999 -9999 -9999 -9999 -9999 -9999 -9999 -9999 -9999 -9999 -9999 -9999 -9999 -9999 -9999 -9999 -9999 -9999 -9999 -9999 -9999 -9999 -9999 -9999 -9999 -9999 -9999 -9999 -9999 -9999 -9999
0.35 0.44 0.48 0.47 0.43 0.49 0.47 0.43 0.43 0.36 0.50 0.49 0.38 0.50 0.48 0.40 0.33 0.40 0.44 0.48 0.49 0.45 0.44 0.39 0.36 0.33 0.38 0.41 0.39 0.47 0.43 0.39 0.43 0.48 0.43 0.45 0.35 0.47 0.38 0.52 0.43 0.49 0.44 0.48 0.43 0.39 0.50 0.40 0.49 0.49 0.47 0.37 0.51 0.47 0.48 0.33 0.39 0.38 0.41 0.49 0.46 0.38 0.41 0.45 0.37 0.35 0.45 0.36 0.41 0.52 0.47 0.41 0.47 0.37 0.36 0.49 0.34 0.41 0.39 0.37 0.39 0.52 0.51 0.42 0.45 0.38 0.46 0.39 0.44 0.48 0.52 0.50 0.38 0.36 0.48 0.52 0.38 0.43 0.50 0.47 0.38 0.53 0.52 0.43 0.36 0.49 0.49 0.35 0.48 0.42 0.44 0.36 0.36 0.37 0.51 0.52 0.52 0.41 0.36 0.33 0.52 0.33 0.50 0.48 0.40 0.52 0.47 0.43 0.48 0.40 0.35 0.41 0.51 0.46 0.37 0.48 0.49 0.43 0.45 0.47 0.44 0.34 0.50 0.51 0.52 0.41 0.42 0.35 0.48 0.39 0.33 0.52 0.38 0.33 0.37 0.48 0.38 0.35 0.42 0.39 0.39 0.46 0.36 0.51 0.42 0.44 0.43 0.38 0.40 0.37 0.38 0.53 0.52 0.33 0.41 -9999 -9999 -9999 -9999 -9999 -9999 -9999 -9999 -9999 -9999 -9999 -9999 -9999 -9999 -9999 -9999 -9999 -9999 -9999 -9999 -9999 -9999 -9999 -9999 -9999 -9999 -9999 -9999 -9999 -9999 -9999 -9999 -9999 -9999 -9999 -9999 -9999 -9999 -9999 -9999
0.47 0.35 0.42 0.39 0.44 0.45 0.48 0.41 0.48 0.43 0.49 0.47 0.46 0.44 0.46 0.42 0.49 0.40 0.34 0.49 0.42 0.47 0.39 0.35 0.47 0.45 0.41 0.41 0.45 0.38 0.49 0.44 0.46 0.51 0.53 0.34 0.52 0.38 0.41 0.34 0.44 0.51 0.49 0.45 0.52 0.53 0.45 0.38 0.46 0.48 0.34 0.49 0.37 0.45 0.34 0.42 0.50 0.33 0.39 0.35 0.34 0.35 0.41 0.41 0.41 0.45 0.49 0.38 0.41 0.39 0.50 0.37 0.39 0.39 0.52 0.48 0.51 0.52 0.40 0.51 0.39 0.44 0.33 0.38 0.48 0.50 0.41 0.46 0.40 0.43 0.34 0.46 0.38 0.42 0.42 0.46 0.42 0.49 0.41 0.37 0.36 0.48 0.52 0.46 0.44 0.52 0.39 0.42 0.43 0.52 0.44 0.44 0.48 0.50 0.50 0.34 0.37 0.37 0.50 0.35 0.39 0.52 0.47 0.35 0.34 0.43 0.39 0.38 0.37 0.44 0.37 0.51 0.49 0.46 0.44 0.42 0.35 0.39 0.41 0.43 0.37 0.38 0.35 0.44 0.34 0.42 0.35 0.36 0.52 0.46 0.45 0.43 0.48 0.37 0.51 0.38 0.47 0.36 0.47 0.51 0.38 0.47 0.51 0.44 0.36 0.46 0.35 0.39 0.36 0.43 0.51 0.50 0.46 0.36 0.43 0.47 -9999 -9999 -9999 -9999 -9999 -9999 -9999 -9999 -9999 -9999 -9999 -9999 -9999 -9999 -9999 -9999 -9999 -9999 -9999 -9999 -9999 -9999 -9999 -9999 -9999 -9999 -9999 -9999 -9999 -9999 -9999 -9999 -9999 -9999 -9999 -9999 -9999 -9999 -9999
0.36 0.49 0.47 0.39 0.53 0.39 0.33 0.49 0.33 0.52 0.42 0.48 0.51 0.36 0.46 0.35 0.49 0.38 0.34 0.33 0.34 0.35 0.52 0.51 0.46 0.51 0.41 0.49 0.41 0.47 0.50 0.40 0.49 0.35 0.42 0.38 0.38 0.53 0.46 0.50 0.39 0.43 0.42 0.52 0.34 0.35 0.44 0.45 0.46 0.42 0.34 0.51 0.34 0.45 0.36 0.47 0.49 0.46 0.48 0.42 0.52 0.42 0.36 0.43 0.43 0.46 0.51 0.48 0.33 0.38 0.39 0.50 0.44 0.44 0.45 0.52 0.46 0.42 0.44 0.39 0.48 0.44 0.36 0.35 0.34 0.52 0.47 0.37 0.52 0.46 0.49 0.38 0.46 0.33 0.52 0.36 0.51 0.40 0.50 0.43 0.50 0.38 0.46 0.51 0.51 0.50 0.42 0.48 0.43 0.35 0.42 0.50 0.44 0.44 0.35 0.50 0.40 0.48 0.52 0.38 0.39 0.39 0.34 0.50 0.48 0.34 0.52 0.44 0.35 0.34 0.51 0.41 0.41 0.50 0.34 0.47 0.48 0.34 0.34 0.48 0.45 0.51 0.35 0.49 0.37 0.37 0.38 0.35 0.49 0.38 0.49 0.44 0.46 0.53 0.52 0.49 0.37 0.37 0.46 0.49 0.52 0.38 0.43 0.40 0.51 0.38 0.35 0.44 0.41 0.51 0.38 0.36 0.37 0.43 0.43 0.53 -9999 -9999 -9999 -9999 -9999 -9999 -9999 -9999 -9999 -9999 -9999 -9999 -9999 -9999 -9999 -9999 -9999 -9999 -9999 -9999 -9999 -9999 -9999 -9999 -9999 -9999 -9999 -9999 -9999 -9999 -9999 -9999 -9999 -9999 -9999 -9999 -9999 -9999 -9999
0.38 0.51 0.41 0.49 0.35 0.51 0.41 0.45 0.45 0.39 0.49 0.52 0.41 0.38 0.42 0.43 0.40 0.49 0.40 0.49 0.47 0.40 0.46 0.51 0.39 0.40 0.46 0.50 0.35 0.37 0.46 0.46 0.43 0.41 0.52 0.46 0.43 0.37 0.47 0.34 0.47 0.39 0.35 0.51 0.43 0.45 0.42 0.48 0.34 0.45 0.34 0.38 0.42 0.47 0.40 0.43 0.38 0.46 0.50 0.44 0.36 0.52 0.44 0.44 0.42 0.51 0.36 0.46 0.37 0.33 0.44 0.35 0.45 0.43 0.48 0.45 0.43 0.38 0.51 0.38 0.43 0.48 0.38 0.41 0.36 0.50 0.43 0.38 0.39 0.35 0.42 0.48 0.38 0.41 0.39 0.48 0.48 0.51 0.44 0.35 0.39 0.53 0.36 0.51 0.38 0.40 0.52 0.38 0.46 0.42 0.40 0.45 0.40 0.48 0.48 0.39 0.38 0.40 0.45 0.39 0.43 0.43 0.45 0.37 0.50 0.38 0.51 0.44 0.42 0.50 0.41 0.45 0.51 0.52 0.36 0.38 0.33 0.47 0.39 0.46 0.42 0.41 0.40 0.50 0.49 0.33 0.37 0.47 0.35 0.51 0.39 0.52 0.34 0.35 0.50 0.37 0.52 0.47 0.47 0.36 0.37 0.40 0.52 0.46 0.44 0.34 0.40 0.44 0.34 0.35 0.36 -9999 -9999 -9999 -9999 -9999 -9999 -9999 -9999 -9999 -9999 -9999 -9999 -9999 -9999 -9999 -9999 -9999 -9999 -9999 -9999 -9999 -9999 -9999 -9999 -9999 -9999 -9999 -9999 -9999 -9999 -9999 -9999 -9999 -9999 -9999 -9999 -9999 -9999 -9999 -9999 -9999 -9999 -9999 -9999
0.39 0.50 0.47 0.39 0.37 0.47 0.53 0.48 0.37 0.39 0.38 0.48 0.50 0.50 0.44 0.39 0.41 0.47 0.42 0.42 0.44 0.48 0.40 0.46 0.52 0.38 0.44 0.41 0.42 0.47 0.52 0.37 0.35 0.48 0.35 0.37 0.49 0.35 0.40 0.34 0.34 0.35 0.46 0.37 0.38 0.38 0.52 0.48 0.46 0.48 0.52 0.53 0.34 0.47 0.49 0.41 0.39 0.37 0.40 0.42 0.33 0.50 0.33 0.40 0.36 0.49 0.34 0.51 0.39 0.44 0.35 0.48 0.36 0.34 0.45 0.52 0.36 0.51 0.39 0.46 0.50 0.34 0.42 0.35 0.45 0.38 0.34 0.36 0.37 0.47 0.52 0.50 0.43 0.52 0.34 0.48 0.38 0.47 0.52 0.47 0.34 0.46 0.43 0.38 0.39 0.51 0.42 0.33 0.48 0.38 0.37 0.47 0.45 0.34 0.42 0.36 0.39 0.40 0.36 0.33 0.50 0.48 0.40 0.51 0.43 0.46 0.46 0.53 0.39 0.41 0.45 0.44 0.36 0.39 0.40 0.39 0.42 0.49 0.38 0.48 0.47 0.47 0.51 0.35 0.36 0.51 0.40 0.42 0.41 0.53 0.42 0.37 0.51 0.34 0.34 0.43 0.37 0.40 0.42 0.42 0.42 0.42 0.48 0.40 -9999 -9999 -9999 -9999 -9999 -9999 -9999 -9999 -9999 -9999 -9999 -9999 -9999 -9999 -9999 -9999 -9999 -9999 -9999 -9999 -9999 -9999 -9999 -9999 -9999 -9999 -9999 -9999 -9999 -9999 -9999 -9999 -9999 -9999 -9999 -9999 -9999 -9999 -9999 -9999 -9999 -9999 -9999 -9999 -9999 -9999 -9999 -9999 -9999 -9999 -9999
0.38 0.38 0.43 0.50 0.47 0.42 0.46 0.42 0.41 0.47 0.38 0.34 0.50 0.52 0.38 0.39 0.38 0.53 0.35 0.37 0.43 0.35 0.39 0.41 0.49 0.42 0.40 0.42 0.48 0.45 0.37 0.48 0.48 0.45 0.52 0.52 0.47 0.43 0.38 0.42 0.50 0.51 0.34 0.42 0.51 0.46 0.35 0.50 0.46 0.33 0.40 0.46 0.44 0.52 0.49 0.48 0.49 0.35 0.33 0.43 0.50 0.35 0.34 0.38 0.37 0.52 0.49 0.51 0.51 0.48 0.38 0.50 0.50 0.46 0.43 0.34 0.36 0.40 0.44 0.52 0.45 0.52 0.33 0.43 0.53 0.47 0.44 0.34 0.52 0.51 0.42 0.44 0.40 0.43 0.35 0.34 0.35 0.37 0.47 0.45 0.34 0.38 0.40 0.44 0.44 0.35 0.49 0.34 0.43 0.44 0.47 0.47 0.39 0.44 0.41 0.49 0.44 0.43 0.40 0.49 0.47 0.42 0.50 0.37 0.38 0.43 0.35 0.47 0.48 0.33 0.38 0.45 0.51 0.36 0.41 0.39 0.48 0.51 0.47 0.46 0.33 0.39 0.50 0.34 0.38 0.43 0.51 0.38 0.48 0.33 0.36 0.45 0.49 0.51 0.44 0.35 -9999 -9999 -9999 -9999 -9999 -9999 -9999 -9999 -9999 -9999 -9999 -9999 -9999 -9999 -9999 -9999 -9999 -9999 -9999 -9999 -9999 -9999 -9999 -9999 -9999 -9999 -9999 -9999 -9999 -9999 -9999 -9999 -9999 -9999 -9999 -9999 -9999 -9999 -9999 -9999 -9999 -9999 -9999 -9999 -9999 -9999 -9999 -9999 -9999 -9999 -9999 -9999 -9999 -9999 -9999 -9999 -9999 -9999 -9999
0.52 0.51 0.50 0.47 0.46 0.40 0.42 0.39 0.33 0.36 0.42 0.45 0.37 0.37 0.45 0.40 0.46 0.36 0.39 0.46 0.43 0.39 0.52 0.43 0.34 0.51 0.40 0.48 0.38 0.33 0.51 0.41 0.48 0.41 0.38 0.45 0.49 0.36 0.51 0.33 0.37 0.33 0.41 0.43 0.45 0.49 0.45 0.43 0.48 0.44 0.36 0.36 0.51 0.50 0.37 0.43 0.36 0.45 0.51 0.36 0.39 0.42 0.43 0.38 0.37 0.41 0.35 0.39 0.50 0.34 0.33 0.48 0.33 0.39 0.52 0.33 0.51 0.40 0.39 0.43 0.38 0.41 0.38 0.51 0.41 0.46 0.50 0.37 0.33 0.39 0.41 0.47 0.36 0.53 0.43 0.33 0.36 0.34 0.44 0.36 0.46 0.51 0.33 0.47 0.51 0.52 0.34 0.38 0.37 0.36 0.37 0.37 0.46 0.42 0.40 0.34 0.50 0.38 0.44 0.39 0.36 0.43 0.41 0.49 0.37 0.36 0.35 0.42 0.47 0.41 0.42 0.37 0.47 0.43 0.43 0.44 0.47 0.34 0.39 0.46 0.48 0.42 0.50 0.34 0.52 0.38 0.52 0.39 0.34 -9999 -9999 -9999 -9999 -9999 -9999 -9999 -9999 -9999 -9999 -9999 -9999 -9999 -9999 -9999 -9999 -9999 -9999 -9999 -9999 -9999 -9999 -9999 -9999 -9999 -9999 -9999 -9999 -9999 -9999 -9999 -9999 -9999 -9999 -9999 -9999 -9999 -9999 -9999 -9999 -9999 -9999 -9999 -9999 -9999 -9999 -9999 -9999 -9999 -9999 -9999 -9999 -9999 -9999 -9999 -9999 -9999 -9999 -9999 -9999 -9999 -9999 -9999 -9999 -9999 -9999
0.39 0.43 0.43 0.48 0.37 0.48 0.44 0.41 0.48 0.48 0.41 0.41 0.41 0.48 0.52 0.40 0.37 0.52 0.46 0.39 0.49 0.49 0.51 0.41 0.45 0.42 0.50 0.36 0.50 0.36 0.39 0.48 0.48 0.49 0.52 0.45 0.44 0.38 0.40 0.42 0.46 0.52 0.36 0.42 0.45 0.36 0.46 0.49 0.35 0.50 0.42 0.43 0.33 0.40 0.52 0.38 0.43 0.37 0.52 0.46 0.39 0.45 0.33 0.33 0.35 0.39 0.50 0.50 0.37 0.37 0.48 0.37 0.51 0.43 0.44 0.36 0.44 0.41 0.50 0.39 0.47 0.40 0.43 0.37 0.37 0.39 0.42 0.45 0.41 0.36 0.44 0.38 0.47 0.40 0.35 0.37 0.48 0.37 0.43 0.37 0.40 0.35 0.35 0.35 0.51 0.37 0.34 0.49 0.38 0.43 0.43 0.52 0.37 0.34 0.51 0.50 0.36 0.45 0.38 0.47 0.39 0.48 0.42 0.34 0.50 0.36 0.34 0.51 0.39 0.36 0.35 0.37 0.45 0.37 0.47 0.44 0.44 0.38 0.48 0.53 0.44 0.34 0.41 0.52 -9999 -9999 -9999 -9999 -9999 -9999 -9999 -9999 -9999 -9999 -9999 -9999 -9999 -9999 -9999 -9999 -9999 -9999 -9999 -9999 -9999 -9999 -9999 -9999 -9999 -9999 -9999 -9999 -9999 -9999 -9999 -9999 -9999 -9999 -9999 -9999 -9999 -9999 -9999 -9999 -9999 -9999 -9999 -9999 -9999 -9999 -9999 -9999 -9999 -9999 -9999 -9999 -9999 -9999 -9999 -9999 -9999 -9999 -9999 -9999 -9999 -9999 -9999 -9999 -9999 -9999 -9999 -9999 -9999 -9999 -9999
0.41 0.44 0.41 0.52 0.52 0.35 0.37 0.42 0.42 0.40 0.36 0.47 0.44 0.43 0.41 0.48 0.48 0.33 0.48 0.37 0.36 0.36 0.39 0.38 0.35 0.43 0.43 0.51 0.37 0.42 0.43 0.51 0.42 0.37 0.51 0.47 0.38 0.51 0.34 0.49 0.50 0.38 0.33 0.44 0.52 0.34 0.47 0.34 0.50 0.44 0.51 0.48 0.45 0.38 0.40 0.50 0.35 0.35 0.50 0.48 0.39 0.45 0.44 0.34 0.34 0.37 0.52 0.41 0.49 0.51 0.44 0.47 0.43 0.45 0.44 0.50 0.36 0.37 0.47 0.41 0.33 0.45 0.41 0.45 0.45 0.50 0.44 0.49 0.47 0.50 0.48 0.52 0.47 0.35 0.40 0.36 0.36 0.47 0.37 0.40 0.50 0.40 0.39 0.47 0.50 0.42 0.35 0.48 0.49 0.35 0.47 0.42 0.45 0.33 0.38 0.44 0.48 0.35 0.46 0.41 0.42 0.46 0.45 0.37 0.49 0.46 0.42 0.42 0.49 0.44 0.41 0.46 0.45 0.36 0.40 0.39 0.38 0.41 0.39 0.45 0.47 0.37 0.43 0.35 -9999 -9999 -9999 -9999 -9999 -9999 -9999 -9999 -9999 -9999 -9999 -9999 -9999 -9999 -9999 -9999 -9999 -9999 -9999 -9999 -9999 -9999 -9999 -9999 -9999 -9999 -9999 -9999 -9999 -9999 -9999 -9999 -9999 -9999 -9999 -9999 -9999 -9999 -9999 -9999 -9999 -9999 -9999 -9999 -9999 -9999 -9999 -9999 -9999 -9999 -9999 -9999 -9999 -9999 -9999 -9999 -9999 -9999 -9999 -9999 -9999 -9999 -9999 -9999 -9999 -9999 -9999 -9999 -9999 -9999 -9999
0.51 0.46 0.52 0.42 0.48 0.48 0.40 0.36 0.43 0.45 0.52 0.52 0.40 0.48 0.45 0.38 0.50 0.41 0.39 0.46 0.36 0.44 0.51 0.47 0.47 0.45 0.48 0.46 0.48 0.52 0.34 0.33 0.45 0.40 0.40 0.44 0.40 0.50 0.43 0.46 0.38 0.34 0.33 0.44 0.46 0.43 0.51 0.50 0.52 0.40 0.51 0.46 0.40 0.43 0.46 0.49 0.48 0.50 0.43 0.33 0.47 0.47 0.33 0.35 0.47 0.44 0.37 0.46 0.46 0.42 0.52 0.38 0.48 0.43 0.44 0.35 0.48 0.35 0.53 0.35 0.45 0.34 0.48 0.44 0.48 0.49 0.40 0.46 0.35 0.42 0.35 0.36 0.52 0.38 0.43 0.48 0.43 0.52 0.34 0.50 0.50 0.45 0.35 0.40 0.52 0.49 0.41 0.38 0.50 0.53 0.40 0.44 0.41 0.51 0.38 0.48 0.52 0.39 0.50 0.48 0.35 0.44 0.39 0.50 0.40 0.44 0.46 0.52 0.34 0.38 0.38 0.44 0.42 0.34 0.33 0.49 0.47 0.52 0.49 0.46 0.36 0.48 0.47 0.45 -9999 -9999 -9999 -9999 -9999 -9999 -9999 -9999 -9999 -9999 -9999 -9999 -9999 -9999 -9999 -9999 -9999 -9999 -9999 -9999 -9999 -9999 -9999 -9999 -9999 -9999 -9999 -9999 -9999 -9999 -9999 -9999 -9999 -9999 -9999 -9999 -9999 -9999 -9999 -9999 -9999 -9999 -9999 -9999 -9999 -9999 -9999 -9999 -9999 -9999 -9999 -9999 -9999 -9999 -9999 -9999 -9999 -9999 -9999 -9999 -9999 -9999 -9999 -9999 -9999 -9999 -9999 -9999 -9999 -9999 -9999
0.42 0.35 0.39 0.37 0.45 0.46 0.48 0.40 0.34 0.48 0.51 0.38 0.40 0.38 0.43 0.36 0.41 0.37 0.40 0.39 0.49 0.47 0.38 0.34 0.47 0.50 0.38 0.33 0.47 0.37 0.39 0.38 0.44 0.36 0.53 0.49 0.41 0.52 0.42 0.41 0.33 0.46 0.34 0.33 0.35 0.36 0.49 0.42 0.44 0.50 0.39 0.50 0.51 0.33 0.38 0.44 0.41 0.37 0.42 0.42 0.45 0.33 0.49 0.49 0.43 0.45 0.40 0.44 0.40 0.42 0.35 0.44 0.42 0.44 0.50 0.41 0.41 0.49 0.46 0.33 0.46 0.45 0.39 0.38 0.38 0.34 0.39 0.35 0.42 0.49 0.50 0.37 0.46 0.46 0.44 0.35 0.47 0.47 0.43 0.46 0.39 0.41 0.49 0.52 0.47 0.47 0.46 0.44 0.39 0.51 0.52 0.49 0.35 0.37 0.52 0.50 0.35 0.45 0.33 0.44 0.39 0.49 0.33 0.47 0.44 0.48 0.48 0.45 0.49 0.37 0.45 0.34 0.44 0.49 0.33 0.40 0.50 0.34 0.34 0.44 0.51 0.41 0.46 0.44 -9999 -9999 -9999 -9999 -9999 -9999 -9999 -9999 -9999 -9999 -9999 -9999 -9999 -9999 -9999 -9999 -9999 -9999 -9999 -9999 -9999 -9999 -9999 -9999 -9999 -9999 -9999 -9999 -9999 -9999 -9999 -9999 -9999 -9999 -9999 -9999 -9999 -9999 -9999 -9999 -9999 -9999 -9999 -9999 -9999 -9999 -9999 -9999 -9999 -9999 -9999 -9999 -9999 -9999 -9999 -9999 -9999 -9999 -9999 -9999 -9999 -9999 -9999 -9999 -9999 -9999 -9999 -9999 -9999 -9999 -9999
0.43 0.38 0.37 0.46 0.50 0.38 0.37 0.37 0.42 0.41 0.43 0.41 0.34 0.52 0.34 0.51 0.48 0.43 0.44 0.34 0.46 0.37 0.36 0.47 0.44 0.44 0.35 0.35 0.53 0.33 0.51 0.44 0.45 0.45 0.46 0.34 0.45 0.44 0.46 0.41 0.45 0.36 0.34 0.49 0.52 0.43 0.42 0.49 0.52 0.51 0.38 0.36 0.42 0.42 0.47 0.51 0.42 0.35 0.36 0.35 0.46 0.43 0.33 0.44 0.43 0.44 0.41 0.51 0.49 0.43 0.51 0.45 0.49 0.52 0.44 0.34 0.39 0.47 0.38 0.46 0.36 0.43 0.37 0.50 0.34 0.46 0.49 0.42 0.48 0.48 0.49 0.49 0.52 0.51 0.36 0.45 0.52 0.48 0.51 0.36 0.52 0.48 0.39 0.49 0.42 0.51 0.39 0.36 0.33 0.49 0.39 0.49 0.33 0.48 0.45 0.35 0.52 0.51 0.50 0.52 0.38 0.35 0.34 0.46 0.38 0.40 0.39 0.47 0.52 0.43 0.34 0.39 0.51 0.42 0.40 0.52 0.41 0.46 0.39 0.37 0.33 0.49 0.46 0.37 -9999 -9999 -9999 -9999 -9999 -9999 -9999 -9999 -9999 -9999 -9999 -9999 -9999 -9999 -9999 -9999 -9999 -9999 -9999 -9999 -9999 -9999 -9999 -9999 -9999 -9999 -9999 -9999 -9999 -9999 -9999 -9999 -9999 -9999 -9999 -9999 -9999 -9999 -9999 -9999 -9999 -9999 -9999 -9999 -9999 -9999 -9999 -9999 -9999 -9999 -9999 -9999 -9999 -9999 -9999 -9999 -9999 -9999 -9999 -9999 -9999 -9999 -9999 -9999 -9999 -9999 -9999 -9999 -9999 -9999 -9999
0.48 0.41 0.45 0.39 0.40 0.46 0.49 0.49 0.48 0.52 0.43 0.33 0.40 0.51 0.48 0.47 0.49 0.34 0.52 0.35 0.41 0.45 0.48 0.48 0.43 0.35 0.48 0.48 0.40 0.39 0.51 0.51 0.43 0.44 0.52 0.45 0.39 0.39 0.44 0.39 0.48 0.42 0.38 0.50 0.50 0.35 0.52 0.40 0.44 0.46 0.37 0.44 0.49 0.51 0.34 0.50 0.39 0.46 0.43 0.47 0.51 0.43 0.51 0.47 0.38 0.46 0.42 0.42 0.38 0.37 0.44 0.45 0.47 0.33 0.50 0.46 0.34 0.38 0.50 0.34 0.34 0.36 0.47 0.43 0.43 0.41 0.48 0.50 0.51 0.51 0.34 0.39 0.51 0.35 0.37 0.46 0.43 0.38 0.44 0.41 0.39 0.37 0.44 0.37 0.51 0.36 0.38 0.39 0.46 0.52 0.35 0.43 0.42 0.46 0.36 0.50 0.47 0.49 0.46 0.38 0.46 0.40 0.41 0.41 0.47 0.37 0.37 0.34 0.42 0.51 0.38 0.40 0.37 0.50 0.33 0.51 0.46 0.51 0.41 0.48 0.42 0.48 0.41 0.40 0.47 -9999 -9999 -9999 -9999 -9999 -9999 -9999 -9999 -9999 -9999 -9999 -9999 -9999 -9999 -9999 -9999 -9999 -9999 -9999 -9999 -9999 -9999 -9999 -9999 -9999 -9999 -9999 -9999 -9999 -9999 -9999 -9999 -9999 -9999 -9999 -9999 -9999 -9999 -9999 -9999 -9999 -9999 -9999 -9999 -9999 -9999 -9999 -9999 -9999 -9999 -9999 -9999 -9999 -9999 -9999 -9999 -9999 -9999 -9999 -9999 -9999 -9999 -9999 -9999 -9999 -9999 -9999 -9999 -9999 -9999
0.37 0.43 0.33 0.45 0.49 0.51 0.45 0.36 0.51 0.52 0.33 0.33 0.39 0.44 0.43 0.45 0.36 0.46 0.38 0.49 0.45 0.41 0.35 0.36 0.45 0.39 0.34 0.35 0.43 0.34 0.49 0.33 0.48 0.43 0.37 0.46 0.43 0.47 0.50 0.37 0.47 0.41 0.41 0.37 0.52 0.51 0.41 0.46 0.39 0.49 0.38 0.48 0.47 0.49 0.38 0.37 0.35 0.48 0.45 0.52 0.50 0.46 0.40 0.40 0.53 0.48 0.42 0.35 0.48 0.33 0.41 0.52 0.44 0.47 0.48 0.46 0.45 0.46 0.53 0.48 0.35 0.42 0.39 0.50 0.52 0.41 0.48 0.51 0.35 0.51 0.36 0.43 0.37 0.48 0.48 0.45 0.40 0.44 0.35 0.36 0.37 0.42 0.43 0.39 0.39 0.44 0.36 0.34 0.39 0.40 0.41 0.44 0.40 0.44 0.50 0.52 0.47 0.36 0.36 0.49 0.37 0.50 0.45 0.35 0.33 0.39 0.48 0.50 0.35 0.34 0.49 0.52 0.41 0.45 0.48 0.45 0.41 0.35 0.38 0.36 0.49 0.46 0.37 0.49 0.49 -9999 -9999 -9999 -9999 -9999 -9999 -9999 -9999 -9999 -9999 -9999 -9999 -9999 -9999 -9999 -9999 -9999 -9999 -9999 -9999 -9999 -9999 -9999 -9999 -9999 -9999 -9999 -9999 -9999 -9999 -9999 -9999 -9999 -9999 -9999 -9999 -9999 -9999 -9999 -9999 -9999 -9999 -9999 -9999 -9999 -9999 -9999 -9999 -9999 -9999 -9999 -9999 -9999 -9999 -9999 -9999 -9999 -9999 -9999 -9999 -9999 -9999 -9999 -9999 -9999 -9999 -9999 -9999 -9999 -9999
0.36 0.35 0.38 0.41 0.41 0.37 0.40 0.42 0.39 0.36 0.36 0.33 0.41 0.41 0.43 0.36 0.48 0.47 0.35 0.41 0.40 0.40 0.40 0.52 0.41 0.36 0.37 0.51 0.38 0.46 0.36 0.50 0.44 0.33 0.41 0.35 0.39 0.37 0.34 0.40 0.44 0.33 0.44 0.38 0.40 0.40 0.52 0.40 0.35 0.34 0.42 0.46 0.37 0.40 0.38 0.44 0.48 0.38 0.34 0.39 0.44 0.42 0.35 0.42 0.43 0.41 0.34 0.43 0.40 0.35 0.44 0.45 0.46 0.40 0.35 0.42 0.45 0.46 0.43 0.48 0.47 0.38 0.35 0.36 0.45 0.48 0.36 0.50 0.48 0.51 0.48 0.41 0.36 0.51 0.38 0.44 0.45 0.52 0.53 0.51 0.41 0.51 0.49 0.34 0.37 0.51 0.41 0.48 0.33 0.38 0.50 0.44 0.52 0.47 0.49 0.41 0.33 0.45 0.43 0.33 0.35 0.49 0.48 0.41 0.35 0.36 0.41 0.37 0.33 0.45 0.33 0.34 0.39 0.44 0.40 0.43 0.34 0.47 0.41 0.51 0.40 0.38 0.42 0.50 0.52 -9999 -9999 -9999 -9999 -9999 -9999 -9999 -9999 -9999 -9999 -9999 -9999 -9999 -9999 -9999 -9999 -9999 -9999 -9999 -9999 -9999 -9999 -9999 -9999 -9999 -9999 -9999 -9999 -9999 -9999 -9999 -9999 -9999 -9999 -9999 -9999 -9999 -9999 -9999 -9999 -9999 -9999 -9999 -9999 -9999 -9999 -9999 -9999 -9999 -9999 -9999 -9999 -9999 -9999 -9999 -9999 -9999 -9999 -9999 -9999 -9999 -9999 -9999 -9999 -9999 -9999 -9999 -9999 -9999 -9999
0.36 0.48 0.51 0.38 0.37 0.35 0.40 0.51 0.38 0.45 0.36 0.50 0.42 0.41 0.49 0.51 0.34 0.34 0.34 0.44 0.46 0.34 0.42 0.48 0.47 0.41 0.40 0.53 0.41 0.38 0.35 0.49 0.46 0.50 0.33 0.45 0.50 0.51 0.39 0.44 0.40 0.45 0.35 0.33 0.49 0.41 0.40 0.37 0.53 0.43 0.50 0.52 0.35 0.34 0.52 0.38 0.35 0.47 0.39 0.42 0.50 0.50 0.36 0.40 0.37 0.35 0.42 0.50 0.42 0.43 0.40 0.39 0.52 0.47 0.40 0.44 0.52 0.42 0.34 0.50 0.45 0.33 0.46 0.51 0.50 0.47 0.42 0.38 0.40 0.47 0.44 0.36 0.51 0.44 0.45 0.49 0.52 0.46 0.52 0.40 0.44 0.52 0.41 0.47 0.49 0.37 0.34 0.43 0.47 0.52 0.50 0.42 0.45 0.42 0.42 0.38 0.52 0.34 0.52 0.35 0.45 0.46 0.48 0.40 0.34 0.44 0.33 0.35 0.43 0.39 0.42 0.47 0.44 0.41 0.52 0.35 0.49 0.52 0.45 0.42 0.33 0.42 0.43 0.33 0.39 -9999 -9999 -9999 -9999 -9999 -9999 -9999 -9999 -9999 -9999 -9999 -9999 -9999 -9999 -9999 -9999 -9999 -9999 -9999 -9999 -9999 -9999 -9999 -9999 -9999 -9999 -9999 -9999 -9999 -9999 -9999 -9999 -9999 -9999 -9999 -9999 -9999 -9999 -9999 -9999 -9999 -9999 -9999 -9999 -9999 -9999 -9999 -9999 -9999 -9999 -9999 -9999 -9999 -9999 -9999 -9999 -9999 -9999 -9999 -9999 -9999 -9999 -9999 -9999 -9999 -9999 -9999 -9999 -9999 -9999
0.43 0.40 0.40 0.38 0.45 0.50 0.50 0.41 0.38 0.38 0.44 0.47 0.52 0.50 0.38 0.47 0.37 0.41 0.45 0.48 0.33 0.38 0.50 0.52 0.39 0.37 0.35 0.46 0.41 0.50 0.39 0.50 0.35 0.45 0.43 0.41 0.36 0.44 0.40 0.36 0.52 0.46 0.51 0.45 0.33 0.36 0.33 0.43 0.35 0.52 0.36 0.49 0.44 0.53 0.50 0.47 0.37 0.35 0.41 0.47 0.41 0.50 0.39 0.40 0.36 0.48 0.48 0.40 0.34 0.52 0.48 0.41 0.38 0.40 0.46 0.47 0.43 0.43 0.39 0.37 0.39 0.49 0.34 0.51 0.39 0.45 0.42 0.50 0.50 0.42 0.41 0.40 0.42 0.36 0.51 0.38 0.43 0.37 0.43 0.38 0.47 0.48 0.36 0.37 0.38 0.51 0.43 0.39 0.39 0.33 0.47 0.42 0.51 0.44 0.50 0.43 0.36 0.50 0.38 0.36 0.38 0.47 0.42 0.50 0.50 0.34 0.40 0.42 0.47 0.38 0.49 0.34 0.34 0.49 0.37 0.47 0.39 0.34 0.51 0.41 0.34 0.45 0.45 0.52 0.52 -9999 -9999 -9999 -9999 -9999 -9999 -9999 -9999 -9999 -9999 -9999 -9999 -9999 -9999 -9999 -9999 -9999 -9999 -9999 -9999 -9999 -9999 -9999 -9999 -9999 -9999 -9999 -9999 -9999 -9999 -9999 -9999 -9999 -9999 -9999 -9999 -9999 -9999 -9999 -9999 -9999 -9999 -9999 -9999 -9999 -9999 -9999 -9999 -9999 -9999 -9999 -9999 -9999 -9999 -9999 -9999 -9999 -9999 -9999 -9999 -9999 -9999 -9999 -9999 -9999 -9999 -9999 -9999 -9999 -9999
0.34 0.41 0.43 0.36 0.34 0.44 0.38 0.36 0.37 0.46 0.42 0.43 0.34 0.46 0.42 0.46 0.48 0.46 0.39 0.53 0.51 0.40 0.50 0.49 0.37 0.35 0.34 0.46 0.44 0.50 0.35 0.39 0.43 0.44 0.41 0.44 0.34 0.34 0.46 0.45 0.46 0.43 0.51 0.50 0.44 0.43 0.37 0.43 0.45 0.46 0.39 0.39 0.44 0.45 0.52 0.42 0.39 0.45 0.48 0.52 0.39 0.37 0.49 0.50 0.36 0.51 0.35 0.42 0.52 0.43 0.38 0.48 0.43 0.36 0.34 0.51 0.47 0.39 0.52 0.36 0.40 0.49 0.49 0.36 0.34 0.47 0.51 0.44 0.46 0.42 0.41 0.39 0.46 0.46 0.36 0.51 0.52 0.51 0.41 0.35 0.44 0.43 0.44 0.50 0.52 0.40 0.52 0.43 0.33 0.49 0.37 0.40 0.39 0.44 0.50 0.48 0.51 0.33 0.41 0.50 0.34 0.50 0.36 0.46 0.38 0.44 0.48 0.43 0.47 0.43 0.39 0.44 0.43 0.48 0.41 0.39 0.44 0.46 0.37 0.38 0.34 0.49 0.39 0.48 0.37 -9999 -9999 -9999 -9999 -9999 -9999 -9999 -9999 -9999 -9999 -9999 -9999 -9999 -9999 -9999 -9999 -9999 -9999 -9999 -9999 -9999 -9999 -9999 -9999 -9999 -9999 -9999 -9999 -9999 -9999 -9999 -9999 -9999 -9999 -9999 -9999 -9999 -9999 -9999 -9999 -9999 -9999 -9999 -9999 -9999 -9999 -9999 -9999 -9999 -9999 -9999 -9999 -9999 -9999 -9999 -9999 -9999 -9999 -9999 -9999 -9999 -9999 -9999 -9999 -9999 -9999 -9999 -9999 -9999 -9999
0.33 0.53 0.42 0.41 0.48 0.49 0.41 0.39 0.52 0.42 0.42 0.48 0.52 0.34 0.36 0.50 0.50 0.34 0.50 0.35 0.47 0.35 0.37 0.38 0.34 0.48 0.46 0.38 0.36 0.37 0.47 0.49 0.42 0.39 0.49 0.38 0.40 0.34 0.36 0.42 0.48 0.40 0.37 0.49 0.48 0.52 0.35 0.33 0.53 0.39 0.52 0.37 0.36 0.46 0.39 0.50 0.39 0.38 0.35 0.34 0.43 0.39 0.52 0.37 0.44 0.40 0.51 0.50 0.48 0.41 0.52 0.51 0.51 0.34 0.37 0.41 0.48 0.50 0.36 0.51 0.36 0.52 0.46 0.40 0.40 0.48 0.41 0.47 0.44 0.48 0.48 0.52 0.44 0.44 0.35 0.34 0.49 0.40 0.37 0.51 0.42 0.50 0.40 0.46 0.46 0.50 0.49 0.40 0.43 0.36 0.44 0.47 0.47 0.39 0.33 0.36 0.48 0.52 0.37 0.34 0.36 0.53 0.36 0.35 0.46 0.33 0.43 0.51 0.45 0.45 0.41 0.40 0.52 0.43 0.36 0.43 0.44 0.50 0.35 0.45 0.33 0.47 0.39 0.45 -9999 -9999 -9999 -9999 -9999 -9999 -9999 -9999 -9999 -9999 -9999 -9999 -9999 -9999 -9999 -9999 -9999 -9999 -9999 -9999 -9999 -9999 -9999 -9999 -9999 -9999 -9999 -9999 -9999 -9999 -9999 -9999 -9999 -9999 -9999 -9999 -9999 -9999 -9999 -9999 -9999 -9999 -9999 -9999 -9999 -9999 -9999 -9999 -9999 -9999 -9999 -9999 -9999 -9999 -9999 -9999 -9999 -9999 -9999 -9999 -9999 -9999 -9999 -9999 -9999 -9999 -9999 -9999 -9999 -9999 -9999
0.47 0.34 0.44 0.33 0.34 0.51 0.42 0.45 0.38 0.33 0.44 0.50 0.50 0.46 0.48 0.41 0.38 0.48 0.44 0.44 0.33 0.40 0.45 0.36 0.36 0.42 0.51 0.46 0.48 0.41 0.47 0.35 0.36 0.49 0.47 0.34 0.47 0.36 0.35 0.40 0.43 0.33 0.35 0.39 0.40 0.42 0.33 0.38 0.51 0.49 0.34 0.47 0.39 0.49 0.45 0.36 0.39 0.41 0.40 0.50 0.39 0.51 0.45 0.50 0.46 0.53 0.45 0.53 0.34 0.45 0.42 0.51 0.43 0.52 0.33 0.34 0.39 0.51 0.37 0.40 0.42 0.51 0.35 0.37 0.33 0.42 0.38 0.35 0.40 0.37 0.44 0.51 0.50 0.33 0.52 0.49 0.49 0.33 0.44 0.43 0.33 0.42 0.40 0.33 0.50 0.35 0.39 0.52 0.37 0.42 0.36 0.38 0.40 0.51 0.51 0.46 0.45 0.48 0.46 0.47 0.48 0.46 0.41 0.35 0.45 0.52 0.44 0.48 0.46 0.33 0.38 0.52 0.39 0.47 0.48 0.51 -9999 -9999 -9999 -9999 -9999 -9999 -9999 -9999 -9999 -9999 -9999 -9999 -9999 -9999 -9999 -9999 -9999 -9999 -9999 -9999 -9999 -9999 -9999 -9999 -9999 -9999 -9999 -9999 -9999 -9999 -9999 -9999 -9999 -9999 -9999 -9999 -9999 -9999 -9999 -9999 -9999 -9999 -9999 -9999 -9999 -9999 -9999 -9999 -9999 -9999 -9999 -9999 -9999 -9999 -9999 -9999 -9999 -9999 -9999 -9999 -9999 -9999 -9999 -9999 -9999 -9999 -9999 -9999 -9999 -9999 -9999 -9999 -9999 -9999 -9999 -9999 -9999 -9999 -9999
0.34 0.45 0.50 0.33 0.40 0.43 0.40 0.49 0.51 0.36 0.41 0.34 0.46 0.45 0.46 0.41 0.48 0.49 0.44 0.51 0.35 0.49 0.41 0.52 0.50 0.41 0.46 0.51 0.43 0.33 0.34 0.42 0.43 0.43 0.43 0.41 0.49 0.34 0.34 0.44 0.50 0.47 0.47 0.42 0.49 0.50 0.52 0.42 0.48 0.35 0.51 0.34 0.51 0.43 0.47 0.51 0.38 0.50 0.50 0.42 0.37 0.39 0.38 0.35 0.47 0.42 0.38 0.43 0.34 0.38 0.36 0.37 0.51 0.45 0.41 0.35 0.37 0.44 0.35 0.46 0.46 0.42 0.48 0.41 0.39 0.42 0.36 0.35 0.35 0.38 0.47 0.35 0.34 0.39 0.48 0.41 0.35 0.33 0.35 0.48 0.52 0.43 0.47 0.46 0.51 0.33 0.40 0.38 0.46 0.48 0.49 0.40 0.49 0.41 0.49 0.34 0.47 0.40 0.52 0.51 0.45 0.34 0.40 0.43 0.50 0.43 0.52 0.42 0.40 -9999 -9999 -9999 -9999 -9999 -9999 -9999 -9999 -9999 -9999 -9999 -9999 -9999 -9999 -9999 -9999 -9999 -9999 -9999 -9999 -9999 -9999 -9999 -9999 -9999 -9999 -9999 -9999 -9999 -9999 -9999 -9999 -9999 -9999 -9999 -9999 -9999 -9999 -9999 -9999 -9999 -9999 -9999 -9999 -9999 -9999 -9999 -9999 -9999 -9999 -9999 -9999 -9999 -9999 -9999 -9999 -9999 -9999 -9999 -9999 -9999 -9999 -9999 -9999 -9999 -9999 -9999 -9999 -9999 -9999 -9999 -9999 -9999 -9999 -9999 -9999 -9999 -9999 -9999 -9999 -9999 -9999 -9999 -9999 -9999 -9999
0.42 0.42 0.50 0.42 0.47 0.37 0.48 0.39 0.48 0.45 0.43 0.34 0.41 0.38 0.47 0.43 0.35 0.42 0.51 0.34 0.48 0.35 0.44 0.51 0.47 0.48 0.40 0.46 0.43 0.44 0.40 0.36 0.44 0.41 0.48 0.51 0.38 0.47 0.47 0.36 0.48 0.36 0.46 0.40 0.33 0.53 0.51 0.42 0.43 0.46 0.43 0.49 0.48 0.51 0.42 0.38 0.35 0.43 0.35 0.46 0.45 0.46 0.39 0.47 0.41 0.35 0.46 0.39 0.48 0.48 0.42 0.48 0.37 0.48 0.42 0.50 0.47 0.46 0.39 0.33 0.34 0.40 0.39 0.37 0.47 0.49 0.43 0.40 0.39 0.45 0.41 0.40 0.33 0.37 0.48 0.37 0.42 0.49 0.35 0.41 0.35 0.51 0.47 0.36 0.38 0.38 0.51 0.36 0.45 0.38 0.45 0.52 0.43 0.45 0.34 0.37 0.42 0.41 0.33 0.53 0.44 -9999 -9999 -9999 -9999 -9999 -9999 -9999 -9999 -9999 -9999 -9999 -9999 -9999 -9999 -9999 -9999 -9999 -9999 -9999 -9999 -9999 -9999 -9999 -9999 -9999 -9999 -9999 -9999 -9999 -9999 -9999 -9999 -9999 -9999 -9999 -9999 -9999 -9999 -9999 -9999 -9999 -9999 -9999 -9999 -9999 -9999 -9999 -9999 -9999 -9999 -9999 -9999 -9999 -9999 -9999 -9999 -9999 -9999 -9999 -9999 -9999 -9999 -9999 -9999 -9999 -9999 -9999 -9999 -9999 -9999 -9999 -9999 -9999 -9999 -9999 -9999 -9999 -9999 -9999 -9999 -9999 -9999 -9999 -9999 -9999 -9999 -9999 -9999 -9999 -9999 -9999 -9999 -9999 -9999
0.47 0.33 0.37 0.47 0.48 0.33 0.50 0.49 0.51 0.48 0.35 0.39 0.38 0.42 0.51 0.38 0.43 0.34 0.43 0.38 0.42 0.42 0.33 0.43 0.42 0.47 0.51 0.33 0.42 0.48 0.39 0.34 0.39 0.36 0.40 0.50 0.39 0.39 0.51 0.49 0.34 0.46 0.42 0.38 0.50 0.49 0.50 0.41 0.42 0.41 0.41 0.40 0.42 0.53 0.53 0.40 0.50 0.39 0.47 0.34 0.46 0.49 0.50 0.45 0.43 0.48 0.49 0.49 0.33 0.34 0.38 0.49 0.44 0.49 0.43 0.47 0.43 0.51 0.40 0.41 0.45 0.49 0.44 0.39 0.42 0.33 0.44 0.37 0.45 0.34 0.47 0.34 0.38 0.39 0.37 0.42 0.35 0.46 0.52 0.47 0.42 0.49 0.36 0.46 0.46 0.33 0.43 0.49 0.38 0.35 0.47 0.42 0.46 0.47 -9999 -9999 -9999 -9999 -9999 -9999 -9999 -9999 -9999 -9999 -9999 -9999 -9999 -9999 -9999 -9999 -9999 -9999 -9999 -9999 -9999 -9999 -9999 -9999 -9999 -9999 -9999 -9999 -9999 -9999 -9999 -9999 -9999 -9999 -9999 -9999 -9999 -9999 -9999 -9999 -9999 -9999 -9999 -9999 -9999 -9999 -9999 -9999 -9999 -9999 -9999 -9999 -9999 -9999 -9999 -9999 -9999 -9999 -9999 -9999 -9999 -9999 -9999 -9999 -9999 -9999 -9999 -9999 -9999 -9999 -9999 -9999 -9999 -9999 -9999 -9999 -9999 -9999 -9999 -9999 -9999 -9999 -9999 -9999 -9999 -9999 -9999 -9999 -9999 -9999 -9999 -9999 -9999 -9999 -9999 -9999 -9999 -9999 -9999 -9999 -9999
0.46 0.43 0.44 0.48 0.35 0.38 0.47 0.47 0.39 0.50 0.33 0.52 0.46 0.34 0.45 0.40 0.42 0.39 0.41 0.38 0.51 0.52 0.37 0.40 0.43 0.41 0.50 0.50 0.41 0.37 0.35 0.46 0.39 0.37 0.35 0.43 0.51 0.36 0.52 0.50 0.35 0.42 0.38 0.53 0.38 0.49 0.47 0.44 0.33 0.41 0.53 0.48 0.52 0.37 0.51 0.43 0.40 0.50 0.35 0.52 0.45 0.50 0.37 0.35 0.35 0.43 0.36 0.43 0.35 0.46 0.45 0.52 0.48 0.35 0.43 0.34 0.38 0.33 0.42 0.41 0.39 0.42 0.34 0.34 0.34 0.46 0.52 0.37 0.48 0.43 0.36 0.49 0.42 0.44 0.49 0.47 0.41 0.47 0.42 0.45 0.47 0.48 0.51 0.46 0.33 0.49 -9999 -9999 -9999 -9999 -9999 -9999 -9999 -9999 -9999 -9999 -9999 -9999 -9999 -9999 -9999 -9999 -9999 -9999 -9999 -9999 -9999 -9999 -9999 -9999 -9999 -9999 -9999 -9999 -9999 -9999 -9999 -9999 -9999 -9999 -9999 -9999 -9999 -9999 -9999 -9999 -9999 -9999 -9999 -9999 -9999 -9999 -9999 -9999 -9999 -9999 -9999 -9999 -9999 -9999 -9999 -9999 -9999 -9999 -9999 -9999 -9999 -9999 -9999 -9999 -9999 -9999 -9999 -9999 -9999 -9999 -9999 -9999 -9999 -9999 -9999 -9999 -9999 -9999 -9999 -9999 -9999 -9999 -9999 -9999 -9999 -9999 -9999 -9999 -9999 -9999 -9999 -9999 -9999 -9999 -9999 -9999 -9999 -9999 -9999 -9999 -9999 -9999 -9999 -9999 -9999 -9999 -9999 -9999 -9999
0.41 0.44 0.41 0.39 0.53 0.37 0.50 0.45 0.46 0.45 0.50 0.35 0.33 0.51 0.37 0.51 0.44 0.43 0.47 0.36 0.51 0.49 0.49 0.35 0.33 0.49 0.50 0.38 0.39 0.39 0.48 0.47 0.41 0.37 0.45 0.45 0.43 0.48 0.44 0.37 0.36 0.44 0.39 0.42 0.49 0.43 0.53 0.47 0.43 0.36 0.49 0.44 0.52 0.43 0.47 0.33 0.41 0.35 0.50 0.44 0.35 0.50 0.42 0.39 0.48 0.51 0.40 0.52 0.36 0.50 0.35 0.33 0.37 0.50 0.51 0.36 0.44 0.37 0.46 0.43 0.46 0.38 0.47 0.41 0.40 0.44 0.38 0.47 0.50 0.47 0.43 0.38 0.51 0.38 0.44 0.34 0.45 0.38 -9999 -9999 -9999 -9999 -9999 -9999 -9999 -9999 -9999 -9999 -9999 -9999 -9999 -9999 -9999 -9999 -9999 -9999 -9999 -9999 -9999 -9999 -9999 -9999 -9999 -9999 -9999 -9999 -9999 -9999 -9999 -9999 -9999 -9999 -9999 -9999 -9999 -9999 -9999 -9999 -9999 -9999 -9999 -9999 -9999 -9999 -9999 -9999 -9999 -9999 -9999 -9999 -9999 -9999 -9999 -9999 -9999 -9999 -9999 -9999 -9999 -9999 -9999 -9999 -9999 -9999 -9999 -9999 -9999 -9999 -9999 -9999 -9999 -9999 -9999 -9999 -9999 -9999 -9999 -9999 -9999 -9999 -9999 -9999 -9999 -9999 -9999 -9999 -9999 -9999 -9999 -9999 -9999 -9999 -9999 -9999 -9999 -9999 -9999 -9999 -9999 -9999 -9999 -9999 -9999 -9999 -9999 -9999 -9999 -9999 -9999 -9999 -9999 -9999 -9999 -9999 -9999
0.49 0.44 0.36 0.37 0.44 0.43 0.50 0.49 0.42 0.52 0.47 0.34 0.41 0.45 0.52 0.38 0.35 0.37 0.45 0.48 0.49 0.42 0.37 0.48 0.47 0.52 0.43 0.52 0.42 0.40 0.38 0.44 0.48 0.41 0.42 0.45 0.48 0.35 0.35 0.41 0.46 0.51 0.39 0.41 0.49 0.40 0.46 0.36 0.45 0.40 0.39 0.36 0.47 0.36 0.41 0.51 0.52 0.47 0.44 0.45 0.42 0.42 0.36 0.34 0.41 0.38 0.52 0.34 0.42 0.39 0.42 0.34 0.38 0.50 0.36 0.38 0.45 0.34 0.51 0.38 0.38 0.40 0.35 0.53 0.45 0.48 0.35 0.45 0.34 0.40 -9999 -9999 -9999 -9999 -9999 -9999 -9999 -9999 -9999 -9999 -9999 -9999 -9999 -9999 -9999 -9999 -9999 -9999 -9999 -9999 -9999 -9999 -9999 -9999 -9999 -9999 -9999 -9999 -9999 -9999 -9999 -9999 -9999 -9999 -9999 -9999 -9999 -9999 -9999 -9999 -9999 -9999 -9999 -9999 -9999 -9999 -9999 -9999 -9999 -9999 -9999 -9999 -9999 -9999 -9999 -9999 -9999 -9999 -9999 -9999 -9999 -9999 -9999 -9999 -9999 -9999 -9999 -9999 -9999 -9999 -9999 -9999 -9999 -9999 -9999 -9999 -9999 -9999 -9999 -9999 -9999 -9999 -9999 -9999 -9999 -9999 -9999 -9999 -9999 -9999 -9999 -9999 -9999 -9999 -9999 -9999 -9999 -9999 -9999 -9999 -9999 -9999 -9999 -9999 -9999 -9999 -9999 -9999 -9999 -9999 -9999 -9999 -9999 -9999 -9999 -9999 -9999 -9999 -9999 -9999 -9999 -9999 -9999 -9999 -9999
0.47 0.47 0.40 0.51 0.37 0.33 0.39 0.35 0.52 0.43 0.35 0.41 0.50 0.47 0.47 0.43 0.36 0.42 0.36 0.33 0.52 0.41 0.47 0.44 0.38 0.45 0.43 0.36 0.38 0.34 0.47 0.41 0.50 0.34 0.51 0.37 0.45 0.34 0.40 0.41 0.41 0.38 0.35 0.37 0.35 0.42 0.36 0.48 0.40 0.42 0.43 0.44 0.34 0.51 0.44 0.50 0.39 0.41 0.47 0.37 0.39 0.37 0.49 0.50 0.43 0.33 0.37 0.33 0.40 0.52 0.50 0.46 0.38 0.44 0.34 0.49 0.41 0.44 0.49 0.46 0.45 0.36 -9999 -9999 -9999 -9999 -9999 -9999 -9999 -9999 -9999 -9999 -9999 -9999 -9999 -9999 -9999 -9999 -9999 -9999 -9999 -9999 -9999 -9999 -9999 -9999 -9999 -9999 -9999 -9999 -9999 -9999 -9999 -9999 -9999 -9999 -9999 -9999 -9999 -9999 -9999 -9999 -9999 -9999 -9999 -9999 -9999 -9999 -9999 -9999 -9999 -9999 -9999 -9999 -9999 -9999 -9999 -9999 -9999 -9999 -9999 -9999 -9999 -9999 -9999 -9999 -9999 -9999 -9999 -9999 -9999 -9999 -9999 -9999 -9999 -9999 -9999 -9999 -9999 -9999 -9999 -9999 -9999 -9999 -9999 -9999 -9999 -9999 -9999 -9999 -9999 -9999 -9999 -9999 -9999 -9999 -9999 -9999 -9999 -9999 -9999 -9999 -9999 -9999 -9999 -9999 -9999 -9999 -9999 -9999 -9999 -9999 -9999 -9999 -9999 -9999 -9999 -9999 -9999 -9999 -9999 -9999 -9999 -9999 -9999 -9999 -9999 -9999 -9999 -9999 -9999 -9999 -9999 -9999 -9999
0.35 0.33 0.46 0.51 0.47 0.34 0.46 0.47 0.43 0.52 0.49 0.52 0.48 0.42 0.41 0.37 0.43 0.40 0.49 0.35 0.44 0.40 0.40 0.39 0.34 0.33 0.35 0.39 0.44 0.51 0.38 0.51 0.50 0.44 0.44 0.33 0.52 0.38 0.34 0.49 0.35 0.52 0.44 0.47 0.49 0.44 0.47 0.50 0.46 0.35 0.41 0.39 0.47 0.50 0.40 0.42 0.47 0.35 0.42 0.43 0.42 0.35 0.50 0.47 0.33 0.49 0.49 0.38 0.41 0.52 0.33 0.38 0.39 0.41 -9999 -9999 -9999 -9999 -9999 -9999 -9999 -9999 -9999 -9999 -9999 -9999 -9999 -9999 -9999 -9999 -9999 -9999 -9999 -9999 -9999 -9999 -9999 -9999 -9999 -9999 -9999 -9999 -9999 -9999 -9999 -9999 -9999 -9999 -9999 -9999 -9999 -9999 -9999 -9999 -9999 -9999 -9999 -9999 -9999 -9999 -9999 -9999 -9999 -9999 -9999 -9999 -9999 -9999 -9999 -9999 -9999 -9999 -9999 -9999 -9999 -9999 -9999 -9999 -9999 -9999 -9999 -9999 -9999 -9999 -9999 -9999 -9999 -9999 -9999 -9999 -9999 -9999 -9999 -9999 -9999 -9999 -9999 -9999 -9999 -9999 -9999 -9999 -9999 -9999 -9999 -9999 -9999 -9999 -9999 -9999 -9999 -9999 -9999 -9999 -9999 -9999 -9999 -9999 -9999 -9999 -9999 -9999 -9999 -9999 -9999 -9999 -9999 -9999 -9999 -9999 -9999 -9999 -9999 -9999 -9999 -9999 -9999 -9999 -9999 -9999 -9999 -9999 -9999 -9999 -9999 -9999 -9999 -9999 -9999 -9999 -9999 -9999 -9999 -9999 -9999
0.34 0.34 0.45 0.50 0.53 0.36 0.36 0.33 0.36 0.36 0.38 0.35 0.34 0.36 0.42 0.37 0.34 0.42 0.53 0.43 0.47 0.42 0.33 0.47 0.44 0.37 0.42 0.34 0.34 0.48 0.42 0.37 0.40 0.52 0.45 0.40 0.36 0.42 0.36 0.51 0.50 0.47 0.48 0.44 0.36 0.36 0.34 0.33 0.38 0.37 0.43 0.52 0.46 0.37 0.48 0.45 0.33 0.47 0.50 0.47 0.49 0.49 0.38 0.46 0.42 0.38 -9999 -9999 -9999 -9999 -9999 -9999 -9999 -9999 -9999 -9999 -9999 -9999 -9999 -9999 -9999 -9999 -9999 -9999 -9999 -9999 -9999 -9999 -9999 -9999 -9999 -9999 -9999 -9999 -9999 -9999 -9999 -9999 -9999 -9999 -9999 -9999 -9999 -9999 -9999 -9999 -9999 -9999 -9999 -9999 -9999 -9999 -9999 -9999 -9999 -9999 -9999 -9999 -9999 -9999 -9999 -9999 -9999 -9999 -9999 -9999 -9999 -9999 -9999 -9999 -9999 -9999 -9999 -9999 -9999 -9999 -9999 -9999 -9999 -9999 -9999 -9999 -9999 -9999 -9999 -9999 -9999 -9999 -9999 -9999 -9999 -9999 -9999 -9999 -9999 -9999 -9999 -9999 -9999 -9999 -9999 -9999 -9999 -9999 -9999 -9999 -9999 -9999 -9999 -9999 -9999 -9999 -9999 -9999 -9999 -9999 -9999 -9999 -9999 -9999 -9999 -9999 -9999 -9999 -9999 -9999 -9999 -9999 -9999 -9999 -9999 -9999 -9999 -9999 -9999 -9999 -9999 -9999 -9999 -9999 -9999 -9999 -9999 -9999 -9999 -9999 -9999 -9999 -9999 -9999 -9999 -9999 -9999 -9999 -9999
0.49 0.39 0.50 0.35 0.45 0.38 0.44 0.41 0.36 0.46 0.49 0.40 0.39 0.36 0.49 0.44 0.39 0.46 0.52 0.33 0.43 0.41 0.40 0.35 0.48 0.37 0.44 0.45 0.45 0.48 0.44 0.46 0.43 0.37 0.42 0.51 0.47 0.47 0.44 0.38 0.35 0.37 0.47 0.38 0.37 0.35 0.42 0.49 0.40 0.44 0.36 0.36 0.47 0.51 0.53 0.47 0.46 -9999 -9999 -9999 -9999 -9999 -9999 -9999 -9999 -9999 -9999 -9999 -9999 -9999 -9999 -9999 -9999 -9999 -9999 -9999 -9999 -9999 -9999 -9999 -9999 -9999 -9999 -9999 -9999 -9999 -9999 -9999 -9999 -9999 -9999 -9999 -9999 -9999 -9999 -9999 -9999 -9999 -9999 -9999 -9999 -9999 -9999 -9999 -9999 -9999 -9999 -9999 -9999 -9999 -9999 -9999 -9999 -9999 -9999 -9999 -9999 -9999 -9999 -9999 -9999 -9999 -9999 -9999 -9999 -9999 -9999 -9999 -9999 -9999 -9999 -9999 -9999 -9999 -9999 -9999 -9999 -9999 -9999 -9999 -9999 -9999 -9999 -9999 -9999 -9999 -9999 -9999 -9999 -9999 -9999 -9999 -9999 -9999 -9999 -9999 -9999 -9999 -9999 -9999 -9999 -9999 -9999 -9999 -9999 -9999 -9999 -9999 -9999 -9999 -9999 -9999 -9999 -9999 -9999 -9999 -9999 -9999 -9999 -9999 -9999 -9999 -9999 -9999 -9999 -9999 -9999 -9999 -9999 -9999 -9999 -9999 -9999 -9999 -9999 -9999 -9999 -9999 -9999 -9999 -9999 -9999 -9999 -9999 -9999 -9999 -9999 -9999 -9999 -9999 -9999 -9999 -9999 -9999 -9999
0.45 0.33 0.40 0.47 0.52 0.36 0.37 0.50 0.40 0.43 0.47 0.44 0.48 0.52 0.36 0.50 0.38 0.33 0.41 0.37 0.37 0.44 0.44 0.36 0.40 0.50 0.35 0.38 0.34 0.46 0.52 0.44 0.40 0.42 0.40 0.50 0.48 0.36 0.44 0.41 0.48 0.46 0.33 0.34 0.42 0.44 0.40 0.33 0.38 -9999 -9999 -9999 -9999 -9999 -9999 -9999 -9999 -9999 -9999 -9999 -9999 -9999 -9999 -9999 -9999 -9999 -9999 -9999 -9999 -9999 -9999 -9999 -9999 -9999 -9999 -9999 -9999 -9999 -9999 -9999 -9999 -9999 -9999 -9999 -9999 -9999 -9999 -9999 -9999 -9999 -9999 -9999 -9999 -9999 -9999 -9999 -9999 -9999 -9999 -9999 -9999 -9999 -9999 -9999 -9999 -9999 -9999 -9999 -9999 -9999 -9999 -9999 -9999 -9999 -9999 -9999 -9999 -9999 -9999 -9999 -9999 -9999 -9999 -9999 -9999 -9999 -9999 -9999 -9999 -9999 -9999 -9999 -9999 -9999 -9999 -9999 -9999 -9999 -9999 -9999 -9999 -9999 -9999 -9999 -9999 -9999 -9999 -9999 -9999 -9999 -9999 -9999 -9999 -9999 -9999 -9999 -9999 -9999 -9999 -9999 -9999 -9999 -9999 -9999 -9999 -9999 -9999 -9999 -9999 -9999 -9999 -9999 -9999 -9999 -9999 -9999 -9999 -9999 -9999 -9999 -9999 -9999 -9999 -9999 -9999 -9999 -9999 -9999 -9999 -9999 -9999 -9999 -9999 -9999 -9999 -9999 -9999 -9999 -9999 -9999 -9999 -9999 -9999 -9999 -9999 -9999 -9999 -9999 -9999 -9999 -9999 -9999 -9999 -9999 -9999
0.48 0.43 0.47 0.36 0.40 0.51 0.41 0.38 0.52 0.51 0.36 0.33 0.51 0.52 0.35 0.43 0.43 0.37 0.36 0.46 0.35 0.51 0.35 0.45 0.38 0.52 0.43 0.34 0.34 0.45 0.51 0.44 0.39 0.34 0.39 0.42 0.46 0.33 0.39 0.50 -9999 -9999 -9999 -9999 -9999 -9999 -9999 -9999 -9999 -9999 -9999 -9999 -9999 -9999 -9999 -9999 -9999 -9999 -9999 -9999 -9999 -9999 -9999 -9999 -9999 -9999 -9999 -9999 -9999 -9999 -9999 -9999 -9999 -9999 -9999 -9999 -9999 -9999 -9999 -9999 -9999 -9999 -9999 -9999 -9999 -9999 -9999 -9999 -9999 -9999 -9999 -9999 -9999 -9999 -9999 -9999 -9999 -9999 -9999 -9999 -9999 -9999 -9999 -9999 -9999 -9999 -9999 -9999 -9999 -9999 -9999 -9999 -9999 -9999 -9999 -9999 -9999 -9999 -9999 -9999 -9999 -9999 -9999 -9999 -9999 -9999 -9999 -9999 -9999 -9999 -9999 -9999 -9999 -9999 -9999 -9999 -9999 -9999 -9999 -9999 -9999 -9999 -9999 -9999 -9999 -9999 -9999 -9999 -9999 -9999 -9999 -9999 -9999 -9999 -9999 -9999 -9999 -9999 -9999 -9999 -9999 -9999 -9999 -9999 -9999 -9999 -9999 -9999 -9999 -9999 -9999 -9999 -9999 -9999 -9999 -9999 -9999 -9999 -9999 -9999 -9999 -9999 -9999 -9999 -9999 -9999 -9999 -9999 -9999 -9999 -9999 -9999 -9999 -9999 -9999 -9999 -9999 -9999 -9999 -9999 -9999 -9999 -9999 -9999 -9999 -9999 -9999 -9999 -9999 -9999 -9999 -9999 -9999 -9999 -9999
0.51 0.35 0.33 0.42 0.42 0.37 0.50 0.46 0.46 0.38 0.33 0.36 0.50 0.46 0.36 0.49 0.43 0.43 0.51 0.38 0.49 0.51 0.38 0.44 0.42 0.36 0.49 0.40 0.47 0.36 0.33 -9999 -9999 -9999 -9999 -9999 -9999 -9999 -9999 -9999 -9999 -9999 -9999 -9999 -9999 -9999 -9999 -9999 -9999 -9999 -9999 -9999 -9999 -9999 -9999 -9999 -9999 -9999 -9999 -9999 -9999 -9999 -9999 -9999 -9999 -9999 -9999 -9999 -9999 -9999 -9999 -9999 -9999 -9999 -9999 -9999 -9999 -9999 -9999 -9999 -9999 -9999 -9999 -9999 -9999 -9999 -9999 -9999 -9999 -9999 -9999 -9999 -9999 -9999 -9999 -9999 -9999 -9999 -9999 -9999 -9999 -9999 -9999 -9999 -9999 -9999 -9999 -9999 -9999 -9999 -9999 -9999 -9999 -9999 -9999 -9999 -9999 -9999 -9999 -9999 -9999 -9999 -9999 -9999 -9999 -9999 -9999 -9999 -9999 -9999 -9999 -9999 -9999 -9999 -9999 -9999 -9999 -9999 -9999 -9999 -9999 -9999 -9999 -9999 -9999 -9999 -9999 -9999 -9999 -9999 -9999 -9999 -9999 -9999 -9999 -9999 -9999 -9999 -9999 -9999 -9999 -9999 -9999 -9999 -9999 -9999 -9999 -9999 -9999 -9999 -9999 -9999 -9999 -9999 -9999 -9999 -9999 -9999 -9999 -9999 -9999 -9999 -9999 -9999 -9999 -9999 -9999 -9999 -9999 -9999 -9999 -9999 -9999 -9999 -9999 -9999 -9999 -9999 -9999 -9999 -9999 -9999 -9999 -9999 -9999 -9999 -9999 -9999 -9999 -9999 -9999 -9999 -9999 -9999 -9999
0.49 0.49 0.50 0.44 0.34 0.35 0.40 0.33 0.50 0.52 0.46 0.48 0.47 0.44 0.33 0.52 0.38 0.50 0.43 0.42 0.38 0.34 -9999 -9999 -9999 -9999 -9999 -9999 -9999 -9999 -9999 -9999 -9999 -9999 -9999 -9999 -9999 -9999 -9999 -9999 -9999 -9999 -9999 -9999 -9999 -9999 -9999 -9999 -9999 -9999 -9999 -9999 -9999 -9999 -9999 -9999 -9999 -9999 -9999 -9999 -9999 -9999 -9999 -9999 -9999 -9999 -9999 -9999 -9999 -9999 -9999 -9999 -9999 -9999 -9999 -9999 -9999 -9999 -9999 -9999 -9999 -9999 -9999 -9999 -9999 -9999 -9999 -9999 -9999 -9999 -9999 -9999 -9999 -9999 -9999 -9999 -9999 -9999 -9999 -9999 -9999 -9999 -9999 -9999 -9999 -9999 -9999 -9999 -9999 -9999 -9999 -9999 -9999 -9999 -9999 -9999 -9999 -9999 -9999 -9999 -9999 -9999 -9999 -9999 -9999 -9999 -9999 -9999 -9999 -9999 -9999 -9999 -9999 -9999 -9999 -9999 -9999 -9999 -9999 -9999 -9999 -9999 -9999 -9999 -9999 -9999 -9999 -9999 -9999 -9999 -9999 -9999 -9999 -9999 -9999 -9999 -9999 -9999 -9999 -9999 -9999 -9999 -9999 -9999 -9999 -9999 -9999 -9999 -9999 -9999 -9999 -9999 -9999 -9999 -9999 -9999 -9999 -9999 -9999 -9999 -9999 -9999 -9999 -9999 -9999 -9999 -9999 -9999 -9999 -9999 -9999 -9999 -9999 -9999 -9999 -9999 -9999 -9999 -9999 -9999 -9999 -9999 -9999 -9999 -9999 -9999 -9999 -9999 -9999 -9999 -9999 -9999 -9999 -9999 -9999
0.34 0.39 0.34 0.51 0.47 0.45 0.42 0.49 0.36 0.38 0.46 0.46 0.38 -9999 -9999 -9999 -9999 -9999 -9999 -9999 -9999 -9999 -9999 -9999 -9999 -9999 -9999 -9999 -9999 -9999 -9999 -9999 -9999 -9999 -9999 -9999 -9999 -9999 -9999 -9999 -9999 -9999 -9999 -9999 -9999 -9999 -9999 -9999 -9999 -9999 -9999 -9999 -9999 -9999 -9999 -9999 -9999 -9999 -9999 -9999 -9999 -9999 -9999 -9999 -9999 -9999 -9999 -9999 -9999 -9999 -9999 -9999 -9999 -9999 -9999 -9999 -9999 -9999 -9999 -9999 -9999 -9999 -9999 -9999 -9999 -9999 -9999 -9999 -9999 -9999 -9999 -9999 -9999 -9999 -9999 -9999 -9999 -9999 -9999 -9999 -9999 -9999 -9999 -9999 -9999 -9999 -9999 -9999 -9999 -9999 -9999 -9999 -9999 -9999 -9999 -9999 -9999 -9999 -9999 -9999 -9999 -9999 -9999 -9999 -9999 -9999 -9999 -9999 -9999 -9999 -9999 -9999 -9999 -9999 -9999 -9999 -9999 -9999 -9999 -9999 -9999 -9999 -9999 -9999 -9999 -9999 -9999 -9999 -9999 -9999 -9999 -9999 -9999 -9999 -9999 -9999 -9999 -9999 -9999 -9999 -9999 -9999 -9999 -9999 -9999 -9999 -9999 -9999 -9999 -9999 -9999 -9999 -9999 -9999 -9999 -9999 -9999 -9999 -9999 -9999 -9999 -9999 -9999 -9999 -9999 -9999 -9999 -9999 -9999 -9999 -9999 -9999 -9999 -9999 -9999 -9999 -9999 -9999 -9999 -9999 -9999 -9999 -9999 -9999 -9999 -9999 -9999 -9999 -9999 -9999 -9999 -9999 -9999 -9999 -9999
0.47 0.43 0.52 -9999 -9999 -9999 -9999 -9999 -9999 -9999 -9999 -9999 -9999 -9999 -9999 -9999 -9999 -9999 -9999 -9999 -9999 -9999 -9999 -9999 -9999 -9999 -9999 -9999 -9999 -9999 -9999 -9999 -9999 -9999 -9999 -9999 -9999 -9999 -9999 -9999 -9999 -9999 -9999 -9999 -9999 -9999 -9999 -9999 -9999 -9999 -9999 -9999 -9999 -9999 -9999 -9999 -9999 -9999 -9999 -9999 -9999 -9999 -9999 -9999 -9999 -9999 -9999 -9999 -9999 -9999 -9999 -9999 -9999 -9999 -9999 -9999 -9999 -9999 -9999 -9999 -9999 -9999 -9999 -9999 -9999 -9999 -9999 -9999 -9999 -9999 -9999 -9999 -9999 -9999 -9999 -9999 -9999 -9999 -9999 -9999 -9999 -9999 -9999 -9999 -9999 -9999 -9999 -9999 -9999 -9999 -9999 -9999 -9999 -9999 -9999 -9999 -9999 -9999 -9999 -9999 -9999 -9999 -9999 -9999 -9999 -9999 -9999 -9999 -9999 -9999 -9999 -9999 -9999 -9999 -9999 -9999 -9999 -9999 -9999 -9999 -9999 -9999 -9999 -9999 -9999 -9999 -9999 -9999 -9999 -9999 -9999 -9999 -9999 -9999 -9999 -9999 -9999 -9999 -9999 -9999 -9999 -9999 -9999 -9999 -9999 -9999 -9999 -9999 -9999 -9999 -9999 -9999 -9999 -9999 -9999 -9999 -9999 -9999 -9999 -9999 -9999 -9999 -9999 -9999 -9999 -9999 -9999 -9999 -9999 -9999 -9999 -9999 -9999 -9999 -9999 -9999 -9999 -9999 -9999 -9999 -9999 -9999 -9999 -9999 -9999 -9999 -9999 -9999 -9999 -9999 -9999 -9999 -9999 -9999 -9999
-9999 -9999 -9999 -9999 -9999 -9999 -9999 -9999 -9999 -9999 -9999 -9999 -9999 -9999 -9999 -9999 -9999 -9999 -9999 -9999 -9999 -9999 -9999 -9999 -9999 -9999 -9999 -9999 -9999 -9999 -9999 -9999 -9999 -9999 -9999 -9999 -9999 -9999 -9999 -9999 -9999 -9999 -9999 -9999 -9999 -9999 -9999 -9999 -9999 -9999 -9999 -9999 -9999 -9999 -9999 -9999 -9999 -9999 -9999 -9999 -9999 -9999 -9999 -9999 -9999 -9999 -9999 -9999 -9999 -9999 -9999 -9999 -9999 -9999 -9999 -9999 -9999 -9999 -9999 -9999 -9999 -9999 -9999 -9999 -9999 -9999 -9999 -9999 -9999 -9999 -9999 -9999 -9999 -9999 -9999 -9999 -9999 -9999 -9999 -9999 -9999 -9999 -9999 -9999 -9999 -9999 -9999 -9999 -9999 -9999 -9999 -9999 -9999 -9999 -9999 -9999 -9999 -9999 -9999 -9999 -9999 -9999 -9999 -9999 -9999 -9999 -9999 -9999 -9999 -9999 -9999 -9999 -9999 -9999 -9999 -9999 -9999 -9999 -9999 -9999 -9999 -9999 -9999 -9999 -9999 -9999 -9999 -9999 -9999 -9999 -9999 -9999 -9999 -9999 -9999 -9999 -9999 -9999 -9999 -9999 -9999 -9999 -9999 -9999 -9999 -9999 -9999 -9999 -9999 -9999 -9999 -9999 -9999 -9999 -9999 -9999 -9999 -9999 -9999 -9999 -9999 -9999 -9999 -9999 -9999 -9999 -9999 -9999 -9999 -9999 -9999 -9999 -9999 -9999 -9999 -9999 -9999 -9999 -9999 -9999 -9999 -9999 -9999 -9999 -9999 -9999 -9999 -9999 -9999 -9999 -9999 -9999 -9999 -9999 -9999
-9999 -9999 -9999 -9999 -9999 -9999 -9999 -9999 -9999 -9999 -9999 -9999 -9999 -9999 -9999 -9999 -9999 -9999 -9999 -9999 -9999 -9999 -9999 -9999 -9999 -9999 -9999 -9999 -9999 -9999 -9999 -9999 -9999 -9999 -9999 -9999 -9999 -9999 -9999 -9999 -9999 -9999 -9999 -9999 -9999 -9999 -9999 -9999 -9999 -9999 -9999 -9999 -9999 -9999 -9999 -9999 -9999 -9999 -9999 -9999 -9999 -9999 -9999 -9999 -9999 -9999 -9999 -9999 -9999 -9999 -9999 -9999 -9999 -9999 -9999 -9999 -9999 -9999 -9999 -9999 -9999 -9999 -9999 -9999 -9999 -9999 -9999 -9999 -9999 -9999 -9999 -9999 -9999 -9999 -9999 -9999 -9999 -9999 -9999 -9999 -9999 -9999 -9999 -9999 -9999 -9999 -9999 -9999 -9999 -9999 -9999 -9999 -9999 -9999 -9999 -9999 -9999 -9999 -9999 -9999 -9999 -9999 -9999 -9999 -9999 -9999 -9999 -9999 -9999 -9999 -9999 -9999 -9999 -9999 -9999 -9999 -9999 -9999 -9999 -9999 -9999 -9999 -9999 -9999 -9999 -9999 -9999 -9999 -9999 -9999 -9999 -9999 -9999 -9999 -9999 -9999 -9999 -9999 -9999 -9999 -9999 -9999 -9999 -9999 -9999 -9999 -9999 -9999 -9999 -9999 -9999 -9999 -9999 -9999 -9999 -9999 -9999 -9999 -9999 -9999 -9999 -9999 -9999 -9999 -9999 -9999 -9999 -9999 -9999 -9999 -9999 -9999 -9999 -9999 -9999 -9999 -9999 -9999 -9999 -9999 -9999 -9999 -9999 -9999 -9999 -9999 -9999 -9999 -9999 -9999 -9999 -9999 -9999 -9999 -9999
-9999 -9999 -9999 -9999 -9999 -9999 -9999 -9999 -9999 -9999 -9999 -9999 -9999 -9999 -9999 -9999 -9999 -9999 -9999 -9999 -9999 -9999 -9999 -9999 -9999 -9999 -9999 -9999 -9999 -9999 -9999 -9999 -9999 -9999 -9999 -9999 -9999 -9999 -9999 -9999 -9999 -9999 -9999 -9999 -9999 -9999 -9999 -9999 -9999 -9999 -9999 -9999 -9999 -9999 -9999 -9999 -9999 -9999 -9999 -9999 -9999 -9999 -9999 -9999 -9999 -9999 -9999 -9999 -9999 -9999 -9999 -9999 -9999 -9999 -9999 -9999 -9999 -9999 -9999 -9999 -9999 -9999 -9999 -9999 -9999 -9999 -9999 -9999 -9999 -9999 -9999 -9999 -9999 -9999 -9999 -9999 -9999 -9999 -9999 -9999 -9999 -9999 -9999 -9999 -9999 -9999 -9999 -9999 -9999 -9999 -9999 -9999 -9999 -9999 -9999 -9999 -9999 -9999 -9999 -9999 -9999 -9999 -9999 -9999 -9999 -9999 -9999 -9999 -9999 -9999 -9999 -9999 -9999 -9999 -9999 -9999 -9999 -9999 -9999 -9999 -9999 -9999 -9999 -9999 -9999 -9999 -9999 -9999 -9999 -9999 -9999 -9999 -9999 -9999 -9999 -9999 -9999 -9999 -9999 -9999 -9999 -9999 -9999 -9999 -9999 -9999 -9999 -9999 -9999 -9999 -9999 -9999 -9999 -9999 -9999 -9999 -9999 -9999 -9999 -9999 -9999 -9999 -9999 -9999 -9999 -9999 -9999 -9999 -9999 -9999 -9999 -9999 -9999 -9999 -9999 -9999 -9999 -9999 -9999 -9999 -9999 -9999 -9999 -9999 -9999 -9999 -9999 -9999 -9999 -9999 -9999 -9999 -9999 -9999 -9999
-9999 -9999 -9999 -9999 -9999 -9999 -9999 -9999 -9999 -9999 -9999 -9999 -9999 -9999 -9999 -9999 -9999 -9999 -9999 -9999 -9999 -9999 -9999 -9999 -9999 -9999 -9999 -9999 -9999 -9999 -9999 -9999 -9999 -9999 -9999 -9999 -9999 -9999 -9999 -9999 -9999 -9999 -9999 -9999 -9999 -9999 -9999 -9999 -9999 -9999 -9999 -9999 -9999 -9999 -9999 -9999 -9999 -9999 -9999 -9999 -9999 -9999 -9999 -9999 -9999 -9999 -9999 -9999 -9999 -9999 -9999 -9999 -9999 -9999 -9999 -9999 -9999 -9999 -9999 -9999 -9999 -9999 -9999 -9999 -9999 -9999 -9999 -9999 -9999 -9999 -9999 -9999 -9999 -9999 -9999 -9999 -9999 -9999 -9999 -9999 -9999 -9999 -9999 -9999 -9999 -9999 -9999 -9999 -9999 -9999 -9999 -9999 -9999 -9999 -9999 -9999 -9999 -9999 -9999 -9999 -9999 -9999 -9999 -9999 -9999 -9999 -9999 -9999 -9999 -9999 -9999 -9999 -9999 -9999 -9999 -9999 -9999 -9999 -9999 -9999 -9999 -9999 -9999 -9999 -9999 -9999 -9999 -9999 -9999 -9999 -9999 -9999 -9999 -9999 -9999 -9999 -9999 -9999 -9999 -9999 -9999 -9999 -9999 -9999 -9999 -9999 -9999 -9999 -9999 -9999 -9999 -9999 -9999 -9999 -9999 -9999 -9999 -9999 -9999 -9999 -9999 -9999 -9999 -9999 -9999 -9999 -9999 -9999 -9999 -9999 -9999 -9999 -9999 -9999 -9999 -9999 -9999 -9999 -9999 -9999 -9999 -9999 -9999 -9999 -9999 -9999 -9999 -9999 -9999 -9999 -9999 -9999 -9999 -9999 -9999
-9999 -9999 -9999 -9999 -9999 -9999 -9999 -9999 -9999 -9999 -9999 -9999 -9999 -9999 -9999 -9999 -9999 -9999 -9999 -9999 -9999 -9999 -9999 -9999 -9999 -9999 -9999 -9999 -9999 -9999 -9999 -9999 -9999 -9999 -9999 -9999 -9999 -9999 -9999 -9999 -9999 -9999 -9999 -9999 -9999 -9999 -9999 -9999 -9999 -9999 -9999 -9999 -9999 -9999 -9999 -9999 -9999 -9999 -9999 -9999 -9999 -9999 -9999 -9999 -9999 -9999 -9999 -9999 -9999 -9999 -9999 -9999 -9999 -9999 -9999 -9999 -9999 -9999 -9999 -9999 -9999 -9999 -9999 -9999 -9999 -9999 -9999 -9999 -9999 -9999 -9999 -9999 -9999 -9999 -9999 -9999 -9999 -9999 -9999 -9999 -9999 -9999 -9999 -9999 -9999 -9999 -9999 -9999 -9999 -9999 -9999 -9999 -9999 -9999 -9999 -9999 -9999 -9999 -9999 -9999 -9999 -9999 -9999 -9999 -9999 -9999 -9999 -9999 -9999 -9999 -9999 -9999 -9999 -9999 -9999 -9999 -9999 -9999 -9999 -9999 -9999 -9999 -9999 -9999 -9999 -9999 -9999 -9999 -9999 -9999 -9999 -9999 -9999 -9999 -9999 -9999 -9999 -9999 -9999 -9999 -9999 -9999 -9999 -9999 -9999 -9999 -9999 -9999 -9999 -9999 -9999 -9999 -9999 -9999 -9999 -9999 -9999 -9999 -9999 -9999 -9999 -9999 -9999 -9999 -9999 -9999 -9999 -9999 -9999 -9999 -9999 -9999 -9999 -9999 -9999 -9999 -9999 -9999 -9999 -9999 -9999 -9999 -9999 -9999 -9999 -9999 -9999 -9999 -9999 -9999 -9999 -9999 -9999 -9999 -9999
-9999 -9999 -9999 -9999 -9999 -9999 -9999 -9999 -9999 -9999 -9999 -9999 -9999 -9999 -9999 -9999 -9999 -9999 -9999 -9999 -9999 -9999 -9999 -9999 -9999 -9999 -9999 -9999 -9999 -9999 -9999 -9999 -9999 -9999 -9999 -9999 -9999 -9999 -9999 -9999 -9999 -9999 -9999 -9999 -9999 -9999 -9999 -9999 -9999 -9999 -9999 -9999 -9999 -9999 -9999 -9999 -9999 -9999 -9999 -9999 -9999 -9999 -9999 -9999 -9999 -9999 -9999 -9999 -9999 -9999 -9999 -9999 -9999 -9999 -9999 -9999 -9999 -9999 -9999 -9999 -9999 -9999 -9999 -9999 -9999 -9999 -9999 -9999 -9999 -9999 -9999 -9999 -9999 -9999 -9999 -9999 -9999 -9999 -9999 -9999 -9999 -9999 -9999 -9999 -9999 -9999 -9999 -9999 -9999 -9999 -9999 -9999 -9999 -9999 -9999 -9999 -9999 -9999 -9999 -9999 -9999 -9999 -9999 -9999 -9999 -9999 -9999 -9999 -9999 -9999 -9999 -9999 -9999 -9999 -9999 -9999 -9999 -9999 -9999 -9999 -9999 -9999 -9999 -9999 -9999 -9999 -9999 -9999 -9999 -9999 -9999 -9999 -9999 -9999 -9999 -9999 -9999 -9999 -9999 -9999 -9999 -9999 -9999 -9999 -9999 -9999 -9999 -9999 -9999 -9999 -9999 -9999 -9999 -9999 -9999 -9999 -9999 -9999 -9999 -9999 -9999 -9999 -9999 -9999 -9999 -9999 -9999 -9999 -9999 -9999 -9999 -9999 -9999 -9999 -9999 -9999 -9999 -9999 -9999 -9999 -9999 -9999 -9999 -9999 -9999 -9999 -9999 -9999 -9999 -9999 -9999 -9999 -9999 -9999 -9999
-9999 -9999 -9999 -9999 -9999 -9999 -9999 -9999 -9999 -9999 -9999 -9999 -9999 -9999 -9999 -9999 -9999 -9999 -9999 -9999 -9999 -9999 -9999 -9999 -9999 -9999 -9999 -9999 -9999 -9999 -9999 -9999 -9999 -9999 -9999 -9999 -9999 -9999 -9999 -9999 -9999 -9999 -9999 -9999 -9999 -9999 -9999 -9999 -9999 -9999 -9999 -9999 -9999 -9999 -9999 -9999 -9999 -9999 -9999 -9999 -9999 -9999 -9999 -9999 -9999 -9999 -9999 -9999 -9999 -9999 -9999 -9999 -9999 -9999 -9999 -9999 -9999 -9999 -9999 -9999 -9999 -9999 -9999 -9999 -9999 -9999 -9999 -9999 -9999 -9999 -9999 -9999 -9999 -9999 -9999 -9999 -9999 -9999 -9999 -9999 -9999 -9999 -9999 -9999 -9999 -9999 -9999 -9999 -9999 -9999 -9999 -9999 -9999 -9999 -9999 -9999 -9999 -9999 -9999 -9999 -9999 -9999 -9999 -9999 -9999 -9999 -9999 -9999 -9999 -9999 -9999 -9999 -9999 -9999 -9999 -9999 -9999 -9999 -9999 -9999 -9999 -9999 -9999 -9999 -9999 -9999 -9999 -9999 -9999 -9999 -9999 -9999 -9999 -9999 -9999 -9999 -9999 -9999 -9999 -9999 -9999 -9999 -9999 -9999 -9999 -9999 -9999 -9999 -9999 -9999 -9999 -9999 -9999 -9999 -9999 -9999 -9999 -9999 -9999 -9999 -9999 -9999 -9999 -9999 -9999 -9999 -9999 -9999 -9999 -9999 -9999 -9999 -9999 -9999 -9999 -9999 -9999 -9999 -9999 -9999 -9999 -9999 -9999 -9999 -9999 -9999 -9999 -9999 -9999 -9999 -9999 -9999 -9999 -9999 -9999
-9999 -9999 -9999 -9999 -9999 -9999 -9999 -9999 -9999 -9999 -9999 -9999 -9999 -9999 -9999 -9999 -9999 -9999 -9999 -9999 -9999 -9999 -9999 -9999 -9999 -9999 -9999 -9999 -9999 -9999 -9999 -9999 -9999 -9999 -9999 -9999 -9999 -9999 -9999 -9999 -9999 -9999 -9999 -9999 -9999 -9999 -9999 -9999 -9999 -9999 -9999 -9999 -9999 -9999 -9999 -9999 -9999 -9999 -9999 -9999 -9999 -9999 -9999 -9999 -9999 -9999 -9999 -9999 -9999 -9999 -9999 -9999 -9999 -9999 -9999 -9999 -9999 -9999 -9999 -9999 -9999 -9999 -9999 -9999 -9999 -9999 -9999 -9999 -9999 -9999 -9999 -9999 -9999 -9999 -9999 -9999 -9999 -9999 -9999 -9999 -9999 -9999 -9999 -9999 -9999 -9999 -9999 -9999 -9999 -9999 -9999 -9999 -9999 -9999 -9999 -9999 -9999 -9999 -9999 -9999 -9999 -9999 -9999 -9999 -9999 -9999 -9999 -9999 -9999 -9999 -9999 -9999 -9999 -9999 -9999 -9999 -9999 -9999 -9999 -9999 -9999 -9999 -9999 -9999 -9999 -9999 -9999 -9999 -9999 -9999 -9999 -9999 -9999 -9999 -9999 -9999 -9999 -9999 -9999 -9999 -9999 -9999 -9999 -9999 -9999 -9999 -9999 -9999 -9999 -9999 -9999 -9999 -9999 -9999 -9999 -9999 -9999 -9999 -9999 -9999 -9999 -9999 -9999 -9999 -9999 -9999 -9999 -9999 -9999 -9999 -9999 -9999 -9999 -9999 -9999 -9999 -9999 -9999 -9999 -9999 -9999 -9999 -9999 -9999 -9999 -9999 -9999 -9999 -9999 -9999 -9999 -9999 -9999 -9999 -9999
-9999 -9999 -9999 -9999 -9999 -9999 -9999 -9999 -9999 -9999 -9999 -9999 -9999 -9999 -9999 -9999 -9999 -9999 -9999 -9999 -9999 -9999 -9999 -9999 -9999 -9999 -9999 -9999 -9999 -9999 -9999 -9999 -9999 -9999 -9999 -9999 -9999 -9999 -9999 -9999 -9999 -9999 -9999 -9999 -9999 -9999 -9999 -9999 -9999 -9999 -9999 -9999 -9999 -9999 -9999 -9999 -9999 -9999 -9999 -9999 -9999 -9999 -9999 -9999 -9999 -9999 -9999 -9999 -9999 -9999 -9999 -9999 -9999 -9999 -9999 -9999 -9999 -9999 -9999 -9999 -9999 -9999 -9999 -9999 -9999 -9999 -9999 -9999 -9999 -9999 -9999 -9999 -9999 -9999 -9999 -9999 -9999 -9999 -9999 -9999 -9999 -9999 -9999 -9999 -9999 -9999 -9999 -9999 -9999 -9999 -9999 -9999 -9999 -9999 -9999 -9999 -9999 -9999 -9999 -9999 -9999 -9999 -9999 -9999 -9999 -9999 -9999 -9999 -9999 -9999 -9999 -9999 -9999 -9999 -9999 -9999 -9999 -9999 -9999 -9999 -9999 -9999 -9999 -9999 -9999 -9999 -9999 -9999 -9999 -9999 -9999 -9999 -9999 -9999 -9999 -9999 -9999 -9999 -9999 -9999 -9999 -9999 -9999 -9999 -9999 -9999 -9999 -9999 -9999 -9999 -9999 -9999 -9999 -9999 -9999 -9999 -9999 -9999 -9999 -9999 -9999 -9999 -9999 -9999 -9999 -9999 -9999 -9999 -9999 -9999 -9999 -9999 -9999 -9999 -9999 -9999 -9999 -9999 -9999 -9999 -9999 -9999 -9999 -9999 -9999 -9999 -9999 -9999 -9999 -9999 -9999 -9999 -9999 -9999 -9999
-9999 -9999 -9999 -9999 -9999 -9999 -9999 -9999 -9999 -9999 -9999 -9999 -9999 -9999 -9999 -9999 -9999 -9999 -9999 -9999 -9999 -9999 -9999 -9999 -9999 -9999 -9999 -9999 -9999 -9999 -9999 -9999 -9999 -9999 -9999 -9999 -9999 -9999 -9999 -9999 -9999 -9999 -9999 -9999 -9999 -9999 -9999 -9999 -9999 -9999 -9999 -9999 -9999 -9999 -9999 -9999 -9999 -9999 -9999 -9999 -9999 -9999 -9999 -9999 -9999 -9999 -9999 -9999 -9999 -9999 -9999 -9999 -9999 -9999 -9999 -9999 -9999 -9999 -9999 -9999 -9999 -9999 -9999 -9999 -9999 -9999 -9999 -9999 -9999 -9999 -9999 -9999 -9999 -9999 -9999 -9999 -9999 -9999 -9999 -9999 -9999 -9999 -9999 -9999 -9999 -9999 -9999 -9999 -9999 -9999 -9999 -9999 -9999 -9999 -9999 -9999 -9999 -9999 -9999 -9999 -9999 -9999 -9999 -9999 -9999 -9999 -9999 -9999 -9999 -9999 -9999 -9999 -9999 -9999 -9999 -9999 -9999 -9999 -9999 -9999 -9999 -9999 -9999 -9999 -9999 -9999 -9999 -9999 -9999 -9999 -9999 -9999 -9999 -9999 -9999 -9999 -9999 -9999 -9999 -9999 -9999 -9999 -9999 -9999 -9999 -9999 -9999 -9999 -9999 -9999 -9999 -9999 -9999 -9999 -9999 -9999 -9999 -9999 -9999 -9999 -9999 -9999 -9999 -9999 -9999 -9999 -9999 -9999 -9999 -9999 -9999 -9999 -9999 -9999 -9999 -9999 -9999 -9999 -9999 -9999 -9999 -9999 -9999 -9999 -9999 -9999 -9999 -9999 -9999 -9999 -9999 -9999 -9999 -9999 -9999
-9999 -9999 -9999 -9999 -9999 -9999 -9999 -9999 -9999 -9999 -9999 -9999 -9999 -9999 -9999 -9999 -9999 -9999 -9999 -9999 -9999 -9999 -9999 -9999 -9999 -9999 -9999 -9999 -9999 -9999 -9999 -9999 -9999 -9999 -9999 -9999 -9999 -9999 -9999 -9999 -9999 -9999 -9999 -9999 -9999 -9999 -9999 -9999 -9999 -9999 -9999 -9999 -9999 -9999 -9999 -9999 -9999 -9999 -9999 -9999 -9999 -9999 -9999 -9999 -9999 -9999 -9999 -9999 -9999 -9999 -9999 -9999 -9999 -9999 -9999 -9999 -9999 -9999 -9999 -9999 -9999 -9999 -9999 -9999 -9999 -9999 -9999 -9999 -9999 -9999 -9999 -9999 -9999 -9999 -9999 -9999 -9999 -9999 -9999 -9999 -9999 -9999 -9999 -9999 -9999 -9999 -9999 -9999 -9999 -9999 -9999 -9999 -9999 -9999 -9999 -9999 -9999 -9999 -9999 -9999 -9999 -9999 -9999 -9999 -9999 -9999 -9999 -9999 -9999 -9999 -9999 -9999 -9999 -9999 -9999 -9999 -9999 -9999 -9999 -9999 -9999 -9999 -9999 -9999 -9999 -9999 -9999 -9999 -9999 -9999 -9999 -9999 -9999 -9999 -9999 -9999 -9999 -9999 -9999 -9999 -9999 -9999 -9999 -9999 -9999 -9999 -9999 -9999 -9999 -9999 -9999 -9999 -9999 -9999 -9999 -9999 -9999 -9999 -9999 -9999 -9999 -9999 -9999 -9999 -9999 -9999 -9999 -9999 -9999 -9999 -9999 -9999 -9999 -9999 -9999 -9999 -9999 -9999 -9999 -9999 -9999 -9999 -9999 -9999 -9999 -9999 -9999 -9999 -9999 -9999 -9999 -9999 -9999 -9999 -9999
-9999 -9999 -9999 -9999 -9999 -9999 -9999 -9999 -9999 -9999 -9999 -9999 -9999 -9999 -9999 -9999 -9999 -9999 -9999 -9999 -9999 -9999 -9999 -9999 -9999 -9999 -9999 -9999 -9999 -9999 -9999 -9999 -9999 -9999 -9999 -9999 -9999 -9999 -9999 -9999 -9999 -9999 -9999 -9999 -9999 -9999 -9999 -9999 -9999 -9999 -9999 -9999 -9999 -9999 -9999 -9999 -9999 -9999 -9999 -9999 -9999 -9999 -9999 -9999 -9999 -9999 -9999 -9999 -9999 -9999 -9999 -9999 -9999 -9999 -9999 -9999 -9999 -9999 -9999 -9999 -9999 -9999 -9999 -9999 -9999 -9999 -9999 -9999 -9999 -9999 -9999 -9999 -9999 -9999 -9999 -9999 -9999 -9999 -9999 -9999 -9999 -9999 -9999 -9999 -9999 -9999 -9999 -9999 -9999 -9999 -9999 -9999 -9999 -9999 -9999 -9999 -9999 -9999 -9999 -9999 -9999 -9999 -9999 -9999 -9999 -9999 -9999 -9999 -9999 -9999 -9999 -9999 -9999 -9999 -9999 -9999 -9999 -9999 -9999 -9999 -9999 -9999 -9999 -9999 -9999 -9999 -9999 -9999 -9999 -9999 -9999 -9999 -9999 -9999 -9999 -9999 -9999 -9999 -9999 -9999 -9999 -9999 -9999 -9999 -9999 -9999 -9999 -9999 -9999 -9999 -9999 -9999 -9999 -9999 -9999 -9999 -9999 -9999 -9999 -9999 -9999 -9999 -9999 -9999 -9999 -9999 -9999 -9999 -9999 -9999 -9999 -9999 -9999 -9999 -9999 -9999 -9999 -9999 -9999 -9999 -9999 -9999 -9999 -9999 -9999 -9999 -9999 -9999 -9999 -9999 -9999 -9999 -9999 -9999 -9999
-9999 -9999 -9999 -9999 -9999 -9999 -9999 -9999 -9999 -9999 -9999 -9999 -9999 -9999 -9999 -9999 -9999 -9999 -9999 -9999 -9999 -9999 -9999 -9999 -9999 -9999 -9999 -9999 -9999 -9999 -9999 -9999 -9999 -9999 -9999 -9999 -9999 -9999 -9999 -9999 -9999 -9999 -9999 -9999 -9999 -9999 -9999 -9999 -9999 -9999 -9999 -9999 -9999 -9999 -9999 -9999 -9999 -9999 -9999 -9999 -9999 -9999 -9999 -9999 -9999 -9999 -9999 -9999 -9999 -9999 -9999 -9999 -9999 -9999 -9999 -9999 -9999 -9999 -9999 -9999 -9999 -9999 -9999 -9999 -9999 -9999 -9999 -9999 -9999 -9999 -9999 -9999 -9999 -9999 -9999 -9999 -9999 -9999 -9999 -9999 -9999 -9999 -9999 -9999 -9999 -9999 -9999 -9999 -9999 -9999 -9999 -9999 -9999 -9999 -9999 -9999 -9999 -9999 -9999 -9999 -9999 -9999 -9999 -9999 -9999 -9999 -9999 -9999 -9999 -9999 -9999 -9999 -9999 -9999 -9999 -9999 -9999 -9999 -9999 -9999 -9999 -9999 -9999 -9999 -9999 -9999 -9999 -9999 -9999 -9999 -9999 -9999 -9999 -9999 -9999 -9999 -9999 -9999 -9999 -9999 -9999 -9999 -9999 -9999 -9999 -9999 -9999 -9999 -9999 -9999 -9999 -9999 -9999 -9999 -9999 -9999 -9999 -9999 -9999 -9999 -9999 -9999 -9999 -9999 -9999 -9999 -9999 -9999 -9999 -9999 -9999 -9999 -9999 -9999 -9999 -9999 -9999 -9999 -9999 -9999 -9999 -9999 -9999 -9999 -9999 -9999 -9999 -9999 -9999 -9999 -9999 -9999 -9999 -9999 -9999
-9999 -9999 -9999 -9999 -9999 -9999 -9999 -9999 -9999 -9999 -9999 -9999 -9999 -9999 -9999 -9999 -9999 -9999 -9999 -9999 -9999 -9999 -9999 -9999 -9999 -9999 -9999 -9999 -9999 -9999 -9999 -9999 -9999 -9999 -9999 -9999 -9999 -9999 -9999 -9999 -9999 -9999 -9999 -9999 -9999 -9999 -9999 -9999 -9999 -9999 -9999 -9999 -9999 -9999 -9999 -9999 -9999 -9999 -9999 -9999 -9999 -9999 -9999 -9999 -9999 -9999 -9999 -9999 -9999 -9999 -9999 -9999 -9999 -9999 -9999 -9999 -9999 -9999 -9999 -9999 -9999 -9999 -9999 -9999 -9999 -9999 -9999 -9999 -9999 -9999 -9999 -9999 -9999 -9999 -9999 -9999 -9999 -9999 -9999 -9999 -9999 -9999 -9999 -9999 -9999 -9999 -9999 -9999 -9999 -9999 -9999 -9999 -9999 -9999 -9999 -9999 -9999 -9999 -9999 -9999 -9999 -9999 -9999 -9999 -9999 -9999 -9999 -9999 -9999 -9999 -9999 -9999 -9999 -9999 -9999 -9999 -9999 -9999 -9999 -9999 -9999 -9999 -9999 -9999 -9999 -9999 -9999 -9999 -9999 -9999 -9999 -9999 -9999 -9999 -9999 -9999 -9999 -9999 -9999 -9999 -9999 -9999 -9999 -9999 -9999 -9999 -9999 -9999 -9999 -9999 -9999 -9999 -9999 -9999 -9999 -9999 -9999 -9999 -9999 -9999 -9999 -9999 -9999 -9999 -9999 -9999 -9999 -9999 -9999 -9999 -9999 -9999 -9999 -9999 -9999 -9999 -9999 -9999 -9999 -9999 -9999 -9999 -9999 -9999 -9999 -9999 -9999 -9999 -9999 -9999 -9999 -9999 -9999 -9999 -9999
-9999 -9999 -9999 -9999 -9999 -9999 -9999 -9999 -9999 -9999 -9999 -9999 -9999 -9999 -9999 -9999 -9999 -9999 -9999 -9999 -9999 -9999 -9999 -9999 -9999 -9999 -9999 -9999 -9999 -9999 -9999 -9999 -9999 -9999 -9999 -9999 -9999 -9999 -9999 -9999 -9999 -9999 -9999 -9999 -9999 -9999 -9999 -9999 -9999 -9999 -9999 -9999 -9999 -9999 -9999 -9999 -9999 -9999 -9999 -9999 -9999 -9999 -9999 -9999 -9999 -9999 -9999 -9999 -9999 -9999 -9999 -9999 -9999 -9999 -9999 -9999 -9999 -9999 -9999 -9999 -9999 -9999 -9999 -9999 -9999 -9999 -9999 -9999 -9999 -9999 -9999 -9999 -9999 -9999 -9999 -9999 -9999 -9999 -9999 -9999 -9999 -9999 -9999 -9999 -9999 -9999 -9999 -9999 -9999 -9999 -9999 -9999 -9999 -9999 -9999 -9999 -9999 -9999 -9999 -9999 -9999 -9999 -9999 -9999 -9999 -9999 -9999 -9999 -9999 -9999 -9999 -9999 -9999 -9999 -9999 -9999 -9999 -9999 -9999 -9999 -9999 -9999 -9999 -9999 -9999 -9999 -9999 -9999 -9999 -9999 -9999 -9999 -9999 -9999 -9999 -9999 -9999 -9999 -9999 -9999 -9999 -9999 -9999 -9999 -9999 -9999 -9999 -9999 -9999 -9999 -9999 -9999 -9999 -9999 -9999 -9999 -9999 -9999 -9999 -9999 -9999 -9999 -9999 -9999 -9999 -9999 -9999 -9999 -9999 -9999 -9999 -9999 -9999 -9999 -9999 -9999 -9999 -9999 -9999 -9999 -9999 -9999 -9999 -9999 -9999 -9999 -9999 -9999 -9999 -9999 -9999 -9999 -9999 -9999 -9999
-9999 -9999 -9999 -9999 -9999 -9999 -9999 -9999 -9999 -9999 -9999 -9999 -9999 -9999 -9999 -9999 -9999 -9999 -9999 -9999 -9999 -9999 -9999 -9999 -9999 -9999 -9999 -9999 -9999 -9999 -9999 -9999 -9999 -9999 -9999 -9999 -9999 -9999 -9999 -9999 -9999 -9999 -9999 -9999 -9999 -9999 -9999 -9999 -9999 -9999 -9999 -9999 -9999 -9999 -9999 -9999 -9999 -9999 -9999 -9999 -9999 -9999 -9999 -9999 -9999 -9999 -9999 -9999 -9999 -9999 -9999 -9999 -9999 -9999 -9999 -9999 -9999 -9999 -9999 -9999 -9999 -9999 -9999 -9999 -9999 -9999 -9999 -9999 -9999 -9999 -9999 -9999 -9999 -9999 -9999 -9999 -9999 -9999 -9999 -9999 -9999 -9999 -9999 -9999 -9999 -9999 -9999 -9999 -9999 -9999 -9999 -9999 -9999 -9999 -9999 -9999 -9999 -9999 -9999 -9999 -9999 -9999 -9999 -9999 -9999 -9999 -9999 -9999 -9999 -9999 -9999 -9999 -9999 -9999 -9999 -9999 -9999 -9999 -9999 -9999 -9999 -9999 -9999 -9999 -9999 -9999 -9999 -9999 -9999 -9999 -9999 -9999 -9999 -9999 -9999 -9999 -9999 -9999 -9999 -9999 -9999 -9999 -9999 -9999 -9999 -9999 -9999 -9999 -9999 -9999 -9999 -9999 -9999 -9999 -9999 -9999 -9999 -9999 -9999 -9999 -9999 -9999 -9999 -9999 -9999 -9999 -9999 -9999 -9999 -9999 -9999 -9999 -9999 -9999 -9999 -9999 -9999 -9999 -9999 -9999 -9999 -9999 -9999 -9999 -9999 -9999 -9999 -9999 -9999 -9999 -9999 -9999 -9999 -9999 -9999
-9999 -9999 -9999 -9999 -9999 -9999 -9999 -9999 -9999 -9999 -9999 -9999 -9999 -9999 -9999 -9999 -9999 -9999 -9999 -9999 -9999 -9999 -9999 -9999 -9999 -9999 -9999 -9999 -9999 -9999 -9999 -9999 -9999 -9999 -9999 -9999 -9999 -9999 -9999 -9999 -9999 -9999 -9999 -9999 -9999 -9999 -9999 -9999 -9999 -9999 -9999 -9999 -9999 -9999 -9999 -9999 -9999 -9999 -9999 -9999 -9999 -9999 -9999 -9999 -9999 -9999 -9999 -9999 -9999 -9999 -9999 -9999 -9999 -9999 -9999 -9999 -9999 -9999 -9999 -9999 -9999 -9999 -9999 -9999 -9999 -9999 -9999 -9999 -9999 -9999 -9999 -9999 -9999 -9999 -9999 -9999 -9999 -9999 -9999 -9999 -9999 -9999 -9999 -9999 -9999 -9999 -9999 -9999 -9999 -9999 -9999 -9999 -9999 -9999 -9999 -9999 -9999 -9999 -9999 -9999 -9999 -9999 -9999 -9999 -9999 -9999 -9999 -9999 -9999 -9999 -9999 -9999 -9999 -9999 -9999 -9999 -9999 -9999 -9999 -9999 -9999 -9999 -9999 -9999 -9999 -9999 -9999 -9999 -9999 -9999 -9999 -9999 -9999 -9999 -9999 -9999 -9999 -9999 -9999 -9999 -9999 -9999 -9999 -9999 -9999 -9999 -9999 -9999 -9999 -9999 -9999 -9999 -9999 -9999 -9999 -9999 -9999 -9999 -9999 -9999 -9999 -9999 -9999 -9999 -9999 -9999 -9999 -9999 -9999 -9999 -9999 -9999 -9999 -9999 -9999 -9999 -9999 -9999 -9999 -9999 -9999 -9999 -9999 -9999 -9999 -9999 -9999 -9999 -9999 -9999 -9999 -9999 -9999 -9999 -9999
-9999 -9999 -9999 -9999 -9999 -9999 -9999 -9999 -9999 -9999 -9999 -9999 -9999 -9999 -9999 -9999 -9999 -9999 -9999 -9999 -9999 -9999 -9999 -9999 -9999 -9999 -9999 -9999 -9999 -9999 -9999 -9999 -9999 -9999 -9999 -9999 -9999 -9999 -9999 -9999 -9999 -9999 -9999 -9999 -9999 -9999 -9999 -9999 -9999 -9999 -9999 -9999 -9999 -9999 -9999 -9999 -9999 -9999 -9999 -9999 -9999 -9999 -9999 -9999 -9999 -9999 -9999 -9999 -9999 -9999 -9999 -9999 -9999 -9999 -9999 -9999 -9999 -9999 -9999 -9999 -9999 -9999 -9999 -9999 -9999 -9999 -9999 -9999 -9999 -9999 -9999 -9999 -9999 -9999 -9999 -9999 -9999 -9999 -9999 -9999 -9999 -9999 -9999 -9999 -9999 -9999 -9999 -9999 -9999 -9999 -9999 -9999 -9999 -9999 -9999 -9999 -9999 -9999 -9999 -9999 -9999 -9999 -9999 -9999 -9999 -9999 -9999 -9999 -9999 -9999 -9999 -9999 -9999 -9999 -9999 -9999 -9999 -9999 -9999 -9999 -9999 -9999 -9999 -9999 -9999 -9999 -9999 -9999 -9999 -9999 -9999 -9999 -9999 -9999 -9999 -9999 -9999 -9999 -9999 -9999 -9999 -9999 -9999 -9999 -9999 -9999 -9999 -9999 -9999 -9999 -9999 -9999 -9999 -9999 -9999 -9999 -9999 -9999 -9999 -9999 -9999 -9999 -9999 -9999 -9999 -9999 -9999 -9999 -9999 -9999 -9999 -9999 -9999 -9999 -9999 -9999 -9999 -9999 -9999 -9999 -9999 -9999 -9999 -9999 -9999 -9999 -9999 -9999 -9999 -9999 -9999 -9999 -9999 -9999 -9999
-9999 -9999 -9999 -9999 -9999 -9999 -9999 -9999 -9999 -9999 -9999 -9999 -9999 -9999 -9999 -9999 -9999 -9999 -9999 -9999 -9999 -9999 -9999 -9999 -9999 -9999 -9999 -9999 -9999 -9999 -9999 -9999 -9999 -9999 -9999 -9999 -9999 -9999 -9999 -9999 -9999 -9999 -9999 -9999 -9999 -9999 -9999 -9999 -9999 -9999 -9999 -9999 -9999 -9999 -9999 -9999 -9999 -9999 -9999 -9999 -9999 -9999 -9999 -9999 -9999 -9999 -9999 -9999 -9999 -9999 -9999 -9999 -9999 -9999 -9999 -9999 -9999 -9999 -9999 -9999 -9999 -9999 -9999 -9999 -9999 -9999 -9999 -9999 -9999 -9999 -9999 -9999 -9999 -9999 -9999 -9999 -9999 -9999 -9999 -9999 -9999 -9999 -9999 -9999 -9999 -9999 -9999 -9999 -9999 -9999 -9999 -9999 -9999 -9999 -9999 -9999 -9999 -9999 -9999 -9999 -9999 -9999 -9999 -9999 -9999 -9999 -9999 -9999 -9999 -9999 -9999 -9999 -9999 -9999 -9999 -9999 -9999 -9999 -9999 -9999 -9999 -9999 -9999 -9999 -9999 -9999 -9999 -9999 -9999 -9999 -9999 -9999 -9999 -9999 -9999 -9999 -9999 -9999 -9999 -9999 -9999 -9999 -9999 -9999 -9999 -9999 -9999 -9999 -9999 -9999 -9999 -9999 -9999 -9999 -9999 -9999 -9999 -9999 -9999 -9999 -9999 -9999 -9999 -9999 -9999 -9999 -9999 -9999 -9999 -9999 -9999 -9999 -9999 -9999 -9999 -9999 -9999 -9999 -9999 -9999 -9999 -9999 -9999 -9999 -9999 -9999 -9999 -9999 -9999 -9999 -9999 -9999 -9999 -9999 -9999
-9999 -9999 -9999 -9999 -9999 -9999 -9999 -9999 -9999 -9999 -9999 -9999 -9999 -9999 -9999 -9999 -9999 -9999 -9999 -9999 -9999 -9999 -9999 -9999 -9999 -9999 -9999 -9999 -9999 -9999 -9999 -9999 -9999 -9999 -9999 -9999 -9999 -9999 -9999 -9999 -9999 -9999 -9999 -9999 -9999 -9999 -9999 -9999 -9999 -9999 -9999 -9999 -9999 -9999 -9999 -9999 -9999 -9999 -9999 -9999 -9999 -9999 -9999 -9999 -9999 -9999 -9999 -9999 -9999 -9999 -9999 -9999 -9999 -9999 -9999 -9999 -9999 -9999 -9999 -9999 -9999 -9999 -9999 -9999 -9999 -9999 -9999 -9999 -9999 -9999 -9999 -9999 -9999 -9999 -9999 -9999 -9999 -9999 -9999 -9999 -9999 -9999 -9999 -9999 -9999 -9999 -9999 -9999 -9999 -9999 -9999 -9999 -9999 -9999 -9999 -9999 -9999 -9999 -9999 -9999 -9999 -9999 -9999 -9999 -9999 -9999 -9999 -9999 -9999 -9999 -9999 -9999 -9999 -9999 -9999 -9999 -9999 -9999 -9999 -9999 -9999 -9999 -9999 -9999 -9999 -9999 -9999 -9999 -9999 -9999 -9999 -9999 -9999 -9999 -9999 -9999 -9999 -9999 -9999 -9999 -9999 -9999 -9999 -9999 -9999 -9999 -9999 -9999 -9999 -9999 -9999 -9999 -9999 -9999 -9999 -9999 -9999 -9999 -9999 -9999 -9999 -9999 -9999 -9999 -9999 -9999 -9999 -9999 -9999 -9999 -9999 -9999 -9999 -9999 -9999 -9999 -9999 -9999 -9999 -9999 -9999 -9999 -9999 -9999 -9999 -9999 -9999 -9999 -9999 -9999 -9999 -9999 -9999 -9999 -9999
-9999 -9999 -9999 -9999 -9999 -9999 -9999 -9999 -9999 -9999 -9999 -9999 -9999 -9999 -9999 -9999 -9999 -9999 -9999 -9999 -9999 -9999 -9999 -9999 -9999 -9999 -9999 -9999 -9999 -9999 -9999 -9999 -9999 -9999 -9999 -9999 -9999 -9999 -9999 -9999 -9999 -9999 -9999 -9999 -9999 -9999 -9999 -9999 -9999 -9999 -9999 -9999 -9999 -9999 -9999 -9999 -9999 -9999 -9999 -9999 -9999 -9999 -9999 -9999 -9999 -9999 -9999 -9999 -9999 -9999 -9999 -9999 -9999 -9999 -9999 -9999 -9999 -9999 -9999 -9999 -9999 -9999 -9999 -9999 -9999 -9999 -9999 -9999 -9999 -9999 -9999 -9999 -9999 -9999 -9999 -9999 -9999 -9999 -9999 -9999 -9999 -9999 -9999 -9999 -9999 -9999 -9999 -9999 -9999 -9999 -9999 -9999 -9999 -9999 -9999 -9999 -9999 -9999 -9999 -9999 -9999 -9999 -9999 -9999 -9999 -9999 -9999 -9999 -9999 -9999 -9999 -9999 -9999 -9999 -9999 -9999 -9999 -9999 -9999 -9999 -9999 -9999 -9999 -9999 -9999 -9999 -9999 -9999 -9999 -9999 -9999 -9999 -9999 -9999 -9999 -9999 -9999 -9999 -9999 -9999 -9999 -9999 -9999 -9999 -9999 -9999 -9999 -9999 -9999 -9999 -9999 -9999 -9999 -9999 -9999 -9999 -9999 -9999 -9999 -9999 -9999 -9999 -9999 -9999 -9999 -9999 -9999 -9999 -9999 -9999 -9999 -9999 -9999 -9999 -9999 -9999 -9999 -9999 -9999 -9999 -9999 -9999 -9999 -9999 -9999 -9999 -9999 -9999 -9999 -9999 -9999 -9999 -9999 -9999 -9999
-9999 -9999 -9999 -9999 -9999 -9999 -9999 -9999 -9999 -9999 -9999 -9999 -9999 -9999 -9999 -9999 -9999 -9999 -9999 -9999 -9999 -9999 -9999 -9999 -9999 -9999 -9999 -9999 -9999 -9999 -9999 -9999 -9999 -9999 -9999 -9999 -9999 -9999 -9999 -9999 -9999 -9999 -9999 -9999 -9999 -9999 -9999 -9999 -9999 -9999 -9999 -9999 -9999 -9999 -9999 -9999 -9999 -9999 -9999 -9999 -9999 -9999 -9999 -9999 -9999 -9999 -9999 -9999 -9999 -9999 -9999 -9999 -9999 -9999 -9999 -9999 -9999 -9999 -9999 -9999 -9999 -9999 -9999 -9999 -9999 -9999 -9999 -9999 -9999 -9999 -9999 -9999 -9999 -9999 -9999 -9999 -9999 -9999 -9999 -9999 -9999 -9999 -9999 -9999 -9999 -9999 -9999 -9999 -9999 -9999 -9999 -9999 -9999 -9999 -9999 -9999 -9999 -9999 -9999 -9999 -9999 -9999 -9999 -9999 -9999 -9999 -9999 -9999 -9999 -9999 -9999 -9999 -9999 -9999 -9999 -9999 -9999 -9999 -9999 -9999 -9999 -9999 -9999 -9999 -9999 -9999 -9999 -9999 -9999 -9999 -9999 -9999 -9999 -9999 -9999 -9999 -9999 -9999 -9999 -9999 -9999 -9999 -9999 -9999 -9999 -9999 -9999 -9999 -9999 -9999 -9999 -9999 -9999 -9999 -9999 -9999 -9999 -9999 -9999 -9999 -9999 -9999 -9999 -9999 -9999 -9999 -9999 -9999 -9999 -9999 -9999 -9999 -9999 -9999 -9999 -9999 -9999 -9999 -9999 -9999 -9999 -9999 -9999 -9999 -9999 -9999 -9999 -9999 -9999 -9999 -9999 -9999 -9999 -9999 -9999
-9999 -9999 -9999 -9999 -9999 -9999 -9999 -9999 -9999 -9999 -9999 -9999 -9999 -9999 -9999 -9999 -9999 -9999 -9999 -9999 -9999 -9999 -9999 -9999 -9999 -9999 -9999 -9999 -9999 -9999 -9999 -9999 -9999 -9999 -9999 -9999 -9999 -9999 -9999 -9999 -9999 -9999 -9999 -9999 -9999 -9999 -9999 -9999 -9999 -9999 -9999 -9999 -9999 -9999 -9999 -9999 -9999 -9999 -9999 -9999 -9999 -9999 -9999 -9999 -9999 -9999 -9999 -9999 -9999 -9999 -9999 -9999 -9999 -9999 -9999 -9999 -9999 -9999 -9999 -9999 -9999 -9999 -9999 -9999 -9999 -9999 -9999 -9999 -9999 -9999 -9999 -9999 -9999 -9999 -9999 -9999 -9999 -9999 -9999 -9999 -9999 -9999 -9999 -9999 -9999 -9999 -9999 -9999 -9999 -9999 -9999 -9999 -9999 -9999 -9999 -9999 -9999 -9999 -9999 -9999 -9999 -9999 -9999 -9999 -9999 -9999 -9999 -9999 -9999 -9999 -9999 -9999 -9999 -9999 -9999 -9999 -9999 -9999 -9999 -9999 -9999 -9999 -9999 -9999 -9999 -9999 -9999 -9999 -9999 -9999 -9999 -9999 -9999 -9999 -9999 -9999 -9999 -9999 -9999 -9999 -9999 -9999 -9999 -9999 -9999 -9999 -9999 -9999 -9999 -9999 -9999 -9999 -9999 -9999 -9999 -9999 -9999 -9999 -9999 -9999 -9999 -9999 -9999 -9999 -9999 -9999 -9999 -9999 -9999 -9999 -9999 -9999 -9999 -9999 -9999 -9999 -9999 -9999 -9999 -9999 -9999 -9999 -9999 -9999 -9999 -9999 -9999 -9999 -9999 -9999 -9999 -9999 -9999 -9999 -9999
-9999 -9999 -9999 -9999 -9999 -9999 -9999 -9999 -9999 -9999 -9999 -9999 -9999 -9999 -9999 -9999 -9999 -9999 -9999 -9999 -9999 -9999 -9999 -9999 -9999 -9999 -9999 -9999 -9999 -9999 -9999 -9999 -9999 -9999 -9999 -9999 -9999 -9999 -9999 -9999 -9999 -9999 -9999 -9999 -9999 -9999 -9999 -9999 -9999 -9999 -9999 -9999 -9999 -9999 -9999 -9999 -9999 -9999 -9999 -9999 -9999 -9999 -9999 -9999 -9999 -9999 -9999 -9999 -9999 -9999 -9999 -9999 -9999 -9999 -9999 -9999 -9999 -9999 -9999 -9999 -9999 -9999 -9999 -9999 -9999 -9999 -9999 -9999 -9999 -9999 -9999 -9999 -9999 -9999 -9999 -9999 -9999 -9999 -9999 -9999 -9999 -9999 -9999 -9999 -9999 -9999 -9999 -9999 -9999 -9999 -9999 -9999 -9999 -9999 -9999 -9999 -9999 -9999 -9999 -9999 -9999 -9999 -9999 -9999 -9999 -9999 -9999 -9999 -9999 -9999 -9999 -9999 -9999 -9999 -9999 -9999 -9999 -9999 -9999 -9999 -9999 -9999 -9999 -9999 -9999 -9999 -9999 -9999 -9999 -9999 -9999 -9999 -9999 -9999 -9999 -9999 -9999 -9999 -9999 -9999 -9999 -9999 -9999 -9999 -9999 -9999 -9999 -9999 -9999 -9999 -9999 -9999 -9999 -9999 -9999 -9999 -9999 -9999 -9999 -9999 -9999 -9999 -9999 -9999 -9999 -9999 -9999 -9999 -9999 -9999 -9999 -9999 -9999 -9999 -9999 -9999 -9999 -9999 -9999 -9999 -9999 -9999 -9999 -9999 -9999 -9999 -9999 -9999 -9999 -9999 -9999 -9999 -9999 -9999 -9999
-9999 -9999 -9999 -9999 -9999 -9999 -9999 -9999 -9999 -9999 -9999 -9999 -9999 -9999 -9999 -9999 -9999 -9999 -9999 -9999 -9999 -9999 -9999 -9999 -9999 -9999 -9999 -9999 -9999 -9999 -9999 -9999 -9999 -9999 -9999 -9999 -9999 -9999 -9999 -9999 -9999 -9999 -9999 -9999 -9999 -9999 -9999 -9999 -9999 -9999 -9999 -9999 -9999 -9999 -9999 -9999 -9999 -9999 -9999 -9999 -9999 -9999 -9999 -9999 -9999 -9999 -9999 -9999 -9999 -9999 -9999 -9999 -9999 -9999 -9999 -9999 -9999 -9999 -9999 -9999 -9999 -9999 -9999 -9999 -9999 -9999 -9999 -9999 -9999 -9999 -9999 -9999 -9999 -9999 -9999 -9999 -9999 -9999 -9999 -9999 -9999 -9999 -9999 -9999 -9999 -9999 -9999 -9999 -9999 -9999 -9999 -9999 -9999 -9999 -9999 -9999 -9999 -9999 -9999 -9999 -9999 -9999 -9999 -9999 -9999 -9999 -9999 -9999 -9999 -9999 -9999 -9999 -9999 -9999 -9999 -9999 -9999 -9999 -9999 -9999 -9999 -9999 -9999 -9999 -9999 -9999 -9999 -9999 -9999 -9999 -9999 -9999 -9999 -9999 -9999 -9999 -9999 -9999 -9999 -9999 -9999 -9999 -9999 -9999 -9999 -9999 -9999 -9999 -9999 -9999 -9999 -9999 -9999 -9999 -9999 -9999 -9999 -9999 -9999 -9999 -9999 -9999 -9999 -9999 -9999 -9999 -9999 -9999 -9999 -9999 -9999 -9999 -9999 -9999 -9999 -9999 -9999 -9999 -9999 -9999 -9999 -9999 -9999 -9999 -9999 -9999 -9999 -9999 -9999 -9999 -9999 -9999 -9999 -9999 -9999
-9999 -9999 -9999 -9999 -9999 -9999 -9999 -9999 -9999 -9999 -9999 -9999 -9999 -9999 -9999 -9999 -9999 -9999 -9999 -9999 -9999 -9999 -9999 -9999 -9999 -9999 -9999 -9999 -9999 -9999 -9999 -9999 -9999 -9999 -9999 -9999 -9999 -9999 -9999 -9999 -9999 -9999 -9999 -9999 -9999 -9999 -9999 -9999 -9999 -9999 -9999 -9999 -9999 -9999 -9999 -9999 -9999 -9999 -9999 -9999 -9999 -9999 -9999 -9999 -9999 -9999 -9999 -9999 -9999 -9999 -9999 -9999 -9999 -9999 -9999 -9999 -9999 -9999 -9999 -9999 -9999 -9999 -9999 -9999 -9999 -9999 -9999 -9999 -9999 -9999 -9999 -9999 -9999 -9999 -9999 -9999 -9999 -9999 -9999 -9999 -9999 -9999 -9999 -9999 -9999 -9999 -9999 -9999 -9999 -9999 -9999 -9999 -9999 -9999 -9999 -9999 -9999 -9999 -9999 -9999 -9999 -9999 -9999 -9999 -9999 -9999 -9999 -9999 -9999 -9999 -9999 -9999 -9999 -9999 -9999 -9999 -9999 -9999 -9999 -9999 -9999 -9999 -9999 -9999 -9999 -9999 -9999 -9999 -9999 -9999 -9999 -9999 -9999 -9999 -9999 -9999 -9999 -9999 -9999 -9999 -9999 -9999 -9999 -9999 -9999 -9999 -9999 -9999 -9999 -9999 -9999 -9999 -9999 -9999 -9999 -9999 -9999 -9999 -9999 -9999 -9999 -9999 -9999 -9999 -9999 -9999 -9999 -9999 -9999 -9999 -9999 -9999 -9999 -9999 -9999 -9999 -9999 -9999 -9999 -9999 -9999 -9999 -9999 -9999 -9999 -9999 -9999 -9999 -9999 -9999 -9999 -9999 -9999 -9999 -9999
-9999 -9999 -9999 -9999 -9999 -9999 -9999 -9999 -9999 -9999 -9999 -9999 -9999 -9999 -9999 -9999 -9999 -9999 -9999 -9999 -9999 -9999 -9999 -9999 -9999 -9999 -9999 -9999 -9999 -9999 -9999 -9999 -9999 -9999 -9999 -9999 -9999 -9999 -9999 -9999 -9999 -9999 -9999 -9999 -9999 -9999 -9999 -9999 -9999 -9999 -9999 -9999 -9999 -9999 -9999 -9999 -9999 -9999 -9999 -9999 -9999 -9999 -9999 -9999 -9999 -9999 -9999 -9999 -9999 -9999 -9999 -9999 -9999 -9999 -9999 -9999 -9999 -9999 -9999 -9999 -9999 -9999 -9999 -9999 -9999 -9999 -9999 -9999 -9999 -9999 -9999 -9999 -9999 -9999 -9999 -9999 -9999 -9999 -9999 -9999 -9999 -9999 -9999 -9999 -9999 -9999 -9999 -9999 -9999 -9999 -9999 -9999 -9999 -9999 -9999 -9999 -9999 -9999 -9999 -9999 -9999 -9999 -9999 -9999 -9999 -9999 -9999 -9999 -9999 -9999 -9999 -9999 -9999 -9999 -9999 -9999 -9999 -9999 -9999 -9999 -9999 -9999 -9999 -9999 -9999 -9999 -9999 -9999 -9999 -9999 -9999 -9999 -9999 -9999 -9999 -9999 -9999 -9999 -9999 -9999 -9999 -9999 -9999 -9999 -9999 -9999 -9999 -9999 -9999 -9999 -9999 -9999 -9999 -9999 -9999 -9999 -9999 -9999 -9999 -9999 -9999 -9999 -9999 -9999 -9999 -9999 -9999 -9999 -9999 -9999 -9999 -9999 -9999 -9999 -9999 -9999 -9999 -9999 -9999 -9999 -9999 -9999 -9999 -9999 -9999 -9999 -9999 -9999 -9999 -9999 -9999 -9999 -9999 -9999 -9999
-9999 -9999 -9999 -9999 -9999 -9999 -9999 -9999 -9999 -9999 -9999 -9999 -9999 -9999 -9999 -9999 -9999 -9999 -9999 -9999 -9999 -9999 -9999 -9999 -9999 -9999 -9999 -9999 -9999 -9999 -9999 -9999 -9999 -9999 -9999 -9999 -9999 -9999 -9999 -9999 -9999 -9999 -9999 -9999 -9999 -9999 -9999 -9999 -9999 -9999 -9999 -9999 -9999 -9999 -9999 -9999 -9999 -9999 -9999 -9999 -9999 -9999 -9999 -9999 -9999 -9999 -9999 -9999 -9999 -9999 -9999 -9999 -9999 -9999 -9999 -9999 -9999 -9999 -9999 -9999 -9999 -9999 -9999 -9999 -9999 -9999 -9999 -9999 -9999 -9999 -9999 -9999 -9999 -9999 -9999 -9999 -9999 -9999 -9999 -9999 -9999 -9999 -9999 -9999 -9999 -9999 -9999 -9999 -9999 -9999 -9999 -9999 -9999 -9999 -9999 -9999 -9999 -9999 -9999 -9999 -9999 -9999 -9999 -9999 -9999 -9999 -9999 -9999 -9999 -9999 -9999 -9999 -9999 -9999 -9999 -9999 -9999 -9999 -9999 -9999 -9999 -9999 -9999 -9999 -9999 -9999 -9999 -9999 -9999 -9999 -9999 -9999 -9999 -9999 -9999 -9999 -9999 -9999 -9999 -9999 -9999 -9999 -9999 -9999 -9999 -9999 -9999 -9999 -9999 -9999 -9999 -9999 -9999 -9999 -9999 -9999 -9999 -9999 -9999 -9999 -9999 -9999 -9999 -9999 -9999 -9999 -9999 -9999 -9999 -9999 -9999 -9999 -9999 -9999 -9999 -9999 -9999 -9999 -9999 -9999 -9999 -9999 -9999 -9999 -9999 -9999 -9999 -9999 -9999 -9999 -9999 -9999 -9999 -9999 -9999
-9999 -9999 -9999 -9999 -9999 -9999 -9999 -9999 -9999 -9999 -9999 -9999 -9999 -9999 -9999 -9999 -9999 -9999 -9999 -9999 -9999 -9999 -9999 -9999 -9999 -9999 -9999 -9999 -9999 -9999 -9999 -9999 -9999 -9999 -9999 -9999 -9999 -9999 -9999 -9999 -9999 -9999 -9999 -9999 -9999 -9999 -9999 -9999 -9999 -9999 -9999 -9999 -9999 -9999 -9999 -9999 -9999 -9999 -9999 -9999 -9999 -9999 -9999 -9999 -9999 -9999 -9999 -9999 -9999 -9999 -9999 -9999 -9999 -9999 -9999 -9999 -9999 -9999 -9999 -9999 -9999 -9999 -9999 -9999 -9999 -9999 -9999 -9999 -9999 -9999 -9999 -9999 -9999 -9999 -9999 -9999 -9999 -9999 -9999 -9999 -9999 -9999 -9999 -9999 -9999 -9999 -9999 -9999 -9999 -9999 -9999 -9999 -9999 -9999 -9999 -9999 -9999 -9999 -9999 -9999 -9999 -9999 -9999 -9999 -9999 -9999 -9999 -9999 -9999 -9999 -9999 -9999 -9999 -9999 -9999 -9999 -9999 -9999 -9999 -9999 -9999 -9999 -9999 -9999 -9999 -9999 -9999 -9999 -9999 -9999 -9999 -9999 -9999 -9999 -9999 -9999 -9999 -9999 -9999 -9999 -9999 -9999 -9999 -9999 -9999 -9999 -9999 -9999 -9999 -9999 -9999 -9999 -9999 -9999 -9999 -9999 -9999 -9999 -9999 -9999 -9999 -9999 -9999 -9999 -9999 -9999 -9999 -9999 -9999 -9999 -9999 -9999 -9999 -9999 -9999 -9999 -9999 -9999 -9999 -9999 -9999 -9999 -9999 -9999 -9999 -9999 -9999 -9999 -9999 -9999 -9999 -9999 -9999 -9999 -9999
-9999 -9999 -9999 -9999 -9999 -9999 -9999 -9999 -9999 -9999 -9999 -9999 -9999 -9999 -9999 -9999 -9999 -9999 -9999 -9999 -9999 -9999 -9999 -9999 -9999 -9999 -9999 -9999 -9999 -9999 -9999 -9999 -9999 -9999 -9999 -9999 -9999 -9999 -9999 -9999 -9999 -9999 -9999 -9999 -9999 -9999 -9999 -9999 -9999 -9999 -9999 -9999 -9999 -9999 -9999 -9999 -9999 -9999 -9999 -9999 -9999 -9999 -9999 -9999 -9999 -9999 -9999 -9999 -9999 -9999 -9999 -9999 -9999 -9999 -9999 -9999 -9999 -9999 -9999 -9999 -9999 -9999 -9999 -9999 -9999 -9999 -9999 -9999 -9999 -9999 -9999 -9999 -9999 -9999 -9999 -9999 -9999 -9999 -9999 -9999 -9999 -9999 -9999 -9999 -9999 -9999 -9999 -9999 -9999 -9999 -9999 -9999 -9999 -9999 -9999 -9999 -9999 -9999 -9999 -9999 -9999 -9999 -9999 -9999 -9999 -9999 -9999 -9999 -9999 -9999 -9999 -9999 -9999 -9999 -9999 -9999 -9999 -9999 -9999 -9999 -9999 -9999 -9999 -9999 -9999 -9999 -9999 -9999 -9999 -9999 -9999 -9999 -9999 -9999 -9999 -9999 -9999 -9999 -9999 -9999 -9999 -9999 -9999 -9999 -9999 -9999 -9999 -9999 -9999 -9999 -9999 -9999 -9999 -9999 -9999 -9999 -9999 -9999 -9999 -9999 -9999 -9999 -9999 -9999 -9999 -9999 -9999 -9999 -9999 -9999 -9999 -9999 -9999 -9999 -9999 -9999 -9999 -9999 -9999 -9999 -9999 -9999 -9999 -9999 -9999 -9999 -9999 -9999 -9999 -9999 -9999 -9999 -9999 -9999 -9999
-9999 -9999 -9999 -9999 -9999 -9999 -9999 -9999 -9999 -9999 -9999 -9999 -9999 -9999 -9999 -9999 -9999 -9999 -9999 -9999 -9999 -9999 -9999 -9999 -9999 -9999 -9999 -9999 -9999 -9999 -9999 -9999 -9999 -9999 -9999 -9999 -9999 -9999 -9999 -9999 -9999 -9999 -9999 -9999 -9999 -9999 -9999 -9999 -9999 -9999 -9999 -9999 -9999 -9999 -9999 -9999 -9999 -9999 -9999 -9999 -9999 -9999 -9999 -9999 -9999 -9999 -9999 -9999 -9999 -9999 -9999 -9999 -9999 -9999 -9999 -9999 -9999 -9999 -9999 -9999 -9999 -9999 -9999 -9999 -9999 -9999 -9999 -9999 -9999 -9999 -9999 -9999 -9999 -9999 -9999 -9999 -9999 -9999 -9999 -9999 -9999 -9999 -9999 -9999 -9999 -9999 -9999 -9999 -9999 -9999 -9999 -9999 -9999 -9999 -9999 -9999 -9999 -9999 -9999 -9999 -9999 -9999 -9999 -9999 -9999 -9999 -9999 -9999 -9999 -9999 -9999 -9999 -9999 -9999 -9999 -9999 -9999 -9999 -9999 -9999 -9999 -9999 -9999 -9999 -9999 -9999 -9999 -9999 -9999 -9999 -9999 -9999 -9999 -9999 -9999 -9999 -9999 -9999 -9999 -9999 -9999 -9999 -9999 -9999 -9999 -9999 -9999 -9999 -9999 -9999 -9999 -9999 -9999 -9999 -9999 -9999 -9999 -9999 -9999 -9999 -9999 -9999 -9999 -9999 -9999 -9999 -9999 -9999 -9999 -9999 -9999 -9999 -9999 -9999 -9999 -9999 -9999 -9999 -9999 -9999 -9999 -9999 -9999 -9999 -9999 -9999 -9999 -9999 -9999 -9999 -9999 -9999 -9999 -9999 -9999
-9999 -9999 -9999 -9999 -9999 -9999 -9999 -9999 -9999 -9999 -9999 -9999 -9999 -9999 -9999 -9999 -9999 -9999 -9999 -9999 -9999 -9999 -9999 -9999 -9999 -9999 -9999 -9999 -9999 -9999 -9999 -9999 -9999 -9999 -9999 -9999 -9999 -9999 -9999 -9999 -9999 -9999 -9999 -9999 -9999 -9999 -9999 -9999 -9999 -9999 -9999 -9999 -9999 -9999 -9999 -9999 -9999 -9999 -9999 -9999 -9999 -9999 -9999 -9999 -9999 -9999 -9999 -9999 -9999 -9999 -9999 -9999 -9999 -9999 -9999 -9999 -9999 -9999 -9999 -9999 -9999 -9999 -9999 -9999 -9999 -9999 -9999 -9999 -9999 -9999 -9999 -9999 -9999 -9999 -9999 -9999 -9999 -9999 -9999 -9999 -9999 -9999 -9999 -9999 -9999 -9999 -9999 -9999 -9999 -9999 -9999 -9999 -9999 -9999 -9999 -9999 -9999 -9999 -9999 -9999 -9999 -9999 -9999 -9999 -9999 -9999 -9999 -9999 -9999 -9999 -9999 -9999 -9999 -9999 -9999 -9999 -9999 -9999 -9999 -9999 -9999 -9999 -9999 -9999 -9999 -9999 -9999 -9999 -9999 -9999 -9999 -9999 -9999 -9999 -9999 -9999 -9999 -9999 -9999 -9999 -9999 -9999 -9999 -9999 -9999 -9999 -9999 -9999 -9999 -9999 -9999 -9999 -9999 -9999 -9999 -9999 -9999 -9999 -9999 -9999 -9999 -9999 -9999 -9999 -9999 -9999 -9999 -9999 -9999 -9999 -9999 -9999 -9999 -9999 -9999 -9999 -9999 -9999 -9999 -9999 -9999 -9999 -9999 -9999 -9999 -9999 -9999 -9999 -9999 -9999 -9999 -9999 -9999 -9999 -9999
-9999 -9999 -9999 -9999 -9999 -9999 -9999 -9999 -9999 -9999 -9999 -9999 -9999 -9999 -9999 -9999 -9999 -9999 -9999 -9999 -9999 -9999 -9999 -9999 -9999 -9999 -9999 -9999 -9999 -9999 -9999 -9999 -9999 -9999 -9999 -9999 -9999 -9999 -9999 -9999 -9999 -9999 -9999 -9999 -9999 -9999 -9999 -9999 -9999 -9999 -9999 -9999 -9999 -9999 -9999 -9999 -9999 -9999 -9999 -9999 -9999 -9999 -9999 -9999 -9999 -9999 -9999 -9999 -9999 -9999 -9999 -9999 -9999 -9999 -9999 -9999 -9999 -9999 -9999 -9999 -9999 -9999 -9999 -9999 -9999 -9999 -9999 -9999 -9999 -9999 -9999 -9999 -9999 -9999 -9999 -9999 -9999 -9999 -9999 -9999 -9999 -9999 -9999 -9999 -9999 -9999 -9999 -9999 -9999 -9999 -9999 -9999 -9999 -9999 -9999 -9999 -9999 -9999 -9999 -9999 -9999 -9999 -9999 -9999 -9999 -9999 -9999 -9999 -9999 -9999 -9999 -9999 -9999 -9999 -9999 -9999 -9999 -9999 -9999 -9999 -9999 -9999 -9999 -9999 -9999 -9999 -9999 -9999 -9999 -9999 -9999 -9999 -9999 -9999 -9999 -9999 -9999 -9999 -9999 -9999 -9999 -9999 -9999 -9999 -9999 -9999 -9999 -9999 -9999 -9999 -9999 -9999 -9999 -9999 -9999 -9999 -9999 -9999 -9999 -9999 -9999 -9999 -9999 -9999 -9999 -9999 -9999 -9999 -9999 -9999 -9999 -9999 -9999 -9999 -9999 -9999 -9999 -9999 -9999 -9999 -9999 -9999 -9999 -9999 -9999 -9999 -9999 -9999 -9999 -9999 -9999 -9999 -9999 -9999 -9999
-9999 -9999 -9999 -9999 -9999 -9999 -9999 -9999 -9999 -9999 -9999 -9999 -9999 -9999 -9999 -9999 -9999 -9999 -9999 -9999 -9999 -9999 -9999 -9999 -9999 -9999 -9999 -9999 -9999 -9999 -9999 -9999 -9999 -9999 -9999 -9999 -9999 -9999 -9999 -9999 -9999 -9999 -9999 -9999 -9999 -9999 -9999 -9999 -9999 -9999 -9999 -9999 -9999 -9999 -9999 -9999 -9999 -9999 -9999 -9999 -9999 -9999 -9999 -9999 -9999 -9999 -9999 -9999 -9999 -9999 -9999 -9999 -9999 -9999 -9999 -9999 -9999 -9999 -9999 -9999 -9999 -9999 -9999 -9999 -9999 -9999 -9999 -9999 -9999 -9999 -9999 -9999 -9999 -9999 -9999 -9999 -9999 -9999 -9999 -9999 -9999 -9999 -9999 -9999 -9999 -9999 -9999 -9999 -9999 -9999 -9999 -9999 -9999 -9999 -9999 -9999 -9999 -9999 -9999 -9999 -9999 -9999 -9999 -9999 -9999 -9999 -9999 -9999 -9999 -9999 -9999 -9999 -9999 -9999 -9999 -9999 -9999 -9999 -9999 -9999 -9999 -9999 -9999 -9999 -9999 -9999 -9999 -9999 -9999 -9999 -9999 -9999 -9999 -9999 -9999 -9999 -9999 -9999 -9999 -9999 -9999 -9999 -9999 -9999 -9999 -9999 -9999 -9999 -9999 -9999 -9999 -9999 -9999 -9999 -9999 -9999 -9999 -9999 -9999 -9999 -9999 -9999 -9999 -9999 -9999 -9999 -9999 -9999 -9999 -9999 -9999 -9999 -9999 -9999 -9999 -9999 -9999 -9999 -9999 -9999 -9999 -9999 -9999 -9999 -9999 -9999 -9999 -9999 -9999 -9999 -9999 -9999 -9999 -9999 -9999
