NCOLS 215
NROWS 375
XLLCORNER 4809000
YLLCORNER 3480000
CELLSIZE 1000
NODATA_value -9999
7.47 7.72 7.23 7.58 7.72 6.88 7.16 7.18 7.55 7.27 7.14 7.38 7.32 7.25 7.52 7.04 7.75 7.10 7.35 7.29 7.41 7.50 7.42 7.59 7.31 6.93 7.14 6.80 7.29 6.90 7.28 7.13 7.03 6.88 7.28 6.83 7.12 7.24 7.12 6.76 7.57 7.24 7.47 6.77 7.25 7.31 7.72 7.32 7.19 7.68 6.84 6.76 7.02 7.47 6.77 7.11 7.55 7.29 7.62 7.46 7.74 7.34 7.25 7.25 6.91 6.96 7.45 6.92 6.84 7.52 7.59 7.09 7.13 7.48 7.44 6.92 7.56 7.64 7.09 7.17 7.61 7.05 7.04 6.96 6.89 6.95 6.91 7.74 7.17 7.12 6.80 6.76 7.17 7.46 7.74 6.76 6.99 6.81 7.00 7.49 7.20 7.30 7.47 7.33 7.59 6.90 7.24 7.58 6.99 7.44 7.18 7.57 7.50 7.32 7.14 7.15 7.75 6.77 7.17 6.75 7.09 7.61 7.28 7.14 7.44 7.74 6.89 6.81 7.15 7.32 6.85 7.64 7.08 7.26 6.95 7.67 7.06 7.41 7.15 7.24 7.52 7.02 6.81 7.66 7.14 7.75 7.34 7.63 7.01 7.62 6.87 7.51 6.78 7.05 7.18 7.22 7.65 6.84 6.80 6.75 7.46 6.76 7.51 6.90 6.80 6.93 7.58 6.83 6.99 7.02 7.22 7.16 7.04 -9999 -9999 -9999 -9999 -9999 -9999 -9999 -9999 -9999 -9999 -9999 -9999 -9999 -9999 -9999 -9999 -9999 -9999 -9999 -9999 -9999 -9999 -9999 -9999 -9999 -9999 -9999 -9999 -9999 -9999 -9999 -9999 -9999 -9999 -9999 -9999 -9999 -9999 -9999 -9999 -9999 -9999
6.86 7.26 7.50 7.53 7.23 6.93 7.38 7.14 7.30 6.95 7.20 6.82 6.80 6.94 7.06 7.62 7.07 7.49 7.46 7.58 7.61 7.14 7.41 7.32 7.27 7.07 7.52 7.62 6.85 6.88 6.99 7.18 7.06 7.71 6.83 7.41 7.72 7.69 7.18 7.00 7.52 7.25 7.06 6.89 7.11 7.55 7.21 7.01 7.11 6.88 7.07 7.62 7.23 6.80 6.88 7.22 7.50 7.48 7.42 7.61 6.78 6.95 7.58 7.34 7.63 6.94 7.55 6.88 6.88 7.44 7.20 7.69 6.83 6.91 7.71 7.16 7.42 7.64 7.66 7.03 6.98 7.58 6.86 7.32 7.51 7.33 7.14 7.30 7.47 7.16 7.13 7.32 7.22 7.40 7.44 7.10 6.79 7.00 7.12 6.93 7.67 6.87 7.64 7.04 7.66 7.19 7.18 7.60 7.03 7.37 6.84 7.66 7.61 7.59 7.26 7.40 7.73 6.76 7.58 6.89 6.84 7.68 7.63 7.36 7.32 7.11 6.96 6.85 7.08 6.86 7.46 7.27 6.83 7.52 7.12 7.35 7.60 7.68 7.25 6.92 7.34 6.96 7.08 7.36 7.18 7.47 7.65 7.56 7.01 7.39 7.68 6.99 6.83 6.83 7.10 7.42 7.55 7.57 6.95 7.29 7.35 7.58 7.22 7.30 7.01 7.67 7.15 6.94 6.76 6.82 7.71 6.84 7.46 -9999 -9999 -9999 -9999 -9999 -9999 -9999 -9999 -9999 -9999 -9999 -9999 -9999 -9999 -9999 -9999 -9999 -9999 -9999 -9999 -9999 -9999 -9999 -9999 -9999 -9999 -9999 -9999 -9999 -9999 -9999 -9999 -9999 -9999 -9999 -9999 -9999 -9999 -9999 -9999 -9999 -9999
7.02 7.09 6.90 7.67 7.32 6.77 7.12 6.96 6.79 7.63 7.72 7.60 7.57 7.73 7.18 7.34 7.06 7.48 7.67 6.99 7.20 7.46 7.10 7.11 6.82 7.44 7.17 7.34 7.18 7.07 7.43 7.04 7.53 7.55 7.26 7.63 7.39 7.33 7.28 7.65 7.43 6.93 7.54 6.97 6.86 7.45 7.46 7.51 7.45 6.98 6.89 7.52 7.49 7.09 7.55 7.65 7.46 6.98 6.78 7.17 6.77 7.63 6.80 7.75 7.46 6.82 7.54 7.69 7.33 6.75 7.52 7.73 7.11 7.06 6.83 7.05 6.94 7.46 7.05 7.30 7.40 6.86 7.58 7.41 7.66 7.08 7.60 6.76 7.58 7.15 7.35 6.87 7.30 6.84 6.94 7.49 7.05 7.11 7.16 6.86 7.08 7.35 7.66 7.42 7.70 7.64 6.94 7.19 7.69 7.31 7.25 7.02 6.80 7.34 7.04 7.03 7.49 7.43 7.00 7.11 7.52 7.24 7.52 7.70 7.65 7.17 7.60 7.05 7.10 7.63 7.42 7.38 7.74 7.52 7.12 7.22 6.78 7.39 7.05 7.63 7.52 7.73 7.37 7.66 7.71 7.01 7.50 7.57 6.83 7.03 7.37 7.13 6.80 6.92 7.46 7.40 7.16 7.11 7.53 6.84 7.28 7.73 7.73 7.57 7.73 6.93 7.64 7.47 6.80 7.10 7.22 7.14 6.85 -9999 -9999 -9999 -9999 -9999 -9999 -9999 -9999 -9999 -9999 -9999 -9999 -9999 -9999 -9999 -9999 -9999 -9999 -9999 -9999 -9999 -9999 -9999 -9999 -9999 -9999 -9999 -9999 -9999 -9999 -9999 -9999 -9999 -9999 -9999 -9999 -9999 -9999 -9999 -9999 -9999 -9999
7.75 7.64 7.06 7.07 6.93 7.18 7.54 7.42 7.36 7.29 6.80 7.13 7.20 7.42 7.34 7.71 7.38 7.58 7.11 6.94 7.64 7.52 7.00 7.70 6.89 7.61 7.02 7.38 7.32 7.20 7.21 7.61 6.81 7.57 7.22 7.72 7.02 6.84 7.33 7.66 7.30 7.23 7.36 7.51 6.79 7.46 7.04 6.97 6.78 7.43 6.87 7.66 7.53 7.38 6.84 6.99 7.07 7.44 6.80 6.80 7.60 7.53 7.54 7.25 6.87 7.56 6.95 7.36 7.06 7.16 7.11 7.61 6.89 7.12 7.68 7.03 7.24 6.90 7.60 7.18 7.23 7.70 7.16 6.95 7.12 7.09 7.71 6.84 7.21 6.98 6.88 7.31 7.74 7.74 6.96 7.30 7.27 7.28 7.51 6.91 7.18 6.80 6.77 6.97 7.26 7.11 7.13 6.82 7.75 7.00 7.25 7.50 7.41 6.91 7.61 6.88 7.21 7.05 6.98 7.70 7.35 7.36 7.69 6.78 7.63 7.51 7.45 6.77 7.29 7.59 7.55 7.29 7.05 7.39 7.47 7.69 6.85 6.89 7.57 7.40 7.71 7.16 7.53 7.53 6.98 7.40 7.03 7.20 7.06 6.96 7.28 7.01 7.56 6.94 7.64 7.39 6.86 6.88 6.79 7.43 7.29 7.51 7.03 7.50 6.79 7.71 7.64 7.55 7.57 7.74 7.67 7.22 6.77 -9999 -9999 -9999 -9999 -9999 -9999 -9999 -9999 -9999 -9999 -9999 -9999 -9999 -9999 -9999 -9999 -9999 -9999 -9999 -9999 -9999 -9999 -9999 -9999 -9999 -9999 -9999 -9999 -9999 -9999 -9999 -9999 -9999 -9999 -9999 -9999 -9999 -9999 -9999 -9999 -9999 -9999
7.46 6.90 7.26 7.60 7.25 7.27 7.67 7.70 7.25 6.94 7.15 7.19 7.59 7.30 7.68 7.69 7.74 7.05 7.58 7.11 7.27 7.75 7.74 7.48 7.09 7.57 7.31 7.51 7.53 7.28 7.06 6.89 7.23 7.32 7.35 7.21 7.22 7.57 7.58 6.91 6.89 7.33 6.82 7.06 7.20 6.78 7.45 7.72 7.40 7.09 7.40 7.06 6.87 7.64 6.80 7.29 7.09 6.83 7.61 7.57 6.95 7.56 7.25 6.78 7.60 7.72 7.67 7.51 6.78 7.47 7.20 7.60 6.77 6.77 7.40 6.91 6.78 7.08 6.77 7.67 7.16 6.94 7.57 7.48 7.15 7.61 7.66 7.14 7.07 6.93 7.63 7.21 7.47 7.63 6.85 7.06 7.72 6.96 6.93 7.34 7.56 7.35 6.94 7.34 7.13 7.23 7.58 6.80 7.01 7.22 7.21 7.02 7.38 7.28 7.61 7.50 7.51 7.22 7.00 7.42 7.05 7.67 7.53 6.81 7.25 7.18 7.31 7.66 6.90 7.70 7.50 7.34 7.29 7.18 7.53 7.31 7.72 7.49 7.68 7.64 6.95 7.38 7.17 7.66 6.89 6.93 6.87 7.09 7.64 6.89 6.77 7.56 7.64 6.95 7.48 7.56 7.51 7.18 7.51 7.73 7.14 7.27 7.15 6.99 7.36 6.98 6.87 6.77 7.39 7.70 6.91 7.28 7.13 -9999 -9999 -9999 -9999 -9999 -9999 -9999 -9999 -9999 -9999 -9999 -9999 -9999 -9999 -9999 -9999 -9999 -9999 -9999 -9999 -9999 -9999 -9999 -9999 -9999 -9999 -9999 -9999 -9999 -9999 -9999 -9999 -9999 -9999 -9999 -9999 -9999 -9999 -9999 -9999 -9999 -9999
7.06 6.78 7.54 7.22 7.39 7.38 7.50 7.68 7.47 7.58 7.03 7.66 6.86 7.37 7.63 7.32 7.25 6.78 7.18 7.55 7.71 7.59 7.54 7.12 7.56 6.78 6.88 7.11 6.84 6.97 6.95 7.06 7.52 7.33 7.50 7.23 6.88 6.76 7.57 6.83 6.97 7.16 7.50 7.55 7.51 7.03 7.72 6.87 7.16 7.24 7.13 7.45 7.17 7.21 7.00 6.83 7.14 7.07 6.93 7.09 7.35 6.85 7.57 7.15 6.80 6.75 6.90 7.04 7.63 7.26 7.50 7.19 7.11 6.92 7.43 7.31 7.28 7.69 7.28 6.84 7.30 7.28 6.85 7.14 7.01 7.69 7.32 7.15 7.66 7.56 7.68 7.61 6.76 7.67 7.32 6.96 7.72 7.69 6.95 6.90 7.73 7.54 7.45 6.88 7.56 6.95 7.50 7.67 6.97 6.88 7.07 6.75 6.90 7.72 7.30 7.01 7.68 6.77 7.51 7.74 7.75 7.05 7.18 6.95 7.14 7.05 7.35 7.51 6.78 7.70 7.69 7.56 7.27 7.19 6.85 6.81 7.50 6.82 7.39 7.18 7.58 6.77 7.75 6.87 6.98 7.42 6.84 7.63 7.30 6.79 7.55 7.25 7.67 7.69 7.38 7.57 7.44 6.92 7.72 7.33 7.30 7.49 7.53 7.40 7.31 7.45 6.94 6.78 7.05 7.73 6.84 7.59 7.71 7.61 -9999 -9999 -9999 -9999 -9999 -9999 -9999 -9999 -9999 -9999 -9999 -9999 -9999 -9999 -9999 -9999 -9999 -9999 -9999 -9999 -9999 -9999 -9999 -9999 -9999 -9999 -9999 -9999 -9999 -9999 -9999 -9999 -9999 -9999 -9999 -9999 -9999 -9999 -9999 -9999 -9999
7.11 7.07 6.94 7.07 7.68 7.16 7.52 7.24 7.01 6.80 7.33 7.73 6.85 7.38 7.18 7.27 7.09 7.47 7.22 7.61 7.10 7.70 7.44 7.04 6.75 7.10 6.75 7.10 6.93 7.32 7.59 7.50 7.36 7.41 7.36 7.62 7.28 7.56 7.21 7.60 7.66 7.67 6.77 7.72 7.34 7.26 7.09 6.92 7.02 7.11 7.74 7.12 7.19 6.80 7.08 7.32 6.77 6.83 7.24 7.74 6.78 6.83 7.14 7.63 7.25 7.61 6.92 6.89 7.17 7.36 7.07 7.25 7.26 7.45 7.44 7.32 7.60 6.94 7.11 7.46 6.86 7.14 7.32 7.59 7.33 7.06 7.01 7.37 7.10 7.36 7.40 7.44 7.45 7.40 7.33 7.65 6.99 6.97 7.02 6.82 7.42 7.09 6.76 7.13 7.16 6.96 6.93 7.02 7.35 7.24 7.64 7.12 7.69 6.81 7.70 7.38 6.92 7.67 6.82 7.60 7.00 7.11 7.22 7.40 7.52 7.71 7.29 7.67 7.45 7.26 7.12 7.56 7.63 7.55 7.62 7.24 7.10 7.41 7.09 7.57 6.78 7.19 7.38 7.42 7.39 6.85 7.19 7.68 6.86 7.52 7.40 7.72 7.30 6.92 7.53 7.58 7.47 7.44 7.53 7.72 7.39 7.39 6.75 7.48 6.84 7.23 7.17 6.81 6.93 7.63 6.96 7.11 7.61 7.55 -9999 -9999 -9999 -9999 -9999 -9999 -9999 -9999 -9999 -9999 -9999 -9999 -9999 -9999 -9999 -9999 -9999 -9999 -9999 -9999 -9999 -9999 -9999 -9999 -9999 -9999 -9999 -9999 -9999 -9999 -9999 -9999 -9999 -9999 -9999 -9999 -9999 -9999 -9999 -9999 -9999
7.40 7.02 7.63 7.16 7.03 7.00 6.96 7.64 7.48 6.98 7.41 7.17 7.09 7.04 6.89 6.94 7.11 7.46 7.09 7.05 7.39 6.87 6.90 6.81 7.36 7.62 7.04 7.06 7.16 7.25 7.67 7.61 7.55 7.62 6.89 7.69 7.59 7.48 7.35 7.45 6.99 7.01 7.72 7.44 7.01 7.23 7.26 6.92 7.04 7.23 7.38 7.26 6.84 6.99 6.90 7.62 7.16 7.32 6.97 7.21 6.76 6.75 7.51 6.84 7.21 7.64 7.57 6.81 6.89 6.84 7.00 7.33 6.99 7.16 7.16 7.24 7.34 7.46 6.93 7.64 6.91 7.74 7.51 7.19 7.67 7.24 7.32 7.35 7.38 7.53 7.65 7.06 7.28 7.13 7.40 7.47 7.60 7.46 7.18 7.44 7.10 7.53 7.43 7.66 7.66 7.29 7.22 7.43 6.88 6.80 7.75 7.66 7.39 6.83 7.68 7.22 7.06 7.41 6.89 7.04 7.11 7.73 7.06 7.25 7.52 7.53 7.70 7.74 7.68 6.92 7.70 7.49 7.67 7.66 6.78 7.20 7.17 7.23 6.95 6.87 7.37 7.41 7.58 7.31 7.59 7.32 7.17 7.06 7.67 7.75 7.35 6.83 7.10 7.22 7.16 7.46 7.25 7.60 6.96 6.81 6.89 7.67 6.83 7.02 7.45 7.61 7.19 6.81 7.74 7.35 7.53 6.89 7.42 7.42 -9999 -9999 -9999 -9999 -9999 -9999 -9999 -9999 -9999 -9999 -9999 -9999 -9999 -9999 -9999 -9999 -9999 -9999 -9999 -9999 -9999 -9999 -9999 -9999 -9999 -9999 -9999 -9999 -9999 -9999 -9999 -9999 -9999 -9999 -9999 -9999 -9999 -9999 -9999 -9999 -9999
7.71 7.06 6.78 7.21 6.86 6.87 6.76 7.15 7.45 6.81 6.77 7.41 7.19 7.01 7.40 7.13 7.50 6.91 6.89 6.91 7.07 7.41 7.26 7.00 7.63 7.26 7.60 7.55 6.89 7.38 7.72 7.15 7.44 6.95 7.10 7.65 7.69 7.74 7.38 6.78 7.49 6.75 6.76 7.00 7.25 7.08 6.83 7.66 7.50 6.83 6.89 7.51 7.60 7.49 6.95 7.02 6.93 7.43 7.19 7.50 7.34 6.98 6.92 6.79 7.48 6.81 7.54 6.92 7.47 7.42 7.62 7.29 7.64 7.33 7.66 7.12 7.15 6.98 6.89 7.55 6.87 7.19 7.29 6.93 6.94 7.11 7.59 7.42 7.32 7.34 6.96 7.70 7.62 6.92 7.29 7.21 7.14 7.52 6.96 6.94 6.83 7.49 7.67 7.25 6.93 7.48 7.67 7.36 6.79 6.77 7.11 6.76 7.57 7.35 6.81 7.55 7.61 7.33 6.84 6.82 7.28 7.31 6.86 6.99 7.60 7.25 6.86 6.85 6.88 7.57 7.22 7.22 7.51 7.57 7.73 7.15 7.50 7.45 6.99 6.80 6.83 7.12 7.47 7.05 7.12 6.97 7.44 7.11 7.03 7.71 6.90 7.63 7.53 7.13 7.74 7.73 7.37 7.53 7.34 6.99 7.46 7.04 6.92 7.75 7.34 6.80 6.83 7.64 7.47 7.48 7.24 7.63 7.20 7.30 -9999 -9999 -9999 -9999 -9999 -9999 -9999 -9999 -9999 -9999 -9999 -9999 -9999 -9999 -9999 -9999 -9999 -9999 -9999 -9999 -9999 -9999 -9999 -9999 -9999 -9999 -9999 -9999 -9999 -9999 -9999 -9999 -9999 -9999 -9999 -9999 -9999 -9999 -9999 -9999 -9999
7.43 7.09 7.60 7.03 7.72 6.98 7.20 6.82 7.31 7.51 6.95 7.12 7.13 6.86 7.42 6.98 7.13 7.10 6.97 7.30 6.98 7.26 7.18 6.96 6.93 7.24 7.58 7.73 6.89 7.37 7.61 7.40 7.27 7.19 6.80 6.88 7.60 7.53 7.22 7.68 7.70 6.85 7.01 7.00 6.82 7.46 6.83 7.17 6.77 6.82 6.79 6.84 7.68 7.40 7.39 7.03 7.08 7.28 7.30 6.85 7.48 6.76 6.79 6.98 7.34 6.91 6.86 6.81 6.91 7.74 7.14 7.64 7.42 7.38 7.68 7.72 7.23 7.71 6.91 6.86 6.82 6.93 7.49 7.67 7.52 6.80 7.52 7.18 7.03 7.69 7.51 7.62 7.01 6.89 6.92 7.56 7.69 6.93 6.79 7.62 7.36 7.19 7.21 7.42 6.95 7.68 7.28 7.41 7.70 7.04 7.18 7.70 7.72 7.22 7.66 7.56 7.55 7.53 7.49 7.22 6.78 7.71 7.35 7.35 6.79 6.75 7.34 7.16 7.17 7.51 7.41 7.20 7.69 7.37 6.81 7.50 7.28 6.88 7.51 7.20 6.90 7.21 7.45 7.14 7.32 7.38 6.81 7.10 7.22 6.82 7.14 6.76 7.47 7.36 6.89 7.41 6.78 7.69 7.62 7.43 6.80 7.65 7.73 7.11 6.81 7.30 7.24 6.90 6.76 7.05 6.86 6.91 6.82 7.34 -9999 -9999 -9999 -9999 -9999 -9999 -9999 -9999 -9999 -9999 -9999 -9999 -9999 -9999 -9999 -9999 -9999 -9999 -9999 -9999 -9999 -9999 -9999 -9999 -9999 -9999 -9999 -9999 -9999 -9999 -9999 -9999 -9999 -9999 -9999 -9999 -9999 -9999 -9999 -9999 -9999
6.80 7.26 6.76 7.11 7.26 7.27 7.15 7.37 7.69 7.44 7.52 7.27 7.30 6.97 6.87 7.64 7.43 6.89 6.79 7.25 6.92 7.10 7.51 7.62 7.05 7.13 7.26 6.83 7.06 7.16 7.54 6.92 7.15 6.94 6.76 7.38 7.15 7.18 7.43 7.51 6.75 6.88 6.83 7.21 6.82 7.07 7.32 6.80 6.78 7.00 6.89 7.08 7.20 7.41 6.76 6.80 6.79 6.76 7.67 6.96 7.56 6.83 6.94 7.14 6.76 7.15 7.21 7.55 7.03 6.77 7.56 7.44 7.22 7.66 6.88 7.67 7.04 6.97 7.26 7.11 6.98 7.47 7.60 7.07 7.14 7.37 7.29 6.96 7.75 7.51 7.01 7.32 6.78 7.56 7.33 7.73 7.54 7.67 7.34 6.99 7.62 6.83 6.76 7.63 7.42 7.34 6.89 7.06 6.90 7.07 7.20 7.46 7.57 7.20 7.70 7.23 6.95 7.39 7.03 7.35 6.78 7.08 7.60 6.89 7.11 7.49 6.92 7.73 6.87 7.33 7.17 6.86 7.13 7.72 6.89 6.87 6.97 6.78 7.54 7.55 7.19 7.05 7.04 6.79 6.90 7.07 7.50 6.95 6.78 6.93 7.58 7.25 7.06 7.47 7.43 6.91 7.38 6.92 7.56 7.10 7.44 7.74 6.86 6.76 7.34 7.61 7.20 7.36 7.64 6.97 7.68 6.94 7.02 6.77 -9999 -9999 -9999 -9999 -9999 -9999 -9999 -9999 -9999 -9999 -9999 -9999 -9999 -9999 -9999 -9999 -9999 -9999 -9999 -9999 -9999 -9999 -9999 -9999 -9999 -9999 -9999 -9999 -9999 -9999 -9999 -9999 -9999 -9999 -9999 -9999 -9999 -9999 -9999 -9999 -9999
6.95 7.29 7.53 7.00 7.44 6.96 7.58 7.47 6.98 6.99 6.76 7.01 7.44 7.40 7.46 7.68 7.25 6.87 7.03 7.23 6.77 7.38 7.60 7.53 7.18 7.05 7.34 6.85 6.80 6.93 7.20 6.88 7.43 7.70 6.77 6.88 6.77 7.52 6.79 7.67 7.26 7.17 7.57 7.23 7.59 6.88 7.56 6.87 6.86 6.93 7.03 7.46 6.80 7.46 6.89 7.48 7.04 7.14 6.88 6.77 7.73 7.69 7.19 7.60 6.83 6.82 7.10 7.61 6.97 6.86 6.95 7.25 7.00 7.33 7.58 6.77 7.58 7.45 6.77 7.04 6.83 7.19 7.00 7.26 6.96 7.06 6.82 7.72 7.28 7.22 6.81 6.84 7.32 7.32 7.25 7.52 7.41 7.07 7.29 6.86 7.09 6.75 7.75 7.24 7.19 6.80 6.92 7.62 7.34 6.92 7.03 7.72 6.88 6.82 7.71 7.48 7.29 7.41 6.83 7.02 6.87 7.45 7.31 7.70 6.78 7.18 7.48 7.00 7.03 7.54 7.26 7.70 7.60 7.25 7.65 7.67 7.46 7.13 7.51 7.18 7.21 6.99 7.67 6.86 7.56 7.18 7.41 6.91 6.98 6.89 6.94 7.56 7.12 6.98 7.34 7.24 7.25 7.72 6.93 7.25 7.25 7.23 7.58 7.72 6.83 7.30 7.65 7.42 7.20 7.20 7.44 7.45 7.29 7.49 7.11 -9999 -9999 -9999 -9999 -9999 -9999 -9999 -9999 -9999 -9999 -9999 -9999 -9999 -9999 -9999 -9999 -9999 -9999 -9999 -9999 -9999 -9999 -9999 -9999 -9999 -9999 -9999 -9999 -9999 -9999 -9999 -9999 -9999 -9999 -9999 -9999 -9999 -9999 -9999 -9999
7.30 7.35 7.70 7.11 7.64 6.79 7.63 7.10 6.96 7.58 7.33 7.14 7.66 7.26 7.00 6.95 7.57 7.34 7.35 7.44 7.00 7.41 7.45 7.50 7.54 7.36 6.81 7.64 7.61 7.69 7.08 7.22 7.53 7.57 7.57 7.70 6.80 7.73 7.34 7.05 7.17 7.27 7.11 6.88 7.20 6.83 6.92 6.86 6.82 6.93 6.92 7.32 7.30 7.21 6.80 7.66 7.01 7.58 6.86 6.94 7.42 7.16 7.34 6.92 6.92 6.91 7.29 7.41 7.20 6.88 7.38 7.07 7.59 6.88 7.70 7.14 7.14 7.26 7.46 7.47 7.02 7.47 7.60 7.07 7.04 7.29 7.31 7.16 7.71 6.91 6.95 6.86 7.34 7.53 7.69 7.70 6.96 7.56 7.08 7.61 7.59 7.44 6.80 7.08 7.25 7.51 7.14 7.43 7.37 7.66 7.16 7.35 7.31 6.84 7.47 6.99 7.36 6.84 7.14 7.40 6.77 7.54 6.85 7.30 7.59 7.02 6.85 7.72 7.34 7.14 7.63 7.72 7.46 7.08 6.89 6.78 7.70 7.55 6.79 7.15 6.85 6.93 7.68 7.75 7.08 7.13 6.97 7.28 7.38 7.17 7.62 7.43 7.67 7.36 7.01 7.04 6.83 7.17 7.28 7.58 6.93 7.20 6.87 6.79 7.07 7.23 6.92 7.54 7.22 7.07 6.99 6.77 7.28 6.75 7.38 -9999 -9999 -9999 -9999 -9999 -9999 -9999 -9999 -9999 -9999 -9999 -9999 -9999 -9999 -9999 -9999 -9999 -9999 -9999 -9999 -9999 -9999 -9999 -9999 -9999 -9999 -9999 -9999 -9999 -9999 -9999 -9999 -9999 -9999 -9999 -9999 -9999 -9999 -9999 -9999
6.76 7.34 7.66 7.11 7.42 7.45 7.46 6.86 6.77 7.30 6.76 7.22 7.58 6.75 6.84 7.53 7.75 6.90 6.87 7.49 7.48 7.42 7.00 7.15 7.21 6.82 7.46 7.53 7.69 7.71 7.18 6.95 7.39 7.57 6.76 6.88 6.80 6.97 7.03 7.74 7.73 7.37 6.88 7.39 7.16 7.26 7.34 7.17 6.95 7.19 7.04 7.54 6.78 7.72 6.91 7.15 7.37 7.29 7.27 6.79 7.32 6.98 7.40 7.52 7.12 6.97 7.46 7.16 6.77 7.67 6.96 7.51 6.97 6.92 7.45 6.97 6.99 7.61 7.34 6.83 7.30 7.36 7.43 6.98 6.97 7.55 7.39 6.97 7.24 6.81 6.77 7.38 7.23 6.99 7.04 6.88 7.44 7.56 7.51 7.38 7.46 7.36 7.23 7.27 6.95 6.99 7.62 7.45 6.92 6.91 7.16 6.81 6.78 7.47 7.51 7.16 7.51 7.65 6.84 7.34 7.16 7.69 7.47 7.68 7.25 6.86 7.54 7.05 7.72 7.62 7.05 7.49 7.70 6.98 7.17 7.72 7.73 6.97 6.81 7.09 7.64 7.38 7.41 7.03 7.74 6.78 7.24 7.01 7.19 7.53 7.00 7.59 7.57 7.13 7.45 7.18 7.58 7.30 6.98 7.67 6.84 7.65 7.47 7.54 7.28 7.30 7.39 7.00 7.75 7.32 7.27 7.28 7.04 7.32 6.78 -9999 -9999 -9999 -9999 -9999 -9999 -9999 -9999 -9999 -9999 -9999 -9999 -9999 -9999 -9999 -9999 -9999 -9999 -9999 -9999 -9999 -9999 -9999 -9999 -9999 -9999 -9999 -9999 -9999 -9999 -9999 -9999 -9999 -9999 -9999 -9999 -9999 -9999 -9999 -9999
7.03 6.93 7.02 7.52 7.58 7.60 7.25 7.10 7.62 7.03 6.86 7.25 6.79 7.34 7.19 6.93 7.15 7.02 7.66 7.54 7.53 7.62 7.12 7.09 7.28 7.73 7.54 6.94 7.25 7.23 7.30 6.98 6.81 6.91 7.31 7.61 6.90 6.96 7.42 6.86 7.22 7.17 7.40 7.04 7.26 7.71 6.84 6.84 7.55 7.02 6.80 7.49 7.42 7.26 7.39 7.23 7.23 6.84 7.63 7.58 7.54 7.46 7.07 6.89 7.51 7.37 7.06 7.72 7.55 7.42 7.72 7.60 7.10 7.61 6.77 7.62 7.30 6.89 7.67 6.88 6.98 7.24 7.22 7.20 6.98 7.55 7.41 7.58 7.11 7.00 6.97 7.65 7.17 7.63 7.13 7.12 7.51 7.18 6.92 7.02 6.90 7.46 7.42 7.54 7.30 7.74 7.47 7.00 7.17 7.15 7.74 6.95 6.76 7.11 7.22 7.28 7.37 7.68 6.92 7.17 7.04 6.94 6.93 7.58 7.29 7.69 7.18 7.13 7.67 6.78 7.39 6.97 7.71 7.10 7.73 7.73 7.18 6.95 7.03 6.80 7.00 6.78 7.16 6.76 7.37 7.06 6.87 6.93 7.32 6.91 7.28 7.28 7.22 7.66 7.49 7.03 7.53 7.43 6.88 7.74 6.87 7.04 6.97 7.37 6.80 7.08 7.41 7.15 6.92 7.34 7.26 7.14 7.41 6.79 6.92 -9999 -9999 -9999 -9999 -9999 -9999 -9999 -9999 -9999 -9999 -9999 -9999 -9999 -9999 -9999 -9999 -9999 -9999 -9999 -9999 -9999 -9999 -9999 -9999 -9999 -9999 -9999 -9999 -9999 -9999 -9999 -9999 -9999 -9999 -9999 -9999 -9999 -9999 -9999 -9999
7.52 7.51 6.80 6.90 6.85 7.60 7.35 7.28 7.30 7.58 6.85 7.22 7.27 7.13 6.94 7.50 7.72 6.86 7.27 6.95 7.15 7.22 7.29 6.80 7.29 7.75 6.80 7.54 7.55 7.61 7.10 6.89 7.69 7.61 7.17 6.92 7.62 7.16 6.97 7.26 7.44 6.90 7.02 7.10 7.67 7.20 7.34 7.56 7.64 7.32 7.71 7.10 7.40 7.62 7.58 7.14 7.52 6.87 7.72 7.17 7.31 7.69 6.79 7.26 7.25 6.95 6.98 7.37 7.72 7.30 7.21 7.32 7.63 7.56 7.28 7.04 7.41 7.05 7.29 7.62 7.57 7.35 6.96 7.05 7.30 7.61 6.83 7.50 7.00 6.83 7.22 7.74 7.35 6.75 6.95 7.74 7.19 7.65 7.33 6.95 7.14 7.32 7.71 7.16 6.91 7.51 7.18 7.51 7.57 7.09 7.23 7.28 7.21 6.95 7.53 6.92 7.19 6.93 7.25 7.19 6.96 6.97 7.25 6.85 7.61 6.80 7.67 7.29 7.73 7.62 7.73 7.57 6.97 6.77 7.03 7.13 7.64 7.22 7.14 7.69 7.40 7.51 6.76 7.14 6.98 6.89 7.56 7.53 7.51 6.98 6.76 6.79 7.73 7.25 7.66 7.68 6.94 7.37 7.40 6.89 7.15 7.23 7.42 7.14 7.74 7.18 7.33 7.49 6.88 7.45 7.66 7.41 7.45 7.09 6.91 -9999 -9999 -9999 -9999 -9999 -9999 -9999 -9999 -9999 -9999 -9999 -9999 -9999 -9999 -9999 -9999 -9999 -9999 -9999 -9999 -9999 -9999 -9999 -9999 -9999 -9999 -9999 -9999 -9999 -9999 -9999 -9999 -9999 -9999 -9999 -9999 -9999 -9999 -9999 -9999
6.92 7.45 7.04 7.49 6.78 7.55 7.04 7.70 7.05 7.09 6.86 7.06 7.37 6.98 7.71 7.13 7.16 6.90 7.31 7.37 6.81 7.40 6.80 6.93 7.70 7.43 7.46 6.91 7.58 7.21 7.65 7.68 7.72 7.26 7.42 7.18 7.64 7.66 7.73 7.70 7.05 7.73 6.78 7.62 7.53 7.31 7.43 6.93 7.74 7.05 7.42 7.58 7.49 7.71 6.95 7.55 7.57 7.29 6.80 7.13 6.87 7.29 7.69 7.31 6.99 6.82 6.98 7.22 7.47 7.25 6.93 7.40 7.01 7.03 6.84 6.94 7.27 7.30 7.36 6.93 7.40 7.10 6.78 7.65 7.34 7.20 7.01 6.78 6.77 7.52 7.37 7.74 6.91 7.01 7.55 7.66 6.97 7.21 7.53 7.57 7.43 7.28 6.77 6.77 7.66 7.53 6.79 7.54 7.61 7.26 7.28 7.66 7.24 7.39 7.35 6.93 7.71 6.82 6.97 6.86 7.42 7.24 7.07 6.88 7.12 7.62 7.55 7.18 7.68 7.06 7.55 7.70 6.98 7.47 6.86 7.70 7.24 7.33 7.08 7.60 7.64 7.07 6.80 7.36 7.10 7.64 7.26 7.33 6.93 7.56 6.89 7.48 6.99 7.52 7.07 7.29 7.63 7.21 7.30 7.06 7.13 6.80 6.77 6.95 6.85 6.97 7.29 7.70 7.56 7.32 6.89 7.71 7.71 7.43 6.96 -9999 -9999 -9999 -9999 -9999 -9999 -9999 -9999 -9999 -9999 -9999 -9999 -9999 -9999 -9999 -9999 -9999 -9999 -9999 -9999 -9999 -9999 -9999 -9999 -9999 -9999 -9999 -9999 -9999 -9999 -9999 -9999 -9999 -9999 -9999 -9999 -9999 -9999 -9999 -9999
7.45 7.61 7.74 7.62 6.77 7.25 6.86 7.75 7.12 7.44 7.09 7.52 7.46 7.24 7.41 7.01 7.37 7.50 7.31 7.26 7.36 7.37 6.96 6.77 6.89 7.43 7.66 6.82 6.85 7.23 7.07 7.38 7.34 7.59 7.06 6.76 7.51 7.10 7.66 7.36 7.57 7.53 7.00 7.47 7.42 6.78 7.06 6.81 7.56 6.78 7.40 6.91 7.04 6.75 7.30 7.29 6.98 7.72 6.82 6.78 6.92 7.00 7.56 7.25 7.07 7.58 7.05 7.46 7.58 7.34 7.51 7.74 7.08 7.52 7.44 7.21 7.01 6.89 6.79 7.09 7.66 7.17 7.65 7.73 6.96 7.16 7.42 7.34 7.28 6.85 7.71 7.58 7.02 7.14 7.07 7.42 7.27 7.41 7.72 6.92 7.06 7.02 7.11 7.58 7.27 7.42 7.72 7.61 7.35 7.13 7.43 7.68 6.82 7.03 6.76 6.97 7.06 7.69 7.04 7.74 7.39 7.61 7.68 7.05 7.28 7.21 6.98 7.75 7.18 7.24 7.51 6.85 7.36 7.51 7.10 7.45 7.06 7.48 6.97 7.73 7.69 7.37 7.05 7.11 6.85 7.28 7.41 7.26 7.69 7.23 7.55 6.76 7.24 7.53 7.17 7.69 7.28 7.68 7.66 7.70 6.91 7.26 7.37 6.84 7.11 7.24 7.04 6.87 7.63 6.75 7.57 6.92 6.85 6.75 7.27 7.74 -9999 -9999 -9999 -9999 -9999 -9999 -9999 -9999 -9999 -9999 -9999 -9999 -9999 -9999 -9999 -9999 -9999 -9999 -9999 -9999 -9999 -9999 -9999 -9999 -9999 -9999 -9999 -9999 -9999 -9999 -9999 -9999 -9999 -9999 -9999 -9999 -9999 -9999 -9999
6.96 7.28 6.82 7.42 7.00 7.75 6.98 7.18 6.93 7.44 6.81 7.49 7.51 7.47 7.38 7.21 7.50 7.14 6.93 7.39 7.46 6.88 7.24 6.84 7.57 6.88 7.06 6.85 7.11 6.91 7.16 7.56 6.80 6.94 6.99 7.49 7.48 6.87 6.87 7.46 7.46 6.97 7.05 7.74 7.24 6.91 7.66 6.83 7.46 7.07 6.77 7.51 7.32 7.47 7.14 7.32 7.43 7.62 7.46 6.94 7.58 7.16 7.35 7.09 6.82 7.39 6.86 6.93 7.58 6.77 7.29 7.34 7.43 7.64 7.44 7.75 6.92 6.82 7.61 7.60 7.48 6.88 7.50 7.14 7.31 7.05 7.33 7.05 7.63 6.92 7.69 7.68 7.41 7.47 6.99 7.01 6.82 6.81 7.24 7.01 7.68 7.40 7.18 6.79 7.03 7.60 7.27 6.85 7.16 7.00 7.19 7.69 7.69 7.06 6.95 7.35 7.17 7.59 7.43 7.19 7.38 7.17 6.85 6.76 7.47 6.79 7.62 7.53 7.67 7.62 7.17 7.06 7.02 7.73 7.58 7.45 7.63 7.02 7.50 7.26 7.47 6.88 7.68 7.30 6.89 7.00 7.41 6.84 7.01 6.81 7.67 6.93 7.54 7.55 6.85 6.98 7.70 7.59 6.84 7.36 6.99 6.77 7.30 6.77 7.41 7.50 7.23 6.84 7.22 7.35 6.83 7.08 7.42 7.33 6.76 7.39 -9999 -9999 -9999 -9999 -9999 -9999 -9999 -9999 -9999 -9999 -9999 -9999 -9999 -9999 -9999 -9999 -9999 -9999 -9999 -9999 -9999 -9999 -9999 -9999 -9999 -9999 -9999 -9999 -9999 -9999 -9999 -9999 -9999 -9999 -9999 -9999 -9999 -9999 -9999
7.01 7.17 6.89 7.55 7.66 7.34 7.59 7.48 7.15 7.28 6.84 7.34 7.27 7.53 6.99 7.74 7.07 7.04 7.22 7.17 7.62 7.38 6.87 7.56 6.87 7.64 7.01 7.18 6.98 7.09 7.28 7.32 7.55 7.44 7.34 7.06 7.49 7.37 7.65 6.77 7.68 7.35 7.25 7.26 6.88 7.00 7.27 7.26 6.84 6.98 7.43 7.64 6.87 7.36 7.05 7.08 7.08 7.63 7.30 7.48 7.72 7.42 7.71 7.55 6.93 7.51 6.94 6.89 7.45 7.60 7.54 6.99 7.59 7.63 7.08 6.89 7.10 6.97 7.25 6.95 6.76 7.68 7.31 6.87 7.72 7.04 6.96 7.07 7.45 6.77 7.16 7.27 7.10 7.08 7.13 7.52 7.34 6.83 6.97 7.05 7.66 6.77 7.46 6.81 7.67 7.26 7.13 6.77 7.36 6.88 7.50 7.70 7.12 7.07 6.98 7.36 7.51 6.92 6.90 6.95 6.78 7.56 7.60 7.18 7.06 7.60 7.27 6.94 7.27 7.01 7.53 7.06 7.71 6.97 7.32 7.36 6.75 6.85 6.88 7.51 7.20 7.72 7.07 7.47 7.12 7.68 7.04 7.23 6.82 7.67 6.95 7.70 7.36 6.85 7.11 7.27 7.63 7.55 7.46 7.06 7.53 6.97 7.28 7.23 7.30 7.38 7.48 6.98 7.28 7.27 7.70 7.57 7.41 6.81 7.44 7.51 -9999 -9999 -9999 -9999 -9999 -9999 -9999 -9999 -9999 -9999 -9999 -9999 -9999 -9999 -9999 -9999 -9999 -9999 -9999 -9999 -9999 -9999 -9999 -9999 -9999 -9999 -9999 -9999 -9999 -9999 -9999 -9999 -9999 -9999 -9999 -9999 -9999 -9999 -9999
7.35 7.53 7.65 7.11 6.88 7.50 6.90 7.49 7.47 6.86 7.69 7.49 7.02 7.64 7.34 7.47 7.22 7.71 7.53 7.13 7.15 7.26 7.04 7.22 7.31 7.18 6.94 7.35 7.25 7.64 7.05 7.20 7.60 7.14 7.48 7.58 7.71 7.06 6.88 7.17 7.02 7.10 6.97 7.17 7.17 6.82 7.68 7.12 7.28 6.96 7.70 6.78 7.40 6.88 7.67 7.21 7.41 7.10 7.69 6.81 6.98 7.17 7.23 7.04 7.65 7.14 6.89 7.16 7.57 7.09 7.65 6.86 7.08 6.91 6.90 7.56 7.18 7.27 7.28 7.42 6.78 7.36 7.48 7.64 7.03 6.97 7.49 7.49 6.95 7.74 6.82 7.23 6.79 7.43 7.15 7.62 7.25 7.29 6.85 7.62 7.27 7.48 7.04 7.06 7.29 7.65 7.68 7.68 7.35 6.85 6.86 6.82 6.84 7.59 6.78 6.76 6.84 7.24 6.82 7.68 7.11 7.28 7.07 7.22 7.18 7.42 7.65 6.88 6.86 7.54 7.25 7.07 7.58 7.47 6.91 6.92 6.88 7.37 7.73 7.43 6.94 7.10 7.72 7.67 7.27 7.30 7.28 7.13 7.70 7.46 7.69 7.52 6.83 7.29 7.67 7.21 7.13 7.16 6.99 7.29 7.48 6.96 7.60 7.58 6.78 7.15 7.42 6.92 7.07 6.76 7.66 7.35 6.75 6.94 7.08 7.36 -9999 -9999 -9999 -9999 -9999 -9999 -9999 -9999 -9999 -9999 -9999 -9999 -9999 -9999 -9999 -9999 -9999 -9999 -9999 -9999 -9999 -9999 -9999 -9999 -9999 -9999 -9999 -9999 -9999 -9999 -9999 -9999 -9999 -9999 -9999 -9999 -9999 -9999 -9999
6.88 7.62 7.12 6.97 7.00 7.05 7.55 6.93 7.57 7.43 7.18 7.22 7.42 7.41 6.98 6.90 7.58 7.54 7.72 7.33 7.27 7.48 6.91 7.21 7.63 7.47 7.05 6.80 7.17 6.96 6.85 7.19 7.73 7.19 6.97 7.55 6.91 7.55 6.96 7.67 7.66 7.39 6.80 7.28 7.56 6.78 6.81 7.30 6.93 6.96 6.87 7.27 7.63 7.36 7.49 7.04 6.76 7.11 7.46 7.30 7.00 6.87 7.46 7.54 7.68 7.62 7.44 7.09 7.66 6.81 7.69 7.39 6.77 7.48 7.59 7.58 7.54 7.63 7.33 7.25 7.14 7.05 7.17 6.92 7.36 7.72 7.21 6.89 7.66 7.41 7.70 7.46 7.41 7.02 6.95 7.00 7.75 7.63 7.00 7.34 7.25 7.23 6.89 7.03 7.41 7.31 7.45 7.39 6.92 7.07 6.92 7.66 7.02 6.84 6.93 7.17 6.85 6.77 7.32 7.41 7.15 7.60 6.90 7.49 7.11 7.53 6.79 6.83 7.13 6.97 7.32 7.03 7.61 7.70 7.38 6.84 7.48 7.50 7.00 7.36 7.50 7.69 6.76 7.15 7.35 7.49 7.17 7.54 7.34 7.74 7.25 7.46 7.48 7.29 7.70 7.09 7.27 7.40 6.84 6.99 7.49 7.16 7.47 6.93 7.42 7.61 7.22 6.93 7.18 7.36 7.59 6.79 6.92 6.81 7.31 7.35 -9999 -9999 -9999 -9999 -9999 -9999 -9999 -9999 -9999 -9999 -9999 -9999 -9999 -9999 -9999 -9999 -9999 -9999 -9999 -9999 -9999 -9999 -9999 -9999 -9999 -9999 -9999 -9999 -9999 -9999 -9999 -9999 -9999 -9999 -9999 -9999 -9999 -9999 -9999
7.69 7.22 7.25 6.85 7.47 7.11 6.90 7.38 7.38 6.86 6.93 6.78 7.44 7.46 7.47 7.03 7.42 6.76 7.59 7.60 7.32 7.28 7.34 7.71 6.99 7.27 7.14 6.99 7.15 7.34 7.68 7.24 7.60 7.44 7.69 7.36 7.06 7.13 6.83 7.42 7.36 7.58 6.97 6.80 6.91 7.03 7.22 7.08 7.27 7.21 7.55 7.38 7.40 6.81 7.04 7.65 7.11 7.68 7.55 7.31 7.16 7.54 7.49 6.89 6.76 7.42 7.71 7.04 7.71 7.55 7.73 7.54 6.98 7.69 6.87 7.09 7.05 7.41 7.70 7.56 6.94 6.75 7.44 7.64 6.95 6.91 7.15 6.87 7.69 7.09 7.34 7.19 7.62 7.51 7.56 7.45 7.25 7.71 7.12 6.78 7.21 7.31 7.60 7.10 6.81 6.99 7.56 7.12 7.74 7.17 7.28 7.74 7.19 7.34 7.61 6.86 7.15 7.30 6.95 6.94 7.65 7.13 7.35 7.63 7.46 7.00 7.11 6.95 7.21 7.05 7.06 7.32 7.27 6.80 6.93 7.50 7.49 7.08 7.08 7.21 7.62 7.10 7.66 7.42 6.87 7.07 6.86 7.67 7.29 7.37 7.39 7.19 7.27 7.02 7.71 6.93 7.50 7.46 7.70 7.29 7.59 6.91 6.79 6.75 7.17 7.11 7.16 7.66 7.57 7.03 7.24 7.07 7.24 6.85 7.64 7.33 -9999 -9999 -9999 -9999 -9999 -9999 -9999 -9999 -9999 -9999 -9999 -9999 -9999 -9999 -9999 -9999 -9999 -9999 -9999 -9999 -9999 -9999 -9999 -9999 -9999 -9999 -9999 -9999 -9999 -9999 -9999 -9999 -9999 -9999 -9999 -9999 -9999 -9999 -9999
7.69 7.71 6.91 7.22 6.92 6.84 7.49 7.74 7.54 7.42 7.61 7.21 7.46 7.04 7.10 7.72 6.86 6.79 7.01 7.06 7.08 7.45 7.48 7.02 7.27 7.02 7.62 7.64 6.88 7.31 6.83 7.71 7.45 7.31 7.55 7.08 7.36 7.75 7.38 7.51 6.93 7.07 7.63 7.11 7.40 7.41 7.28 7.33 7.18 6.80 7.23 7.23 7.55 7.57 7.29 7.38 6.84 7.31 6.96 7.52 7.19 7.56 7.64 6.85 7.43 7.08 7.42 7.72 7.15 7.28 7.50 7.57 7.18 6.99 7.60 7.67 7.08 7.65 6.84 7.54 7.56 7.19 7.07 7.64 7.15 7.56 7.44 7.62 7.22 7.04 7.07 7.14 7.01 7.57 7.11 6.83 6.99 6.92 6.99 6.84 7.39 7.73 7.69 7.28 7.36 7.57 7.69 7.51 6.88 7.32 7.70 7.11 7.67 7.42 7.02 7.15 6.95 7.06 6.82 7.35 7.65 7.54 7.11 7.70 7.13 6.94 7.18 7.60 7.34 7.72 6.82 7.60 7.67 7.23 7.55 7.30 6.80 7.09 7.69 7.70 7.20 7.04 7.52 7.12 6.99 6.89 7.57 7.12 7.28 7.00 7.58 7.68 7.13 6.98 7.72 7.14 7.17 7.54 6.88 7.48 7.47 7.68 6.96 7.33 7.53 6.89 7.14 6.83 6.82 7.43 7.14 7.17 7.63 6.86 7.18 7.11 -9999 -9999 -9999 -9999 -9999 -9999 -9999 -9999 -9999 -9999 -9999 -9999 -9999 -9999 -9999 -9999 -9999 -9999 -9999 -9999 -9999 -9999 -9999 -9999 -9999 -9999 -9999 -9999 -9999 -9999 -9999 -9999 -9999 -9999 -9999 -9999 -9999 -9999 -9999
6.90 7.07 7.14 7.70 7.75 7.09 7.72 7.46 7.56 7.37 6.97 7.00 7.25 7.37 7.22 6.80 7.40 7.52 7.66 6.85 7.20 7.51 7.31 6.94 7.62 7.63 7.67 7.45 6.97 7.24 7.06 6.78 7.66 7.63 6.94 7.22 7.08 7.75 6.96 7.59 7.30 7.30 6.92 7.63 7.07 6.94 7.00 7.61 7.05 7.15 6.97 7.70 7.46 7.36 7.06 7.47 7.12 7.46 7.15 7.60 7.42 7.64 7.33 6.79 7.12 7.32 7.66 6.95 7.38 7.73 7.43 6.94 6.80 7.58 7.73 7.65 6.94 7.04 7.67 6.84 6.96 7.37 7.26 6.96 7.71 7.55 7.14 7.13 7.01 7.22 7.24 7.14 7.12 6.79 7.27 6.93 7.12 6.86 7.49 7.27 6.86 7.18 7.33 6.92 7.59 7.69 7.28 7.74 7.15 7.44 6.99 7.18 7.53 7.68 7.48 7.37 6.88 6.88 6.89 6.97 7.05 7.54 7.54 7.64 7.01 7.30 7.39 7.68 7.06 7.59 7.66 7.14 6.96 7.41 7.65 7.24 7.09 6.84 7.15 7.05 7.49 7.72 7.30 7.50 7.61 7.59 6.76 7.36 7.30 6.88 7.51 6.82 7.17 7.38 7.70 7.66 6.85 7.23 6.87 7.67 7.00 7.44 7.27 7.25 7.11 7.56 7.00 6.97 7.23 7.57 7.74 7.53 7.61 7.47 7.74 6.88 6.89 -9999 -9999 -9999 -9999 -9999 -9999 -9999 -9999 -9999 -9999 -9999 -9999 -9999 -9999 -9999 -9999 -9999 -9999 -9999 -9999 -9999 -9999 -9999 -9999 -9999 -9999 -9999 -9999 -9999 -9999 -9999 -9999 -9999 -9999 -9999 -9999 -9999 -9999
6.98 7.53 7.35 6.76 7.20 7.51 7.43 7.35 7.44 7.59 7.11 6.80 6.96 7.43 7.50 6.91 6.95 7.46 7.22 7.26 7.32 7.37 7.44 7.25 6.84 6.88 7.54 6.94 6.88 6.91 7.38 7.12 7.12 7.24 7.54 7.67 6.82 7.36 6.90 7.34 7.13 7.69 7.44 7.32 6.96 7.35 7.20 6.97 6.88 7.53 6.89 7.60 7.57 6.94 7.38 7.28 7.57 7.65 6.98 7.15 6.79 7.35 7.48 7.53 7.06 7.03 7.07 6.75 7.68 7.51 7.43 6.88 7.13 6.96 7.14 7.49 7.02 6.80 7.38 7.03 7.21 7.62 6.81 7.27 7.63 7.25 7.73 7.24 7.12 7.16 7.17 7.31 7.33 6.87 7.26 7.08 7.00 7.10 7.10 7.58 7.28 7.48 7.33 7.04 6.87 7.19 7.68 7.10 6.97 7.28 6.85 6.80 7.53 7.17 7.68 7.05 7.19 7.22 7.32 7.57 7.26 7.30 7.20 7.33 7.56 7.29 7.49 7.07 7.12 7.09 6.84 7.12 6.84 7.64 7.53 6.93 6.84 7.56 7.60 7.32 7.70 7.26 6.84 7.03 6.96 7.41 7.15 7.72 6.89 7.44 6.97 6.78 6.99 6.87 6.83 7.30 7.34 6.91 7.51 7.45 7.35 7.02 6.79 6.81 7.43 7.42 7.20 7.18 7.48 6.90 7.43 6.82 7.42 7.29 7.34 7.62 6.86 -9999 -9999 -9999 -9999 -9999 -9999 -9999 -9999 -9999 -9999 -9999 -9999 -9999 -9999 -9999 -9999 -9999 -9999 -9999 -9999 -9999 -9999 -9999 -9999 -9999 -9999 -9999 -9999 -9999 -9999 -9999 -9999 -9999 -9999 -9999 -9999 -9999 -9999
6.87 6.76 7.01 7.21 7.08 7.60 7.24 7.65 7.28 7.10 7.15 7.35 7.58 7.26 7.43 7.10 7.17 7.47 6.94 6.83 7.22 7.55 6.82 7.66 6.98 7.08 7.32 7.61 7.19 7.50 7.51 7.40 6.94 7.09 7.00 7.26 7.71 6.84 6.84 7.40 7.51 7.53 6.80 7.13 7.03 7.64 6.92 6.90 6.88 7.22 7.25 7.58 7.01 7.72 7.49 7.47 7.59 6.93 7.63 7.06 7.67 7.12 7.48 7.28 7.06 7.58 7.45 7.22 7.21 7.47 7.66 7.00 7.20 6.77 7.32 7.54 6.81 7.20 6.97 7.50 7.45 7.23 7.47 7.23 6.99 7.57 7.40 7.11 7.26 7.67 7.72 6.92 6.78 7.52 7.16 7.34 7.42 6.96 7.72 6.82 6.99 7.35 6.77 6.99 7.51 7.18 7.70 7.75 7.75 7.17 6.82 7.21 6.88 7.23 7.35 7.41 7.50 6.97 7.23 7.42 7.35 7.59 7.53 7.57 7.34 7.26 7.40 7.68 7.21 6.85 7.44 7.56 7.05 6.83 7.63 7.57 7.40 7.66 6.82 7.65 6.97 7.74 7.11 7.31 6.93 7.08 7.22 7.24 7.03 7.34 7.52 7.26 6.87 7.13 7.43 7.69 6.95 7.61 7.62 7.63 7.15 7.74 7.22 7.60 7.73 7.33 7.14 7.41 7.45 6.77 6.76 6.95 6.84 7.43 6.91 6.90 6.90 -9999 -9999 -9999 -9999 -9999 -9999 -9999 -9999 -9999 -9999 -9999 -9999 -9999 -9999 -9999 -9999 -9999 -9999 -9999 -9999 -9999 -9999 -9999 -9999 -9999 -9999 -9999 -9999 -9999 -9999 -9999 -9999 -9999 -9999 -9999 -9999 -9999 -9999
7.02 7.50 7.48 7.56 7.03 6.90 7.21 7.12 7.65 6.90 6.88 7.31 7.00 6.86 7.71 7.68 7.21 7.07 7.64 7.10 7.58 7.60 7.54 6.76 7.09 6.96 7.38 7.61 7.61 7.06 7.24 7.73 7.53 7.00 7.54 7.35 7.75 7.44 7.60 7.36 6.96 6.83 7.49 7.48 7.44 7.12 6.90 7.37 7.37 7.58 7.51 7.05 6.90 7.65 7.25 6.84 7.33 6.79 7.66 7.03 7.25 7.72 7.68 7.03 6.93 7.23 7.19 6.84 6.92 7.73 7.09 7.57 7.62 7.61 6.88 7.15 7.43 6.89 7.50 6.96 6.99 7.49 6.98 7.47 6.83 7.54 7.36 7.27 7.17 6.86 7.11 7.43 6.80 7.75 7.48 7.38 6.92 7.02 6.78 6.80 7.55 7.25 7.41 6.98 7.40 6.88 7.14 7.38 7.08 7.50 6.78 7.17 7.13 7.56 7.57 7.74 7.25 7.36 7.38 6.83 7.61 7.26 7.36 7.56 7.52 6.76 6.86 7.23 6.90 6.88 7.02 6.97 7.41 7.45 6.82 7.10 7.47 7.59 7.12 7.01 7.39 7.26 6.82 7.11 6.86 7.66 6.94 7.22 7.07 7.28 7.72 7.36 7.35 6.85 7.34 7.11 7.10 7.35 6.90 7.43 7.32 7.70 7.06 7.07 6.83 7.70 7.49 7.27 7.23 7.54 7.69 7.68 7.53 7.56 6.81 7.04 7.26 -9999 -9999 -9999 -9999 -9999 -9999 -9999 -9999 -9999 -9999 -9999 -9999 -9999 -9999 -9999 -9999 -9999 -9999 -9999 -9999 -9999 -9999 -9999 -9999 -9999 -9999 -9999 -9999 -9999 -9999 -9999 -9999 -9999 -9999 -9999 -9999 -9999 -9999
7.43 7.24 7.11 6.89 7.20 7.24 6.85 7.33 6.87 7.58 7.35 7.69 7.09 7.40 7.23 6.86 7.45 6.92 7.36 7.36 6.97 7.20 7.08 7.60 7.01 7.68 7.19 7.37 7.56 6.78 7.56 6.79 6.84 7.68 7.21 7.49 7.66 6.93 7.18 7.20 7.44 7.52 7.42 7.15 6.77 6.93 7.39 7.23 7.43 7.33 6.92 7.03 7.74 7.57 6.85 6.89 7.19 7.49 6.87 7.31 7.59 6.93 6.93 7.11 6.80 6.83 6.83 7.17 7.53 7.06 6.97 7.44 6.90 6.81 6.90 7.19 7.65 7.75 7.47 7.50 7.58 7.31 6.90 7.70 7.48 7.09 7.69 6.89 7.40 7.04 7.45 6.79 7.08 7.00 6.84 6.82 7.17 7.11 7.59 7.12 6.93 7.66 7.53 7.60 7.58 7.75 7.52 7.26 7.00 7.64 7.42 7.32 7.36 6.86 7.69 6.83 6.88 6.84 7.73 7.03 7.18 7.29 7.55 7.55 7.10 6.98 7.42 7.45 7.31 6.77 7.57 7.64 7.74 6.97 6.81 6.89 6.94 6.76 6.96 7.64 7.55 7.51 7.68 7.23 6.91 7.41 7.24 6.88 7.05 7.27 7.03 7.49 7.32 7.74 7.67 6.82 6.97 7.46 7.12 7.72 6.80 7.28 7.57 6.99 7.63 7.33 7.61 7.43 7.61 7.68 7.21 7.23 7.62 7.49 7.13 7.28 6.76 -9999 -9999 -9999 -9999 -9999 -9999 -9999 -9999 -9999 -9999 -9999 -9999 -9999 -9999 -9999 -9999 -9999 -9999 -9999 -9999 -9999 -9999 -9999 -9999 -9999 -9999 -9999 -9999 -9999 -9999 -9999 -9999 -9999 -9999 -9999 -9999 -9999 -9999
7.34 7.20 7.02 7.74 7.13 7.02 7.45 7.35 6.79 6.97 7.04 6.95 7.54 6.89 7.61 7.24 7.37 7.70 6.92 7.50 7.70 7.04 7.58 6.98 7.33 6.98 7.68 7.19 7.74 6.89 7.23 7.29 7.60 7.22 7.60 7.16 7.42 7.67 7.00 7.12 7.15 7.00 7.64 7.31 6.79 6.90 7.22 7.67 6.86 7.03 7.72 7.70 7.13 7.24 7.16 7.29 7.02 6.85 7.49 7.18 7.45 7.47 7.30 7.50 6.85 7.63 7.20 6.84 7.30 7.27 6.94 6.77 7.36 7.51 7.02 7.72 7.00 7.43 7.42 7.72 7.27 7.72 7.64 6.91 7.09 6.82 7.40 7.50 7.73 7.62 7.17 7.61 7.22 6.89 7.29 7.69 7.55 7.34 7.25 7.65 7.57 7.16 7.68 7.30 7.20 7.15 7.61 7.18 7.51 7.25 7.71 7.40 7.74 7.43 7.52 7.64 7.64 7.53 7.69 7.34 7.23 7.23 7.21 7.24 7.28 6.91 7.62 7.30 7.41 7.53 6.80 6.79 7.36 7.68 6.99 7.17 7.00 7.05 6.77 6.91 7.24 7.43 7.59 6.76 6.81 6.97 7.69 6.77 7.61 7.35 7.30 7.26 7.33 6.77 7.28 6.96 7.53 7.55 7.61 7.70 6.94 7.62 7.18 7.42 7.16 7.45 7.05 7.00 7.16 7.21 6.86 6.84 7.04 7.57 7.60 7.46 7.65 -9999 -9999 -9999 -9999 -9999 -9999 -9999 -9999 -9999 -9999 -9999 -9999 -9999 -9999 -9999 -9999 -9999 -9999 -9999 -9999 -9999 -9999 -9999 -9999 -9999 -9999 -9999 -9999 -9999 -9999 -9999 -9999 -9999 -9999 -9999 -9999 -9999 -9999
7.46 6.78 7.54 7.02 7.62 7.15 7.47 6.90 7.16 7.10 6.86 7.25 7.03 6.96 6.94 7.43 7.17 7.02 6.89 7.29 7.60 7.62 7.44 6.78 7.02 7.61 7.12 6.79 7.08 7.39 7.37 7.47 7.23 7.71 6.98 7.37 6.89 7.67 7.21 7.69 7.07 7.54 6.90 7.12 7.13 7.12 7.11 6.85 7.68 7.58 6.76 7.14 7.51 7.57 7.21 7.31 7.71 7.70 7.53 7.35 6.85 7.68 7.41 7.03 7.22 7.47 7.47 7.71 7.47 7.51 7.68 6.92 6.91 7.12 6.97 7.32 7.37 7.37 6.75 7.07 7.67 7.39 7.01 6.76 7.01 7.06 7.27 7.11 6.98 7.27 6.93 7.30 7.00 6.80 6.90 7.65 7.58 7.14 7.69 7.19 7.32 7.50 7.40 7.43 7.03 7.33 7.15 6.93 6.99 6.84 7.32 7.22 7.54 7.25 7.19 7.10 7.19 7.25 7.12 6.98 7.55 6.77 7.17 7.40 7.62 6.87 7.40 6.81 6.93 6.84 7.12 7.32 6.88 7.52 6.90 7.30 7.65 7.30 6.99 7.72 7.17 6.98 7.28 7.23 7.65 7.19 7.74 7.73 7.25 6.87 7.29 7.53 7.05 7.56 7.69 7.55 7.29 7.68 7.33 6.79 7.24 6.91 6.87 7.24 7.37 7.14 6.79 7.63 7.13 6.84 7.10 7.29 7.36 7.52 7.07 7.51 7.33 7.03 -9999 -9999 -9999 -9999 -9999 -9999 -9999 -9999 -9999 -9999 -9999 -9999 -9999 -9999 -9999 -9999 -9999 -9999 -9999 -9999 -9999 -9999 -9999 -9999 -9999 -9999 -9999 -9999 -9999 -9999 -9999 -9999 -9999 -9999 -9999 -9999 -9999
7.44 7.58 7.01 7.15 7.31 7.26 7.06 6.79 7.06 7.27 7.62 7.15 6.97 7.11 7.05 7.54 7.17 7.64 6.86 7.48 7.46 7.23 7.71 6.92 6.91 7.10 6.90 7.34 7.74 7.46 7.68 7.55 7.38 7.11 6.84 7.55 7.64 7.13 7.20 7.05 7.38 6.80 7.11 7.31 7.06 7.16 7.34 7.07 6.95 6.85 7.74 7.29 6.76 7.46 7.00 7.69 7.47 7.64 7.47 7.64 6.88 7.74 6.78 7.68 7.31 7.18 7.17 7.44 7.32 7.11 7.70 7.00 6.83 6.83 7.45 6.87 7.27 6.83 7.30 7.45 7.21 7.13 6.94 6.91 7.43 7.59 7.15 7.17 7.74 7.53 7.70 7.55 7.45 7.06 7.36 7.21 7.52 6.80 7.72 6.84 6.84 6.82 6.86 6.95 7.06 7.20 7.64 6.91 7.36 7.14 7.25 6.90 7.03 7.23 7.02 6.80 6.80 7.51 6.77 7.32 6.96 6.76 7.47 7.07 7.30 7.14 7.37 7.73 7.22 7.60 7.29 7.24 6.96 7.55 7.49 7.58 6.94 6.86 7.08 6.95 7.08 6.77 7.46 7.01 7.42 7.38 7.69 6.85 7.08 7.48 7.48 7.00 6.91 7.45 7.55 6.99 6.79 7.70 7.41 7.11 6.88 7.45 7.19 6.93 6.84 7.19 7.02 7.42 6.94 7.13 7.63 7.48 6.91 6.85 7.52 7.58 7.22 7.56 -9999 -9999 -9999 -9999 -9999 -9999 -9999 -9999 -9999 -9999 -9999 -9999 -9999 -9999 -9999 -9999 -9999 -9999 -9999 -9999 -9999 -9999 -9999 -9999 -9999 -9999 -9999 -9999 -9999 -9999 -9999 -9999 -9999 -9999 -9999 -9999 -9999
6.84 7.00 6.85 6.86 7.61 7.74 7.04 7.05 6.83 7.16 7.04 7.07 6.97 7.18 7.05 6.78 7.04 7.67 7.35 7.09 7.10 6.78 7.13 7.29 7.31 7.58 7.49 7.32 7.15 7.31 7.52 6.92 7.16 7.49 7.28 7.21 6.88 6.97 7.00 7.66 7.11 7.22 7.44 7.30 7.23 7.64 6.95 6.86 6.75 7.03 7.02 7.74 7.08 6.97 7.03 7.62 7.39 7.17 6.98 7.00 7.29 6.93 7.73 6.97 6.84 7.35 6.76 7.29 7.00 7.55 7.71 7.29 7.12 7.54 7.67 6.85 7.24 6.80 7.64 6.81 6.82 7.26 7.25 6.76 7.40 6.97 7.42 7.02 7.43 6.95 7.10 7.03 7.24 7.37 6.83 7.52 7.58 7.50 7.02 7.56 6.77 6.90 7.14 7.29 7.37 7.70 7.40 7.73 7.68 6.75 7.01 6.99 7.16 7.18 6.80 7.50 7.29 7.44 7.12 6.86 7.57 6.91 7.55 7.02 7.52 7.05 7.59 7.21 6.91 7.29 7.19 6.83 7.03 6.95 6.91 7.52 7.39 7.51 7.58 7.24 7.02 6.75 7.02 7.22 7.44 6.86 6.93 6.93 7.38 7.30 7.41 6.82 6.79 6.76 6.81 7.15 7.16 7.72 7.55 6.92 7.55 6.78 7.58 6.87 7.59 6.84 7.55 6.99 7.46 6.99 7.08 6.94 7.66 7.64 7.53 7.25 6.95 7.67 -9999 -9999 -9999 -9999 -9999 -9999 -9999 -9999 -9999 -9999 -9999 -9999 -9999 -9999 -9999 -9999 -9999 -9999 -9999 -9999 -9999 -9999 -9999 -9999 -9999 -9999 -9999 -9999 -9999 -9999 -9999 -9999 -9999 -9999 -9999 -9999 -9999
7.28 7.25 7.19 6.81 7.51 7.72 7.16 6.95 7.04 7.37 6.99 6.88 6.95 7.42 7.19 7.36 6.86 7.27 6.87 7.61 7.65 7.17 7.51 7.10 6.79 6.98 7.07 7.14 7.61 7.09 6.80 7.68 7.03 7.24 6.87 7.17 7.58 7.17 7.32 7.31 6.79 7.19 7.14 7.21 7.06 7.34 7.28 7.73 7.54 7.18 7.32 7.48 7.02 7.43 6.87 7.20 7.23 7.51 6.94 7.42 7.49 7.74 7.10 7.43 7.01 7.20 7.38 7.73 7.11 7.35 7.10 7.31 7.33 7.36 7.14 7.16 7.39 7.32 7.20 7.29 7.30 7.68 6.89 7.56 6.77 7.42 7.27 7.21 6.98 6.98 7.28 6.98 6.94 7.08 7.17 7.59 7.53 7.15 6.98 7.20 6.96 6.76 7.27 7.33 7.70 6.88 7.03 7.23 6.84 7.14 6.92 7.09 7.34 7.32 7.67 6.95 7.45 7.54 7.55 7.24 7.24 6.89 7.47 7.65 7.64 6.76 7.12 7.09 6.77 7.73 6.78 6.83 7.65 7.06 7.24 7.30 7.22 7.05 7.28 7.04 7.31 7.07 6.81 7.62 7.35 7.19 7.38 7.25 7.33 7.16 7.21 7.37 6.82 7.66 7.20 7.02 7.08 7.47 6.99 7.15 7.39 7.63 7.23 7.65 6.89 7.41 7.33 7.54 7.32 7.05 6.85 7.16 6.96 7.55 7.24 7.19 7.47 6.93 -9999 -9999 -9999 -9999 -9999 -9999 -9999 -9999 -9999 -9999 -9999 -9999 -9999 -9999 -9999 -9999 -9999 -9999 -9999 -9999 -9999 -9999 -9999 -9999 -9999 -9999 -9999 -9999 -9999 -9999 -9999 -9999 -9999 -9999 -9999 -9999 -9999
6.99 7.11 7.16 7.68 7.10 7.65 6.94 6.96 7.00 7.69 6.90 6.90 7.09 6.78 7.41 6.87 7.63 7.31 7.50 7.74 6.97 7.67 6.86 6.88 7.33 7.27 6.79 6.93 7.25 7.21 7.49 7.50 6.78 6.96 6.98 6.86 7.05 7.70 7.31 7.59 7.57 7.74 7.17 6.96 7.62 7.63 7.43 7.06 7.63 7.12 7.13 7.20 7.74 6.91 7.18 7.44 7.49 7.72 7.69 6.76 6.97 7.20 6.85 7.35 7.63 7.46 6.82 7.44 7.68 7.09 7.09 7.62 7.75 6.90 7.00 7.14 7.15 7.44 7.56 7.00 7.03 6.92 7.11 7.38 6.91 7.03 7.59 7.20 6.85 6.95 7.01 6.91 7.42 7.62 6.97 7.38 7.72 7.32 7.59 7.52 7.57 7.01 7.59 7.05 7.69 6.95 7.70 7.58 7.48 7.30 7.06 6.92 7.25 7.36 7.63 6.75 6.76 6.98 7.72 7.57 7.46 7.51 7.36 7.74 6.87 7.47 7.55 7.74 6.79 6.77 6.89 7.49 7.66 7.07 6.78 7.06 7.02 7.53 7.66 7.63 6.76 7.73 7.40 7.48 7.10 7.11 7.58 7.68 7.71 7.68 7.02 7.46 7.44 7.58 7.33 7.04 6.79 7.56 7.21 7.09 7.41 7.25 7.33 7.18 6.80 7.16 6.76 7.74 7.12 7.69 7.17 6.79 6.85 6.83 7.67 7.14 7.36 7.50 -9999 -9999 -9999 -9999 -9999 -9999 -9999 -9999 -9999 -9999 -9999 -9999 -9999 -9999 -9999 -9999 -9999 -9999 -9999 -9999 -9999 -9999 -9999 -9999 -9999 -9999 -9999 -9999 -9999 -9999 -9999 -9999 -9999 -9999 -9999 -9999 -9999
7.68 7.21 6.86 6.86 7.24 6.92 7.33 7.34 7.02 6.96 6.96 7.05 7.58 7.72 7.39 7.17 7.46 6.92 7.26 6.93 7.11 7.63 7.46 7.38 7.08 7.31 6.81 7.18 6.93 7.41 7.73 6.79 7.37 7.51 7.18 7.56 7.37 7.40 7.51 7.46 7.29 7.03 7.24 7.18 7.59 7.27 6.97 7.63 7.19 7.74 7.56 6.92 6.93 7.51 7.51 7.61 6.77 7.53 7.06 7.13 6.84 7.07 7.16 6.76 6.94 7.33 7.59 7.29 7.40 7.21 7.10 7.52 7.18 7.08 6.89 7.17 7.04 6.91 6.84 7.41 7.68 7.46 7.17 7.64 7.74 7.29 7.14 7.66 6.76 7.43 7.56 6.99 7.24 6.83 7.04 7.49 6.78 7.05 7.11 7.46 7.14 6.97 6.94 7.57 7.24 7.28 7.00 7.53 7.24 7.12 7.54 7.44 7.17 7.07 6.77 7.65 6.87 7.31 7.66 7.72 7.04 6.90 7.06 7.23 7.56 6.92 7.17 7.40 7.29 7.29 7.68 7.24 6.76 6.93 6.97 7.60 6.89 7.01 7.03 7.37 7.03 7.68 7.72 6.92 7.04 6.96 7.62 7.44 6.98 7.40 7.64 6.84 6.97 6.78 7.05 6.96 7.33 6.77 6.75 7.59 7.15 7.29 7.71 7.43 6.78 7.44 7.67 7.40 7.71 7.02 7.45 7.40 7.05 7.12 6.89 7.74 7.45 6.90 -9999 -9999 -9999 -9999 -9999 -9999 -9999 -9999 -9999 -9999 -9999 -9999 -9999 -9999 -9999 -9999 -9999 -9999 -9999 -9999 -9999 -9999 -9999 -9999 -9999 -9999 -9999 -9999 -9999 -9999 -9999 -9999 -9999 -9999 -9999 -9999 -9999
6.92 7.07 7.52 7.36 7.30 6.81 7.09 7.38 6.96 6.88 7.65 7.55 6.86 7.60 7.55 7.11 6.93 7.65 7.40 7.24 7.06 7.00 6.94 6.90 7.69 7.55 6.95 7.32 7.42 7.20 7.03 7.43 7.08 7.29 7.19 7.17 7.49 7.53 7.70 6.86 7.48 7.29 6.84 7.16 7.60 7.58 7.56 6.80 7.31 7.62 6.85 7.25 6.88 7.52 7.60 7.74 7.25 6.98 7.00 6.82 7.33 7.67 7.37 6.83 6.86 7.61 6.78 7.16 7.73 7.46 7.25 7.14 7.74 6.92 7.20 7.17 7.25 7.09 6.89 7.64 7.55 7.46 7.63 7.55 7.46 7.06 7.08 7.14 6.89 7.70 6.99 7.20 7.16 7.18 7.33 6.83 7.07 7.18 7.01 7.00 7.38 6.96 7.60 7.45 7.53 7.24 7.39 6.75 7.10 7.43 7.68 7.56 7.08 7.31 6.85 7.64 6.88 7.63 6.78 7.08 7.39 7.38 7.28 7.25 7.48 7.00 6.89 7.38 7.44 7.50 7.48 6.84 7.71 7.67 7.71 7.51 7.08 6.84 7.17 7.70 7.46 7.27 7.05 7.75 7.50 6.88 7.74 7.71 7.45 7.61 6.94 7.41 7.17 7.52 7.62 7.42 7.29 7.38 6.80 6.97 7.08 7.03 7.27 7.14 7.49 6.82 6.83 7.75 6.99 6.94 6.96 7.61 6.78 7.66 7.03 7.06 6.82 6.80 7.14 -9999 -9999 -9999 -9999 -9999 -9999 -9999 -9999 -9999 -9999 -9999 -9999 -9999 -9999 -9999 -9999 -9999 -9999 -9999 -9999 -9999 -9999 -9999 -9999 -9999 -9999 -9999 -9999 -9999 -9999 -9999 -9999 -9999 -9999 -9999 -9999
7.35 6.97 7.44 6.81 7.32 7.55 7.45 7.50 6.83 6.97 7.56 7.72 7.10 7.03 7.60 6.87 6.82 6.90 7.45 7.41 6.82 7.29 7.47 7.46 7.06 7.37 7.22 7.61 7.64 7.58 6.81 6.78 6.92 7.18 7.15 7.43 7.30 6.96 7.29 7.10 7.36 7.04 7.66 6.75 6.89 7.62 7.47 6.95 7.43 7.50 7.62 7.16 7.32 7.73 7.49 7.32 7.72 7.04 7.27 7.42 7.45 7.33 6.93 7.05 6.76 7.56 7.65 6.87 7.62 6.88 7.68 7.07 7.32 6.93 6.89 6.83 7.15 7.03 7.22 7.53 7.57 7.07 7.28 6.86 7.32 7.03 7.40 7.13 6.95 7.12 6.82 6.84 7.39 7.03 7.70 7.19 7.42 7.00 6.85 7.13 6.90 6.90 7.26 7.19 7.23 7.36 7.58 7.71 7.64 6.90 7.74 7.03 7.42 7.16 7.11 7.15 7.01 7.73 7.73 7.33 7.42 7.27 6.94 7.04 7.55 6.85 6.76 7.50 7.15 7.31 7.15 7.63 7.50 7.59 7.29 7.70 6.86 7.71 7.72 7.00 7.06 7.19 7.43 6.91 7.50 6.98 7.55 7.70 7.01 7.25 6.89 6.86 7.06 6.98 7.43 6.84 6.88 7.48 6.91 6.92 7.53 7.47 6.84 7.31 7.37 7.11 7.53 7.56 7.02 7.08 7.64 7.56 6.97 7.57 7.30 7.01 7.75 7.29 7.59 -9999 -9999 -9999 -9999 -9999 -9999 -9999 -9999 -9999 -9999 -9999 -9999 -9999 -9999 -9999 -9999 -9999 -9999 -9999 -9999 -9999 -9999 -9999 -9999 -9999 -9999 -9999 -9999 -9999 -9999 -9999 -9999 -9999 -9999 -9999 -9999
7.49 6.86 7.03 7.50 7.22 7.27 7.09 6.96 7.48 7.28 7.32 7.60 6.90 7.56 7.57 7.17 7.44 7.09 6.92 7.41 7.48 7.60 7.54 7.18 7.16 7.17 6.89 7.71 7.61 7.21 7.59 7.05 7.17 7.73 6.80 6.86 7.05 7.15 6.79 7.11 7.55 7.24 7.00 7.29 6.79 7.17 7.44 7.66 6.92 7.55 7.50 7.44 7.62 7.36 7.23 7.28 7.35 7.03 7.53 7.62 7.33 7.28 7.52 7.61 7.04 7.46 7.15 7.26 7.53 7.59 7.12 7.73 7.09 7.08 6.94 6.84 7.09 6.80 7.11 7.23 7.04 6.86 6.90 7.22 7.48 7.57 6.86 7.06 7.29 6.81 6.87 6.95 6.94 7.33 6.90 7.03 7.33 7.72 6.77 7.00 6.76 6.90 6.86 7.24 7.45 6.84 6.90 6.80 7.02 7.25 7.63 7.70 7.38 7.56 6.91 6.90 7.57 7.17 7.14 6.79 7.60 6.99 6.94 6.88 7.53 6.84 7.17 7.22 7.22 6.79 7.61 7.07 6.85 7.69 6.87 6.89 7.66 7.10 7.23 7.39 7.38 7.28 7.00 7.16 7.41 7.07 7.10 6.91 6.95 6.77 6.79 7.04 7.42 7.56 7.71 7.03 7.21 6.79 6.90 7.18 6.89 7.48 7.20 7.08 6.94 7.18 7.53 6.87 6.83 7.14 7.23 7.65 7.03 7.68 7.48 7.23 7.62 7.34 7.05 -9999 -9999 -9999 -9999 -9999 -9999 -9999 -9999 -9999 -9999 -9999 -9999 -9999 -9999 -9999 -9999 -9999 -9999 -9999 -9999 -9999 -9999 -9999 -9999 -9999 -9999 -9999 -9999 -9999 -9999 -9999 -9999 -9999 -9999 -9999 -9999
6.91 7.31 7.28 6.75 7.26 7.54 7.63 7.61 7.06 7.46 7.72 7.61 6.78 7.04 6.95 6.87 7.12 7.33 7.36 7.01 7.32 7.38 6.89 6.81 7.59 7.71 7.29 7.44 6.92 7.60 6.79 6.89 7.29 7.33 7.37 6.89 6.90 7.06 7.27 7.42 7.64 6.82 7.52 6.77 7.63 7.65 7.70 6.83 6.77 7.69 7.46 6.76 6.97 7.17 7.63 6.95 7.32 7.34 7.67 7.27 7.42 6.91 6.78 7.73 7.70 7.62 6.89 7.52 7.02 7.41 7.39 7.17 7.74 7.00 7.04 7.27 7.40 7.54 6.86 7.44 6.95 7.58 7.14 7.36 7.05 6.92 6.90 7.12 6.89 7.23 6.76 7.58 7.45 7.40 7.34 7.36 7.06 7.75 6.97 7.35 7.22 7.60 6.84 7.06 6.91 6.83 7.57 7.23 6.76 6.92 7.09 6.89 7.51 6.84 6.76 7.46 7.44 6.83 7.12 7.70 7.18 7.06 6.80 7.16 6.81 7.40 7.68 6.99 7.04 7.01 7.39 7.44 7.43 7.27 7.33 7.24 6.93 7.05 7.35 7.73 7.02 7.72 7.68 7.47 7.50 7.44 7.38 6.93 7.69 7.21 7.69 6.78 7.57 6.87 6.86 7.13 7.24 6.95 6.81 7.71 7.64 7.52 6.98 7.68 7.14 7.60 7.15 7.29 6.98 6.86 7.64 6.93 6.98 7.16 6.80 7.48 7.04 6.92 7.35 -9999 -9999 -9999 -9999 -9999 -9999 -9999 -9999 -9999 -9999 -9999 -9999 -9999 -9999 -9999 -9999 -9999 -9999 -9999 -9999 -9999 -9999 -9999 -9999 -9999 -9999 -9999 -9999 -9999 -9999 -9999 -9999 -9999 -9999 -9999 -9999
7.55 7.60 7.22 7.54 6.85 7.70 7.68 6.93 6.91 7.01 7.04 7.40 7.15 7.56 7.12 7.42 6.97 7.42 6.92 7.28 7.28 7.42 7.25 7.04 7.07 6.77 7.45 6.82 6.88 7.19 7.62 7.30 6.84 7.18 6.90 7.24 6.78 7.64 7.35 7.44 7.38 7.14 7.07 7.39 6.77 7.22 6.91 7.06 7.31 7.13 7.02 7.42 7.09 7.12 6.87 7.40 7.26 6.96 7.16 6.82 7.58 7.55 7.04 7.28 6.80 7.56 7.16 7.06 7.04 7.20 7.63 7.58 7.14 6.77 7.08 7.46 6.98 7.48 7.08 7.65 7.55 7.73 6.92 6.98 7.32 6.98 7.43 7.61 7.63 6.86 6.96 7.23 7.31 7.03 7.49 6.82 7.15 6.95 6.96 7.11 6.83 6.89 7.08 7.17 7.18 7.42 7.53 7.73 6.94 7.27 6.83 6.94 7.47 7.34 7.31 6.94 7.11 7.06 7.72 6.95 7.23 7.17 7.63 7.74 6.79 7.60 7.01 6.85 7.45 6.82 7.40 7.37 6.77 6.82 7.55 7.69 7.37 7.45 7.51 7.37 7.12 7.60 7.06 7.47 7.74 6.77 6.88 7.28 7.42 7.65 7.14 7.14 6.85 7.68 7.61 7.30 7.56 7.29 6.77 7.15 7.31 7.31 7.01 7.48 7.55 7.29 7.24 7.66 6.96 6.95 7.21 7.22 7.42 6.94 6.81 7.10 6.77 6.79 7.24 -9999 -9999 -9999 -9999 -9999 -9999 -9999 -9999 -9999 -9999 -9999 -9999 -9999 -9999 -9999 -9999 -9999 -9999 -9999 -9999 -9999 -9999 -9999 -9999 -9999 -9999 -9999 -9999 -9999 -9999 -9999 -9999 -9999 -9999 -9999 -9999
6.96 6.90 7.59 6.85 7.58 7.33 6.89 7.73 6.79 7.37 7.12 7.40 6.82 6.83 6.93 7.00 7.29 7.00 7.59 7.58 6.88 7.64 7.28 6.95 7.47 7.39 7.13 7.42 7.64 6.75 7.41 6.78 6.91 7.23 7.45 7.50 7.20 7.01 7.74 7.07 7.49 7.68 7.55 7.27 7.41 7.04 7.19 6.84 7.26 7.03 7.16 7.30 7.41 7.10 6.81 7.10 7.04 7.02 7.37 7.12 7.40 7.63 7.01 7.11 7.40 6.85 7.65 7.61 7.69 7.30 7.41 7.39 6.80 6.86 7.13 7.42 7.05 7.49 7.34 7.15 7.06 7.21 7.03 6.89 7.00 7.67 7.60 7.51 7.37 6.96 6.99 7.16 7.57 7.13 7.30 7.71 6.87 7.58 7.39 6.89 7.14 7.47 6.76 7.36 7.17 7.09 7.74 6.96 7.23 7.23 6.91 6.96 7.00 7.03 7.56 7.08 7.68 7.08 7.74 7.72 7.35 7.27 7.06 7.00 7.05 7.40 6.94 6.79 7.64 7.14 7.32 7.69 7.53 7.47 7.46 6.79 6.93 7.66 7.00 7.72 7.12 6.77 6.98 6.76 7.60 7.28 6.76 6.78 7.18 6.98 7.63 7.09 7.60 6.81 7.18 7.39 7.73 7.49 6.79 7.73 7.63 6.87 7.47 7.63 7.61 7.47 7.67 7.27 7.42 7.37 7.15 7.03 7.71 7.04 6.93 7.48 7.48 7.22 7.62 -9999 -9999 -9999 -9999 -9999 -9999 -9999 -9999 -9999 -9999 -9999 -9999 -9999 -9999 -9999 -9999 -9999 -9999 -9999 -9999 -9999 -9999 -9999 -9999 -9999 -9999 -9999 -9999 -9999 -9999 -9999 -9999 -9999 -9999 -9999 -9999
7.42 7.67 7.49 6.79 7.47 7.68 7.59 7.30 7.31 7.70 6.94 7.55 7.58 7.46 7.01 6.89 7.47 7.67 6.92 6.97 6.84 7.12 7.19 7.57 7.42 7.52 7.64 7.69 7.19 7.14 7.60 7.64 7.08 7.40 7.25 7.55 7.70 7.15 7.36 7.31 7.67 7.38 7.47 7.71 7.69 6.76 7.39 7.13 7.37 7.66 7.14 7.64 6.91 7.14 7.29 6.78 7.43 6.97 7.73 6.90 7.09 7.24 7.73 7.50 7.64 7.06 6.76 7.73 7.18 7.48 7.40 7.55 7.23 6.92 7.00 7.74 6.90 6.86 7.61 7.23 7.27 7.22 6.86 6.80 6.76 7.65 7.72 7.61 7.43 7.59 7.51 7.01 6.89 7.43 6.96 7.65 7.44 7.26 7.70 6.98 6.77 7.73 7.16 7.20 6.85 7.59 7.10 7.35 7.38 7.69 7.20 6.94 6.84 7.51 7.47 6.86 6.84 7.19 7.37 7.25 7.07 6.85 7.25 6.96 6.81 7.69 7.26 7.32 7.31 7.04 6.92 6.85 7.63 7.40 6.98 7.73 7.48 7.54 7.17 7.18 6.87 7.20 6.84 7.52 7.18 7.28 7.17 7.51 7.31 7.64 7.07 7.73 6.94 6.89 7.49 6.88 6.94 7.12 6.82 6.83 7.33 7.55 6.92 7.39 7.53 7.55 7.26 7.06 7.64 7.47 7.47 7.27 6.81 7.49 7.20 7.54 7.19 6.88 7.52 7.44 -9999 -9999 -9999 -9999 -9999 -9999 -9999 -9999 -9999 -9999 -9999 -9999 -9999 -9999 -9999 -9999 -9999 -9999 -9999 -9999 -9999 -9999 -9999 -9999 -9999 -9999 -9999 -9999 -9999 -9999 -9999 -9999 -9999 -9999 -9999
7.71 7.57 7.04 7.38 7.68 7.64 7.36 6.84 7.00 7.74 7.21 6.81 7.62 7.51 6.90 6.78 7.62 7.42 7.11 7.37 6.99 6.83 7.62 6.92 6.91 7.09 6.77 6.96 7.61 7.08 7.18 7.43 7.42 7.60 7.11 6.97 6.76 6.99 7.70 7.54 7.67 7.14 7.51 7.54 7.68 7.37 7.44 7.24 6.76 7.72 6.80 6.98 7.64 6.91 7.42 7.25 6.81 7.13 7.17 7.01 7.42 6.80 7.65 6.83 6.98 7.31 7.22 7.60 7.48 7.32 7.12 6.79 7.06 7.40 7.39 7.26 7.43 7.42 7.42 7.04 7.10 7.57 7.57 6.97 7.58 7.44 7.18 7.05 7.13 7.04 6.99 7.59 6.80 7.27 6.77 7.45 7.41 7.09 7.48 7.04 7.15 6.78 7.66 7.50 7.06 7.45 7.32 7.28 6.90 7.13 7.36 7.10 7.43 7.00 6.83 6.96 7.04 6.79 7.64 7.47 7.66 7.75 7.30 7.29 6.86 7.25 7.71 7.54 7.10 7.39 7.60 7.56 7.04 6.97 7.65 7.22 7.47 6.82 7.38 7.01 7.36 7.55 7.00 7.43 7.41 7.41 7.06 7.43 6.81 7.02 7.07 7.60 7.19 7.52 7.13 7.16 7.71 7.33 7.33 6.84 7.42 7.13 7.36 7.33 7.29 7.06 7.63 7.25 7.13 7.66 7.61 7.09 7.10 6.92 7.51 7.01 7.65 7.56 6.81 7.46 -9999 -9999 -9999 -9999 -9999 -9999 -9999 -9999 -9999 -9999 -9999 -9999 -9999 -9999 -9999 -9999 -9999 -9999 -9999 -9999 -9999 -9999 -9999 -9999 -9999 -9999 -9999 -9999 -9999 -9999 -9999 -9999 -9999 -9999 -9999
7.18 7.36 7.00 7.30 7.71 6.91 6.97 7.58 7.45 7.40 6.82 7.26 7.09 6.88 7.12 7.40 7.16 7.18 7.02 6.89 7.60 7.16 7.07 7.08 7.63 7.38 7.55 7.67 7.43 7.44 6.84 7.43 7.13 7.18 7.75 7.19 6.80 7.39 7.08 7.71 6.76 7.00 7.51 6.75 7.30 7.26 7.37 7.04 7.65 6.82 7.42 7.03 7.11 7.53 7.62 6.77 7.21 7.37 7.10 7.28 6.91 7.24 7.75 6.83 7.58 7.47 7.67 7.22 7.74 7.65 7.43 7.28 7.06 7.18 7.53 7.23 7.19 7.32 7.56 7.09 6.79 6.97 7.70 7.71 6.89 7.51 7.02 7.55 7.51 7.19 7.45 7.09 7.12 7.09 7.69 7.55 7.55 7.23 7.63 7.01 7.07 7.58 7.53 7.52 7.10 7.68 7.54 7.74 7.47 6.92 7.07 6.85 7.25 7.47 7.26 7.12 7.07 7.56 6.78 6.94 7.38 7.70 7.65 7.16 7.01 7.68 7.28 6.96 7.47 6.90 6.82 7.75 7.25 7.74 7.67 7.57 7.30 6.97 7.07 7.19 7.49 6.92 7.47 7.57 7.59 6.91 7.55 6.78 7.54 7.49 7.23 6.97 7.40 7.18 7.05 6.81 7.57 6.98 7.42 6.88 7.05 7.10 7.18 7.49 7.72 7.00 6.91 7.73 7.60 7.30 6.85 6.87 7.53 7.49 6.98 7.69 7.28 7.62 7.46 6.90 -9999 -9999 -9999 -9999 -9999 -9999 -9999 -9999 -9999 -9999 -9999 -9999 -9999 -9999 -9999 -9999 -9999 -9999 -9999 -9999 -9999 -9999 -9999 -9999 -9999 -9999 -9999 -9999 -9999 -9999 -9999 -9999 -9999 -9999 -9999
7.53 7.00 7.14 7.00 7.75 7.41 7.25 6.93 7.26 7.29 7.70 7.20 7.02 7.16 7.28 7.24 7.67 6.90 7.28 7.66 6.94 7.42 7.21 7.71 6.88 7.37 7.52 7.17 7.39 6.78 6.78 6.78 6.76 7.73 7.18 7.39 7.66 7.43 6.96 7.08 7.06 6.81 7.14 7.18 7.11 7.59 6.95 7.34 7.40 6.98 7.72 7.22 7.23 7.09 7.44 7.26 7.05 7.22 6.87 7.06 6.91 6.87 7.70 7.60 6.88 7.31 7.46 7.29 7.24 7.28 7.26 7.26 7.03 7.44 6.94 7.35 6.98 7.06 7.44 7.38 7.73 6.94 7.34 6.77 7.49 6.76 7.04 7.45 7.52 7.51 7.01 7.74 6.90 7.18 6.80 7.64 7.68 7.36 7.38 7.44 6.90 7.61 7.43 7.36 7.34 7.53 7.60 7.35 7.41 7.63 6.85 7.60 7.17 7.72 7.55 7.12 7.58 7.57 7.41 6.90 6.96 6.76 7.37 7.03 7.55 7.66 7.12 7.48 7.66 6.90 6.96 7.53 6.98 7.30 7.02 7.73 7.45 7.41 6.78 7.18 7.36 7.48 6.83 7.23 7.39 6.99 7.58 7.68 7.31 7.30 7.27 7.35 7.13 7.37 7.21 7.05 7.61 7.36 7.09 6.92 6.80 7.38 7.72 6.91 7.46 7.26 7.34 7.59 7.26 7.27 7.70 6.76 7.65 6.94 7.37 7.20 7.68 7.26 6.95 7.15 -9999 -9999 -9999 -9999 -9999 -9999 -9999 -9999 -9999 -9999 -9999 -9999 -9999 -9999 -9999 -9999 -9999 -9999 -9999 -9999 -9999 -9999 -9999 -9999 -9999 -9999 -9999 -9999 -9999 -9999 -9999 -9999 -9999 -9999 -9999
7.40 7.16 6.92 7.04 7.32 6.87 7.73 7.20 7.04 7.38 7.09 7.19 7.02 7.13 6.83 6.95 6.91 7.48 7.05 7.34 7.52 7.05 7.33 7.11 7.35 7.72 7.32 6.83 7.06 7.28 7.07 7.53 7.68 7.01 7.42 7.69 7.04 7.62 7.63 7.53 7.51 7.52 7.32 7.72 7.21 7.64 6.96 7.11 7.02 7.55 7.36 7.50 7.61 7.64 7.19 6.81 7.24 7.66 7.33 7.69 7.50 7.27 6.98 6.93 7.27 7.24 7.33 6.79 7.51 7.13 7.57 6.75 7.22 7.04 7.37 7.39 6.83 6.84 7.50 7.73 7.25 7.59 7.48 6.84 6.82 6.96 7.14 7.60 7.23 7.01 7.14 7.36 7.66 6.89 6.85 6.87 7.33 7.47 7.49 6.85 7.31 7.15 6.95 7.60 6.93 7.59 7.34 6.77 7.29 7.21 7.19 7.44 7.38 6.88 7.23 6.97 7.15 7.55 7.12 7.33 7.49 6.84 7.11 7.07 7.37 7.64 7.65 7.15 7.44 7.01 7.49 7.11 7.51 6.97 7.41 7.23 7.27 7.52 7.01 7.15 6.80 6.86 7.58 7.26 7.59 6.89 7.72 7.34 7.23 7.40 6.89 6.83 7.07 7.51 7.29 6.77 7.70 7.63 7.23 7.44 6.78 7.47 7.47 7.09 7.19 7.54 7.46 7.50 7.51 7.13 7.28 6.85 7.70 7.43 7.10 7.50 7.34 7.56 7.16 6.84 -9999 -9999 -9999 -9999 -9999 -9999 -9999 -9999 -9999 -9999 -9999 -9999 -9999 -9999 -9999 -9999 -9999 -9999 -9999 -9999 -9999 -9999 -9999 -9999 -9999 -9999 -9999 -9999 -9999 -9999 -9999 -9999 -9999 -9999 -9999
7.08 7.59 6.92 7.70 7.17 7.74 7.69 7.63 7.34 6.87 7.75 6.90 6.76 7.36 7.32 7.25 6.85 6.90 7.16 7.03 7.37 7.38 6.99 6.83 7.18 6.94 7.12 7.40 7.66 7.28 7.58 7.23 7.25 7.26 6.95 7.18 7.17 7.61 7.00 7.63 6.80 7.44 7.29 7.22 7.49 7.17 7.04 7.59 6.91 7.69 7.31 7.29 7.13 7.35 7.21 6.95 7.70 7.45 6.96 7.49 7.52 6.90 7.49 7.49 7.18 7.73 7.68 7.19 6.81 7.50 7.42 7.58 6.92 7.60 7.53 7.12 7.16 6.97 7.20 7.43 7.52 7.20 7.03 6.98 7.53 6.98 6.99 7.37 7.59 7.48 7.26 6.99 6.84 7.29 7.33 7.58 6.98 7.23 7.06 7.18 7.03 7.18 7.04 7.65 7.57 7.72 7.35 7.38 7.07 7.51 6.87 7.35 6.78 7.28 7.11 6.75 6.98 7.48 7.62 7.35 7.33 6.88 7.41 7.24 6.79 7.59 6.83 7.23 7.33 6.84 7.44 7.35 7.42 7.47 7.17 7.11 7.15 6.98 7.31 7.32 7.42 7.71 7.57 6.94 6.96 7.67 7.37 7.38 7.47 7.69 7.22 7.68 6.88 6.92 6.78 7.07 6.88 6.94 6.87 7.46 6.99 7.66 7.44 7.40 6.90 7.32 7.09 7.60 7.08 6.86 7.59 7.72 7.23 7.43 7.50 7.44 6.91 7.24 6.95 7.65 -9999 -9999 -9999 -9999 -9999 -9999 -9999 -9999 -9999 -9999 -9999 -9999 -9999 -9999 -9999 -9999 -9999 -9999 -9999 -9999 -9999 -9999 -9999 -9999 -9999 -9999 -9999 -9999 -9999 -9999 -9999 -9999 -9999 -9999 -9999
7.46 6.94 7.69 7.24 6.80 6.77 7.01 6.86 7.35 7.64 6.94 6.86 7.67 7.26 6.92 6.79 7.18 7.27 7.45 7.44 7.39 7.29 7.33 7.37 7.53 7.01 6.81 7.25 7.40 7.54 7.69 7.25 6.76 7.07 7.66 7.01 7.74 6.89 7.16 7.08 7.05 7.01 7.62 7.00 7.74 7.14 7.16 7.53 7.31 7.41 7.75 6.75 6.84 7.15 7.63 7.49 7.22 7.66 7.12 7.06 7.66 6.92 7.16 7.35 7.30 7.19 7.66 7.24 7.45 6.91 6.92 7.18 7.32 7.45 6.81 7.21 7.00 7.62 7.14 6.91 6.90 7.72 7.11 6.89 7.05 7.37 7.26 7.61 6.85 6.92 7.55 7.20 6.93 7.33 7.53 6.91 7.37 7.66 6.96 7.13 7.49 6.80 7.41 7.37 6.82 7.22 6.90 7.43 6.88 7.24 7.14 7.04 7.22 7.25 7.08 7.75 7.58 7.37 7.73 7.63 7.17 6.87 7.53 7.31 7.19 7.46 7.75 6.90 7.24 7.18 7.75 7.02 6.82 7.44 7.22 6.82 7.09 6.77 6.95 6.86 6.94 7.60 7.66 7.27 7.59 6.79 7.61 7.11 7.45 6.82 6.79 7.27 7.61 6.80 7.36 7.59 7.35 6.77 7.63 6.82 7.45 7.59 7.71 6.92 7.02 7.02 7.47 6.96 7.15 7.74 6.86 7.13 7.19 7.30 7.35 7.69 6.95 7.52 6.89 7.25 -9999 -9999 -9999 -9999 -9999 -9999 -9999 -9999 -9999 -9999 -9999 -9999 -9999 -9999 -9999 -9999 -9999 -9999 -9999 -9999 -9999 -9999 -9999 -9999 -9999 -9999 -9999 -9999 -9999 -9999 -9999 -9999 -9999 -9999 -9999
7.48 6.98 7.58 7.13 6.97 6.84 7.40 6.75 7.55 7.39 7.22 7.17 6.87 7.24 7.35 7.43 7.72 6.92 7.19 7.34 7.75 7.60 7.12 7.33 6.98 7.17 6.90 7.38 6.89 7.20 7.47 7.04 6.89 6.78 7.13 7.25 7.68 7.18 7.03 7.74 7.15 7.54 7.16 7.51 6.83 7.61 7.66 7.27 7.45 7.20 6.78 6.76 7.64 7.61 7.39 6.90 7.46 7.37 7.51 7.72 7.21 7.11 7.72 7.18 6.91 7.03 7.52 7.32 6.98 6.90 7.31 6.89 7.23 7.20 7.43 7.58 7.29 7.48 7.69 7.61 7.48 6.93 6.77 7.27 7.51 6.78 6.82 7.48 7.54 7.30 7.25 7.71 7.30 7.70 7.37 7.54 7.70 6.81 7.48 6.89 7.42 7.39 7.23 6.98 7.74 7.15 7.08 6.81 7.58 7.15 7.19 7.07 6.94 7.55 7.64 7.01 7.44 7.22 7.68 7.67 6.98 7.44 6.98 7.34 7.25 7.24 6.78 6.85 6.94 7.34 7.07 6.89 7.64 7.58 7.24 7.34 7.22 6.86 7.05 7.73 7.07 7.68 7.10 7.10 7.04 6.97 7.05 7.27 6.87 7.73 6.94 6.87 6.85 7.61 6.81 7.45 7.00 6.81 7.57 7.65 6.89 6.87 7.31 7.37 6.96 7.09 7.39 7.17 7.38 6.82 7.66 7.16 7.68 7.48 7.62 7.53 7.37 7.18 6.90 7.59 7.55 -9999 -9999 -9999 -9999 -9999 -9999 -9999 -9999 -9999 -9999 -9999 -9999 -9999 -9999 -9999 -9999 -9999 -9999 -9999 -9999 -9999 -9999 -9999 -9999 -9999 -9999 -9999 -9999 -9999 -9999 -9999 -9999 -9999 -9999
7.09 7.01 7.17 7.58 7.36 7.05 7.22 7.27 6.98 7.60 7.70 7.48 7.72 6.91 7.48 7.75 7.51 7.61 7.21 7.56 7.65 7.67 7.50 7.33 6.87 7.00 6.92 6.79 6.83 7.69 7.39 7.28 6.85 7.27 6.77 6.86 6.84 7.15 7.13 7.56 6.87 6.78 6.79 7.14 7.43 6.83 7.59 6.86 6.82 7.64 7.33 7.58 7.33 7.72 6.88 7.32 6.79 6.98 7.34 7.63 7.49 7.60 7.11 7.62 7.13 7.67 7.51 7.47 7.60 7.14 7.43 6.87 7.41 7.72 7.59 7.49 7.64 7.27 7.72 6.96 6.75 7.30 7.02 6.88 6.82 6.78 6.87 7.32 7.27 7.33 7.17 7.16 7.52 7.60 6.78 6.91 7.40 6.94 6.80 7.62 7.32 6.85 6.83 6.86 7.09 7.48 7.71 7.24 7.38 7.53 7.54 7.03 7.74 7.40 7.09 7.70 7.56 7.07 7.22 7.72 7.43 7.47 7.36 6.99 7.50 7.39 7.36 7.23 7.57 6.75 7.53 7.45 7.23 6.77 6.87 6.86 7.75 7.23 7.02 7.49 7.52 7.28 7.37 7.72 7.19 6.96 7.53 6.79 7.13 7.17 7.64 7.47 7.32 6.83 7.22 7.64 6.92 7.22 7.20 7.02 7.34 7.32 6.82 7.11 6.81 7.20 7.05 7.09 7.07 7.57 7.36 7.62 7.24 7.43 7.55 7.46 7.50 6.90 7.49 7.65 7.31 -9999 -9999 -9999 -9999 -9999 -9999 -9999 -9999 -9999 -9999 -9999 -9999 -9999 -9999 -9999 -9999 -9999 -9999 -9999 -9999 -9999 -9999 -9999 -9999 -9999 -9999 -9999 -9999 -9999 -9999 -9999 -9999 -9999 -9999
7.08 7.20 7.52 7.42 7.49 6.92 6.91 6.82 7.01 7.47 7.53 6.98 7.52 7.69 7.51 7.05 6.80 6.81 7.49 6.87 7.10 7.06 6.80 7.37 7.40 7.40 7.30 7.56 6.99 7.17 7.11 7.04 7.07 7.19 7.63 6.75 7.33 7.56 7.09 7.08 7.20 7.62 6.85 7.04 7.52 7.65 7.36 6.85 7.46 7.08 7.11 7.04 7.15 6.82 7.06 7.64 7.61 7.20 7.23 6.87 7.44 7.06 7.55 7.71 7.15 7.65 7.39 7.17 7.74 7.63 7.62 7.24 7.35 7.48 7.68 7.33 7.37 7.22 6.84 7.75 7.64 7.35 7.58 7.24 7.61 6.75 7.17 7.51 7.47 7.64 6.92 7.72 7.25 7.12 7.34 7.07 7.10 7.39 7.26 6.81 7.39 7.38 6.91 7.36 7.63 6.90 7.28 7.11 7.15 7.05 6.78 7.21 6.81 7.41 7.34 6.77 6.91 6.83 7.33 7.07 7.71 6.95 6.85 7.01 7.37 7.27 6.85 7.54 7.54 7.64 6.77 7.10 7.43 6.89 6.84 6.95 7.09 7.57 7.55 7.26 6.76 7.46 7.26 6.92 7.02 7.50 7.39 6.85 7.39 7.13 7.38 7.16 6.80 7.46 7.02 6.76 7.05 7.75 6.87 6.84 6.81 7.41 6.86 6.85 7.05 7.20 7.67 7.61 7.21 7.29 7.74 7.67 7.71 7.41 7.28 7.26 7.42 7.59 6.81 6.96 6.90 -9999 -9999 -9999 -9999 -9999 -9999 -9999 -9999 -9999 -9999 -9999 -9999 -9999 -9999 -9999 -9999 -9999 -9999 -9999 -9999 -9999 -9999 -9999 -9999 -9999 -9999 -9999 -9999 -9999 -9999 -9999 -9999 -9999 -9999
7.00 7.24 6.93 7.33 7.47 7.52 6.96 7.09 7.42 7.58 7.62 7.53 7.09 6.98 7.74 7.27 7.48 6.87 7.36 7.44 7.29 7.65 6.77 7.68 6.76 7.47 6.96 7.49 7.64 6.82 7.34 7.00 7.49 6.89 7.51 7.41 6.83 7.11 6.97 6.91 7.10 7.22 7.69 7.13 7.35 7.21 7.47 6.88 7.28 7.36 7.68 7.21 7.11 7.53 7.24 7.33 7.26 6.82 7.03 7.56 7.57 6.81 7.26 6.88 6.95 6.83 7.53 7.23 7.32 7.04 7.60 7.29 7.75 6.95 7.58 7.42 7.32 7.27 7.07 6.86 7.51 7.01 7.72 6.87 7.03 7.75 6.80 7.21 6.77 7.08 6.81 7.44 7.56 6.92 7.68 7.54 7.59 7.43 7.43 7.04 6.88 7.53 6.94 6.95 6.82 7.29 7.58 7.66 6.91 7.56 7.61 7.75 7.04 7.61 7.68 6.94 7.11 7.23 6.81 7.62 7.17 7.68 7.43 6.84 6.83 6.90 7.49 7.01 6.89 7.51 7.45 6.86 7.06 7.43 7.66 7.64 6.79 6.98 7.24 7.42 6.84 7.21 7.03 7.00 7.14 7.73 6.96 7.32 7.00 6.96 7.62 6.76 6.83 7.25 7.30 7.35 7.28 7.72 7.08 7.01 6.93 7.69 6.77 7.37 7.13 6.99 7.54 6.93 7.25 6.81 7.61 7.37 7.64 7.66 7.34 7.62 7.60 7.54 6.77 7.49 7.17 -9999 -9999 -9999 -9999 -9999 -9999 -9999 -9999 -9999 -9999 -9999 -9999 -9999 -9999 -9999 -9999 -9999 -9999 -9999 -9999 -9999 -9999 -9999 -9999 -9999 -9999 -9999 -9999 -9999 -9999 -9999 -9999 -9999 -9999
6.90 7.11 7.36 7.62 6.86 7.58 7.61 7.19 7.40 7.74 7.40 6.94 6.97 7.50 6.91 7.38 7.61 7.43 7.71 7.71 7.20 7.51 7.19 6.81 7.02 7.63 7.13 7.75 7.38 7.72 7.23 7.65 7.24 7.62 7.47 7.10 7.54 7.57 7.27 7.33 7.17 7.38 6.88 7.64 7.04 7.24 6.80 7.72 7.60 6.87 7.05 7.33 6.95 7.39 7.19 7.74 7.39 7.21 7.13 7.72 7.13 7.21 6.87 7.41 6.92 7.54 7.52 7.05 7.49 7.63 7.15 7.05 7.12 7.43 7.42 6.85 7.58 6.91 7.33 7.56 7.19 7.20 6.96 7.67 7.59 6.80 7.63 6.90 7.49 6.83 7.32 7.47 6.93 6.88 7.26 6.90 7.56 7.69 7.69 7.45 6.76 7.58 7.02 7.65 7.72 7.52 6.83 7.32 7.36 7.25 7.18 7.61 7.50 7.38 7.51 7.17 6.96 7.43 6.87 7.59 7.48 7.05 7.06 7.12 7.59 6.96 7.18 7.10 7.42 7.27 7.38 6.94 7.64 7.15 7.50 6.98 7.24 6.92 7.15 6.77 7.01 7.25 7.55 7.25 7.56 7.21 6.93 7.54 7.42 7.63 7.06 6.80 7.55 7.73 7.35 7.01 7.72 7.74 6.92 7.59 6.81 6.76 7.61 7.07 7.10 7.00 6.97 7.48 7.48 7.18 7.01 7.21 7.20 7.52 6.76 7.69 6.84 7.12 7.00 7.06 7.05 -9999 -9999 -9999 -9999 -9999 -9999 -9999 -9999 -9999 -9999 -9999 -9999 -9999 -9999 -9999 -9999 -9999 -9999 -9999 -9999 -9999 -9999 -9999 -9999 -9999 -9999 -9999 -9999 -9999 -9999 -9999 -9999 -9999 -9999
6.82 7.73 7.03 6.94 7.23 6.86 6.90 6.99 7.43 7.36 7.13 7.28 6.79 7.25 7.56 6.96 7.04 7.22 6.82 6.88 7.55 7.03 7.42 7.27 7.02 7.49 6.98 7.17 6.97 7.43 7.71 7.59 7.15 6.88 7.38 7.25 7.54 7.68 6.96 7.34 7.11 7.03 7.49 7.73 7.41 6.83 7.49 7.37 6.80 7.63 7.55 6.89 6.80 7.58 7.25 6.93 7.05 6.91 7.50 7.07 7.51 7.71 6.92 6.82 7.19 7.47 7.61 7.69 7.60 7.03 6.86 7.56 7.43 7.49 6.93 7.63 7.33 7.72 7.65 7.38 7.74 7.10 7.01 7.56 6.84 7.54 7.40 7.66 6.96 7.68 7.61 7.35 7.40 7.16 6.76 7.10 7.71 6.78 7.10 7.54 7.73 6.83 6.94 7.10 7.55 7.43 7.55 7.72 7.01 7.74 7.37 7.60 7.49 7.23 6.92 7.04 7.38 7.47 7.14 7.69 7.34 7.73 6.86 7.45 7.12 7.57 7.14 7.15 7.40 7.16 7.67 7.58 7.42 7.21 7.61 7.61 7.17 6.90 7.40 7.23 7.66 7.59 7.73 7.74 6.90 7.61 7.32 7.03 7.27 7.41 7.31 6.93 7.65 6.90 6.94 7.04 7.18 6.82 6.80 7.13 6.84 7.61 7.08 7.35 7.44 7.59 7.74 6.92 7.42 7.27 7.56 7.53 7.41 6.79 7.75 7.35 7.43 7.06 7.08 7.44 7.68 -9999 -9999 -9999 -9999 -9999 -9999 -9999 -9999 -9999 -9999 -9999 -9999 -9999 -9999 -9999 -9999 -9999 -9999 -9999 -9999 -9999 -9999 -9999 -9999 -9999 -9999 -9999 -9999 -9999 -9999 -9999 -9999 -9999 -9999
7.68 6.82 6.92 6.83 7.66 7.57 7.32 7.31 7.13 7.72 7.10 7.38 7.06 7.60 6.83 7.39 7.04 7.45 6.88 7.14 6.92 7.03 7.12 6.82 7.02 7.05 7.19 7.51 7.74 7.43 7.62 6.96 7.17 7.54 7.43 6.98 7.52 7.27 7.57 7.41 7.18 6.98 6.76 7.10 7.21 7.38 7.14 6.99 7.73 6.94 6.96 7.30 7.23 7.14 6.98 6.84 7.12 7.21 6.90 7.14 6.92 7.07 6.87 6.79 7.66 6.85 7.58 6.98 6.96 7.33 7.63 6.81 7.72 7.28 7.45 7.00 7.57 7.02 7.68 7.30 7.61 7.67 7.03 7.60 7.19 6.99 7.13 7.14 7.61 7.42 6.98 7.31 7.69 6.88 7.11 7.38 6.79 6.90 7.68 6.91 7.38 7.00 7.27 7.11 7.32 7.52 7.11 7.52 7.67 7.10 6.85 7.28 6.92 6.90 6.98 7.59 7.21 7.61 7.16 7.03 7.26 7.56 7.58 6.90 7.00 7.73 7.62 7.39 6.79 7.23 6.87 6.87 7.07 6.85 7.13 6.98 6.93 7.05 7.38 6.80 6.88 7.11 7.25 7.10 7.63 7.58 6.82 7.55 7.46 7.15 7.29 7.43 7.11 7.13 7.02 7.60 7.07 7.65 7.11 7.16 7.06 6.97 7.45 7.72 6.92 7.31 6.90 7.62 6.99 7.10 6.77 7.58 7.69 6.94 7.46 7.52 6.89 6.80 7.50 7.53 6.78 6.83 -9999 -9999 -9999 -9999 -9999 -9999 -9999 -9999 -9999 -9999 -9999 -9999 -9999 -9999 -9999 -9999 -9999 -9999 -9999 -9999 -9999 -9999 -9999 -9999 -9999 -9999 -9999 -9999 -9999 -9999 -9999 -9999 -9999
6.86 7.21 7.74 7.04 6.86 7.08 6.98 6.99 6.80 6.77 6.79 6.95 6.98 7.56 7.30 7.40 7.72 6.86 6.76 7.41 7.23 7.39 7.34 6.87 6.80 7.45 7.39 7.60 7.08 7.64 7.40 7.36 7.52 7.61 7.48 7.04 6.92 7.49 7.50 7.34 7.34 7.50 7.30 7.60 7.69 7.59 6.85 6.89 7.55 7.39 7.23 7.30 7.62 7.67 7.37 6.79 7.17 7.29 6.86 7.68 7.05 7.22 7.09 7.55 7.33 7.24 6.97 7.67 6.92 7.47 6.94 7.70 7.54 7.17 7.31 6.88 7.29 7.51 7.04 6.99 7.52 7.64 7.72 6.77 6.96 6.94 7.36 7.36 6.76 7.13 6.87 7.46 7.51 7.67 6.97 7.44 7.06 6.90 7.71 6.86 7.19 7.24 7.56 6.90 6.91 6.92 7.17 7.19 7.06 6.94 7.75 6.76 6.90 7.57 7.08 6.76 7.62 7.47 6.99 7.46 7.54 6.87 6.96 6.89 7.41 7.57 7.69 7.06 7.52 7.23 7.12 7.11 7.73 6.86 7.20 7.56 7.55 7.27 7.69 7.74 7.09 7.11 7.05 7.01 7.52 7.39 7.09 7.74 6.89 7.31 6.98 7.67 7.58 6.85 7.54 7.45 7.45 7.26 6.84 7.20 7.00 7.04 7.68 7.26 7.52 6.99 7.65 7.06 7.17 7.74 7.35 7.33 7.02 7.61 7.59 7.63 6.96 7.51 7.67 7.50 7.31 7.45 -9999 -9999 -9999 -9999 -9999 -9999 -9999 -9999 -9999 -9999 -9999 -9999 -9999 -9999 -9999 -9999 -9999 -9999 -9999 -9999 -9999 -9999 -9999 -9999 -9999 -9999 -9999 -9999 -9999 -9999 -9999 -9999 -9999
7.64 7.58 7.07 7.23 6.78 6.82 6.77 7.56 7.49 7.11 7.18 6.89 7.37 6.82 7.24 7.21 6.93 7.67 7.40 7.06 7.49 7.53 7.58 7.32 6.95 7.68 7.04 7.43 7.67 7.27 7.41 7.24 7.47 7.45 6.79 6.83 7.46 7.09 6.79 7.53 7.60 7.62 7.70 6.83 7.01 7.39 7.33 7.44 7.52 7.27 7.53 7.73 7.17 7.16 7.56 7.10 6.81 7.30 7.75 6.88 7.67 7.23 7.43 7.38 6.77 7.57 6.83 7.11 7.53 6.85 7.45 7.74 7.15 7.46 6.86 7.64 7.67 7.50 6.96 7.25 7.17 7.36 7.38 7.36 7.17 7.52 7.15 6.84 7.66 6.79 7.51 7.19 7.52 7.36 7.62 6.86 6.85 7.45 7.73 6.91 6.86 7.32 7.16 7.03 6.88 7.73 7.48 7.32 7.12 7.43 7.27 7.11 7.26 7.28 7.53 7.11 7.40 7.49 7.37 7.00 7.45 6.78 7.63 6.81 7.29 7.26 7.59 7.54 7.41 7.29 7.38 6.78 6.82 6.87 7.25 7.49 7.40 7.13 6.87 7.29 7.16 6.98 7.25 7.25 7.65 7.28 6.85 7.02 7.74 6.96 7.14 7.53 7.12 7.31 6.79 7.14 7.74 6.98 7.00 7.29 6.89 7.16 7.36 7.39 6.84 7.09 7.62 7.48 6.77 7.12 6.89 7.55 7.56 6.85 7.57 6.84 6.87 6.98 7.50 6.94 7.13 7.35 -9999 -9999 -9999 -9999 -9999 -9999 -9999 -9999 -9999 -9999 -9999 -9999 -9999 -9999 -9999 -9999 -9999 -9999 -9999 -9999 -9999 -9999 -9999 -9999 -9999 -9999 -9999 -9999 -9999 -9999 -9999 -9999 -9999
6.93 7.04 6.80 7.08 6.77 7.24 7.34 7.18 7.57 7.45 7.69 7.13 7.58 7.40 6.78 7.45 6.77 7.06 7.58 7.02 7.19 6.76 6.76 7.49 6.89 6.93 7.55 6.86 6.95 7.05 7.45 6.82 6.94 7.00 7.44 7.61 7.01 7.15 6.86 6.88 7.47 6.77 6.97 7.59 7.00 7.55 7.54 7.56 7.18 7.11 7.09 7.49 7.46 7.07 7.37 6.91 7.67 7.49 7.39 6.88 7.40 7.59 7.59 6.76 6.92 6.98 7.24 6.99 7.33 6.76 7.68 7.09 7.61 7.55 6.87 7.48 7.14 7.59 7.51 7.71 7.32 6.84 7.68 7.03 7.49 7.13 7.04 7.05 7.00 7.07 6.97 6.96 7.52 7.17 7.59 7.65 7.72 7.40 6.78 7.06 7.52 6.90 7.02 6.78 7.50 7.48 6.98 7.71 7.40 6.79 7.23 7.49 7.59 7.14 7.04 7.72 7.54 7.30 7.27 6.99 7.06 7.65 7.15 6.99 6.91 7.13 6.89 7.63 7.13 6.78 7.57 7.09 7.01 6.89 6.76 7.63 7.39 7.56 7.16 7.61 7.10 7.71 6.91 7.51 6.97 7.40 6.82 7.72 7.71 7.22 6.85 7.31 7.26 6.77 7.29 6.90 7.16 7.28 6.76 7.29 7.36 7.12 7.69 7.61 7.07 7.27 7.66 7.19 7.25 6.97 7.59 7.24 7.61 7.28 7.73 7.20 7.46 7.05 7.64 6.90 7.49 6.79 -9999 -9999 -9999 -9999 -9999 -9999 -9999 -9999 -9999 -9999 -9999 -9999 -9999 -9999 -9999 -9999 -9999 -9999 -9999 -9999 -9999 -9999 -9999 -9999 -9999 -9999 -9999 -9999 -9999 -9999 -9999 -9999 -9999
6.97 7.25 6.90 6.87 7.44 7.23 7.54 7.13 7.28 6.82 7.07 6.93 7.66 7.46 7.46 7.59 6.76 7.18 7.00 6.98 6.76 7.46 7.43 7.05 6.77 7.61 7.45 6.84 7.63 7.44 7.70 7.16 7.41 6.77 7.67 7.20 7.46 7.13 6.94 7.71 7.17 6.79 7.37 7.72 7.42 6.76 7.17 7.10 7.22 7.51 6.76 6.85 7.70 7.01 7.24 6.86 7.30 7.07 7.62 6.99 7.42 7.42 7.04 6.92 6.86 7.02 7.36 6.82 7.11 6.85 7.62 7.32 7.46 6.88 7.28 7.38 7.71 7.35 7.34 7.65 7.26 7.04 7.04 7.63 7.02 7.49 7.61 6.94 7.07 7.26 7.25 6.75 7.01 6.96 7.02 7.56 7.18 7.52 6.94 6.99 7.55 6.83 6.91 7.01 7.63 7.04 7.05 6.98 7.46 7.13 7.60 6.80 6.78 7.19 7.63 6.88 7.23 6.99 7.06 7.55 7.39 7.18 6.93 6.82 7.28 7.48 7.38 6.84 7.18 7.70 7.59 7.00 7.69 7.59 7.74 7.58 7.33 6.81 7.35 7.36 7.55 6.99 7.12 7.16 7.20 6.82 7.37 7.53 6.86 7.48 7.03 6.95 7.39 7.62 7.48 6.81 6.89 6.79 7.59 6.97 7.07 7.25 7.01 7.16 6.93 7.72 7.04 7.42 7.04 7.57 7.07 7.01 7.37 6.93 7.57 7.69 7.08 6.99 7.02 7.70 7.11 7.33 -9999 -9999 -9999 -9999 -9999 -9999 -9999 -9999 -9999 -9999 -9999 -9999 -9999 -9999 -9999 -9999 -9999 -9999 -9999 -9999 -9999 -9999 -9999 -9999 -9999 -9999 -9999 -9999 -9999 -9999 -9999 -9999 -9999
7.65 7.15 7.17 7.03 7.10 7.50 7.05 6.84 7.73 6.92 7.38 7.13 7.57 7.07 7.70 7.55 6.86 6.81 7.53 7.21 6.87 7.12 7.55 7.58 7.48 6.96 7.14 7.00 7.61 7.25 6.92 6.98 7.49 6.77 7.24 7.08 7.25 7.27 6.92 6.85 7.14 7.04 7.29 7.65 7.39 6.83 7.69 7.71 7.72 7.30 7.05 7.31 7.13 7.38 7.45 7.26 7.11 7.49 7.26 6.91 7.15 7.74 7.71 7.31 7.42 7.13 7.03 6.91 7.71 6.86 7.55 7.35 6.91 6.99 7.73 7.57 7.38 6.75 7.72 7.37 7.26 6.95 7.28 7.27 7.04 7.65 7.38 7.57 7.54 7.41 6.87 6.91 6.81 6.91 7.40 7.33 7.74 7.39 7.52 7.26 7.18 7.34 7.33 7.37 7.05 7.29 7.64 7.17 7.44 7.22 6.94 7.30 6.96 7.26 7.28 6.90 7.33 7.46 7.74 6.85 7.33 7.32 7.66 7.58 7.59 7.12 7.48 7.67 7.39 7.38 7.29 7.68 7.66 7.56 7.07 7.16 7.42 7.36 7.60 6.85 7.70 7.45 7.58 7.70 7.53 7.05 7.75 7.71 7.38 6.96 7.12 7.17 7.37 6.78 7.36 6.86 7.55 6.90 7.21 7.54 7.29 7.68 7.44 6.79 6.85 7.29 6.90 7.39 7.17 6.93 6.97 6.81 7.57 7.20 7.70 7.44 7.56 7.24 7.36 7.07 7.06 7.57 -9999 -9999 -9999 -9999 -9999 -9999 -9999 -9999 -9999 -9999 -9999 -9999 -9999 -9999 -9999 -9999 -9999 -9999 -9999 -9999 -9999 -9999 -9999 -9999 -9999 -9999 -9999 -9999 -9999 -9999 -9999 -9999 -9999
7.25 6.77 7.50 6.95 6.76 7.41 7.11 7.45 7.18 7.55 6.89 6.79 6.77 7.51 7.60 6.84 7.09 7.03 7.37 7.30 6.97 7.09 7.14 7.59 7.02 7.49 7.25 6.93 7.36 7.69 7.34 6.92 7.72 7.44 7.23 7.32 6.82 6.80 7.68 6.88 7.37 7.61 7.64 6.96 7.15 7.23 7.33 7.44 7.09 6.97 7.53 7.58 7.57 7.01 6.83 6.95 7.67 6.92 6.77 7.24 7.70 7.47 6.88 7.61 7.35 6.93 7.26 7.11 7.72 7.65 7.62 7.58 7.34 6.78 7.58 6.80 6.96 7.56 7.29 7.48 7.26 6.82 7.35 7.59 7.66 7.16 7.22 6.88 7.16 7.48 7.74 7.05 7.32 7.17 7.21 7.69 7.01 6.81 7.64 7.67 7.34 7.32 7.16 7.16 7.05 6.96 7.21 7.22 7.14 7.59 7.18 6.90 6.76 6.93 7.08 7.36 7.74 7.25 6.98 7.39 6.95 7.55 7.72 7.23 7.61 7.26 7.09 7.24 7.65 7.21 7.35 7.23 7.14 7.65 7.22 7.22 7.49 6.77 6.84 7.66 7.51 7.61 7.27 7.28 7.31 7.68 7.19 7.02 7.65 7.19 7.64 7.18 7.69 7.53 7.58 7.04 7.63 7.20 7.61 6.85 6.88 6.79 7.54 6.99 7.26 7.54 6.82 7.26 7.28 6.98 7.19 7.65 7.06 7.69 7.20 7.69 6.99 7.09 7.51 7.13 7.30 7.50 7.34 -9999 -9999 -9999 -9999 -9999 -9999 -9999 -9999 -9999 -9999 -9999 -9999 -9999 -9999 -9999 -9999 -9999 -9999 -9999 -9999 -9999 -9999 -9999 -9999 -9999 -9999 -9999 -9999 -9999 -9999 -9999 -9999
7.30 7.28 7.06 7.37 7.57 6.92 7.01 7.20 7.20 7.12 7.39 6.92 7.37 7.09 7.05 7.04 6.83 7.54 7.11 6.84 7.33 7.49 7.47 7.64 7.17 7.38 7.02 7.05 7.37 7.00 7.22 6.84 7.69 7.50 7.19 7.50 7.51 6.95 6.83 7.41 7.29 7.45 7.41 6.81 7.27 6.98 6.99 7.34 6.86 7.06 7.53 7.68 7.53 7.13 6.99 7.65 7.25 7.22 7.45 7.63 6.89 7.15 7.72 7.57 7.24 6.84 6.81 7.38 7.11 7.26 7.67 6.83 7.19 6.84 7.20 7.62 6.83 7.04 7.00 7.34 7.65 7.24 7.30 7.54 6.91 7.06 7.25 7.27 7.30 7.24 7.56 7.48 7.05 7.40 7.30 7.05 6.92 6.90 7.72 7.20 7.11 7.36 7.60 7.65 7.57 6.85 7.60 7.58 7.44 7.51 7.38 6.98 7.30 7.31 6.98 7.31 7.07 7.44 7.12 7.58 7.51 7.47 7.00 7.08 7.02 7.63 7.28 7.38 7.71 7.17 7.12 7.17 7.31 7.09 7.02 6.87 7.49 7.53 7.29 6.83 6.88 7.73 6.86 7.45 6.87 7.48 7.47 7.43 6.93 6.98 6.87 7.50 7.00 6.85 7.15 7.47 7.53 7.55 7.01 7.73 7.60 7.13 7.33 7.57 7.24 7.21 7.25 7.14 7.19 6.84 7.25 7.20 7.31 6.88 7.65 7.61 7.48 6.86 6.88 6.88 7.22 6.96 6.91 -9999 -9999 -9999 -9999 -9999 -9999 -9999 -9999 -9999 -9999 -9999 -9999 -9999 -9999 -9999 -9999 -9999 -9999 -9999 -9999 -9999 -9999 -9999 -9999 -9999 -9999 -9999 -9999 -9999 -9999 -9999 -9999
7.39 6.87 6.95 6.98 7.29 7.61 7.46 6.86 7.05 7.33 7.56 7.02 7.14 7.75 7.71 7.67 7.44 7.17 7.61 7.54 7.64 7.14 6.93 7.36 7.66 7.31 7.64 7.17 7.70 7.25 7.62 7.42 7.54 7.03 7.50 7.69 7.59 7.57 7.66 7.64 7.65 7.32 7.63 7.28 7.70 6.92 6.79 7.16 7.04 7.04 7.55 6.80 6.93 6.93 6.82 7.30 7.26 7.08 7.06 6.86 7.63 7.19 7.71 7.69 7.50 7.29 6.76 7.41 7.22 7.72 7.49 7.08 7.18 7.19 6.98 7.66 7.31 6.93 7.27 7.13 7.04 7.64 6.80 7.61 7.66 7.48 6.97 7.54 7.22 7.09 6.97 7.27 7.40 6.84 6.95 6.83 7.69 7.08 7.06 7.75 7.27 7.41 7.69 6.77 7.39 6.91 7.73 7.02 6.76 6.75 7.17 6.87 7.71 7.37 7.15 7.14 7.20 7.31 7.43 6.85 7.04 7.36 7.72 7.04 7.65 7.06 7.49 7.57 7.36 6.89 7.03 7.52 7.10 7.29 7.11 7.33 7.71 7.36 7.69 7.23 7.18 6.78 7.57 7.14 7.63 7.31 7.47 7.49 7.25 7.09 7.45 7.10 7.63 6.93 7.09 7.50 7.60 7.30 7.59 7.16 7.04 7.30 7.27 7.27 7.51 7.55 7.07 7.38 7.07 7.09 7.40 7.52 7.71 7.27 6.75 7.24 7.55 7.48 7.56 7.36 6.96 7.33 7.39 -9999 -9999 -9999 -9999 -9999 -9999 -9999 -9999 -9999 -9999 -9999 -9999 -9999 -9999 -9999 -9999 -9999 -9999 -9999 -9999 -9999 -9999 -9999 -9999 -9999 -9999 -9999 -9999 -9999 -9999 -9999 -9999
7.75 7.74 7.27 7.37 7.35 7.52 7.57 7.24 7.12 6.78 7.02 6.94 7.25 6.76 6.76 7.47 7.15 7.11 7.26 6.95 6.86 7.59 7.01 7.46 7.69 6.99 7.57 7.29 7.22 6.75 7.07 7.06 6.96 6.83 6.84 7.43 7.33 7.48 7.24 6.98 6.81 6.94 7.00 7.51 6.87 7.72 7.41 7.73 7.15 7.64 6.76 7.61 7.36 7.72 7.71 6.96 6.94 7.29 7.28 7.61 6.79 7.48 7.30 7.55 6.86 6.80 7.62 7.50 7.69 7.68 7.10 6.91 7.17 6.96 7.64 7.42 7.69 7.41 7.49 6.88 6.79 6.98 7.21 6.89 7.45 7.65 7.51 6.82 7.63 7.56 6.81 7.01 7.36 7.28 7.53 7.57 7.06 7.29 7.43 7.69 7.52 7.04 7.37 7.02 6.96 7.46 7.15 6.99 7.08 7.40 7.43 7.47 7.05 7.50 7.68 7.46 7.32 6.91 6.77 7.55 6.92 7.02 7.02 6.91 7.21 6.96 7.51 7.53 7.26 7.19 7.17 6.84 7.49 7.28 7.62 7.59 7.14 6.94 6.89 7.05 7.28 6.91 7.12 7.32 7.05 7.29 6.94 7.35 6.85 6.80 6.76 7.13 7.67 6.95 7.47 7.68 7.20 7.43 7.08 7.63 7.17 7.21 7.15 7.30 7.73 6.95 7.07 6.85 7.35 7.12 7.67 7.30 7.22 7.36 7.64 7.64 7.14 7.45 7.75 6.87 7.74 6.85 6.89 -9999 -9999 -9999 -9999 -9999 -9999 -9999 -9999 -9999 -9999 -9999 -9999 -9999 -9999 -9999 -9999 -9999 -9999 -9999 -9999 -9999 -9999 -9999 -9999 -9999 -9999 -9999 -9999 -9999 -9999 -9999 -9999
7.23 7.36 6.93 7.45 7.10 7.72 7.50 6.91 6.85 7.60 7.29 7.36 7.74 7.40 7.40 7.25 6.91 6.89 7.68 7.05 7.37 7.69 6.83 7.45 6.81 7.11 7.12 7.74 7.71 7.22 6.80 7.35 6.99 6.75 7.75 6.87 7.59 6.85 7.50 7.64 7.13 6.88 6.84 7.53 6.78 7.52 7.31 7.09 7.61 7.69 7.64 7.61 7.35 6.90 7.69 7.69 6.93 7.31 6.82 7.46 6.99 7.67 6.87 6.97 7.20 6.75 6.77 7.56 7.42 7.32 7.40 7.12 7.34 7.34 6.90 7.22 7.53 7.71 7.61 7.56 7.56 7.68 7.69 6.85 7.69 6.98 7.25 6.84 7.42 7.28 7.30 7.74 7.65 7.57 7.37 7.68 7.33 7.36 7.51 7.73 7.27 7.52 7.42 7.54 7.28 7.45 6.81 7.12 7.27 6.92 7.21 7.60 7.01 7.25 7.05 7.59 7.52 7.41 7.07 7.57 6.83 6.76 7.43 7.21 7.67 6.89 7.12 7.06 7.09 7.66 6.82 6.86 6.82 6.86 7.51 7.17 7.33 7.73 7.72 7.71 7.31 7.45 7.03 6.83 6.94 7.43 7.64 6.93 7.17 7.11 6.92 7.16 7.39 7.68 7.35 7.08 6.94 7.50 7.60 7.24 7.48 7.34 7.60 7.33 7.62 7.59 7.40 7.18 6.78 7.12 7.14 7.23 6.87 7.59 6.84 6.80 7.42 7.04 7.46 7.08 6.77 7.41 7.34 -9999 -9999 -9999 -9999 -9999 -9999 -9999 -9999 -9999 -9999 -9999 -9999 -9999 -9999 -9999 -9999 -9999 -9999 -9999 -9999 -9999 -9999 -9999 -9999 -9999 -9999 -9999 -9999 -9999 -9999 -9999 -9999
7.43 7.05 7.02 7.68 7.64 6.93 6.94 7.27 6.98 7.21 7.35 6.95 7.60 7.47 7.43 7.21 7.11 7.25 7.55 7.30 6.80 7.25 7.09 7.55 7.55 7.57 7.63 7.58 7.19 7.00 7.10 7.25 7.07 7.16 7.04 6.81 6.99 7.60 7.01 7.55 7.06 7.59 7.18 7.53 7.32 6.91 7.07 7.17 7.12 7.07 7.58 7.64 7.64 7.72 7.72 6.76 7.57 6.92 6.83 7.02 7.15 7.73 7.27 6.81 6.78 7.04 7.02 7.52 6.95 6.98 6.81 7.62 6.91 7.39 7.25 7.36 7.51 7.63 6.95 6.89 6.83 6.85 7.32 7.67 6.81 7.46 7.42 7.47 6.96 7.06 6.75 7.20 7.35 7.74 7.63 6.85 7.49 7.30 7.59 6.81 7.51 7.47 6.85 6.78 7.28 7.25 7.68 7.49 7.00 7.69 6.97 7.11 7.34 6.82 7.12 6.85 7.38 7.19 6.98 7.00 7.05 7.59 7.61 7.03 6.90 7.55 7.03 6.78 7.69 7.47 6.81 6.84 7.05 7.67 6.94 7.54 6.77 7.23 7.64 7.35 7.11 7.00 7.69 7.69 7.66 6.86 7.03 7.19 7.46 7.39 7.35 7.19 6.90 7.62 6.96 6.78 6.76 7.51 7.37 7.48 7.58 7.52 7.12 6.90 6.97 7.60 7.05 7.47 6.97 6.79 7.50 7.10 7.39 7.48 6.84 7.22 6.79 6.96 7.48 7.55 7.47 7.64 6.81 -9999 -9999 -9999 -9999 -9999 -9999 -9999 -9999 -9999 -9999 -9999 -9999 -9999 -9999 -9999 -9999 -9999 -9999 -9999 -9999 -9999 -9999 -9999 -9999 -9999 -9999 -9999 -9999 -9999 -9999 -9999 -9999
7.17 7.09 7.58 6.99 7.52 7.15 7.18 7.19 7.36 7.45 7.04 7.45 7.53 7.58 7.65 7.20 6.85 7.20 7.61 6.85 7.02 7.52 7.27 6.86 7.72 7.27 6.83 7.54 7.32 6.76 7.40 6.89 7.13 7.60 7.27 7.66 6.97 7.54 7.46 6.77 6.82 7.24 7.12 6.92 7.41 6.89 7.41 7.07 7.52 7.01 6.80 7.64 7.50 7.53 7.35 7.11 7.55 7.73 7.64 7.48 7.05 7.36 6.98 7.21 7.27 7.50 7.18 6.83 7.33 6.87 6.94 7.09 7.58 7.37 7.48 7.19 6.94 6.75 7.52 6.94 6.92 7.46 7.03 6.91 7.18 7.31 7.36 7.59 7.21 6.90 6.98 6.87 7.27 7.09 7.74 6.99 7.13 7.18 7.53 6.81 7.47 7.03 7.17 7.52 6.98 7.42 6.89 7.72 7.72 7.36 7.40 6.80 6.84 7.02 7.37 7.31 7.46 6.99 7.41 7.75 7.20 7.09 6.95 6.87 7.46 7.45 6.75 6.93 7.58 7.53 7.38 7.29 7.31 7.08 7.38 6.85 7.47 6.88 7.55 6.92 7.14 6.96 7.05 7.49 7.05 6.77 7.26 7.46 6.82 7.62 7.35 7.70 7.58 7.30 7.62 7.09 6.79 7.49 7.55 7.37 7.11 6.76 7.44 6.93 7.61 6.88 7.52 7.36 7.42 6.87 7.58 7.33 7.01 7.28 7.04 6.89 7.51 6.89 7.56 6.86 7.59 7.00 7.26 7.16 -9999 -9999 -9999 -9999 -9999 -9999 -9999 -9999 -9999 -9999 -9999 -9999 -9999 -9999 -9999 -9999 -9999 -9999 -9999 -9999 -9999 -9999 -9999 -9999 -9999 -9999 -9999 -9999 -9999 -9999 -9999
7.17 7.09 7.24 6.83 7.15 7.06 6.98 7.11 7.25 7.05 6.77 7.51 7.03 7.52 6.75 6.81 7.13 7.33 6.91 7.47 7.27 6.89 7.55 7.69 6.80 6.78 7.33 7.50 7.60 7.68 7.57 7.71 7.30 7.38 7.58 7.20 6.98 7.68 7.39 7.23 7.24 7.72 6.98 7.05 7.39 6.92 7.53 7.72 7.15 6.78 7.34 7.63 7.72 7.31 7.22 6.80 7.13 7.04 7.64 6.96 7.60 7.37 7.50 7.48 6.93 7.24 7.43 7.08 7.69 6.85 7.35 6.96 7.57 7.02 7.15 7.18 7.68 7.55 7.66 7.15 6.77 7.04 7.24 6.92 7.05 7.66 7.40 7.16 7.16 7.53 7.02 7.17 7.33 7.62 7.48 6.89 7.43 7.03 7.35 7.40 6.76 7.55 6.83 7.07 6.81 7.64 6.76 7.75 6.93 7.17 7.63 7.43 6.98 6.76 7.75 7.07 6.79 7.09 6.76 7.36 7.18 7.54 7.45 7.44 7.70 7.44 7.08 7.27 7.41 7.23 7.41 7.29 7.21 7.29 6.89 7.57 7.31 7.52 7.66 7.31 7.03 6.80 7.59 7.14 7.31 7.31 7.45 7.16 6.99 7.39 7.27 6.95 7.40 7.54 7.45 7.62 7.03 7.11 7.18 6.75 7.75 6.99 7.71 7.53 6.90 7.00 7.53 7.74 7.03 7.29 7.22 7.26 6.86 7.00 7.43 7.02 7.73 7.49 7.04 7.36 6.98 7.31 7.39 6.77 -9999 -9999 -9999 -9999 -9999 -9999 -9999 -9999 -9999 -9999 -9999 -9999 -9999 -9999 -9999 -9999 -9999 -9999 -9999 -9999 -9999 -9999 -9999 -9999 -9999 -9999 -9999 -9999 -9999 -9999 -9999
7.04 6.82 6.86 6.97 6.85 6.98 6.81 7.64 7.29 7.65 6.75 7.49 7.29 7.51 7.70 6.87 7.42 6.93 6.88 6.76 7.04 7.13 7.65 6.93 7.01 7.36 6.84 7.72 7.47 7.17 7.62 7.10 7.06 6.98 7.50 6.88 7.50 7.64 7.19 7.43 7.38 7.48 7.25 7.30 7.12 7.72 7.36 6.82 7.38 6.88 6.86 7.48 7.64 7.74 6.76 7.48 7.26 6.83 7.48 7.65 7.02 7.38 7.09 6.86 7.62 7.14 7.09 7.57 7.02 6.93 7.50 7.23 6.93 7.41 7.74 7.66 6.75 7.54 6.99 7.53 7.12 7.28 7.49 7.49 6.93 7.26 7.73 6.85 7.32 6.88 7.34 6.78 7.19 6.97 7.74 7.68 6.76 7.59 6.80 7.14 7.03 7.00 6.90 6.94 6.88 7.74 7.46 7.50 7.21 7.51 7.53 7.59 6.77 7.56 7.70 6.79 7.68 7.28 7.02 6.93 7.65 6.84 7.68 6.93 7.63 7.57 7.68 7.34 6.89 7.46 7.17 7.65 6.84 6.87 7.09 7.55 7.01 7.70 7.30 7.08 7.71 7.07 7.55 7.47 7.01 7.61 7.47 7.06 7.22 7.16 6.99 7.49 7.35 7.20 6.86 7.26 7.17 6.81 7.41 7.23 7.18 7.22 7.04 7.26 7.00 6.83 6.80 7.30 6.99 7.09 6.96 7.68 7.61 7.06 7.19 7.09 7.27 7.22 7.45 7.65 7.41 6.98 7.16 7.69 -9999 -9999 -9999 -9999 -9999 -9999 -9999 -9999 -9999 -9999 -9999 -9999 -9999 -9999 -9999 -9999 -9999 -9999 -9999 -9999 -9999 -9999 -9999 -9999 -9999 -9999 -9999 -9999 -9999 -9999 -9999
7.38 7.55 7.22 7.25 7.51 7.32 7.52 7.26 6.77 6.98 7.37 7.08 7.07 7.22 6.83 7.14 6.78 7.37 7.37 7.22 7.21 6.96 7.12 7.11 7.11 6.97 7.58 7.47 6.78 7.29 7.04 7.46 6.77 7.31 7.62 7.66 7.63 7.14 7.20 7.36 6.93 7.11 7.24 6.88 7.58 6.81 7.08 7.41 7.15 7.01 7.68 6.94 6.94 7.57 7.46 7.64 7.22 7.16 7.37 7.25 6.80 7.23 7.45 6.75 7.24 7.67 7.47 7.64 6.88 7.70 6.85 6.85 6.88 7.63 7.71 7.43 7.39 7.55 7.27 6.93 7.22 7.01 7.66 7.18 6.77 7.60 6.91 7.19 7.53 7.62 7.15 6.92 7.08 7.67 6.92 7.69 6.83 7.72 7.11 7.03 6.97 6.84 7.29 7.57 7.25 7.56 7.65 7.64 7.08 6.76 6.78 7.71 7.24 7.57 7.39 7.49 6.78 7.04 6.88 7.27 6.97 7.65 7.75 7.34 7.60 7.43 7.61 7.24 6.92 6.86 7.67 7.06 7.16 6.79 7.32 7.20 7.61 6.76 7.72 7.49 7.52 7.27 6.76 7.56 7.11 7.64 6.88 7.55 7.13 7.41 7.23 7.66 7.16 7.38 6.83 7.09 7.39 6.98 7.70 7.68 7.61 7.32 7.41 7.30 6.80 7.38 7.41 7.63 7.17 7.14 6.77 7.63 7.61 7.17 7.43 7.63 7.71 7.36 7.39 7.71 7.39 7.21 7.19 7.72 -9999 -9999 -9999 -9999 -9999 -9999 -9999 -9999 -9999 -9999 -9999 -9999 -9999 -9999 -9999 -9999 -9999 -9999 -9999 -9999 -9999 -9999 -9999 -9999 -9999 -9999 -9999 -9999 -9999 -9999 -9999
6.78 7.41 6.88 7.28 7.36 7.07 7.06 6.97 6.93 6.99 7.56 7.25 7.13 6.86 7.55 6.82 7.24 6.89 7.62 7.16 7.26 7.29 7.30 7.42 7.05 7.63 6.87 7.33 7.14 7.36 7.69 7.72 7.71 7.59 7.23 7.16 6.84 7.53 7.38 6.98 7.33 7.48 7.67 7.00 7.09 7.01 7.03 7.52 7.24 7.34 7.33 7.38 7.54 7.41 7.13 6.93 7.03 7.17 7.74 6.79 7.53 7.05 7.63 6.82 7.10 6.86 7.22 7.39 7.02 7.51 7.41 6.93 7.30 7.25 6.77 7.24 6.88 7.43 7.46 6.99 7.50 7.68 7.22 6.90 6.94 7.49 6.83 7.37 7.75 7.67 7.44 6.76 6.98 6.82 7.65 7.10 7.63 6.90 7.15 7.05 7.04 6.76 7.74 7.12 7.56 6.84 6.87 7.60 7.44 7.54 7.07 7.32 7.22 7.09 7.11 6.90 7.37 7.70 7.46 7.67 6.77 7.50 7.04 7.42 7.29 7.55 7.50 7.28 7.59 7.53 7.31 7.02 7.28 7.48 6.98 7.38 7.39 7.60 7.32 6.96 7.07 7.23 7.28 7.49 7.58 6.81 6.81 7.11 7.59 7.36 6.87 6.95 6.85 6.94 7.18 7.62 6.98 6.87 7.68 6.86 7.61 7.19 6.89 7.59 7.74 7.42 6.91 7.37 7.71 7.19 7.04 7.51 7.14 7.60 7.12 7.02 7.18 7.39 6.93 7.50 7.37 6.84 7.54 7.73 -9999 -9999 -9999 -9999 -9999 -9999 -9999 -9999 -9999 -9999 -9999 -9999 -9999 -9999 -9999 -9999 -9999 -9999 -9999 -9999 -9999 -9999 -9999 -9999 -9999 -9999 -9999 -9999 -9999 -9999 -9999
7.15 7.21 7.59 7.08 7.58 7.00 7.58 7.61 7.59 7.45 7.37 7.64 6.86 7.18 7.73 7.25 6.80 7.42 7.07 7.16 6.98 6.79 7.15 6.80 7.62 7.29 7.55 7.68 7.48 7.70 6.84 7.04 7.61 6.99 7.41 7.22 7.37 7.39 7.21 6.81 7.48 6.92 6.81 7.46 7.39 7.34 6.88 7.03 6.88 6.93 7.41 7.28 7.08 7.69 7.22 7.74 6.80 6.92 7.49 7.54 7.49 6.82 7.06 7.56 7.57 7.05 6.84 7.27 6.90 6.76 7.61 7.22 7.40 7.13 7.42 7.64 7.03 6.81 7.30 7.54 7.47 7.10 6.87 7.14 6.98 7.19 7.58 6.98 7.17 6.84 7.22 7.59 7.22 7.31 7.39 7.04 7.34 7.59 7.08 7.09 7.69 7.34 7.61 7.40 7.60 7.03 7.58 7.32 6.83 7.29 6.77 7.19 7.65 7.74 7.47 7.67 6.99 7.53 6.89 6.87 7.27 7.39 6.88 7.14 7.52 7.08 6.94 7.24 7.48 7.47 7.22 6.76 7.45 7.22 7.49 7.12 6.84 7.11 7.30 7.44 7.58 6.97 7.18 7.17 7.19 7.41 7.67 6.91 6.91 7.63 6.94 7.28 6.84 7.10 7.61 6.90 7.15 7.50 7.67 7.58 7.31 6.89 6.89 7.44 6.85 7.10 7.55 7.49 7.53 7.43 7.67 7.51 7.41 7.41 7.49 7.25 7.41 7.54 7.16 6.84 7.69 6.89 7.66 7.46 -9999 -9999 -9999 -9999 -9999 -9999 -9999 -9999 -9999 -9999 -9999 -9999 -9999 -9999 -9999 -9999 -9999 -9999 -9999 -9999 -9999 -9999 -9999 -9999 -9999 -9999 -9999 -9999 -9999 -9999 -9999
7.40 7.00 7.13 7.72 7.72 7.08 7.47 7.49 7.05 7.12 7.05 7.51 6.76 7.65 7.63 6.89 7.40 7.12 7.54 7.58 7.55 6.79 7.50 7.72 6.79 7.13 6.82 7.42 7.38 6.93 7.32 6.92 7.59 6.79 7.51 7.50 7.48 7.57 7.51 7.68 7.25 7.15 7.30 6.79 7.03 7.61 7.60 7.36 7.48 6.93 7.24 7.49 7.07 7.36 7.47 7.64 6.87 7.55 7.02 7.35 6.79 6.95 7.01 7.17 7.27 7.55 7.18 6.84 7.71 7.65 7.56 7.68 7.62 7.03 7.50 7.49 7.55 7.40 6.93 7.71 7.40 7.49 6.87 7.65 7.13 6.91 6.99 7.67 7.15 7.56 7.66 7.68 7.71 7.08 7.17 7.35 7.62 7.68 7.66 7.44 7.51 6.85 7.35 7.71 6.80 6.87 6.97 7.54 7.74 7.63 7.33 7.69 7.14 7.40 6.82 6.81 6.94 6.92 7.19 7.21 7.68 7.10 7.15 7.48 7.60 7.41 7.62 6.93 7.65 7.19 7.12 7.34 6.86 6.96 7.62 7.07 6.78 7.35 7.70 7.11 7.30 6.90 7.22 6.94 7.00 7.63 6.77 6.98 6.84 7.68 7.07 6.89 7.30 7.27 7.27 7.49 6.83 7.47 6.81 7.39 7.17 7.29 7.29 7.33 6.94 7.68 6.83 7.57 6.80 7.58 7.03 7.30 7.27 7.13 7.45 7.38 7.17 6.91 6.93 6.80 6.89 7.58 6.99 7.38 -9999 -9999 -9999 -9999 -9999 -9999 -9999 -9999 -9999 -9999 -9999 -9999 -9999 -9999 -9999 -9999 -9999 -9999 -9999 -9999 -9999 -9999 -9999 -9999 -9999 -9999 -9999 -9999 -9999 -9999 -9999
6.91 7.74 7.32 6.76 7.75 7.52 7.42 7.17 7.00 7.40 7.23 7.48 7.41 7.50 6.94 7.01 7.40 7.18 6.75 7.63 7.45 6.90 7.53 7.07 7.61 7.34 7.27 7.18 7.66 6.77 7.37 7.48 7.54 7.13 7.27 7.15 7.45 7.09 7.63 7.04 7.38 7.01 7.55 6.92 6.85 7.50 6.83 7.18 7.41 6.78 7.60 7.74 6.77 7.63 6.85 7.58 7.17 7.60 7.24 7.65 7.39 7.11 7.28 7.39 7.38 6.80 7.00 7.33 7.61 7.26 6.81 7.53 7.26 7.74 7.50 7.12 7.36 7.30 7.15 7.74 7.74 7.56 7.45 7.42 6.90 7.51 6.93 6.97 7.16 6.98 7.52 7.28 7.49 7.39 7.22 7.52 6.79 7.23 7.48 6.92 7.54 7.62 6.81 6.98 7.74 6.92 7.51 7.10 7.41 7.55 7.73 7.58 7.06 7.70 7.13 7.42 7.37 7.73 7.13 6.90 6.96 7.35 6.85 7.08 6.93 7.19 7.59 7.14 7.28 7.11 7.03 7.74 7.00 7.07 7.58 7.50 7.20 7.15 7.25 6.81 7.17 7.11 7.50 6.77 7.15 6.88 7.46 6.85 7.45 7.06 6.81 7.72 7.41 7.21 7.46 7.57 7.57 7.49 7.14 7.42 7.39 7.31 7.23 7.18 6.81 6.98 7.22 7.03 7.52 6.81 7.04 7.75 7.05 7.66 7.61 7.43 7.29 7.36 6.93 7.25 7.49 7.07 6.77 7.52 7.69 -9999 -9999 -9999 -9999 -9999 -9999 -9999 -9999 -9999 -9999 -9999 -9999 -9999 -9999 -9999 -9999 -9999 -9999 -9999 -9999 -9999 -9999 -9999 -9999 -9999 -9999 -9999 -9999 -9999 -9999
6.80 7.07 7.24 6.77 6.92 7.44 7.51 6.90 7.60 6.79 7.03 7.14 7.26 7.46 7.65 7.20 6.93 6.77 7.39 7.60 7.09 7.55 7.08 7.15 7.45 7.58 7.47 7.15 6.90 7.66 7.67 7.53 7.15 6.85 7.42 7.61 7.03 7.59 7.02 7.22 7.59 7.06 7.29 7.00 7.06 7.44 7.23 7.48 6.90 7.45 7.12 7.40 7.25 7.11 7.46 7.00 7.49 7.71 6.91 7.35 7.43 6.92 7.34 6.89 7.49 7.37 7.55 7.58 7.30 6.86 7.69 7.05 7.57 7.14 7.56 6.79 7.60 7.37 7.68 7.65 7.33 6.83 7.75 7.51 7.23 7.51 7.14 7.56 6.92 7.15 7.14 7.41 6.97 7.02 6.89 7.71 7.27 6.92 7.46 6.93 7.14 6.97 7.47 7.13 7.00 7.60 7.13 7.18 6.80 6.85 7.20 7.28 7.57 7.27 6.97 6.77 6.95 7.07 6.88 7.34 7.46 7.46 7.15 7.42 6.76 7.66 7.32 7.05 7.07 7.49 7.02 6.77 7.13 6.98 7.36 7.43 7.33 7.45 6.79 7.53 7.61 6.87 6.98 7.18 7.35 6.76 6.79 7.33 6.84 7.24 7.66 7.56 7.02 7.55 7.16 6.90 7.24 7.66 7.60 7.50 7.18 7.28 7.46 6.96 6.82 7.73 7.03 6.88 7.31 6.83 7.27 7.13 6.97 7.01 7.05 6.86 7.54 7.43 7.28 7.69 7.04 6.87 6.96 6.96 7.08 -9999 -9999 -9999 -9999 -9999 -9999 -9999 -9999 -9999 -9999 -9999 -9999 -9999 -9999 -9999 -9999 -9999 -9999 -9999 -9999 -9999 -9999 -9999 -9999 -9999 -9999 -9999 -9999 -9999 -9999
7.25 7.26 7.07 6.99 7.04 7.22 7.73 7.63 7.62 7.53 7.67 7.30 7.23 7.21 7.53 6.86 7.47 7.62 6.80 6.78 7.68 7.40 7.48 6.84 7.18 7.01 7.24 7.31 7.41 7.16 7.65 7.12 6.90 7.16 7.70 6.90 7.73 7.53 7.57 7.04 7.17 7.37 7.57 7.20 7.07 7.48 6.78 6.76 7.41 7.69 7.00 6.92 7.53 7.59 7.03 7.38 6.84 7.70 6.98 7.62 6.83 6.90 6.85 7.57 6.82 7.06 7.47 6.83 7.74 7.30 6.81 7.20 6.76 7.21 6.92 7.04 7.10 7.11 7.20 6.83 6.91 7.61 7.49 6.77 7.40 7.36 7.02 7.50 6.99 6.83 7.47 7.33 7.07 6.86 7.65 7.68 6.83 7.03 7.58 6.94 6.99 7.22 7.04 7.13 6.75 6.88 7.03 6.99 7.29 7.09 7.46 6.94 6.92 7.35 6.80 7.13 7.59 6.78 7.54 7.14 7.26 6.78 7.23 7.14 7.00 7.72 7.41 7.24 7.09 7.63 7.01 7.37 7.51 7.68 7.29 7.73 7.28 7.35 7.11 6.76 7.63 7.04 6.83 7.02 7.22 7.58 7.53 7.12 7.62 7.60 7.02 6.82 6.92 7.04 6.94 7.00 7.12 7.72 7.05 6.84 7.39 6.97 6.80 7.60 6.96 6.94 7.21 7.23 7.54 7.39 7.28 7.66 7.51 7.14 7.30 7.60 6.87 7.44 7.04 6.97 6.92 7.41 7.73 7.38 7.33 -9999 -9999 -9999 -9999 -9999 -9999 -9999 -9999 -9999 -9999 -9999 -9999 -9999 -9999 -9999 -9999 -9999 -9999 -9999 -9999 -9999 -9999 -9999 -9999 -9999 -9999 -9999 -9999 -9999 -9999
7.04 7.51 6.98 7.51 7.41 7.01 7.50 7.51 7.16 7.15 7.43 6.83 7.63 7.00 7.02 7.73 7.58 7.27 6.87 6.90 7.39 7.25 7.62 7.08 6.83 7.58 6.82 7.18 7.27 6.90 7.74 6.79 7.15 7.17 7.67 6.89 6.93 7.50 7.09 6.80 7.26 6.82 6.89 7.05 7.55 7.64 7.62 7.23 6.84 6.95 7.70 7.32 7.44 7.51 7.31 7.59 7.19 7.07 7.74 6.84 7.38 7.67 7.19 6.97 6.91 7.70 7.27 6.83 7.45 7.11 6.89 7.62 7.00 7.12 6.76 7.19 7.61 7.73 7.73 6.96 7.26 7.35 7.37 7.01 6.82 7.55 7.33 6.81 7.14 7.04 7.65 7.40 7.37 7.14 7.64 6.90 7.73 6.96 7.21 6.82 6.93 6.91 6.96 7.25 7.65 7.22 7.13 6.99 6.76 7.04 7.13 7.51 7.71 6.84 7.24 7.06 6.87 7.40 6.78 7.72 7.35 7.52 7.32 7.01 7.47 7.50 6.88 7.31 6.79 7.35 7.09 6.96 7.31 7.57 7.21 7.42 7.58 7.38 7.69 6.79 7.42 6.99 6.84 7.46 6.96 7.68 7.53 7.69 7.59 7.49 7.68 6.85 7.60 6.75 7.28 6.81 7.43 6.90 7.34 7.73 7.29 6.76 6.94 6.84 7.48 7.12 7.51 6.98 7.63 6.94 7.34 6.85 7.01 7.20 6.94 7.36 6.92 6.98 7.35 7.03 7.62 7.40 6.97 7.00 6.81 -9999 -9999 -9999 -9999 -9999 -9999 -9999 -9999 -9999 -9999 -9999 -9999 -9999 -9999 -9999 -9999 -9999 -9999 -9999 -9999 -9999 -9999 -9999 -9999 -9999 -9999 -9999 -9999 -9999 -9999
7.75 6.87 7.25 7.01 6.81 7.07 7.50 6.76 7.59 7.58 6.96 7.51 6.97 6.83 6.81 7.18 7.02 6.87 7.56 7.29 6.85 7.08 7.19 7.06 7.13 7.61 7.20 7.62 7.56 7.33 6.89 6.88 7.11 7.72 6.78 7.66 7.13 7.24 7.41 7.11 7.70 7.53 6.90 6.98 7.64 7.28 7.12 7.31 7.23 7.60 7.70 7.43 7.44 7.01 7.06 7.32 7.46 7.64 6.97 6.86 6.86 7.43 7.68 7.13 7.67 7.05 7.33 7.09 7.13 6.88 7.45 7.59 7.36 7.28 7.20 7.35 7.57 7.57 7.31 6.96 7.13 6.93 7.34 6.91 7.18 6.97 6.93 7.49 6.79 6.92 6.75 6.83 7.45 7.70 7.19 7.53 6.85 7.19 6.88 7.14 7.47 6.93 7.64 7.25 7.54 7.29 7.19 6.92 7.24 7.50 6.76 7.45 6.86 6.84 6.85 6.77 6.97 7.11 7.21 6.83 6.81 7.09 6.84 7.06 7.37 7.01 6.78 7.25 7.72 7.42 7.35 7.40 7.66 7.40 7.03 7.34 7.55 6.91 7.53 7.73 7.12 7.10 7.28 7.25 7.21 6.93 7.18 7.57 7.41 7.74 6.96 7.01 7.74 7.09 7.32 6.99 7.71 7.39 6.92 7.12 6.80 7.51 7.41 7.07 7.11 7.13 6.89 7.04 7.44 7.32 6.83 7.40 7.12 7.18 7.07 6.86 7.19 7.22 6.81 6.89 6.78 7.45 6.79 7.37 7.02 -9999 -9999 -9999 -9999 -9999 -9999 -9999 -9999 -9999 -9999 -9999 -9999 -9999 -9999 -9999 -9999 -9999 -9999 -9999 -9999 -9999 -9999 -9999 -9999 -9999 -9999 -9999 -9999 -9999 -9999
7.44 7.27 7.08 7.42 6.92 7.64 7.10 7.70 7.13 7.50 7.37 7.10 7.32 6.96 7.62 6.75 6.81 7.10 7.65 7.32 7.26 6.78 7.20 7.74 7.41 7.66 7.75 7.72 7.02 7.24 6.90 7.33 6.78 7.01 7.49 7.27 7.42 7.25 7.11 7.21 7.36 7.20 7.01 7.28 6.90 6.91 7.61 7.50 7.52 6.85 7.50 7.14 6.90 6.92 7.43 7.62 6.78 7.21 7.04 6.76 7.47 7.59 6.91 7.72 7.29 7.54 6.88 7.04 7.06 6.89 7.69 7.27 7.11 7.01 7.16 7.74 7.63 7.27 7.48 6.79 7.42 6.79 7.03 7.17 7.62 6.87 7.60 7.62 7.63 7.40 7.22 6.98 6.77 6.91 7.53 7.59 7.58 7.29 7.67 7.10 7.13 7.07 7.67 6.78 7.49 7.55 7.33 7.27 7.38 7.52 7.31 7.46 6.85 7.14 7.22 7.37 7.34 7.67 7.56 7.01 7.39 7.50 7.65 6.95 7.49 7.21 6.81 7.27 7.36 6.88 6.92 6.99 7.31 6.89 6.75 7.51 7.46 7.45 7.63 7.45 6.95 7.46 7.74 6.87 7.73 6.91 7.56 7.03 7.08 7.13 6.79 7.62 7.46 7.17 7.72 7.07 7.15 7.18 7.64 7.41 7.67 6.96 7.29 7.67 6.96 6.96 7.46 7.45 7.15 7.56 7.68 7.66 6.77 7.06 7.07 7.50 7.18 7.23 7.42 7.00 7.00 7.58 7.47 7.68 7.07 -9999 -9999 -9999 -9999 -9999 -9999 -9999 -9999 -9999 -9999 -9999 -9999 -9999 -9999 -9999 -9999 -9999 -9999 -9999 -9999 -9999 -9999 -9999 -9999 -9999 -9999 -9999 -9999 -9999 -9999
6.92 7.42 6.75 7.02 6.92 7.18 7.01 6.95 7.09 7.21 6.95 6.82 7.42 7.10 7.63 7.60 7.20 7.42 7.29 6.84 7.12 7.00 6.90 6.77 7.53 7.57 6.82 7.59 7.34 7.15 7.15 7.23 7.27 7.17 7.49 7.19 7.42 7.35 7.74 7.20 7.35 6.87 7.41 7.68 7.54 6.96 7.53 7.46 6.98 7.66 7.09 7.59 6.98 7.53 6.80 7.63 7.00 7.18 7.06 7.28 7.22 7.49 7.39 7.37 7.66 7.73 7.09 7.46 6.88 7.70 7.42 7.32 7.23 6.83 7.13 7.04 6.83 6.87 7.69 7.24 7.62 7.61 7.02 6.95 7.18 6.82 7.12 6.82 7.52 7.42 7.05 7.51 7.24 7.53 7.63 7.09 7.54 7.09 6.84 7.31 7.03 6.76 7.30 7.12 7.51 7.53 7.13 7.25 7.45 7.70 7.24 7.48 7.53 7.65 7.09 7.41 7.41 7.31 7.04 7.06 7.43 7.74 7.24 6.83 7.70 7.67 7.25 7.38 7.18 7.48 7.28 7.00 6.90 6.96 6.79 6.93 7.56 6.97 7.65 7.69 6.95 7.70 6.77 7.16 7.35 7.52 7.28 7.49 7.72 7.28 6.76 7.53 7.58 7.12 6.86 6.87 6.95 6.83 7.24 7.00 7.30 7.41 7.21 6.98 7.02 6.89 7.09 6.87 6.98 7.46 7.28 7.73 7.73 7.64 6.77 6.88 6.84 7.32 7.68 7.28 7.17 7.66 6.86 6.94 7.68 7.34 -9999 -9999 -9999 -9999 -9999 -9999 -9999 -9999 -9999 -9999 -9999 -9999 -9999 -9999 -9999 -9999 -9999 -9999 -9999 -9999 -9999 -9999 -9999 -9999 -9999 -9999 -9999 -9999 -9999
7.11 7.24 7.35 7.30 6.78 7.31 7.28 7.10 7.11 7.60 7.50 7.61 7.53 6.88 6.86 7.29 7.56 7.44 7.25 7.09 7.47 7.53 7.73 7.45 7.13 7.58 7.14 7.60 7.01 7.20 7.43 7.12 6.83 7.11 6.90 7.08 7.02 7.16 7.69 7.22 6.89 7.19 6.88 7.18 6.86 7.34 7.09 7.12 7.17 7.11 7.61 7.68 7.00 7.05 7.58 7.71 6.85 7.68 7.32 7.03 6.91 6.77 7.47 7.25 7.07 7.53 7.33 7.54 7.47 6.78 7.43 6.91 7.30 7.39 7.43 6.88 6.83 7.14 6.92 6.78 7.11 7.24 6.89 7.63 7.18 7.22 7.19 7.05 7.57 7.27 7.27 7.70 7.69 7.53 7.53 7.38 6.85 6.76 7.65 7.62 7.37 7.03 7.17 7.13 7.62 6.77 7.10 7.35 7.26 7.70 6.84 7.30 6.79 6.81 7.61 6.93 7.73 6.80 7.62 7.50 7.67 7.52 7.25 7.33 7.10 7.39 7.40 7.65 6.75 7.18 7.74 7.56 7.21 7.19 7.40 7.11 7.22 7.42 7.06 7.71 7.24 6.86 7.46 6.94 7.74 6.92 7.21 6.79 7.68 7.37 6.77 7.56 7.08 7.51 7.55 7.43 6.92 7.60 7.06 7.18 7.46 7.71 7.30 7.05 7.45 6.84 7.64 7.14 7.69 6.86 7.52 7.74 7.12 7.65 6.94 7.38 7.11 7.58 7.40 6.86 7.33 7.56 7.58 7.47 7.03 7.55 -9999 -9999 -9999 -9999 -9999 -9999 -9999 -9999 -9999 -9999 -9999 -9999 -9999 -9999 -9999 -9999 -9999 -9999 -9999 -9999 -9999 -9999 -9999 -9999 -9999 -9999 -9999 -9999 -9999
7.20 7.25 7.01 6.76 7.11 6.77 6.96 7.27 7.52 7.40 7.28 7.38 6.77 6.75 7.46 7.04 7.57 7.50 7.36 7.61 7.72 6.77 7.61 6.83 7.25 6.93 6.83 7.44 6.79 7.74 7.44 7.62 7.52 6.88 7.75 7.07 6.90 7.37 7.51 7.33 7.38 6.90 7.50 7.30 7.54 7.21 7.73 6.94 7.48 7.42 7.16 7.40 7.41 7.68 7.03 7.18 7.73 7.08 7.39 6.77 7.44 6.95 7.38 7.59 7.09 7.01 7.27 6.94 7.20 6.89 7.63 7.51 7.08 7.73 7.40 7.04 7.08 7.32 6.87 6.78 6.77 6.86 7.43 7.57 6.88 7.14 7.47 7.35 7.27 7.20 6.88 7.42 7.69 7.09 7.27 7.04 7.47 7.72 7.10 7.20 6.89 7.33 7.19 7.40 7.16 7.75 7.24 6.99 7.63 7.66 7.44 7.68 6.83 6.81 7.34 7.34 7.75 7.37 7.44 7.66 7.21 6.81 7.55 7.50 6.81 7.65 7.66 7.54 7.32 7.34 6.76 7.54 7.38 6.93 7.51 7.38 6.86 7.57 7.24 6.99 7.21 6.85 7.67 7.58 7.36 7.12 7.72 7.49 6.96 7.45 7.28 6.76 6.79 7.71 7.32 7.65 6.76 7.23 7.73 7.29 7.42 7.74 7.65 7.45 6.89 7.47 7.43 7.03 7.72 7.68 6.84 7.36 7.34 7.02 7.28 6.76 7.39 7.02 6.92 7.67 7.38 7.39 7.25 7.25 7.18 7.60 -9999 -9999 -9999 -9999 -9999 -9999 -9999 -9999 -9999 -9999 -9999 -9999 -9999 -9999 -9999 -9999 -9999 -9999 -9999 -9999 -9999 -9999 -9999 -9999 -9999 -9999 -9999 -9999 -9999
7.68 6.76 7.52 7.45 6.88 7.72 6.93 6.97 6.89 7.09 7.09 7.12 7.19 6.86 7.21 7.55 6.88 7.37 7.32 6.82 7.03 7.39 6.81 7.10 6.91 6.93 6.96 6.96 7.58 7.53 7.06 7.08 7.49 6.97 7.68 7.57 7.67 6.88 6.84 7.15 7.65 6.75 7.58 6.88 6.82 6.97 7.45 6.95 7.55 7.34 7.23 7.22 7.67 7.27 6.83 7.19 7.68 6.91 6.86 6.82 7.14 6.85 6.98 7.38 6.93 6.99 7.50 7.37 6.99 7.46 6.78 7.63 7.25 6.87 7.12 7.20 7.49 6.84 7.36 7.35 7.73 7.03 7.39 7.52 7.24 7.33 6.80 7.20 7.68 7.44 6.92 7.50 7.72 6.93 7.71 7.22 7.59 7.30 7.16 7.57 6.97 7.40 7.17 6.81 7.51 6.79 7.08 7.53 7.45 7.53 7.18 6.86 7.30 7.43 7.57 7.52 7.56 7.47 7.57 7.03 7.50 7.32 6.99 7.21 7.19 7.45 7.62 7.68 7.48 7.74 7.60 7.14 7.51 7.75 6.82 7.74 6.75 7.19 7.69 6.78 7.13 7.33 7.15 7.28 7.05 7.47 7.26 7.65 7.43 7.59 6.90 7.65 7.33 7.16 6.77 7.18 7.32 7.24 6.76 7.61 7.41 7.69 7.16 6.79 7.00 6.99 6.78 6.77 7.61 7.49 7.48 7.16 7.47 7.12 7.70 7.67 6.91 7.49 7.44 7.22 6.92 6.93 6.93 7.06 7.57 7.07 -9999 -9999 -9999 -9999 -9999 -9999 -9999 -9999 -9999 -9999 -9999 -9999 -9999 -9999 -9999 -9999 -9999 -9999 -9999 -9999 -9999 -9999 -9999 -9999 -9999 -9999 -9999 -9999 -9999
7.68 7.42 6.94 7.23 7.10 7.48 7.27 7.33 6.98 7.50 6.98 7.69 7.72 7.70 7.10 7.31 7.12 6.85 7.11 7.13 6.77 7.29 7.24 7.14 7.10 7.53 6.95 7.63 6.94 7.38 7.47 6.86 7.28 6.83 6.88 7.24 7.04 6.97 7.29 6.90 7.71 7.51 6.91 7.71 7.33 6.82 7.02 7.07 7.73 6.93 6.76 7.61 7.24 7.10 6.89 7.14 7.28 7.10 7.22 7.15 7.13 7.65 7.40 7.16 7.28 7.71 7.23 7.27 7.73 6.95 7.26 7.12 7.32 7.30 7.66 7.52 7.69 7.11 7.15 6.82 6.81 7.03 7.63 7.21 7.72 6.99 6.86 7.02 7.12 7.37 7.45 7.73 7.33 7.48 6.88 7.10 7.21 6.87 7.65 7.54 7.44 6.84 7.39 7.18 7.00 7.63 7.29 6.78 7.58 7.54 6.91 7.43 6.84 7.12 7.18 7.43 7.45 7.73 6.86 7.21 7.11 7.69 7.59 7.62 7.33 7.01 7.71 7.54 7.04 7.51 7.29 7.67 7.19 7.57 7.48 7.20 7.67 6.80 7.66 7.26 7.22 7.47 6.95 7.12 6.79 7.20 7.54 6.85 7.05 7.23 7.00 7.25 6.98 7.07 6.77 7.29 7.60 7.45 6.92 7.09 6.81 7.63 6.91 7.12 7.58 6.75 6.78 7.71 7.46 7.58 6.88 7.73 7.06 6.88 7.26 7.15 6.92 7.13 7.37 7.25 7.13 7.45 6.94 7.73 7.23 7.49 -9999 -9999 -9999 -9999 -9999 -9999 -9999 -9999 -9999 -9999 -9999 -9999 -9999 -9999 -9999 -9999 -9999 -9999 -9999 -9999 -9999 -9999 -9999 -9999 -9999 -9999 -9999 -9999 -9999
6.84 7.47 7.38 7.21 6.76 7.14 7.00 7.42 7.46 7.20 6.76 6.78 7.70 7.66 7.63 7.00 7.40 7.60 7.08 7.13 7.47 6.97 6.96 6.78 6.98 7.54 6.89 7.65 7.37 7.06 7.60 7.63 6.91 6.99 7.16 7.08 7.51 6.86 7.18 7.29 7.30 7.58 7.38 6.75 7.64 7.43 7.67 7.18 7.57 6.87 7.29 6.89 7.31 7.05 7.15 6.96 6.97 7.68 7.47 7.51 7.53 7.60 6.86 7.12 6.90 7.46 7.20 7.27 7.70 6.87 7.55 7.40 7.12 7.19 7.21 7.57 7.07 7.45 6.90 7.34 7.74 7.11 7.32 7.51 7.63 7.26 7.26 6.88 7.36 7.54 7.23 7.42 7.66 7.20 7.42 7.49 6.79 7.54 6.88 7.34 7.44 7.57 7.52 6.97 7.40 7.53 6.91 6.97 6.85 7.50 7.28 7.50 6.81 6.93 7.57 7.70 7.74 6.80 6.86 7.36 7.09 7.55 7.36 7.52 7.32 7.74 7.37 7.56 7.62 7.37 6.80 7.60 7.07 7.09 7.62 6.99 7.63 7.64 6.97 7.11 6.85 7.15 7.70 7.71 7.74 6.97 6.89 7.64 6.89 6.80 6.89 7.72 7.48 7.10 7.63 6.79 7.48 7.71 7.44 6.88 7.39 7.21 7.03 7.23 6.76 7.14 7.61 7.70 6.80 7.63 7.64 7.08 6.93 7.50 7.74 7.32 6.92 7.22 7.23 7.53 7.19 7.49 7.58 6.83 7.21 7.48 -9999 -9999 -9999 -9999 -9999 -9999 -9999 -9999 -9999 -9999 -9999 -9999 -9999 -9999 -9999 -9999 -9999 -9999 -9999 -9999 -9999 -9999 -9999 -9999 -9999 -9999 -9999 -9999 -9999
7.10 7.50 7.08 7.75 7.08 7.53 7.56 7.39 7.54 7.66 6.78 7.50 7.57 7.43 6.85 7.15 7.12 6.88 7.35 7.08 7.56 7.62 7.21 7.53 7.31 7.07 6.97 6.90 7.20 7.15 7.62 7.25 7.34 7.70 7.31 7.24 7.59 7.41 7.33 6.98 7.67 7.22 7.69 7.30 7.32 7.17 7.46 7.65 6.94 7.22 7.19 7.67 7.45 7.67 6.75 7.45 6.92 7.41 7.75 7.14 7.69 7.45 6.90 7.47 6.95 7.28 7.48 7.17 7.40 7.33 6.92 7.46 7.04 7.66 7.30 7.60 7.04 6.98 7.42 6.88 7.25 7.09 6.94 7.62 6.82 7.56 7.16 7.09 6.83 6.91 6.84 7.48 7.08 7.67 7.47 7.71 7.36 6.96 7.48 7.28 7.70 7.61 7.61 7.06 7.68 7.35 6.76 7.36 7.63 7.29 7.39 7.11 6.88 7.19 7.42 7.55 7.40 6.93 7.68 6.98 6.76 6.84 7.28 7.23 7.55 7.51 7.43 7.34 6.85 7.14 7.41 6.90 7.34 7.59 7.38 6.91 6.84 7.13 7.48 7.40 7.27 7.64 7.43 7.65 7.51 7.03 6.77 7.20 7.43 7.11 7.66 6.79 7.72 7.15 7.30 7.13 7.13 6.90 7.59 7.70 7.49 7.06 7.74 7.18 7.41 6.81 7.54 7.65 7.69 7.40 7.14 6.80 7.18 7.68 7.24 7.01 7.14 7.59 7.18 7.74 7.74 7.29 7.51 7.60 7.69 7.47 7.49 -9999 -9999 -9999 -9999 -9999 -9999 -9999 -9999 -9999 -9999 -9999 -9999 -9999 -9999 -9999 -9999 -9999 -9999 -9999 -9999 -9999 -9999 -9999 -9999 -9999 -9999 -9999 -9999
7.04 7.35 7.49 6.77 7.20 7.61 7.53 7.20 7.24 6.79 6.87 7.67 7.60 7.71 7.16 7.14 7.72 6.91 7.17 7.37 6.92 7.52 7.46 6.75 7.28 7.63 7.23 7.41 7.34 7.62 6.91 6.98 7.13 7.17 7.46 7.57 7.50 6.76 7.40 6.85 7.31 7.55 7.59 7.35 7.65 7.30 6.79 7.74 7.55 6.98 7.70 7.43 7.67 7.00 6.92 6.84 7.47 6.83 6.98 7.42 7.47 7.54 7.41 7.08 7.11 7.00 7.00 7.23 7.67 6.86 7.21 7.19 7.11 7.51 7.64 7.65 7.09 7.16 7.45 7.25 7.34 7.36 7.67 6.77 7.53 7.48 7.29 7.74 7.70 6.94 7.09 6.97 7.22 7.58 7.27 7.72 7.33 7.18 7.73 6.79 7.71 7.47 7.56 7.63 7.67 7.41 7.29 7.15 7.70 7.10 7.57 7.02 6.76 7.27 7.16 7.42 7.34 6.93 7.11 6.96 7.10 7.14 7.42 7.74 7.51 6.93 7.64 6.76 7.54 6.92 7.60 7.38 7.59 7.41 6.88 6.79 7.49 7.14 7.46 7.46 7.56 7.36 7.21 6.95 6.85 7.50 7.64 6.82 6.97 7.40 7.73 7.15 6.99 7.36 7.34 7.20 7.63 6.82 7.49 7.39 7.05 7.21 7.52 6.84 6.85 7.73 7.72 7.42 7.57 7.59 7.72 7.03 7.07 7.21 6.81 7.22 7.46 7.32 6.91 7.54 7.30 7.57 7.51 7.55 7.31 7.62 6.93 -9999 -9999 -9999 -9999 -9999 -9999 -9999 -9999 -9999 -9999 -9999 -9999 -9999 -9999 -9999 -9999 -9999 -9999 -9999 -9999 -9999 -9999 -9999 -9999 -9999 -9999 -9999 -9999
7.06 7.57 7.02 7.51 7.27 7.31 7.55 7.43 7.13 6.90 6.93 7.55 6.82 7.58 6.94 7.31 7.10 6.76 7.26 7.68 7.65 7.01 7.12 7.01 7.30 6.99 7.34 6.81 6.96 7.30 6.81 6.80 7.23 7.09 7.27 7.69 6.88 7.73 7.59 7.10 7.11 7.41 7.36 7.33 7.30 7.75 7.09 6.76 7.01 7.17 7.43 7.10 7.43 7.35 6.85 7.24 6.83 7.14 7.36 6.82 7.22 7.73 7.57 7.46 7.41 7.56 7.06 6.91 7.16 7.51 7.72 7.50 7.12 7.04 6.83 7.02 7.72 7.53 7.32 7.71 6.92 7.07 7.48 7.45 6.95 6.77 7.33 7.36 7.32 7.16 7.71 7.17 7.58 7.24 7.34 6.77 7.47 7.73 7.26 7.26 7.66 7.29 6.80 7.63 7.06 7.48 6.99 7.19 7.06 7.40 7.12 7.28 6.87 6.77 7.20 6.95 7.64 7.54 7.09 6.89 7.27 7.52 6.90 7.72 7.63 7.24 7.56 7.42 7.42 7.60 6.84 7.14 7.71 6.89 6.97 6.78 7.09 6.84 7.67 6.80 7.00 6.80 7.45 7.54 7.63 6.84 7.52 6.98 7.41 7.32 7.10 7.31 6.86 7.37 7.01 7.20 6.79 7.47 7.28 6.90 6.95 7.34 6.92 6.98 7.60 7.00 7.66 7.48 7.02 7.06 7.62 7.70 6.77 7.71 7.42 7.56 6.98 6.79 7.48 7.46 7.25 7.04 7.41 6.97 7.16 7.63 7.59 -9999 -9999 -9999 -9999 -9999 -9999 -9999 -9999 -9999 -9999 -9999 -9999 -9999 -9999 -9999 -9999 -9999 -9999 -9999 -9999 -9999 -9999 -9999 -9999 -9999 -9999 -9999 -9999
7.10 7.40 7.15 7.64 7.24 7.29 7.32 7.34 7.02 7.37 6.84 7.40 7.02 7.68 7.10 6.80 6.92 7.38 7.09 7.53 6.88 7.21 7.56 7.13 7.15 7.50 6.78 6.97 6.81 7.07 7.39 7.38 7.19 7.54 7.49 7.28 7.66 7.16 7.71 6.98 6.79 7.63 6.92 7.53 7.34 7.18 7.28 7.36 6.78 7.04 7.23 7.60 6.90 7.19 7.01 7.47 7.62 7.51 6.93 7.51 7.53 6.83 7.40 6.78 6.99 7.31 7.24 7.05 7.33 7.26 7.71 7.07 7.02 6.99 6.90 6.98 7.36 7.18 7.29 7.46 7.48 6.75 7.14 6.93 6.86 7.70 7.02 7.09 6.91 7.21 7.67 7.41 6.80 7.38 7.60 6.81 7.16 7.59 7.11 7.64 7.33 6.76 7.38 7.63 6.79 7.46 7.11 7.03 7.50 6.85 7.50 7.48 7.73 7.04 6.88 7.58 7.19 6.99 7.19 7.46 7.21 6.78 6.91 7.57 7.63 7.05 7.42 7.73 7.54 7.75 7.32 7.51 7.66 7.75 7.67 7.71 7.06 6.98 7.20 7.53 7.03 7.39 7.50 6.86 7.45 6.93 6.81 7.73 7.15 7.05 7.26 7.44 7.32 7.09 7.02 7.59 7.01 7.24 7.70 7.70 7.38 7.43 7.08 7.62 7.24 7.73 7.42 6.97 7.54 7.23 6.85 7.67 7.26 7.18 7.23 7.65 6.81 6.99 7.25 7.71 7.75 7.22 7.49 6.89 7.20 7.66 7.54 -9999 -9999 -9999 -9999 -9999 -9999 -9999 -9999 -9999 -9999 -9999 -9999 -9999 -9999 -9999 -9999 -9999 -9999 -9999 -9999 -9999 -9999 -9999 -9999 -9999 -9999 -9999 -9999
7.34 7.11 6.86 7.52 7.68 6.86 7.10 6.77 6.76 6.93 7.08 7.38 7.07 7.41 7.12 6.76 6.88 6.82 7.75 7.16 6.97 7.35 7.26 6.83 7.43 7.05 6.97 7.04 7.47 7.29 7.04 7.22 6.94 7.19 6.75 6.81 7.47 7.11 6.91 6.88 7.31 7.30 7.14 7.02 6.83 7.01 7.10 7.70 7.36 7.11 7.39 7.63 7.09 7.11 6.80 7.12 7.17 7.23 6.76 6.88 6.98 6.80 7.72 6.92 7.64 7.46 7.48 7.67 7.48 7.61 7.57 7.39 6.94 7.35 7.54 7.02 6.84 7.73 6.91 7.08 6.76 7.27 7.73 7.15 7.04 7.59 6.81 7.35 7.64 7.48 6.80 7.15 7.11 7.52 7.23 7.69 7.04 7.25 7.37 7.37 7.21 7.68 7.31 7.58 7.54 7.29 7.43 7.08 7.60 7.53 6.84 7.41 7.49 7.66 6.96 6.82 6.93 6.81 7.34 7.35 6.86 7.68 7.35 7.09 6.92 7.48 7.21 6.96 7.40 6.81 7.54 6.86 7.66 6.76 6.83 6.82 6.84 7.02 7.47 7.32 7.00 7.55 6.94 6.87 6.95 6.84 7.36 7.20 7.03 6.81 7.03 7.03 6.81 6.91 7.44 7.19 7.64 7.21 7.55 6.84 7.50 6.78 7.15 7.72 7.41 6.86 7.45 7.40 6.86 7.13 7.70 7.29 6.97 7.62 6.90 7.02 7.51 6.78 7.48 6.89 7.20 7.57 7.45 6.99 7.56 6.89 6.90 -9999 -9999 -9999 -9999 -9999 -9999 -9999 -9999 -9999 -9999 -9999 -9999 -9999 -9999 -9999 -9999 -9999 -9999 -9999 -9999 -9999 -9999 -9999 -9999 -9999 -9999 -9999 -9999
7.60 7.53 7.66 7.24 7.26 7.45 6.92 7.45 7.42 6.76 7.27 7.31 7.29 7.55 7.54 7.05 7.61 7.06 6.81 7.02 7.24 7.32 7.54 6.89 7.52 7.15 7.50 7.23 7.50 6.77 6.76 6.95 7.00 7.31 6.86 7.07 6.89 7.43 7.59 7.50 7.07 7.32 7.50 7.23 7.09 7.19 7.16 7.48 7.23 6.94 6.97 7.12 7.28 7.09 7.26 7.25 7.22 7.24 7.19 7.58 7.30 6.93 7.23 6.88 7.69 7.09 6.76 7.27 7.49 7.72 7.55 7.21 7.38 7.33 7.53 7.69 7.46 7.16 7.56 7.33 7.46 7.67 7.62 7.39 6.85 6.95 7.72 7.33 6.88 7.02 6.89 7.50 7.07 7.62 7.31 7.30 7.40 7.47 7.09 7.66 7.03 7.00 7.63 7.35 7.32 6.81 7.06 7.49 7.25 6.76 6.96 6.77 6.83 6.98 7.06 7.33 7.64 6.84 6.86 7.73 7.64 7.57 7.53 7.41 7.39 7.62 7.21 7.30 6.95 7.25 7.26 7.74 6.93 7.30 7.56 6.77 7.37 7.69 7.18 7.03 6.91 7.08 7.56 7.10 7.62 7.21 7.70 7.10 7.10 7.43 7.46 7.23 7.69 7.40 7.47 7.15 7.55 7.61 7.42 7.28 7.00 7.65 7.53 7.10 7.25 7.71 7.46 7.70 7.10 7.03 6.77 7.41 7.43 7.12 7.73 6.97 7.18 7.46 7.42 6.78 7.35 6.76 7.65 7.22 6.78 7.59 7.27 -9999 -9999 -9999 -9999 -9999 -9999 -9999 -9999 -9999 -9999 -9999 -9999 -9999 -9999 -9999 -9999 -9999 -9999 -9999 -9999 -9999 -9999 -9999 -9999 -9999 -9999 -9999 -9999
6.97 7.11 6.89 7.70 6.75 7.03 7.17 7.58 7.42 7.25 7.29 7.21 7.17 7.03 6.99 7.45 6.84 7.07 6.99 6.80 7.32 7.60 7.14 6.93 7.60 7.17 7.70 7.60 7.09 7.43 7.70 7.62 7.16 7.14 7.14 7.62 7.32 7.09 6.76 7.48 7.21 7.40 6.97 7.67 6.88 6.88 7.68 7.02 7.13 6.82 7.74 6.90 7.30 7.36 7.35 7.48 6.78 7.20 6.80 6.98 7.07 7.42 7.49 7.18 6.92 6.81 7.09 7.15 7.51 6.85 7.74 7.28 7.62 7.09 7.05 7.48 7.64 7.64 7.34 6.77 6.77 6.99 7.26 6.84 7.33 7.29 7.66 7.39 7.57 7.66 7.40 7.72 6.77 6.83 7.06 7.28 6.77 7.65 7.25 7.36 7.71 7.57 7.06 7.65 7.53 7.51 7.21 7.13 6.79 6.99 6.98 7.61 6.80 7.35 7.03 7.59 7.49 7.64 7.58 7.63 7.12 7.67 7.07 7.57 7.06 6.96 7.50 7.40 7.67 7.70 7.22 7.15 7.25 7.61 7.70 6.77 7.56 7.31 7.01 7.41 7.01 7.42 7.60 7.48 6.78 7.55 7.25 7.22 6.97 7.70 7.13 7.49 6.76 7.05 7.06 7.48 7.06 7.12 6.76 7.14 7.48 7.58 7.68 7.14 7.03 7.51 7.26 7.33 7.01 6.95 7.32 7.43 7.54 7.65 6.84 7.13 7.37 7.14 6.99 7.12 7.07 7.69 6.81 7.27 7.31 7.29 7.16 7.00 -9999 -9999 -9999 -9999 -9999 -9999 -9999 -9999 -9999 -9999 -9999 -9999 -9999 -9999 -9999 -9999 -9999 -9999 -9999 -9999 -9999 -9999 -9999 -9999 -9999 -9999 -9999
7.42 7.31 7.73 7.52 7.43 7.09 7.45 7.08 6.95 7.31 7.42 6.84 6.79 6.96 6.93 6.81 6.89 7.12 7.34 7.05 6.97 7.69 7.50 6.99 6.81 6.99 7.16 7.44 7.48 7.38 6.86 7.68 6.78 6.84 6.76 7.71 7.68 7.35 7.63 7.58 7.06 7.14 7.12 7.25 7.09 6.79 6.80 7.57 7.31 7.25 6.93 6.80 7.38 7.67 7.72 7.71 6.79 7.00 7.69 7.62 7.27 6.96 7.47 7.68 7.08 7.07 7.39 7.01 7.09 6.93 7.65 7.24 7.70 7.46 7.60 6.82 7.40 6.95 7.66 7.21 7.43 7.50 7.31 6.96 7.37 6.88 6.96 7.07 7.55 6.94 7.65 7.05 6.81 7.67 7.12 7.53 7.00 7.43 7.45 7.66 7.08 7.56 7.67 6.81 7.49 7.71 6.87 7.50 6.98 7.21 7.43 7.69 7.19 7.45 7.44 6.91 7.09 7.22 7.30 7.43 7.46 6.94 7.69 6.76 7.22 7.45 6.95 7.27 7.62 7.11 7.43 7.55 6.92 7.04 6.80 7.06 7.31 6.96 6.89 6.80 7.64 7.75 7.25 7.25 7.53 7.11 7.02 7.24 7.73 6.81 6.92 7.37 7.52 6.76 6.77 6.99 7.27 7.16 7.53 7.18 7.11 7.16 6.87 7.55 7.63 7.04 6.78 7.03 6.98 7.67 6.95 7.43 7.50 7.19 7.05 7.06 7.24 7.33 6.78 6.92 7.34 7.52 7.55 7.08 7.62 7.63 6.94 7.60 -9999 -9999 -9999 -9999 -9999 -9999 -9999 -9999 -9999 -9999 -9999 -9999 -9999 -9999 -9999 -9999 -9999 -9999 -9999 -9999 -9999 -9999 -9999 -9999 -9999 -9999 -9999
6.82 7.60 6.80 7.20 7.56 7.53 6.87 6.85 7.01 6.87 7.32 7.23 7.12 6.80 7.28 7.41 7.19 6.96 7.35 6.76 7.01 7.10 7.23 7.12 6.99 7.48 6.84 7.55 7.39 7.19 7.45 7.66 7.44 7.20 6.86 7.11 6.97 7.24 7.29 7.36 7.59 7.15 7.37 7.51 6.90 7.40 6.94 7.41 7.53 7.53 6.89 7.44 7.37 7.55 7.40 7.60 7.66 7.35 7.67 7.54 7.69 7.70 7.60 7.03 7.51 7.28 7.44 7.14 7.64 6.77 6.78 7.23 6.97 7.03 7.03 7.63 7.69 6.75 7.25 6.97 7.22 7.00 7.16 7.46 6.83 7.53 7.22 7.73 7.07 7.63 6.98 7.38 7.24 7.42 6.81 7.40 6.90 7.08 6.90 7.63 7.39 7.01 7.43 7.47 7.45 6.89 7.36 7.51 6.90 6.95 7.32 7.26 6.97 7.27 7.61 7.05 6.86 7.36 7.15 7.51 7.46 7.57 7.74 7.09 7.11 7.28 7.61 7.29 7.63 7.09 6.97 7.10 7.66 7.22 7.66 7.61 7.26 7.72 7.42 7.55 7.32 6.77 7.10 7.66 7.48 6.87 7.23 7.06 7.03 7.06 7.39 7.36 7.64 6.95 7.07 7.16 7.52 7.25 7.24 7.48 6.99 7.47 7.48 7.08 7.73 6.88 7.54 7.67 6.94 7.20 7.19 6.89 7.40 7.44 7.58 7.18 7.66 7.43 7.02 6.76 7.49 6.84 7.46 7.35 6.88 7.51 7.10 7.33 -9999 -9999 -9999 -9999 -9999 -9999 -9999 -9999 -9999 -9999 -9999 -9999 -9999 -9999 -9999 -9999 -9999 -9999 -9999 -9999 -9999 -9999 -9999 -9999 -9999 -9999 -9999
7.58 7.74 7.11 6.90 7.36 7.42 7.54 6.77 7.33 6.95 7.21 7.66 7.22 7.66 6.79 7.74 7.13 7.29 6.92 7.10 6.88 7.40 7.15 7.11 7.25 7.56 7.72 7.71 7.31 7.70 7.02 6.88 6.79 7.44 6.82 7.25 6.91 7.04 7.51 6.90 6.94 7.34 7.47 7.69 7.62 7.19 7.08 7.21 7.65 6.75 7.18 7.40 7.39 7.23 6.96 6.84 7.39 7.56 7.14 7.51 6.99 7.48 7.11 7.53 6.78 7.54 7.38 7.59 7.14 7.72 7.43 7.06 7.59 7.44 7.25 7.59 7.39 7.47 7.68 6.92 7.41 7.62 7.39 7.51 7.57 7.68 7.33 6.92 7.58 6.96 7.20 6.88 7.51 7.56 7.69 7.55 7.05 7.39 6.82 7.04 7.23 7.45 7.60 7.61 6.75 6.90 6.79 7.65 7.19 6.83 6.99 7.44 7.50 7.75 7.04 6.95 7.39 7.01 6.81 7.55 7.25 6.98 7.01 7.56 7.26 7.63 7.63 7.60 6.93 7.26 6.85 7.15 7.03 7.18 7.43 7.56 6.76 7.75 7.25 6.83 7.69 7.25 6.84 7.45 7.23 7.16 7.49 7.21 7.17 7.65 7.50 6.92 6.78 7.43 6.98 7.49 7.55 7.70 7.51 7.59 7.69 6.90 6.80 6.95 7.24 6.99 6.84 7.30 7.01 7.43 7.03 7.09 7.70 6.89 7.52 7.21 6.80 7.32 6.96 7.19 7.22 7.50 7.29 7.37 7.73 7.01 7.42 7.74 -9999 -9999 -9999 -9999 -9999 -9999 -9999 -9999 -9999 -9999 -9999 -9999 -9999 -9999 -9999 -9999 -9999 -9999 -9999 -9999 -9999 -9999 -9999 -9999 -9999 -9999 -9999
7.13 6.78 7.16 6.82 7.47 7.75 7.39 6.96 7.54 7.42 7.19 7.74 7.56 7.64 7.05 6.90 6.80 7.57 6.83 7.23 7.66 7.37 6.93 7.62 7.40 7.71 7.41 7.59 7.49 7.29 7.44 7.31 7.64 7.54 7.71 7.34 7.21 7.25 7.66 7.08 6.77 7.36 7.60 7.16 6.95 7.62 7.67 7.48 6.89 6.98 6.95 7.58 7.33 7.75 6.97 7.30 7.33 7.36 7.44 7.54 7.72 7.00 7.02 7.31 7.30 7.47 6.76 7.35 7.04 7.14 7.45 7.71 7.75 7.19 7.57 6.80 7.67 7.22 6.96 7.26 7.21 7.04 7.32 7.29 7.52 6.82 7.71 7.68 7.45 7.01 7.13 7.48 7.21 7.25 7.69 7.67 6.79 7.22 7.23 7.12 7.42 7.29 6.91 7.01 7.62 7.30 7.50 7.47 7.22 7.17 7.17 7.09 7.69 7.66 7.04 7.10 7.71 6.89 7.66 7.62 6.75 7.22 6.97 7.37 6.89 7.49 7.00 7.41 7.17 7.57 7.33 7.36 7.23 7.58 7.09 7.00 7.73 6.83 7.49 7.00 6.88 6.88 7.71 7.28 7.39 6.91 6.87 7.16 7.66 7.16 7.60 7.71 7.53 7.59 7.47 6.88 6.90 7.39 7.00 6.79 6.76 7.43 7.41 7.30 6.77 6.97 7.30 6.78 6.85 6.96 6.88 6.78 6.78 7.23 7.47 7.42 6.91 7.32 7.48 6.92 7.65 6.80 6.91 7.29 7.27 7.75 7.37 7.62 -9999 -9999 -9999 -9999 -9999 -9999 -9999 -9999 -9999 -9999 -9999 -9999 -9999 -9999 -9999 -9999 -9999 -9999 -9999 -9999 -9999 -9999 -9999 -9999 -9999 -9999 -9999
7.27 6.79 7.28 6.92 7.43 7.33 7.69 7.46 7.05 6.91 6.78 6.98 7.72 6.98 6.96 7.33 7.14 7.16 6.79 7.11 7.33 7.30 7.03 7.01 7.70 7.29 7.74 7.39 7.10 7.02 6.89 7.10 7.22 7.18 7.49 7.11 6.86 7.01 7.15 7.38 6.78 7.12 7.69 7.73 7.44 6.88 6.77 7.49 7.27 7.73 7.38 6.84 7.05 7.30 7.21 7.05 7.32 7.24 7.36 7.13 7.18 6.90 7.07 6.77 7.52 6.86 7.42 7.13 7.00 7.52 7.59 7.69 7.30 7.70 6.89 7.25 7.62 7.32 7.50 7.50 7.13 6.87 7.63 6.84 7.50 7.47 7.22 7.64 7.25 7.08 7.06 6.81 7.47 7.38 7.20 7.73 6.79 7.47 7.57 7.59 6.92 7.55 7.01 7.53 6.77 7.27 6.86 7.09 6.97 7.09 7.54 7.64 6.77 7.23 7.35 7.61 7.75 6.81 6.80 6.78 7.71 7.22 7.13 7.48 7.59 7.56 7.12 7.31 7.11 7.60 7.48 7.10 7.18 6.75 7.53 7.54 6.81 7.15 7.10 7.26 7.31 7.25 7.29 7.36 6.92 7.32 7.45 7.65 7.31 7.57 7.51 6.86 7.39 6.83 7.10 7.30 7.16 7.04 7.16 7.12 6.87 7.59 6.88 7.41 6.82 7.74 7.43 7.18 6.85 7.17 7.45 7.39 6.92 6.81 7.38 7.75 7.10 7.74 7.35 6.91 6.76 7.46 7.66 7.34 7.12 6.84 7.73 7.48 -9999 -9999 -9999 -9999 -9999 -9999 -9999 -9999 -9999 -9999 -9999 -9999 -9999 -9999 -9999 -9999 -9999 -9999 -9999 -9999 -9999 -9999 -9999 -9999 -9999 -9999 -9999
7.49 7.56 7.06 6.85 6.82 7.32 7.28 7.17 7.34 7.12 7.51 7.42 7.44 7.51 7.54 7.22 7.34 6.75 7.53 7.17 7.15 6.82 6.75 7.54 7.04 6.76 7.27 7.33 7.48 7.27 7.74 7.15 7.43 7.71 7.62 7.44 6.82 6.97 7.23 6.98 7.27 6.91 7.29 7.50 7.50 7.51 7.38 6.94 6.87 7.73 7.27 7.52 7.26 7.54 7.21 7.03 7.53 7.18 7.30 6.79 7.75 7.23 7.54 7.39 7.56 7.58 7.57 7.67 7.35 7.28 6.93 7.61 6.90 7.51 7.22 7.00 7.45 7.53 7.43 7.21 7.62 7.12 6.76 6.91 7.02 7.59 7.08 7.16 6.99 7.43 6.86 7.23 7.55 6.97 6.90 6.95 7.01 7.34 6.78 7.40 7.65 7.45 7.33 6.78 7.27 7.50 7.55 7.63 6.97 7.27 6.82 7.37 6.90 6.97 7.07 6.88 7.09 6.86 6.79 7.05 7.60 7.31 7.46 6.82 7.63 7.55 7.26 7.67 7.60 7.32 7.74 6.85 6.80 7.36 6.77 7.39 6.91 7.55 7.07 7.70 7.11 7.03 7.04 7.13 6.88 7.55 7.41 7.59 7.63 6.76 7.15 7.36 7.17 7.42 7.39 7.17 7.45 6.95 7.49 7.24 7.34 6.97 6.85 7.27 7.00 6.96 7.60 6.80 7.57 6.84 6.90 7.70 7.34 7.09 6.80 7.70 7.10 7.47 7.73 7.11 6.83 7.03 7.50 7.23 7.45 6.96 7.62 7.48 -9999 -9999 -9999 -9999 -9999 -9999 -9999 -9999 -9999 -9999 -9999 -9999 -9999 -9999 -9999 -9999 -9999 -9999 -9999 -9999 -9999 -9999 -9999 -9999 -9999 -9999 -9999
7.16 6.90 7.62 7.23 7.06 7.55 6.99 7.17 7.48 6.99 6.87 7.03 7.66 6.85 7.10 7.51 7.17 7.45 7.68 6.82 6.82 7.46 7.70 6.87 7.27 7.16 7.60 7.56 7.30 7.43 6.91 7.29 6.83 7.59 6.99 7.64 7.59 7.55 7.19 6.90 6.84 7.22 6.79 6.79 7.17 7.54 6.80 7.36 6.77 7.57 7.47 7.56 7.45 7.47 6.93 7.00 7.25 7.16 7.67 6.85 7.04 7.63 7.74 6.86 7.13 7.17 7.34 7.08 7.13 7.46 7.26 6.81 7.62 7.39 7.43 7.23 7.62 7.29 6.98 7.68 7.66 7.36 7.47 6.83 7.10 7.47 6.81 7.57 7.19 7.48 7.28 7.50 7.61 7.70 7.01 7.26 6.89 7.30 7.66 6.98 7.40 7.51 7.11 7.34 7.22 7.75 7.64 7.54 7.15 6.81 7.22 7.51 7.19 7.20 7.65 7.33 7.60 7.07 7.54 7.60 7.23 7.36 7.64 6.80 7.73 7.37 7.05 6.79 7.03 7.42 6.79 7.10 7.28 7.55 7.68 7.36 7.48 7.23 7.03 6.84 7.57 6.82 7.60 7.51 7.28 6.96 7.30 7.62 7.22 7.44 7.35 7.51 7.45 6.99 7.13 6.85 7.02 6.78 6.86 7.08 7.19 6.80 7.36 7.18 7.66 7.67 7.02 7.71 7.49 7.18 7.29 6.95 7.39 7.68 7.66 7.41 6.93 7.73 6.93 7.07 7.69 7.47 7.29 7.34 6.84 6.95 7.05 6.79 6.83 -9999 -9999 -9999 -9999 -9999 -9999 -9999 -9999 -9999 -9999 -9999 -9999 -9999 -9999 -9999 -9999 -9999 -9999 -9999 -9999 -9999 -9999 -9999 -9999 -9999 -9999
7.64 7.52 7.33 7.57 6.94 7.27 6.78 7.26 7.71 7.37 7.55 7.70 6.78 7.05 7.39 6.99 7.57 6.91 7.28 7.36 7.64 7.61 7.64 7.42 7.75 7.15 6.94 7.38 7.24 7.34 6.78 6.86 7.31 7.75 6.77 7.68 6.93 7.36 6.84 7.48 7.56 6.75 7.41 7.71 7.57 7.68 7.37 7.23 7.74 6.94 6.83 7.72 6.81 7.18 7.15 7.40 7.36 7.48 7.65 7.43 7.32 7.69 7.64 7.06 7.01 7.57 7.14 6.81 7.34 6.85 7.48 6.81 6.81 7.41 7.01 7.09 7.11 7.64 7.58 7.58 7.61 7.42 7.22 7.74 7.48 7.73 6.92 7.54 7.65 7.00 7.60 6.80 7.22 7.14 7.45 7.00 7.31 7.18 7.39 7.46 7.50 7.01 7.39 7.14 6.98 7.70 7.22 7.51 6.78 7.67 7.19 6.78 7.57 7.49 7.62 7.23 6.79 7.67 7.61 7.15 6.77 7.15 6.86 6.76 7.02 6.81 6.84 7.02 7.60 7.07 6.90 6.83 7.60 7.30 6.78 7.32 7.44 7.60 7.68 7.41 7.72 7.71 7.45 7.69 6.92 7.42 7.09 7.32 7.38 7.28 6.91 7.24 6.88 7.47 7.39 7.63 7.58 7.60 7.31 7.38 7.52 7.06 7.01 7.65 7.09 6.95 6.76 6.82 6.94 7.74 7.54 7.60 7.00 7.19 7.01 6.97 6.75 7.48 6.96 6.83 7.57 7.38 6.91 6.96 7.61 6.81 7.67 7.14 7.41 -9999 -9999 -9999 -9999 -9999 -9999 -9999 -9999 -9999 -9999 -9999 -9999 -9999 -9999 -9999 -9999 -9999 -9999 -9999 -9999 -9999 -9999 -9999 -9999 -9999 -9999
6.99 7.28 7.66 6.85 7.30 7.29 7.13 7.05 6.81 7.58 7.04 7.35 7.62 7.41 6.88 7.66 7.70 7.04 7.06 7.22 7.18 7.43 6.94 7.07 7.50 7.45 6.76 7.75 6.83 7.52 6.99 7.02 7.69 7.18 6.75 7.70 7.70 6.88 7.30 7.52 7.25 6.87 6.82 7.16 7.25 7.70 7.15 7.17 7.49 7.34 7.70 7.39 6.77 6.86 7.37 7.49 7.16 7.63 7.43 7.28 7.67 7.30 7.11 7.20 7.10 7.65 6.87 7.47 7.48 7.25 7.67 6.85 7.51 7.61 7.04 7.25 7.27 7.35 6.98 6.79 6.95 6.88 6.85 7.46 6.77 7.62 7.36 7.57 6.89 7.16 7.21 7.50 6.91 7.00 6.92 7.02 7.42 7.08 7.74 7.22 7.70 7.60 7.72 7.51 7.12 7.68 7.17 7.04 6.93 7.62 6.77 7.49 7.15 7.53 7.64 7.53 7.39 6.80 6.79 6.88 7.69 7.64 7.40 6.97 6.92 7.10 7.40 7.71 6.82 7.50 7.56 6.79 7.37 7.53 6.98 6.75 7.42 7.07 7.08 6.77 7.57 7.72 7.71 6.95 7.20 7.41 6.82 7.17 7.63 6.82 7.00 6.87 6.91 6.80 6.90 6.97 6.97 6.96 7.20 7.29 7.09 6.91 7.67 7.19 7.50 7.71 7.72 7.59 7.14 7.10 6.91 7.00 6.76 6.76 6.89 7.25 7.35 7.04 7.65 7.71 7.58 7.42 7.59 6.81 7.62 7.30 7.63 7.49 7.02 -9999 -9999 -9999 -9999 -9999 -9999 -9999 -9999 -9999 -9999 -9999 -9999 -9999 -9999 -9999 -9999 -9999 -9999 -9999 -9999 -9999 -9999 -9999 -9999 -9999 -9999
7.40 7.17 6.93 7.01 7.13 7.38 7.29 7.42 6.79 7.67 6.99 7.29 7.52 7.40 7.22 7.66 7.21 6.97 6.87 7.34 7.48 7.24 7.56 6.86 7.65 7.71 7.57 7.16 7.31 7.31 7.14 7.48 7.03 7.11 7.33 7.72 7.29 6.88 7.71 7.53 7.29 6.82 7.12 7.21 7.51 6.94 7.14 7.45 7.40 7.49 7.68 7.40 7.57 7.05 7.43 7.17 7.58 7.10 7.30 7.41 7.67 7.54 7.25 7.62 7.37 7.52 6.95 6.84 7.48 7.69 7.11 7.12 7.11 7.66 7.14 6.79 6.95 7.01 7.66 6.99 6.76 7.13 7.24 7.44 7.33 7.33 7.20 7.28 6.99 7.49 7.07 7.17 7.19 7.64 7.44 7.63 7.32 7.29 7.44 7.21 7.11 7.60 7.15 7.27 7.65 6.95 7.65 6.86 7.49 7.57 6.83 6.82 6.89 7.26 7.35 6.98 7.48 7.52 7.50 6.88 7.07 7.04 7.57 7.68 7.11 7.74 6.99 7.73 6.88 6.94 6.92 7.18 6.95 6.93 6.91 7.22 7.63 7.64 7.49 7.35 6.95 7.11 7.70 7.52 7.47 7.38 7.69 7.36 7.27 7.11 7.65 7.56 7.15 7.30 7.05 6.92 6.77 6.77 7.08 7.70 7.73 6.78 7.09 6.89 7.41 7.49 6.85 7.05 7.08 7.12 7.18 7.48 6.76 7.16 7.27 7.30 7.43 7.65 7.08 6.86 7.41 6.79 7.59 6.81 7.63 7.00 7.46 6.93 7.34 -9999 -9999 -9999 -9999 -9999 -9999 -9999 -9999 -9999 -9999 -9999 -9999 -9999 -9999 -9999 -9999 -9999 -9999 -9999 -9999 -9999 -9999 -9999 -9999 -9999 -9999
7.15 6.88 7.66 7.49 7.26 7.32 7.09 7.38 7.57 7.06 6.91 7.38 6.87 7.16 6.85 7.73 7.74 7.69 7.00 7.59 7.26 6.89 6.94 7.54 7.70 7.60 7.31 7.03 7.72 7.72 7.72 7.20 7.11 6.94 7.69 7.59 7.32 6.96 7.51 7.40 7.30 7.24 7.21 7.34 7.57 7.30 7.66 6.86 7.65 7.72 6.83 6.76 7.15 7.67 7.20 7.21 7.53 6.90 7.27 7.31 7.10 6.78 7.55 7.13 6.80 7.18 7.60 7.27 7.03 7.08 7.70 7.68 7.11 6.89 7.52 7.18 7.21 6.90 7.69 7.26 7.62 7.25 7.32 7.59 7.73 7.12 6.78 6.96 7.40 7.38 7.34 7.54 6.91 7.24 7.39 6.87 6.97 6.88 6.90 7.19 7.00 7.27 7.59 7.43 7.14 7.42 7.46 6.85 7.40 7.40 6.86 6.95 7.56 7.54 7.64 6.89 7.53 7.21 7.01 7.37 7.66 7.16 7.70 6.81 7.46 7.13 7.49 7.11 6.75 6.88 6.76 7.44 6.92 6.87 6.82 7.49 7.12 7.42 6.79 7.15 6.97 7.09 7.55 7.35 7.08 7.42 6.92 7.61 6.78 6.87 7.37 7.21 6.83 7.55 6.78 7.00 6.78 7.60 7.54 7.06 7.54 7.63 7.74 7.51 7.41 7.25 6.96 7.19 7.53 6.96 6.78 7.69 7.61 7.56 7.39 7.39 7.24 7.59 7.50 7.13 7.26 7.39 6.97 7.70 7.65 6.77 7.04 7.69 6.96 -9999 -9999 -9999 -9999 -9999 -9999 -9999 -9999 -9999 -9999 -9999 -9999 -9999 -9999 -9999 -9999 -9999 -9999 -9999 -9999 -9999 -9999 -9999 -9999 -9999 -9999
7.35 7.60 7.49 6.99 7.56 7.74 7.02 7.29 7.13 7.42 7.14 6.81 7.67 7.24 7.21 7.14 7.35 6.94 7.05 7.55 7.47 7.31 7.01 6.97 6.76 6.79 7.22 6.84 6.90 7.26 7.55 7.07 7.70 7.16 6.90 6.77 7.71 7.45 7.05 7.30 7.25 7.41 7.64 7.22 6.81 7.31 7.33 7.51 7.61 6.82 6.81 7.51 7.18 7.08 7.68 7.60 7.25 7.00 7.25 7.62 6.99 7.09 7.10 7.40 6.97 7.27 7.09 6.92 6.93 7.42 7.71 7.21 7.54 7.55 7.22 7.23 6.86 7.20 6.83 6.91 6.89 6.78 7.54 7.10 7.64 7.73 6.97 7.01 7.59 6.85 7.47 7.71 7.71 7.28 7.02 7.07 6.78 7.70 7.11 7.23 7.73 7.51 7.00 6.93 7.46 7.41 7.28 7.50 7.70 7.10 7.53 7.70 7.53 7.18 6.76 7.24 7.40 7.55 7.41 7.70 7.21 7.64 7.16 7.59 7.25 7.34 7.33 7.73 7.12 7.42 6.85 7.17 6.77 7.71 7.07 7.28 7.32 7.02 7.34 7.64 6.84 6.86 6.77 6.85 7.57 7.57 7.68 7.29 7.28 7.26 6.93 7.38 7.26 7.27 6.95 7.04 7.28 7.07 7.03 7.68 6.97 7.52 7.10 6.94 7.57 6.97 7.59 7.55 7.04 7.31 7.10 7.04 7.11 7.55 6.90 7.24 7.47 6.77 7.72 6.98 7.51 7.31 7.70 6.96 7.03 7.25 7.22 6.84 6.96 -9999 -9999 -9999 -9999 -9999 -9999 -9999 -9999 -9999 -9999 -9999 -9999 -9999 -9999 -9999 -9999 -9999 -9999 -9999 -9999 -9999 -9999 -9999 -9999 -9999 -9999
7.08 6.99 7.51 7.72 6.95 7.42 7.40 7.66 7.55 7.63 7.48 7.63 7.60 7.20 7.71 7.59 7.60 7.68 7.60 6.86 7.66 7.47 7.43 7.42 7.16 6.97 7.58 7.27 7.49 7.22 7.63 6.76 7.35 7.35 7.43 7.03 7.44 7.70 7.56 7.17 6.97 7.54 7.20 7.12 7.73 7.69 7.60 7.71 7.70 7.37 7.26 7.72 7.51 7.58 7.09 7.39 7.48 7.19 7.37 7.31 7.03 6.78 7.64 7.56 7.32 6.97 7.47 7.16 7.72 7.50 7.18 7.49 7.18 7.30 7.56 7.48 7.52 7.49 6.80 6.90 6.77 7.65 6.87 7.66 7.64 6.99 7.06 6.98 6.87 7.37 7.63 7.58 7.36 7.71 7.63 7.16 7.73 6.90 7.32 6.76 7.68 7.42 7.40 7.65 6.83 7.02 7.51 7.43 6.89 7.10 6.98 7.26 6.88 7.09 7.10 7.24 7.15 6.92 7.35 6.81 7.15 6.91 6.92 7.74 7.01 7.64 7.57 7.37 7.51 6.89 6.90 7.06 7.04 7.20 6.81 7.67 7.21 6.88 6.94 7.45 7.14 7.27 7.50 7.20 6.91 7.43 7.71 7.16 7.05 6.94 7.47 7.01 7.05 7.14 7.19 7.51 7.33 7.06 7.68 7.75 7.44 7.67 7.31 7.67 6.92 7.56 7.39 7.23 7.20 6.88 7.12 7.72 7.30 7.66 7.18 6.81 6.77 7.07 7.14 7.15 7.37 7.21 7.58 6.79 6.92 6.84 6.84 7.28 7.66 7.27 -9999 -9999 -9999 -9999 -9999 -9999 -9999 -9999 -9999 -9999 -9999 -9999 -9999 -9999 -9999 -9999 -9999 -9999 -9999 -9999 -9999 -9999 -9999 -9999 -9999
7.00 7.14 6.87 6.89 7.72 6.88 7.73 7.12 6.78 7.64 7.55 7.34 7.31 6.81 7.51 7.25 6.89 7.33 7.19 7.12 6.97 7.20 7.32 7.67 7.37 7.57 7.75 7.13 7.06 7.56 7.54 7.32 7.38 6.90 6.84 7.07 6.84 6.81 6.95 7.70 6.84 7.28 6.94 7.34 6.92 7.28 7.05 7.38 7.23 7.27 7.09 7.01 7.56 7.26 6.83 7.26 7.14 6.94 7.16 7.66 7.50 7.48 7.44 7.22 6.96 7.40 7.12 6.94 7.06 7.69 7.37 7.74 6.87 7.44 7.07 7.25 7.44 6.96 7.14 7.47 6.87 7.52 6.92 7.16 7.75 6.84 7.10 6.78 7.25 6.89 7.43 7.65 6.94 7.55 6.92 7.47 7.09 7.17 6.99 6.95 6.82 6.79 7.46 7.42 7.35 7.11 7.04 7.20 7.09 7.31 6.90 7.63 7.61 7.09 7.53 7.47 7.07 7.46 7.20 6.76 6.90 7.08 7.63 6.97 7.44 7.40 6.96 7.34 6.93 7.30 7.15 6.99 7.48 7.19 7.07 7.29 7.15 6.90 7.60 6.76 7.54 7.64 7.48 7.05 7.41 7.71 7.30 7.38 7.47 7.02 7.00 7.64 7.65 7.05 7.26 6.87 7.62 7.71 6.84 7.05 7.19 6.82 7.53 7.69 6.99 7.56 6.75 7.71 7.01 7.09 7.74 7.48 7.59 6.78 7.15 6.79 7.42 7.40 7.08 7.12 7.14 6.98 7.33 7.28 7.74 7.53 6.98 7.14 7.06 7.11 -9999 -9999 -9999 -9999 -9999 -9999 -9999 -9999 -9999 -9999 -9999 -9999 -9999 -9999 -9999 -9999 -9999 -9999 -9999 -9999 -9999 -9999 -9999 -9999 -9999
7.58 7.15 6.99 7.11 7.56 7.52 7.24 7.67 7.63 7.11 7.69 6.76 7.14 7.08 7.24 7.74 7.10 6.82 6.89 7.04 7.45 7.70 7.06 6.79 7.52 7.52 7.00 7.33 7.31 6.82 6.85 6.96 6.84 7.65 7.04 6.80 7.68 7.26 7.03 7.73 7.06 7.18 7.43 7.00 7.11 7.48 6.80 7.27 7.58 6.93 7.03 7.42 6.82 7.23 7.13 7.46 7.73 7.05 7.59 7.29 7.66 7.14 6.83 7.41 6.99 6.85 7.02 7.39 6.95 6.94 7.28 7.47 7.51 7.75 6.83 7.53 7.68 7.37 7.60 6.95 7.02 7.39 7.15 7.48 7.70 7.50 7.22 7.73 7.12 7.27 7.39 7.10 7.70 7.61 7.60 7.00 7.21 7.70 6.92 7.33 7.01 7.34 7.48 6.81 6.94 7.67 7.42 7.66 7.41 6.90 6.78 7.39 7.33 7.11 6.75 7.50 7.35 6.97 6.77 7.41 7.23 7.14 6.88 7.72 6.78 7.43 7.35 7.16 7.16 7.03 7.38 7.72 7.14 7.62 7.70 7.67 6.75 7.01 7.04 7.06 6.76 6.84 7.59 7.44 7.12 7.11 7.54 7.07 7.32 7.59 7.65 6.79 7.26 7.21 7.12 7.41 7.24 7.10 7.55 7.73 7.35 7.39 7.73 7.35 7.68 7.16 7.22 7.20 6.95 7.03 6.77 7.74 7.22 6.80 7.72 6.97 7.52 6.95 7.33 6.88 6.97 7.54 7.14 7.10 7.63 6.81 7.22 7.64 6.84 7.69 -9999 -9999 -9999 -9999 -9999 -9999 -9999 -9999 -9999 -9999 -9999 -9999 -9999 -9999 -9999 -9999 -9999 -9999 -9999 -9999 -9999 -9999 -9999 -9999 -9999
7.25 6.97 6.99 7.54 7.15 7.18 6.76 7.16 6.76 7.62 7.42 7.61 6.85 7.03 7.74 7.23 7.27 6.77 6.92 7.63 7.27 6.94 7.14 7.12 7.62 7.48 7.04 7.03 7.46 7.51 7.25 7.31 7.34 7.14 7.29 6.86 7.64 7.19 7.27 7.68 7.66 7.33 7.54 7.08 7.04 7.34 7.70 6.88 7.55 7.45 6.89 7.72 7.74 7.71 6.97 6.82 7.05 7.00 7.43 7.57 7.17 6.97 7.70 7.32 7.18 7.42 6.77 7.15 7.29 6.95 7.43 6.80 6.78 7.52 6.98 6.82 7.28 7.52 7.38 7.07 7.05 7.20 6.87 7.47 7.52 6.85 7.32 7.09 6.76 6.91 6.91 6.92 7.56 7.02 7.60 7.47 7.74 7.70 7.42 6.77 7.47 7.05 7.60 7.21 7.07 7.14 7.43 7.70 7.31 7.26 7.28 7.34 7.12 7.23 7.38 7.53 7.43 6.89 7.64 7.21 7.06 6.99 7.62 7.15 7.03 7.11 7.30 7.55 7.37 7.55 7.75 6.93 7.18 7.36 6.81 7.05 6.85 6.84 7.69 6.88 7.20 6.78 7.47 7.10 7.27 7.27 7.09 7.35 7.42 7.66 7.00 7.16 7.59 7.34 6.81 7.60 6.79 7.05 7.16 7.72 7.67 6.97 7.68 7.10 7.70 7.31 6.82 6.95 6.75 7.21 7.42 7.03 7.04 7.72 7.12 7.29 7.66 7.33 7.32 6.84 7.00 7.45 7.00 7.50 7.09 7.64 6.97 7.46 7.25 6.97 -9999 -9999 -9999 -9999 -9999 -9999 -9999 -9999 -9999 -9999 -9999 -9999 -9999 -9999 -9999 -9999 -9999 -9999 -9999 -9999 -9999 -9999 -9999 -9999 -9999
7.65 7.14 7.36 6.85 7.28 6.80 6.81 7.17 7.41 7.31 7.72 7.60 7.64 7.03 7.23 7.22 7.73 7.40 6.86 7.35 7.23 7.72 7.04 6.86 7.36 7.74 7.38 7.33 6.95 7.47 7.51 7.29 6.86 7.67 7.69 6.94 7.43 7.31 7.06 7.69 7.25 6.92 7.74 6.84 7.51 7.03 7.24 7.55 6.78 7.16 7.33 7.38 7.02 6.92 6.76 7.73 6.78 7.13 7.06 7.21 7.67 7.59 6.93 7.33 7.49 7.72 7.25 7.53 7.18 6.95 7.58 6.85 7.22 7.07 6.85 7.74 6.83 7.66 7.43 6.81 6.79 7.61 6.94 6.99 7.05 6.85 7.00 6.90 6.78 7.48 7.69 6.77 6.92 7.07 7.24 7.46 7.46 6.94 7.57 7.13 7.73 7.72 7.66 7.57 7.08 7.74 7.05 6.93 7.16 7.33 7.26 7.75 7.19 7.69 6.79 6.91 6.87 7.68 7.33 7.67 7.00 7.59 7.43 6.95 7.07 7.29 7.17 7.16 7.29 7.07 7.56 7.29 7.36 7.24 7.46 7.71 7.57 6.82 7.65 7.02 7.35 6.94 7.52 6.95 7.27 7.50 6.91 7.75 7.50 7.30 7.30 7.45 6.95 7.65 7.68 7.39 6.86 6.97 7.24 7.37 6.79 7.20 7.73 7.59 7.35 7.46 7.68 7.60 7.62 7.71 7.13 7.37 7.57 7.18 7.49 6.89 7.11 7.27 7.29 6.85 7.72 7.02 7.74 7.25 7.04 7.66 7.71 7.65 7.50 7.14 -9999 -9999 -9999 -9999 -9999 -9999 -9999 -9999 -9999 -9999 -9999 -9999 -9999 -9999 -9999 -9999 -9999 -9999 -9999 -9999 -9999 -9999 -9999 -9999 -9999
7.41 7.23 7.05 7.09 7.56 7.70 7.73 7.38 6.99 7.70 7.44 6.92 7.49 7.11 7.60 7.38 7.66 6.85 7.49 7.13 7.14 7.25 6.79 7.45 7.07 7.20 7.45 7.06 7.14 7.32 7.60 6.93 7.11 7.52 7.31 7.73 6.96 7.02 6.84 6.80 7.63 6.80 7.02 6.77 7.69 7.23 7.33 6.92 7.34 6.78 7.39 6.94 6.96 7.49 7.71 7.32 6.78 6.81 7.28 7.39 6.89 7.45 7.30 7.56 7.12 6.88 7.20 7.36 7.11 7.06 7.59 7.73 7.61 7.44 7.54 7.40 7.43 7.30 7.10 6.87 7.22 7.06 7.20 6.78 7.42 6.93 7.04 7.11 6.99 7.69 7.14 6.85 6.87 6.87 6.87 7.68 7.03 7.21 6.86 7.02 7.27 7.61 7.40 7.73 7.57 7.68 7.18 6.88 7.07 7.31 6.77 6.82 7.67 7.08 7.62 6.81 6.89 7.74 7.01 6.85 7.60 7.58 7.67 7.27 7.10 7.18 6.91 7.19 7.67 7.28 7.72 7.13 7.26 7.68 7.39 7.04 6.89 6.90 7.63 7.60 7.27 6.94 6.78 7.47 7.72 6.98 6.88 7.10 7.74 7.50 7.44 7.16 7.51 6.98 7.34 6.96 6.77 6.93 7.06 7.14 6.84 7.19 7.48 7.57 7.07 7.46 7.25 6.85 7.38 7.29 7.64 7.20 7.21 7.37 7.34 6.80 7.44 7.07 7.24 6.92 7.00 6.84 7.47 7.70 7.02 7.32 6.75 7.56 7.42 7.30 -9999 -9999 -9999 -9999 -9999 -9999 -9999 -9999 -9999 -9999 -9999 -9999 -9999 -9999 -9999 -9999 -9999 -9999 -9999 -9999 -9999 -9999 -9999 -9999 -9999
6.82 7.10 7.23 7.29 7.60 6.83 7.50 7.58 7.40 6.81 6.85 6.77 7.62 7.19 7.01 7.39 6.93 7.02 7.74 7.70 7.30 7.12 7.73 6.82 7.26 7.73 7.57 7.73 7.31 6.98 7.70 6.83 7.74 6.93 7.46 6.81 7.47 7.18 7.51 7.06 7.51 7.40 7.08 7.50 7.00 7.04 7.30 7.57 7.37 7.60 7.69 7.08 7.73 6.79 7.06 6.77 7.54 7.09 7.16 6.93 7.45 6.83 6.78 7.57 7.73 7.58 7.69 7.43 7.46 7.68 7.56 7.62 7.29 6.84 7.11 7.06 7.38 7.68 7.19 6.83 7.24 6.93 7.24 7.30 7.17 7.19 6.78 7.22 7.64 6.82 7.68 7.00 6.93 7.26 7.53 7.21 7.42 6.99 7.36 7.05 6.98 7.44 6.93 7.67 7.48 6.92 7.67 6.86 7.08 7.03 7.22 7.45 7.28 7.56 7.23 6.85 7.41 7.01 7.71 6.81 7.43 7.35 7.20 7.03 7.36 7.22 7.42 7.02 6.88 7.59 6.88 7.01 7.46 7.12 7.50 6.92 6.90 7.54 7.02 7.32 6.80 7.24 7.60 6.89 7.74 7.36 7.07 7.28 6.94 7.39 7.50 7.56 6.82 6.76 7.66 6.79 7.15 7.60 7.17 7.10 7.57 7.30 7.32 7.48 6.80 7.04 7.49 7.28 7.22 7.34 7.05 7.64 7.38 6.86 7.14 6.87 7.18 7.55 7.72 6.79 7.68 7.27 7.37 6.79 7.47 6.97 6.96 7.15 6.91 6.98 7.25 -9999 -9999 -9999 -9999 -9999 -9999 -9999 -9999 -9999 -9999 -9999 -9999 -9999 -9999 -9999 -9999 -9999 -9999 -9999 -9999 -9999 -9999 -9999 -9999
7.59 7.39 7.27 6.77 7.58 7.04 6.89 7.35 6.97 6.77 7.41 7.32 7.09 6.86 7.21 7.34 7.51 7.45 7.72 7.56 7.63 7.12 6.85 7.11 7.31 6.94 6.77 7.31 6.82 7.68 7.24 7.74 7.45 7.66 7.06 6.97 7.48 7.32 7.39 7.15 7.13 7.09 7.25 7.44 7.24 6.78 6.94 7.69 7.02 7.18 7.42 7.22 7.40 7.39 7.21 7.32 7.44 7.31 7.55 6.91 7.32 7.70 7.43 7.43 7.68 6.86 6.86 7.62 6.83 6.76 7.23 6.90 7.33 7.25 6.78 7.12 7.70 7.47 7.21 7.34 6.99 6.97 7.43 7.34 7.15 7.34 6.95 6.98 7.07 7.74 6.77 7.05 7.06 7.33 6.88 7.26 7.18 6.98 7.45 7.55 7.36 6.90 6.90 7.69 6.81 7.23 7.21 7.63 7.35 7.28 7.75 7.19 7.58 7.09 7.52 7.19 7.71 7.15 7.01 7.18 7.54 6.78 7.31 7.57 7.22 6.92 7.21 7.16 7.42 7.42 7.23 7.21 7.05 7.65 7.68 7.68 7.50 7.06 7.54 7.69 6.80 6.95 7.55 6.81 7.60 7.58 7.33 6.80 7.03 7.41 7.23 7.23 7.38 6.90 7.05 7.09 7.71 7.69 7.72 7.16 7.27 7.72 7.16 6.84 7.61 7.33 6.79 6.87 7.03 7.49 6.87 7.42 7.18 6.91 7.67 7.02 7.51 7.50 6.98 6.86 7.51 7.31 6.91 7.29 6.87 7.67 7.22 7.49 6.80 6.88 7.61 -9999 -9999 -9999 -9999 -9999 -9999 -9999 -9999 -9999 -9999 -9999 -9999 -9999 -9999 -9999 -9999 -9999 -9999 -9999 -9999 -9999 -9999 -9999 -9999
7.27 7.20 7.00 7.10 7.51 6.80 7.29 7.30 7.55 6.86 7.00 6.78 7.15 7.36 7.16 7.59 7.00 7.27 6.83 7.12 6.78 6.83 7.48 7.56 7.37 7.56 7.63 7.28 7.18 7.09 6.93 7.63 6.82 6.96 7.35 6.86 7.71 7.64 6.77 7.20 6.78 6.86 7.67 7.43 7.11 7.59 7.15 7.03 7.73 7.35 7.37 7.01 7.43 7.62 7.14 6.98 7.08 7.72 6.99 7.29 7.22 7.18 7.71 6.76 6.86 7.39 7.06 7.25 6.83 7.55 7.47 6.90 7.44 7.58 6.95 7.65 7.59 7.31 7.26 7.01 7.21 7.24 7.27 7.32 7.06 7.54 7.49 6.89 6.95 6.96 7.50 7.52 6.78 7.35 7.63 6.90 6.81 7.02 6.91 7.28 7.33 7.04 7.15 7.04 7.24 6.94 7.11 7.65 6.90 7.54 7.33 7.07 6.83 6.97 7.49 7.10 7.03 7.37 6.87 7.26 7.36 7.32 6.77 6.84 7.63 7.10 7.38 7.50 7.08 7.02 6.88 7.34 7.13 7.07 7.25 7.31 7.55 7.40 7.63 7.56 7.41 7.04 7.21 7.40 7.17 7.57 7.68 7.62 7.48 6.94 7.53 7.18 7.61 7.55 7.60 7.69 7.32 7.52 7.33 7.10 7.52 7.01 7.74 7.18 7.69 6.99 7.68 7.57 7.34 7.61 7.07 7.58 7.35 6.94 7.57 7.26 7.26 7.49 6.76 7.70 6.93 6.78 7.35 6.79 7.03 6.76 6.84 6.86 7.31 6.80 6.77 -9999 -9999 -9999 -9999 -9999 -9999 -9999 -9999 -9999 -9999 -9999 -9999 -9999 -9999 -9999 -9999 -9999 -9999 -9999 -9999 -9999 -9999 -9999 -9999
7.45 7.35 7.02 7.19 7.21 7.49 7.45 7.03 7.46 7.53 6.97 7.01 6.97 7.55 7.28 7.25 7.71 7.65 7.14 6.95 7.55 7.19 7.45 7.04 7.34 7.30 7.06 7.45 7.64 7.62 7.57 7.55 6.76 7.59 7.39 6.77 7.57 6.84 6.92 6.76 6.93 7.20 7.29 7.57 7.10 6.91 7.28 7.31 6.92 7.55 7.12 6.99 7.18 7.17 7.72 7.68 7.46 7.36 7.52 7.71 7.31 6.89 6.97 7.67 6.90 7.56 7.39 7.66 6.78 7.44 7.70 7.34 7.74 7.30 7.14 7.25 7.42 6.99 7.63 7.19 7.08 6.91 7.18 7.68 7.28 7.52 7.18 7.00 6.86 6.95 7.25 7.52 7.51 7.21 7.43 7.56 7.52 7.43 7.54 7.18 7.20 7.36 6.97 7.00 7.22 7.16 7.26 6.91 6.91 7.70 6.82 7.07 7.20 7.09 7.17 6.84 7.69 7.38 6.84 7.28 7.06 7.10 7.62 7.69 7.22 6.90 7.09 7.20 7.16 7.55 7.41 6.91 6.76 7.56 6.82 7.25 7.58 7.25 7.30 7.20 6.93 7.47 7.43 7.13 6.85 6.84 6.83 7.45 7.25 6.75 7.73 7.65 7.65 7.06 7.23 7.62 6.86 7.08 7.05 6.94 6.94 7.14 7.70 7.49 6.76 7.65 7.69 7.61 7.18 7.02 7.73 7.31 7.30 7.37 6.98 6.79 7.19 7.53 6.79 7.46 7.12 6.96 7.25 6.94 7.23 7.61 7.45 7.74 7.74 7.69 7.57 -9999 -9999 -9999 -9999 -9999 -9999 -9999 -9999 -9999 -9999 -9999 -9999 -9999 -9999 -9999 -9999 -9999 -9999 -9999 -9999 -9999 -9999 -9999 -9999
7.51 7.73 6.98 7.03 7.17 7.17 7.22 7.16 7.72 7.22 7.24 7.53 7.42 7.64 7.15 7.35 7.48 6.79 7.75 6.79 7.37 6.76 7.47 7.31 7.24 7.52 7.40 7.33 7.72 6.92 6.82 7.12 7.27 7.46 7.54 7.53 6.95 7.69 7.39 6.99 7.28 7.33 7.02 6.76 6.96 7.43 7.26 7.72 7.00 7.02 7.04 7.45 6.88 7.23 7.61 7.21 6.75 7.28 6.76 7.44 7.43 7.19 7.61 6.81 7.20 7.23 7.32 6.99 6.77 7.53 7.26 7.58 7.14 7.39 7.62 7.14 7.44 6.94 7.01 7.21 7.66 7.27 7.54 6.95 7.43 7.01 7.25 7.10 7.57 7.52 7.05 7.01 7.63 7.18 7.43 7.71 7.34 6.85 7.46 7.50 6.81 7.12 6.93 7.59 6.89 7.38 7.65 7.42 7.35 7.73 6.90 7.59 7.27 7.34 7.21 6.93 7.17 7.30 7.57 7.16 7.25 7.01 7.39 7.10 6.79 7.19 7.36 7.40 6.93 6.99 6.99 7.53 7.51 7.10 7.05 7.67 7.37 7.66 7.39 7.32 7.22 7.73 7.71 7.34 7.16 7.11 7.64 6.81 6.93 7.21 6.98 7.43 6.91 7.22 7.40 7.48 7.55 7.38 7.40 6.86 7.70 6.87 6.96 7.34 7.70 7.35 7.28 7.56 7.58 7.06 7.10 7.57 7.42 6.79 7.10 7.44 7.40 6.94 7.23 7.48 6.91 6.87 7.67 7.16 6.94 7.13 7.41 7.21 7.35 7.54 7.36 -9999 -9999 -9999 -9999 -9999 -9999 -9999 -9999 -9999 -9999 -9999 -9999 -9999 -9999 -9999 -9999 -9999 -9999 -9999 -9999 -9999 -9999 -9999 -9999
6.82 7.65 7.25 7.28 6.82 7.41 6.88 6.86 7.67 7.07 7.36 6.98 7.46 6.84 7.28 7.11 7.34 6.95 7.01 7.54 7.58 7.44 6.87 7.46 7.60 6.97 7.22 6.75 7.52 6.85 6.88 7.15 7.27 6.78 6.78 7.17 7.14 7.68 7.62 7.58 7.06 7.56 7.63 6.93 7.07 7.48 6.83 7.42 7.65 7.11 7.42 6.93 7.58 7.37 7.20 6.79 7.33 7.13 6.76 6.87 7.04 7.03 7.38 7.70 6.91 7.26 6.95 7.46 6.88 7.29 7.48 7.50 7.09 6.80 7.23 7.21 7.19 6.91 7.24 7.02 7.63 7.62 7.30 6.97 7.48 7.16 7.10 6.77 7.50 7.41 6.78 7.71 6.96 7.07 7.31 7.08 7.73 7.07 7.36 7.20 7.42 7.38 6.86 6.88 6.91 7.39 6.82 7.22 7.13 7.25 7.51 7.61 7.24 7.34 6.87 7.61 7.64 7.28 7.45 7.56 7.36 7.12 7.72 6.77 7.04 6.98 7.07 7.73 7.09 7.70 7.35 7.52 7.02 7.32 6.90 6.81 7.70 7.74 7.15 7.55 6.89 7.63 6.88 7.43 7.04 7.64 7.22 6.93 6.89 7.49 7.27 7.56 7.00 6.79 7.12 7.42 7.73 7.30 7.57 7.25 7.72 7.40 7.62 7.50 7.39 6.99 7.30 6.83 6.80 6.99 7.56 7.27 7.75 6.89 7.20 7.35 7.63 6.95 7.52 7.50 7.58 7.14 7.65 7.04 7.48 7.68 7.20 7.06 7.16 6.78 6.83 -9999 -9999 -9999 -9999 -9999 -9999 -9999 -9999 -9999 -9999 -9999 -9999 -9999 -9999 -9999 -9999 -9999 -9999 -9999 -9999 -9999 -9999 -9999 -9999
7.28 7.05 7.50 7.64 7.38 7.44 7.61 7.62 7.01 6.95 7.70 7.21 7.01 6.92 7.17 7.31 7.01 7.68 7.62 7.29 7.19 6.87 7.31 7.10 7.18 7.24 6.94 6.82 6.99 7.40 7.54 7.16 7.49 7.34 6.91 7.42 7.57 6.95 7.23 7.25 7.43 7.44 7.02 7.45 7.11 7.26 7.12 7.10 6.91 6.97 7.05 6.75 6.95 7.14 6.93 7.63 7.01 6.87 6.90 7.31 6.98 7.35 7.74 7.09 7.62 7.62 7.62 7.30 7.59 7.27 7.11 7.17 7.68 7.70 7.07 6.94 7.60 6.87 6.97 7.68 7.54 7.69 7.04 7.32 7.71 6.95 6.92 7.20 7.52 7.15 7.74 6.89 6.77 6.97 7.34 6.95 7.54 7.21 6.95 6.78 7.66 7.49 7.42 7.47 7.45 7.71 7.36 7.58 7.60 6.96 7.71 7.27 6.95 7.67 6.90 6.88 7.31 6.91 6.90 7.68 7.39 7.22 6.84 7.62 7.27 7.26 7.59 6.84 7.17 7.51 7.74 7.23 7.17 7.29 7.10 6.92 7.38 6.75 7.15 7.27 7.15 7.57 7.39 6.76 7.27 7.07 7.37 6.90 7.27 7.58 7.41 7.52 7.38 7.01 7.05 7.46 7.49 7.48 6.95 7.62 7.53 7.09 7.37 7.04 7.48 7.52 7.41 7.13 7.75 7.15 7.47 7.68 7.49 7.28 7.01 7.60 6.84 6.93 6.88 7.07 7.24 6.94 7.08 7.67 7.57 7.65 7.61 7.66 7.63 6.92 7.46 -9999 -9999 -9999 -9999 -9999 -9999 -9999 -9999 -9999 -9999 -9999 -9999 -9999 -9999 -9999 -9999 -9999 -9999 -9999 -9999 -9999 -9999 -9999 -9999
6.87 7.58 7.03 7.20 7.06 7.41 7.21 7.41 7.26 6.93 7.14 6.87 7.43 7.69 6.98 7.45 6.88 6.97 7.51 7.58 7.31 7.39 7.51 7.24 7.44 7.12 7.45 7.75 6.79 7.07 6.79 7.04 7.23 6.79 6.80 7.11 6.89 7.42 7.18 6.91 7.27 7.07 7.46 7.37 7.09 7.22 7.71 7.27 7.40 7.02 6.99 7.20 7.55 7.68 7.53 7.65 7.22 7.10 7.18 7.70 7.03 7.35 7.09 7.54 7.30 7.56 7.56 7.40 7.23 7.14 6.96 6.82 7.45 7.31 7.24 7.36 7.27 6.77 6.80 7.11 7.07 7.73 7.66 7.31 6.76 7.43 7.30 7.64 7.33 7.16 7.03 7.15 7.09 7.47 6.80 7.04 6.96 7.10 6.98 7.41 6.76 7.19 7.34 7.39 7.06 7.24 7.28 7.08 7.47 6.79 7.00 7.13 6.92 7.26 7.47 7.16 7.02 7.53 7.60 7.31 7.20 7.29 7.17 6.84 7.56 7.50 7.60 7.51 7.18 7.04 7.30 6.97 7.15 7.52 6.89 6.90 7.06 7.25 6.94 7.57 6.88 7.19 7.03 6.96 7.09 6.77 7.02 7.54 7.60 7.04 6.99 6.96 7.22 7.28 7.55 7.19 7.61 6.93 7.28 7.71 7.70 7.35 7.34 7.73 7.36 7.07 7.07 7.31 6.80 7.04 6.97 7.59 7.41 7.42 7.01 7.43 7.13 6.84 6.96 7.09 7.48 7.42 7.15 6.86 6.78 7.23 6.83 7.07 7.36 7.00 7.55 7.20 -9999 -9999 -9999 -9999 -9999 -9999 -9999 -9999 -9999 -9999 -9999 -9999 -9999 -9999 -9999 -9999 -9999 -9999 -9999 -9999 -9999 -9999 -9999
7.61 7.69 7.15 6.90 6.83 7.16 6.76 7.00 7.70 6.84 7.18 6.91 6.80 7.61 7.52 6.93 7.37 7.72 7.15 7.15 7.06 7.71 7.02 7.03 7.60 7.19 7.40 7.46 6.98 6.95 6.84 7.11 7.69 6.76 6.83 7.60 7.26 7.68 7.17 7.23 7.72 7.44 7.22 6.93 6.88 7.44 7.03 7.39 7.29 7.07 7.23 7.66 7.50 6.97 7.34 7.22 7.74 7.56 6.90 6.85 7.04 6.98 7.14 6.98 7.17 7.74 7.16 7.34 6.80 7.30 7.10 6.86 7.36 6.84 6.94 7.07 6.78 6.77 7.24 7.04 7.32 6.88 7.63 6.88 7.60 7.26 7.43 6.95 7.20 7.25 6.89 7.06 6.87 7.23 7.61 7.11 6.87 7.06 7.47 7.55 7.68 7.15 6.79 7.63 6.90 6.78 7.14 7.13 6.78 7.55 7.18 6.86 6.76 7.21 7.54 7.55 7.75 7.06 7.52 6.84 7.66 7.28 7.36 6.98 7.63 7.50 7.68 7.37 7.06 6.80 7.07 7.72 7.35 6.96 7.74 6.99 7.24 7.60 7.14 7.74 7.60 7.57 7.69 7.31 6.84 6.92 7.05 7.43 7.15 7.01 7.39 6.85 7.48 7.43 7.65 7.47 7.32 7.30 7.18 7.57 6.96 7.63 7.17 7.53 7.46 7.54 6.94 7.51 7.64 6.76 7.62 7.17 7.32 7.04 7.64 7.30 7.44 7.35 7.71 7.56 7.74 7.13 7.29 7.53 7.02 7.62 6.90 7.16 7.47 7.74 7.22 7.51 -9999 -9999 -9999 -9999 -9999 -9999 -9999 -9999 -9999 -9999 -9999 -9999 -9999 -9999 -9999 -9999 -9999 -9999 -9999 -9999 -9999 -9999 -9999
7.74 7.35 7.50 6.90 7.47 7.54 7.41 6.90 7.68 7.34 7.55 7.43 7.02 7.06 7.44 7.55 6.77 7.21 6.96 7.64 6.84 7.03 7.63 6.86 7.62 7.36 7.24 7.02 6.77 6.97 6.76 7.36 7.49 7.71 7.02 7.71 7.41 7.69 7.63 7.41 7.59 7.18 7.51 7.73 6.84 6.84 6.97 7.00 7.64 7.08 7.36 7.72 7.57 7.25 7.67 6.85 6.95 7.37 7.40 7.62 7.33 6.99 6.87 6.84 7.34 7.27 7.54 7.38 7.11 7.21 7.17 7.01 7.39 7.19 7.06 6.85 7.72 7.08 7.55 7.50 7.14 6.91 7.22 7.67 7.13 7.42 7.36 7.58 6.95 6.98 7.04 7.51 6.85 7.18 7.22 6.77 7.02 7.13 7.26 7.07 7.52 7.71 7.72 7.24 7.68 7.59 7.34 7.75 7.45 6.98 7.43 7.10 7.16 7.73 7.18 7.62 6.87 7.65 7.36 7.50 7.33 7.10 7.45 7.74 6.88 7.60 7.33 7.73 7.14 7.03 7.34 7.01 7.57 6.86 7.42 6.76 7.47 7.28 7.57 6.80 6.91 7.71 7.36 7.13 7.47 7.47 7.24 6.96 7.00 7.10 7.03 7.36 7.47 7.14 7.73 6.82 7.10 7.51 7.27 7.30 7.15 7.33 6.79 7.36 7.52 7.38 6.95 7.47 6.94 7.06 7.18 6.96 7.15 7.36 7.62 7.45 7.69 7.73 6.96 7.01 6.96 7.62 7.60 7.59 7.24 7.31 6.96 7.24 6.89 6.76 6.88 6.85 -9999 -9999 -9999 -9999 -9999 -9999 -9999 -9999 -9999 -9999 -9999 -9999 -9999 -9999 -9999 -9999 -9999 -9999 -9999 -9999 -9999 -9999 -9999
7.28 7.31 6.88 7.13 7.65 7.10 7.51 7.14 7.49 7.62 7.70 7.03 6.77 6.81 6.99 7.51 6.83 7.59 6.81 6.86 6.89 6.80 6.94 7.17 7.07 7.15 7.00 7.45 7.08 6.91 6.87 6.85 7.28 7.02 7.23 7.41 7.34 7.46 7.60 7.72 7.27 7.12 6.88 7.19 7.04 7.47 6.88 6.81 7.34 7.42 7.55 7.73 6.76 7.67 7.43 7.67 7.47 7.73 7.42 7.55 6.84 7.29 7.65 7.53 7.46 7.46 7.61 6.97 7.36 7.52 7.53 7.01 7.27 7.45 7.08 6.90 7.12 7.12 6.80 7.74 7.71 7.43 6.90 7.27 7.16 6.99 7.64 7.36 6.90 7.11 7.05 7.57 7.21 7.34 7.24 7.54 7.49 7.21 7.07 7.03 7.01 7.06 7.73 7.15 7.49 7.07 6.94 7.55 6.87 6.87 7.15 7.34 7.27 7.51 7.43 6.81 7.13 6.89 6.90 6.98 7.25 6.76 6.80 6.95 6.99 7.49 7.71 7.30 7.52 7.20 7.38 7.42 7.69 7.74 6.76 7.02 7.68 6.88 7.28 7.30 7.72 6.80 6.87 7.25 7.04 7.54 7.61 6.86 6.93 7.33 7.26 7.23 7.42 7.16 7.33 6.84 7.36 7.19 6.98 7.67 7.58 7.50 7.71 7.15 7.61 7.38 6.89 6.97 7.61 7.34 7.21 7.06 7.29 7.68 6.78 7.35 7.74 7.08 6.92 7.62 7.52 7.12 7.22 7.62 7.56 7.49 7.52 7.06 7.43 6.77 6.92 7.42 -9999 -9999 -9999 -9999 -9999 -9999 -9999 -9999 -9999 -9999 -9999 -9999 -9999 -9999 -9999 -9999 -9999 -9999 -9999 -9999 -9999 -9999 -9999
7.43 7.48 7.43 7.54 7.45 7.61 6.76 7.21 6.78 7.02 7.60 6.81 7.30 7.09 7.33 7.75 7.53 6.82 7.44 7.64 7.55 7.30 7.62 7.50 7.66 7.14 7.11 6.86 7.54 7.32 7.63 6.82 7.22 7.38 7.15 6.79 7.26 7.69 7.21 7.23 7.37 7.59 7.71 7.10 7.64 7.59 6.85 7.39 7.43 7.64 6.93 7.35 7.52 7.21 7.33 7.07 7.68 7.56 6.81 7.32 6.83 7.13 7.05 7.23 6.92 7.05 6.89 7.53 7.02 7.33 7.40 7.44 6.83 6.88 7.23 7.03 7.22 7.19 7.03 6.88 7.58 7.20 7.60 7.51 7.03 7.51 7.34 6.81 7.37 7.69 6.97 6.89 7.24 7.50 7.68 7.12 7.07 7.43 6.87 7.47 7.38 7.22 7.54 6.81 7.25 6.92 7.13 6.81 7.66 6.82 7.58 6.94 7.38 7.44 7.70 7.15 6.95 6.95 7.70 7.26 6.85 7.72 7.66 7.36 7.35 7.28 6.87 6.79 6.77 7.63 7.65 7.37 7.40 7.27 7.22 6.89 7.58 7.70 7.65 6.87 7.48 7.74 7.54 7.72 7.49 7.59 7.60 7.00 7.42 6.79 6.86 7.16 7.28 7.20 7.17 7.40 6.75 7.50 7.48 7.58 6.99 6.98 7.66 7.08 6.94 7.14 7.70 7.23 7.68 7.51 7.35 6.91 7.15 7.58 7.01 7.37 7.25 7.34 7.05 7.59 6.95 7.62 7.46 7.59 6.87 7.57 7.06 7.30 7.52 6.80 6.89 6.87 -9999 -9999 -9999 -9999 -9999 -9999 -9999 -9999 -9999 -9999 -9999 -9999 -9999 -9999 -9999 -9999 -9999 -9999 -9999 -9999 -9999 -9999 -9999
7.07 7.64 7.20 7.55 6.76 7.38 7.24 7.49 6.75 7.26 7.17 7.00 6.77 6.79 7.74 6.97 7.52 7.11 7.07 7.27 7.62 7.59 7.74 6.90 6.83 7.62 7.35 7.01 7.58 7.47 6.80 7.50 6.97 6.97 6.92 7.21 7.10 7.12 7.55 6.99 7.72 7.21 6.83 7.54 7.19 6.92 7.59 7.15 6.96 7.25 7.19 7.38 7.22 7.21 7.68 7.01 7.33 6.86 6.96 7.66 6.82 7.69 7.45 7.71 7.70 7.61 7.33 7.41 6.82 6.97 7.68 7.53 7.68 7.14 6.83 6.94 7.39 7.22 7.31 7.07 7.37 7.06 7.14 7.57 7.15 7.28 7.05 7.29 7.69 6.82 6.91 6.76 7.03 7.67 7.71 7.27 6.90 7.06 7.05 6.90 7.70 7.38 7.66 7.13 7.69 7.40 7.68 7.61 7.61 7.62 6.88 6.89 6.87 7.32 7.44 6.87 7.46 7.42 7.52 7.22 7.20 7.48 7.29 7.24 7.68 7.48 7.24 7.73 7.42 7.12 6.76 6.79 7.71 7.47 7.60 7.31 6.86 6.97 7.32 7.58 6.85 7.15 7.19 7.28 7.31 6.79 6.82 7.75 6.76 6.92 6.76 7.16 7.11 7.53 7.07 7.52 7.52 7.59 6.96 7.54 7.50 7.15 7.51 7.08 7.12 6.92 7.00 6.82 6.84 7.69 7.63 7.24 7.42 6.76 7.12 7.37 7.58 6.96 7.51 7.08 7.20 7.70 6.79 7.71 6.76 6.83 6.92 7.64 7.14 7.54 6.78 7.12 -9999 -9999 -9999 -9999 -9999 -9999 -9999 -9999 -9999 -9999 -9999 -9999 -9999 -9999 -9999 -9999 -9999 -9999 -9999 -9999 -9999 -9999 -9999
7.71 7.59 7.26 7.51 7.29 7.46 7.60 7.17 7.69 7.50 7.58 7.11 7.12 7.26 7.13 7.37 7.30 7.09 7.12 7.14 7.34 7.31 7.12 7.23 6.79 6.83 7.00 6.98 7.55 6.98 6.96 6.83 6.96 6.86 6.93 6.98 6.81 7.09 7.39 7.52 6.94 7.31 7.24 6.75 7.22 7.06 7.18 6.91 7.65 7.42 7.50 7.08 7.37 7.31 6.87 7.66 7.40 6.76 6.83 7.69 6.81 7.67 7.73 6.77 7.02 6.88 7.22 6.89 7.30 7.68 7.54 7.16 7.17 7.44 6.90 7.73 6.82 7.67 7.52 6.93 7.37 7.45 6.98 7.31 6.85 7.45 7.58 7.17 7.58 7.71 7.56 7.22 7.32 6.98 7.37 6.82 6.82 6.89 7.43 7.05 7.52 6.86 7.62 7.05 6.88 7.25 6.85 7.01 7.65 7.21 7.61 6.88 7.10 7.63 7.12 7.50 6.79 6.80 7.00 6.79 7.36 7.35 7.28 6.80 6.79 7.57 6.80 7.38 6.94 7.32 6.77 7.22 6.95 7.51 6.84 7.51 6.91 6.90 7.70 6.93 7.39 7.60 7.29 7.55 7.43 6.91 7.22 6.97 7.13 7.15 7.59 7.00 6.84 6.97 7.15 7.14 7.23 7.29 7.69 7.51 6.94 7.12 7.68 7.75 7.08 6.83 6.81 7.42 7.23 7.09 6.85 7.50 7.56 7.38 6.96 7.56 7.62 7.52 7.13 7.05 7.63 7.23 7.73 7.71 6.78 7.27 7.71 7.30 7.32 6.97 6.95 7.66 7.75 -9999 -9999 -9999 -9999 -9999 -9999 -9999 -9999 -9999 -9999 -9999 -9999 -9999 -9999 -9999 -9999 -9999 -9999 -9999 -9999 -9999 -9999
7.64 6.97 7.72 7.25 7.50 7.50 7.22 7.07 7.31 7.53 7.15 7.51 7.69 7.70 6.76 7.11 7.47 6.91 7.13 7.64 7.13 7.44 6.94 7.27 7.31 7.35 6.99 7.58 7.31 7.05 7.32 6.87 7.28 7.22 7.05 7.22 7.59 7.73 7.37 6.97 6.86 7.65 6.87 7.27 6.80 7.62 7.46 7.65 7.72 7.55 7.18 7.56 7.51 7.08 7.57 7.29 7.46 7.59 7.16 6.94 7.69 7.71 7.04 7.64 6.94 6.76 7.06 6.89 6.85 6.92 7.48 6.85 7.55 7.72 7.11 7.35 6.97 7.50 7.32 6.90 7.32 6.88 6.84 6.86 7.57 7.74 6.95 7.58 7.19 7.16 7.58 6.81 7.69 7.75 6.80 6.99 6.95 7.10 6.98 7.61 7.30 7.08 7.10 6.79 6.94 6.83 7.12 6.85 6.88 7.20 7.31 7.53 7.23 7.09 7.48 7.71 7.22 7.71 7.42 6.87 7.15 6.82 7.02 6.81 7.16 7.60 7.30 6.83 7.26 7.04 7.36 6.93 7.13 7.72 7.34 7.53 6.85 6.99 7.08 7.61 6.90 7.62 7.37 7.45 7.16 7.37 7.67 7.20 7.62 7.35 7.49 6.79 7.67 6.94 7.59 7.34 7.05 7.52 7.40 7.73 6.91 7.52 6.79 7.24 7.10 7.26 7.33 7.28 7.19 7.27 7.17 6.82 7.02 7.34 7.08 6.83 7.02 7.48 7.02 7.40 6.79 7.68 7.75 7.67 7.29 6.92 7.16 7.47 7.09 7.23 7.69 6.92 7.32 -9999 -9999 -9999 -9999 -9999 -9999 -9999 -9999 -9999 -9999 -9999 -9999 -9999 -9999 -9999 -9999 -9999 -9999 -9999 -9999 -9999 -9999
7.57 7.63 6.92 7.51 7.71 7.62 7.44 7.43 7.58 7.57 7.73 7.65 7.07 6.91 7.01 7.06 7.14 7.52 6.88 6.89 7.23 6.98 6.96 6.91 7.66 7.65 6.85 7.48 7.48 6.80 7.42 7.68 7.05 6.77 7.60 7.16 6.75 7.36 7.17 7.45 7.55 6.98 7.46 7.07 7.01 7.02 7.43 7.22 7.44 7.65 7.29 7.18 7.15 6.94 7.73 7.41 7.62 7.51 7.61 7.01 7.61 7.37 7.47 7.19 7.07 7.14 7.55 6.95 7.14 6.95 6.86 7.33 7.26 7.30 7.32 6.84 7.65 7.34 6.94 7.65 7.40 7.14 7.74 7.74 7.33 7.46 7.32 6.76 7.42 7.35 7.08 7.63 7.55 7.47 7.70 6.90 6.79 7.17 7.32 7.57 6.98 7.31 7.50 7.06 7.35 7.05 7.07 6.97 6.99 7.03 7.56 7.72 7.57 7.74 7.02 6.86 7.22 6.78 7.43 7.06 6.79 6.76 7.00 6.86 7.60 7.39 7.25 6.83 7.69 7.08 7.30 7.11 6.78 6.84 6.87 6.83 7.02 6.95 7.74 6.77 7.25 7.26 6.80 6.83 7.56 7.14 7.40 7.35 7.24 7.07 6.79 7.01 7.38 6.92 7.59 7.32 7.25 7.32 7.40 7.64 7.33 7.20 7.49 7.03 6.95 7.57 7.63 7.25 7.20 7.40 7.20 7.16 7.19 6.76 7.13 7.74 7.67 7.05 6.82 6.96 7.28 6.98 6.80 6.76 7.60 6.91 6.82 7.42 6.83 6.97 7.53 7.23 6.95 -9999 -9999 -9999 -9999 -9999 -9999 -9999 -9999 -9999 -9999 -9999 -9999 -9999 -9999 -9999 -9999 -9999 -9999 -9999 -9999 -9999 -9999
7.45 6.92 7.67 7.67 7.32 7.63 7.74 7.52 6.80 7.08 7.46 6.92 6.80 7.30 6.79 7.47 6.87 6.83 6.90 6.75 7.72 7.03 7.67 6.93 6.83 7.56 7.69 7.53 7.69 6.87 7.10 7.20 6.85 7.01 7.36 7.05 7.41 6.84 7.27 7.60 6.98 7.75 7.50 7.53 7.40 6.76 7.69 7.16 7.42 6.99 7.22 7.24 7.02 7.44 7.68 6.83 6.91 7.51 7.03 7.49 6.97 7.61 7.52 7.12 7.65 7.21 7.67 6.92 7.61 7.50 6.87 7.65 6.90 6.77 7.03 7.06 7.57 7.11 6.76 7.24 6.93 6.78 7.71 7.59 7.49 7.15 7.60 7.33 7.69 7.48 7.63 6.92 7.51 6.99 7.50 6.92 6.87 6.82 7.23 7.37 7.39 7.65 7.33 7.08 6.93 7.18 7.72 7.09 6.83 7.35 6.90 7.13 6.92 7.52 7.04 6.88 7.25 7.03 6.76 7.24 7.41 7.65 7.02 7.48 7.03 6.85 6.98 7.34 7.33 7.47 7.02 7.05 7.51 7.45 7.18 7.08 7.45 6.88 7.22 7.70 6.85 6.97 6.87 7.47 7.27 7.17 6.93 7.57 6.85 7.56 7.16 7.14 7.11 6.75 6.86 7.29 7.12 7.17 6.77 7.38 7.25 6.86 7.32 6.94 7.06 7.70 6.80 7.30 6.78 6.79 6.92 6.91 7.17 7.08 7.39 7.20 6.93 7.74 6.81 6.98 7.67 7.15 6.85 6.91 7.35 7.05 7.74 7.63 7.67 7.00 6.94 7.50 7.68 -9999 -9999 -9999 -9999 -9999 -9999 -9999 -9999 -9999 -9999 -9999 -9999 -9999 -9999 -9999 -9999 -9999 -9999 -9999 -9999 -9999 -9999
7.38 7.19 7.52 7.29 7.12 7.63 7.37 7.05 7.62 7.02 7.71 7.09 7.11 7.03 6.82 7.20 7.42 7.37 7.73 7.52 7.50 7.20 6.79 7.40 7.10 7.61 7.41 6.95 6.81 7.67 7.38 7.64 7.18 7.46 7.19 7.69 7.37 7.25 7.50 7.27 7.41 7.30 7.24 7.34 7.01 7.36 7.52 7.04 7.72 6.78 7.04 6.90 7.48 7.32 7.44 7.32 7.35 6.83 6.87 7.45 7.65 7.55 6.88 7.11 6.76 7.42 7.46 6.79 7.33 7.44 7.21 7.38 6.90 6.88 7.24 7.59 7.54 7.60 7.03 7.33 7.16 7.43 7.26 6.87 7.09 7.06 6.93 7.17 6.78 7.01 7.50 7.33 6.80 7.31 7.08 7.44 7.17 7.22 7.39 7.58 7.30 7.42 6.78 7.36 7.61 7.34 7.60 7.43 7.02 7.75 7.22 7.19 7.05 7.27 7.72 7.37 7.01 6.87 6.79 7.12 7.27 7.10 6.99 6.87 7.10 7.41 6.86 7.43 7.41 7.24 7.00 7.06 7.23 7.36 7.23 6.78 7.56 7.51 6.76 7.58 6.89 7.12 7.36 7.34 7.50 7.74 7.28 7.41 6.78 7.28 7.14 6.99 7.52 6.80 7.63 6.84 6.97 7.56 7.16 7.57 7.50 6.75 7.15 7.46 6.92 7.45 7.59 7.39 7.29 6.84 7.49 7.04 7.42 7.56 7.36 7.02 7.00 7.70 7.02 7.58 7.28 6.81 7.20 7.55 6.87 7.47 7.35 7.62 7.57 7.59 6.91 6.97 7.59 -9999 -9999 -9999 -9999 -9999 -9999 -9999 -9999 -9999 -9999 -9999 -9999 -9999 -9999 -9999 -9999 -9999 -9999 -9999 -9999 -9999 -9999
6.86 7.04 6.95 7.72 7.27 7.71 7.05 6.99 6.92 6.91 6.83 6.79 7.07 7.36 7.56 7.45 7.67 6.93 7.29 6.78 7.26 6.80 7.42 6.78 7.46 7.18 6.87 7.64 7.31 7.73 7.02 7.00 7.62 6.86 7.55 7.09 7.61 7.64 7.13 7.27 6.93 7.15 7.06 7.45 7.05 7.74 7.68 6.80 7.33 7.49 6.94 7.44 7.49 7.59 6.98 7.74 7.15 7.10 7.07 7.02 7.38 7.39 7.41 7.36 6.82 6.80 6.96 7.36 7.16 6.77 7.02 7.35 7.53 7.26 6.91 6.86 7.66 7.34 7.18 7.36 7.58 7.64 7.23 7.23 6.78 6.76 7.67 7.37 7.57 7.06 7.26 7.49 7.11 7.26 7.57 7.69 7.68 6.81 7.41 7.40 7.65 7.08 7.55 7.46 7.66 7.60 7.14 7.03 7.18 6.95 7.65 7.49 6.76 6.76 7.66 7.62 7.23 7.30 7.12 6.93 7.08 6.80 7.73 7.54 7.63 7.42 7.52 7.48 7.61 7.50 7.54 7.04 7.58 7.64 7.63 7.39 6.96 6.84 7.54 7.39 6.83 7.00 7.47 7.71 6.80 7.26 6.77 7.32 7.65 7.51 7.31 7.28 7.14 7.66 6.92 6.83 7.60 7.31 7.12 7.49 7.58 6.97 7.40 6.94 6.89 7.49 7.67 7.15 6.86 7.20 7.18 7.23 7.45 7.62 7.20 7.61 6.93 7.04 7.63 7.55 7.09 7.37 7.07 6.78 7.12 7.46 7.62 7.02 6.98 7.46 6.79 7.02 6.87 -9999 -9999 -9999 -9999 -9999 -9999 -9999 -9999 -9999 -9999 -9999 -9999 -9999 -9999 -9999 -9999 -9999 -9999 -9999 -9999 -9999 -9999
7.63 7.12 7.12 7.37 7.46 7.52 7.14 7.62 7.57 6.98 7.15 7.42 6.78 7.42 7.07 7.26 7.58 6.98 6.78 6.84 6.86 7.49 7.23 7.12 7.67 7.17 7.15 6.81 6.90 7.16 7.27 7.69 7.69 7.40 7.52 7.00 7.64 6.78 7.55 7.54 6.92 7.57 7.00 6.99 7.04 7.74 6.92 6.89 6.84 7.32 6.86 6.88 7.48 6.98 7.44 7.29 7.30 6.79 6.90 7.58 6.88 7.13 7.13 7.55 7.63 7.05 6.76 6.94 7.19 7.07 7.05 7.41 7.07 7.38 7.57 7.62 7.46 7.25 6.89 7.07 6.96 6.87 7.14 7.16 6.87 7.15 7.32 7.01 7.33 7.65 7.45 6.84 7.30 7.69 7.55 7.36 7.61 7.11 7.52 7.55 7.11 7.09 7.47 7.47 6.89 7.64 7.73 7.34 7.35 7.57 7.56 7.67 7.40 7.52 7.24 6.96 7.00 7.58 6.90 7.24 7.44 7.00 6.75 6.98 7.58 7.60 6.81 6.86 7.38 7.64 7.35 7.44 6.88 6.88 6.97 7.21 6.77 7.54 6.95 7.26 7.44 7.50 7.29 7.09 6.89 7.75 6.90 7.10 6.84 7.28 7.37 7.62 7.61 6.94 6.87 6.78 7.07 7.43 7.08 7.73 7.60 7.65 6.88 7.03 7.47 6.75 7.74 6.76 6.86 7.15 7.55 7.50 7.47 7.55 6.89 6.90 7.48 7.27 7.02 7.06 7.44 7.74 6.85 7.65 7.16 7.19 7.53 6.85 7.52 6.75 6.82 7.57 6.81 6.78 -9999 -9999 -9999 -9999 -9999 -9999 -9999 -9999 -9999 -9999 -9999 -9999 -9999 -9999 -9999 -9999 -9999 -9999 -9999 -9999 -9999
7.40 7.01 7.31 7.52 6.78 7.24 7.36 7.28 7.68 7.53 7.74 7.41 7.09 7.72 7.63 6.80 7.61 7.15 7.66 7.57 7.06 6.84 7.23 7.01 7.48 7.00 7.07 7.63 7.51 6.84 7.11 7.20 6.89 7.19 7.30 7.50 7.74 6.86 7.54 6.83 7.30 7.72 7.14 7.02 7.47 7.53 7.27 7.49 7.43 7.22 7.15 7.48 6.78 7.00 6.85 6.77 7.44 6.80 7.64 7.63 6.98 7.67 7.58 7.41 7.23 6.79 7.68 7.72 7.55 7.28 6.81 7.20 7.68 7.16 7.04 7.24 7.51 7.30 7.70 6.90 6.81 7.54 7.63 7.44 7.65 7.62 6.99 7.51 7.21 7.59 7.08 7.38 7.31 7.73 6.79 6.77 7.12 6.92 7.62 7.56 7.22 7.00 6.87 7.29 7.32 7.20 7.08 7.53 7.07 7.47 7.47 7.37 7.71 7.69 7.01 7.49 7.69 7.45 6.97 7.45 7.61 6.92 7.36 7.05 7.53 7.28 7.39 7.28 7.44 7.05 7.21 6.80 7.44 7.62 6.91 6.76 7.04 7.19 7.38 7.12 6.94 7.56 6.99 6.99 7.40 7.18 7.13 6.82 7.34 6.99 7.31 7.29 7.02 7.63 7.24 7.13 7.30 6.76 6.91 7.24 7.67 7.47 7.59 7.26 6.91 7.01 7.53 6.94 6.97 7.74 7.18 7.49 7.50 7.66 7.02 7.07 6.82 7.56 7.28 7.05 7.50 7.29 7.63 7.12 7.13 6.89 6.85 6.92 7.75 6.99 7.63 7.75 7.45 6.95 -9999 -9999 -9999 -9999 -9999 -9999 -9999 -9999 -9999 -9999 -9999 -9999 -9999 -9999 -9999 -9999 -9999 -9999 -9999 -9999 -9999
7.48 7.52 7.27 6.80 7.73 7.56 7.47 6.99 7.15 7.47 6.95 7.33 7.31 6.89 6.84 7.11 7.39 6.80 6.96 7.59 7.67 7.42 7.25 6.75 7.61 7.60 7.12 7.04 7.67 6.82 7.47 7.69 6.90 7.31 7.09 6.87 7.16 6.84 7.44 7.19 7.06 7.47 7.08 7.07 7.36 7.62 7.63 6.97 7.40 7.01 7.45 7.40 7.01 6.89 7.16 7.61 6.85 7.68 6.79 7.51 6.85 6.85 7.70 7.32 7.19 7.63 7.49 7.40 6.85 6.80 7.33 7.67 7.30 7.08 6.96 7.16 7.48 6.85 6.75 7.58 6.80 7.74 7.74 6.90 6.89 7.50 6.93 6.79 7.19 7.52 6.91 6.94 7.38 7.53 7.09 6.89 7.44 7.40 6.79 7.56 7.34 7.59 7.01 7.33 7.57 7.33 7.32 7.26 7.49 7.07 7.40 6.85 7.28 6.77 7.21 6.87 7.00 7.04 7.06 7.47 6.82 7.21 7.70 6.77 7.02 6.93 7.39 6.97 6.79 7.68 6.98 7.35 7.03 7.64 7.30 7.01 7.58 7.68 6.79 7.27 6.85 7.65 7.32 7.52 7.05 7.21 7.39 6.84 7.55 7.35 6.78 7.47 7.06 7.36 7.37 7.47 7.34 7.75 7.14 7.19 7.73 7.05 7.17 6.83 7.09 7.51 7.29 7.22 7.72 6.90 7.54 7.56 6.98 7.20 7.19 7.43 7.20 7.65 6.77 7.21 7.35 7.10 7.09 7.11 7.09 7.44 7.59 7.75 7.59 7.19 7.34 7.32 7.47 7.51 -9999 -9999 -9999 -9999 -9999 -9999 -9999 -9999 -9999 -9999 -9999 -9999 -9999 -9999 -9999 -9999 -9999 -9999 -9999 -9999 -9999
7.51 6.96 7.32 7.54 7.36 7.33 6.98 7.41 7.01 6.95 7.72 7.08 7.58 7.44 7.08 7.26 7.14 7.30 7.09 7.67 6.88 7.06 7.09 7.48 7.13 7.59 7.12 7.62 7.47 7.16 7.13 6.90 6.89 7.27 7.05 7.35 6.79 7.55 7.60 7.12 7.11 6.92 7.54 7.08 7.26 7.27 7.08 7.74 7.51 7.51 7.04 7.07 7.32 7.04 7.22 6.98 7.43 7.49 7.58 7.75 7.36 7.25 7.33 7.19 7.56 7.68 7.26 7.72 6.75 7.12 7.17 7.24 7.00 6.75 6.85 7.49 7.27 7.28 7.11 7.06 7.09 6.90 6.90 6.83 7.11 7.07 6.81 6.88 7.15 7.00 6.95 7.74 6.80 7.28 6.94 7.08 7.07 7.33 7.37 6.76 7.15 6.82 7.58 7.00 7.21 7.12 7.67 7.21 7.40 6.97 7.26 7.68 7.56 6.78 7.23 7.21 7.43 6.86 7.05 6.97 7.23 7.63 7.35 7.10 7.21 7.47 7.29 7.21 7.14 7.68 7.56 7.07 6.91 7.25 6.93 7.49 7.57 7.49 7.58 7.02 7.24 7.15 7.06 7.71 7.60 7.56 7.34 7.15 7.64 7.27 6.86 6.95 7.59 6.98 7.35 7.72 7.31 6.90 7.24 7.02 6.97 7.37 7.09 7.10 7.74 6.85 7.18 7.74 7.47 7.11 7.28 7.62 7.01 7.07 6.96 6.78 7.44 7.06 7.62 6.87 7.44 7.73 7.37 7.62 6.76 6.83 7.25 7.47 7.26 7.03 6.90 6.96 7.06 7.08 -9999 -9999 -9999 -9999 -9999 -9999 -9999 -9999 -9999 -9999 -9999 -9999 -9999 -9999 -9999 -9999 -9999 -9999 -9999 -9999 -9999
6.89 7.55 7.03 6.78 7.43 6.95 7.56 7.68 7.47 6.85 7.04 6.79 6.96 6.99 7.69 7.71 6.96 6.92 7.26 7.45 6.83 7.72 7.44 7.46 7.30 7.57 7.43 6.97 7.11 6.98 7.33 7.68 7.08 6.76 7.03 6.90 7.70 6.86 7.46 7.12 7.04 7.60 7.73 6.93 7.19 7.21 6.95 7.64 7.02 7.45 7.53 7.03 7.45 6.94 7.02 6.76 7.22 7.35 6.99 7.67 7.70 7.67 7.70 6.91 7.24 7.44 7.49 7.27 7.23 7.31 7.69 7.03 6.95 7.48 6.92 7.35 6.82 7.28 7.55 7.58 7.35 7.02 7.71 7.57 7.05 7.00 7.40 7.17 7.55 6.76 7.23 7.48 7.68 7.03 7.73 6.77 7.11 6.85 6.96 7.27 6.79 7.74 7.58 7.49 7.39 7.27 7.47 6.75 7.58 6.96 7.73 7.28 7.24 7.58 7.39 7.46 6.99 7.18 7.43 6.77 7.29 7.04 6.93 7.23 7.05 6.98 7.16 7.24 7.07 7.32 6.79 7.32 6.75 7.57 7.54 7.63 7.74 7.22 7.68 7.50 7.22 6.88 7.07 7.10 6.95 7.15 7.17 7.10 7.06 7.37 6.76 6.84 7.38 7.66 7.42 6.96 7.53 7.27 6.96 7.39 6.76 7.62 6.83 7.23 6.91 6.80 7.15 6.85 7.47 7.73 7.13 7.41 7.38 7.15 7.45 7.10 7.46 7.17 7.47 7.37 7.40 7.59 7.75 7.27 6.99 7.49 7.24 6.77 7.55 7.45 6.96 7.19 6.95 7.73 -9999 -9999 -9999 -9999 -9999 -9999 -9999 -9999 -9999 -9999 -9999 -9999 -9999 -9999 -9999 -9999 -9999 -9999 -9999 -9999 -9999
7.23 7.55 7.38 7.67 7.54 6.92 7.69 7.20 6.77 7.00 6.89 6.84 7.31 7.14 7.64 7.72 7.31 7.20 7.45 6.85 7.18 7.38 7.36 7.45 7.10 7.35 7.75 7.50 7.04 7.37 7.30 7.40 7.23 7.25 7.24 6.77 7.48 7.67 7.08 7.47 7.37 7.07 7.63 6.78 7.26 7.65 7.28 7.32 7.13 7.08 7.16 7.38 7.28 7.08 6.99 7.64 7.42 7.39 6.81 6.94 7.66 7.04 7.06 7.00 7.51 7.71 7.49 6.99 6.94 7.07 7.42 6.91 7.51 7.13 7.41 7.32 6.85 7.35 7.26 7.31 7.10 7.49 7.75 7.02 7.74 6.78 7.14 6.92 7.65 7.40 7.55 6.80 7.52 6.84 6.85 7.57 7.14 6.76 6.86 7.09 7.54 6.89 7.23 7.12 6.79 6.99 6.83 7.15 6.79 7.46 7.72 7.05 6.81 7.04 7.22 7.14 7.19 6.81 7.43 7.21 7.42 7.23 7.54 7.03 7.00 7.16 7.27 7.51 7.03 7.34 7.61 7.64 7.67 7.44 7.07 7.16 7.45 7.24 7.39 6.80 7.22 7.66 7.56 6.99 7.01 7.03 7.02 7.71 7.01 7.02 7.47 7.36 7.17 7.64 6.98 7.35 7.03 7.59 7.39 7.61 6.90 7.49 6.92 6.89 7.16 7.42 7.07 7.54 6.87 6.90 6.86 7.55 7.10 6.90 7.50 6.90 7.00 7.24 7.15 7.64 7.22 6.75 7.08 6.82 7.17 7.15 7.35 7.64 7.22 7.43 7.41 6.77 6.77 7.00 -9999 -9999 -9999 -9999 -9999 -9999 -9999 -9999 -9999 -9999 -9999 -9999 -9999 -9999 -9999 -9999 -9999 -9999 -9999 -9999 -9999
7.10 7.07 7.45 7.27 7.22 7.21 7.38 7.39 6.89 7.57 7.28 7.51 7.68 7.01 7.63 7.19 7.30 7.25 7.67 6.93 7.06 7.70 6.95 6.82 7.39 7.74 6.77 6.80 7.60 6.85 6.95 6.81 7.60 7.02 7.02 6.78 7.20 6.91 7.50 7.60 7.19 7.14 7.53 7.08 7.59 7.61 7.51 7.11 7.64 6.97 6.91 7.48 7.24 7.45 7.33 7.54 7.44 7.35 6.82 7.04 7.38 7.72 6.82 7.63 6.86 6.87 7.07 7.14 7.34 7.43 7.45 7.01 7.13 7.62 6.83 6.96 6.83 7.75 7.72 6.79 7.11 7.36 7.13 7.13 7.73 7.27 7.44 7.59 7.74 6.79 7.36 7.71 6.79 6.85 7.60 6.95 7.54 7.44 7.09 7.56 7.68 6.90 7.58 6.89 7.44 6.82 6.82 6.77 7.61 7.63 6.82 6.79 7.51 7.42 7.02 6.82 7.54 7.42 6.86 7.35 7.72 7.03 6.91 6.91 6.78 7.06 7.07 7.24 7.68 7.60 7.42 7.22 7.01 7.08 6.77 7.54 6.93 6.84 7.37 6.97 6.83 6.86 7.36 7.52 7.45 7.19 6.85 6.92 7.23 7.46 7.46 7.12 7.12 7.65 7.52 6.76 6.91 7.21 7.53 7.10 7.58 6.98 6.78 7.27 7.67 7.29 7.54 7.12 6.89 7.71 7.22 7.52 6.77 6.83 7.37 6.96 6.95 7.08 7.73 7.29 7.47 6.76 7.43 7.47 6.85 7.62 7.01 7.56 7.00 7.22 7.30 7.51 6.81 7.35 7.73 -9999 -9999 -9999 -9999 -9999 -9999 -9999 -9999 -9999 -9999 -9999 -9999 -9999 -9999 -9999 -9999 -9999 -9999 -9999 -9999
7.62 7.23 7.43 7.52 6.82 7.02 7.44 7.06 7.56 7.72 6.96 7.46 7.37 7.60 7.25 7.25 7.56 6.98 7.25 7.17 7.58 7.27 7.23 7.09 7.16 7.28 7.38 7.68 7.62 7.42 7.22 6.89 7.33 6.83 7.27 7.09 7.34 6.77 7.58 6.96 7.30 7.39 7.22 6.90 7.15 7.59 7.54 7.14 6.82 7.08 6.85 7.53 7.72 6.84 6.88 7.69 7.36 7.58 7.41 6.88 7.12 6.82 7.70 7.10 6.97 7.24 7.04 7.30 7.68 6.86 7.34 6.99 7.05 6.88 7.11 7.02 7.01 6.94 7.36 7.47 7.15 7.49 7.47 7.49 7.70 7.38 6.87 7.43 7.19 7.67 7.58 7.14 7.43 7.55 7.42 7.04 6.84 7.57 7.16 7.24 7.09 6.95 7.74 7.22 7.49 7.54 7.60 7.54 7.21 7.71 7.46 7.49 7.74 7.63 7.12 7.58 7.73 7.38 6.76 7.50 6.75 7.16 7.60 7.59 7.73 7.47 7.70 7.65 6.77 7.48 7.31 7.29 6.95 7.50 7.06 7.23 7.04 7.27 6.93 7.26 7.45 6.99 7.33 7.43 7.04 7.46 6.76 7.55 7.05 7.05 7.21 6.87 7.54 7.11 6.78 7.62 6.86 7.49 7.58 7.25 7.23 7.14 7.57 6.83 7.03 7.15 7.72 7.50 7.67 6.87 7.29 7.35 7.25 6.78 7.27 7.09 7.69 6.81 7.72 7.08 7.07 6.96 6.96 6.82 6.84 7.70 7.00 7.06 7.41 7.32 7.24 6.97 7.05 6.90 7.36 -9999 -9999 -9999 -9999 -9999 -9999 -9999 -9999 -9999 -9999 -9999 -9999 -9999 -9999 -9999 -9999 -9999 -9999 -9999 -9999
7.21 7.61 7.64 7.44 6.88 6.92 7.38 6.98 7.60 7.41 7.53 7.21 6.77 7.63 7.58 7.37 7.51 7.00 7.65 7.70 7.12 7.07 6.81 7.65 7.58 7.10 7.64 6.95 7.25 7.71 7.54 7.50 7.34 7.50 6.82 7.01 7.59 7.74 7.36 7.68 7.75 7.70 7.63 7.06 7.17 7.54 7.58 7.41 7.05 7.44 7.16 7.68 7.30 7.52 7.11 7.72 7.08 7.74 7.59 7.09 7.68 6.89 7.55 6.78 7.20 7.35 7.35 7.07 7.54 6.95 7.42 6.80 7.28 6.83 7.65 7.30 7.25 6.89 7.26 7.54 7.62 7.23 7.61 7.58 7.46 6.79 7.47 6.95 7.19 7.45 7.28 7.53 7.69 7.51 7.56 6.96 7.43 6.83 7.49 7.69 7.57 6.90 7.25 7.29 7.45 7.58 7.57 6.76 7.59 7.52 6.85 7.72 7.17 7.25 7.07 6.88 7.45 7.67 7.10 7.61 6.83 6.95 6.98 7.32 7.46 6.76 6.87 7.60 6.83 7.24 7.63 7.65 6.84 7.50 7.59 7.14 6.80 7.20 6.92 7.49 7.69 7.64 6.98 6.76 7.27 6.88 7.64 7.31 6.87 7.58 7.68 7.12 7.18 7.18 7.06 7.53 7.45 7.63 7.67 7.34 7.08 7.37 7.62 7.65 6.97 7.54 7.65 6.88 6.96 7.23 7.71 7.29 7.27 7.53 7.08 7.48 6.83 7.33 6.83 7.43 6.80 6.83 6.95 7.21 7.44 7.15 6.85 7.55 7.53 7.20 7.30 7.09 6.80 7.56 6.87 -9999 -9999 -9999 -9999 -9999 -9999 -9999 -9999 -9999 -9999 -9999 -9999 -9999 -9999 -9999 -9999 -9999 -9999 -9999 -9999
6.91 7.36 6.88 7.26 7.26 7.22 7.61 7.74 7.02 7.10 7.00 7.13 7.10 7.40 7.33 7.44 7.28 6.76 7.73 6.93 7.04 6.81 7.39 7.41 7.21 7.20 7.19 7.53 7.07 7.53 7.65 7.38 6.91 7.35 7.00 7.14 7.68 7.57 7.53 7.38 7.11 7.63 7.17 7.10 7.13 7.22 7.52 7.11 7.67 7.12 6.85 7.48 7.53 7.64 7.72 7.47 7.29 7.57 7.09 7.35 7.68 7.23 7.26 7.43 7.44 7.43 6.84 7.50 7.55 7.27 7.32 7.44 7.34 7.23 6.76 6.88 7.49 7.02 7.37 7.47 7.74 7.10 6.75 7.68 7.40 7.71 7.56 6.76 6.87 7.21 7.34 7.54 7.72 7.08 6.89 7.19 7.12 6.84 6.85 7.63 7.13 7.19 7.65 6.86 7.70 7.16 7.39 7.64 7.10 7.21 7.46 7.03 6.80 6.88 7.53 6.79 7.57 7.64 6.86 7.28 7.31 7.38 7.42 7.55 7.10 6.97 7.22 7.34 7.25 6.88 7.36 7.47 7.71 7.61 7.64 6.87 6.86 7.14 7.10 6.86 7.08 7.06 7.02 6.82 7.16 7.65 7.47 6.89 6.95 7.26 6.79 7.53 7.61 7.62 7.68 7.47 6.96 6.80 7.10 7.25 6.87 7.08 6.81 7.43 7.56 7.47 7.40 6.87 7.24 7.15 7.71 7.22 7.02 7.37 7.23 7.54 7.52 6.97 7.62 7.46 6.77 7.45 7.04 7.31 7.26 6.99 6.75 7.00 7.68 6.98 7.70 6.99 7.49 7.04 6.86 -9999 -9999 -9999 -9999 -9999 -9999 -9999 -9999 -9999 -9999 -9999 -9999 -9999 -9999 -9999 -9999 -9999 -9999 -9999 -9999
6.91 7.58 7.27 7.57 7.22 7.42 7.20 7.61 6.92 6.92 7.16 7.06 6.81 7.71 7.71 7.00 6.83 7.28 6.93 7.05 7.42 7.19 7.59 7.32 6.96 7.47 6.77 7.55 7.60 6.85 7.34 7.31 6.99 7.21 7.49 6.89 6.76 6.84 6.95 7.66 7.16 7.41 7.03 6.89 7.14 7.47 7.45 6.92 7.30 7.06 7.03 7.51 7.43 7.04 7.06 6.84 7.18 6.99 7.74 7.70 7.32 7.20 7.40 7.53 7.66 6.77 7.34 7.18 7.44 7.42 7.10 7.08 7.70 6.80 6.80 7.00 7.03 6.90 7.29 6.87 6.85 7.32 6.89 7.34 7.61 6.80 7.24 7.23 7.17 7.60 7.67 6.86 7.33 6.86 7.49 7.40 6.91 6.99 6.87 7.41 7.68 6.87 7.38 6.76 6.75 6.82 6.86 7.56 7.31 6.92 7.07 6.78 7.09 7.07 6.99 7.74 7.72 7.11 6.83 7.46 7.45 7.11 7.60 7.63 7.26 6.80 6.90 7.15 7.04 7.47 7.69 7.01 7.34 6.98 7.72 6.77 7.61 7.26 7.21 7.12 7.34 7.75 7.34 7.73 7.72 7.66 6.96 6.87 7.60 7.59 6.80 6.99 7.42 6.86 6.98 7.21 6.93 6.95 7.66 7.60 6.88 6.93 6.98 7.31 7.01 7.30 7.64 7.44 6.82 7.41 7.48 7.37 6.78 6.99 6.98 6.97 7.61 7.19 7.29 7.47 6.80 7.18 6.96 7.74 7.02 7.12 7.37 7.46 6.84 7.32 7.56 7.73 6.96 7.60 6.83 -9999 -9999 -9999 -9999 -9999 -9999 -9999 -9999 -9999 -9999 -9999 -9999 -9999 -9999 -9999 -9999 -9999 -9999 -9999 -9999
7.36 7.17 7.72 6.82 7.46 6.82 7.23 6.88 7.12 7.71 6.94 6.75 7.74 7.50 6.95 7.27 6.95 7.58 6.89 7.67 7.60 7.19 6.76 6.91 7.02 6.79 7.56 7.07 7.59 7.18 7.32 6.95 7.26 7.23 7.07 7.46 6.95 7.01 7.58 6.98 6.75 6.89 7.24 7.64 7.16 6.93 7.12 7.45 6.99 7.66 7.65 7.17 6.78 7.36 6.95 6.78 7.44 7.13 7.08 7.66 7.07 7.11 7.50 7.28 7.03 7.16 6.88 6.90 7.09 7.20 6.86 7.63 6.83 7.30 7.72 7.00 6.91 7.38 7.18 6.92 7.35 7.11 7.18 6.87 7.61 7.23 6.78 7.46 7.52 7.50 7.37 6.79 7.23 6.85 7.22 7.36 7.24 7.58 7.45 7.37 6.94 7.54 7.32 6.93 7.27 7.72 7.39 7.20 7.41 6.95 7.62 6.78 7.30 7.34 6.85 7.52 7.17 7.30 6.96 6.81 6.82 7.40 7.05 7.61 7.63 6.96 7.22 7.06 6.80 7.39 7.01 6.93 7.54 7.64 7.67 7.01 7.03 7.10 6.98 7.35 7.54 7.44 7.73 7.37 7.10 7.49 7.09 6.96 7.11 7.56 7.22 7.37 7.08 7.36 7.49 6.96 7.58 7.54 7.60 7.33 7.63 7.43 7.31 6.78 7.42 7.62 6.87 7.45 7.31 7.22 7.40 7.69 7.64 7.49 7.09 7.48 7.41 7.48 7.51 6.76 7.01 6.96 7.61 7.02 7.23 7.75 7.72 6.90 7.56 7.49 7.28 6.99 6.81 7.62 6.96 -9999 -9999 -9999 -9999 -9999 -9999 -9999 -9999 -9999 -9999 -9999 -9999 -9999 -9999 -9999 -9999 -9999 -9999 -9999 -9999
7.48 7.44 7.30 7.71 7.44 7.59 7.54 7.63 7.07 7.15 6.98 7.55 6.96 6.75 7.68 7.24 6.80 6.78 7.05 6.90 7.24 7.64 6.78 7.30 6.87 7.09 7.37 7.71 6.84 7.43 6.76 7.05 6.98 7.14 7.71 7.07 7.37 7.20 6.86 7.30 7.31 7.41 6.77 7.67 7.61 7.73 6.94 6.78 7.13 7.49 7.20 7.71 7.70 7.47 7.09 7.47 7.22 7.60 7.19 7.07 7.10 7.09 6.93 7.29 7.24 7.25 6.97 7.56 7.57 7.07 6.83 6.83 7.73 7.42 7.61 7.46 7.19 7.04 6.89 6.90 7.32 7.02 7.68 6.87 7.66 7.28 7.16 6.87 7.23 7.46 7.11 6.79 7.26 7.45 7.71 7.39 6.86 7.28 7.35 7.20 6.95 7.53 7.66 7.28 6.87 7.01 6.81 7.57 7.62 7.29 7.56 7.73 6.84 7.00 7.56 7.50 7.17 7.32 7.02 7.66 7.53 7.03 7.41 7.54 7.72 7.07 7.04 7.38 6.80 7.06 6.95 7.07 7.45 6.86 7.07 7.07 7.52 7.44 6.86 7.55 7.61 7.00 7.27 7.17 7.13 7.08 6.83 7.38 7.03 7.10 7.27 7.47 7.41 7.03 7.55 7.61 7.73 7.11 7.63 7.44 7.15 7.02 7.17 6.82 7.67 6.79 7.44 7.57 7.10 7.12 7.56 7.61 6.88 7.02 7.24 7.71 6.89 7.11 6.75 6.99 6.90 7.29 7.12 6.84 7.01 7.41 7.12 7.37 6.86 6.99 6.97 7.39 7.13 6.80 7.07 -9999 -9999 -9999 -9999 -9999 -9999 -9999 -9999 -9999 -9999 -9999 -9999 -9999 -9999 -9999 -9999 -9999 -9999 -9999 -9999
7.29 7.10 7.32 7.64 6.75 7.17 7.30 6.76 7.54 6.84 7.25 7.17 7.05 7.38 7.26 7.69 7.13 7.02 7.16 7.56 7.72 7.26 6.94 7.01 6.84 7.75 7.08 7.44 7.69 7.69 6.81 7.58 7.49 6.78 6.89 6.84 7.01 7.55 7.74 7.22 7.70 7.61 7.11 7.02 6.88 7.27 7.64 7.66 7.29 7.12 6.90 7.24 7.03 6.78 7.16 7.67 7.22 7.64 7.57 6.86 7.68 6.84 7.39 7.02 7.64 7.40 6.95 7.75 7.67 6.79 7.15 6.81 6.92 7.11 6.99 7.48 6.80 6.75 7.22 7.59 7.48 6.98 7.07 7.64 7.06 7.40 7.43 7.59 6.99 7.73 6.79 7.37 6.81 7.05 7.24 7.75 7.51 7.09 7.10 6.97 7.65 7.57 7.40 7.22 7.45 6.84 7.41 7.26 6.97 7.61 6.97 7.10 7.20 7.51 7.36 7.72 6.97 7.39 6.93 7.42 7.04 7.54 7.38 7.02 7.67 7.12 6.92 7.13 7.26 7.00 7.62 7.28 7.19 7.09 7.73 7.28 7.57 7.65 6.98 7.19 7.31 7.20 7.72 7.15 6.78 7.32 7.58 7.28 7.45 7.67 7.25 7.35 7.49 6.87 7.32 6.99 7.07 7.18 7.47 7.51 7.37 7.13 6.78 7.47 7.28 7.35 7.63 7.39 7.34 6.83 7.54 7.33 7.22 6.92 6.80 6.90 7.18 7.25 7.74 7.03 7.11 6.98 6.85 7.44 7.01 7.04 6.83 7.22 6.90 7.60 7.39 7.15 7.45 7.14 7.35 7.67 -9999 -9999 -9999 -9999 -9999 -9999 -9999 -9999 -9999 -9999 -9999 -9999 -9999 -9999 -9999 -9999 -9999 -9999 -9999
7.30 7.52 7.42 7.18 7.33 6.79 7.63 7.16 7.53 7.17 7.42 7.11 7.44 7.46 6.77 7.05 6.78 7.12 7.59 7.56 7.16 7.37 7.19 7.24 7.32 7.31 7.69 6.86 7.72 7.73 7.53 7.23 6.97 7.57 7.45 7.50 7.27 7.27 7.62 7.65 6.86 7.05 7.49 7.42 7.34 7.07 6.97 6.94 7.40 7.14 7.55 6.99 6.88 7.11 7.53 6.78 6.92 7.75 7.46 7.12 7.20 7.44 7.34 7.12 6.99 7.57 7.37 6.99 7.44 7.70 6.97 7.57 7.42 7.73 6.85 7.42 6.97 6.99 7.19 7.06 7.37 7.41 6.80 7.48 7.56 6.77 7.63 7.55 7.20 7.40 6.95 7.30 7.75 7.01 7.57 7.62 7.59 7.32 7.50 7.36 7.16 6.83 7.69 7.19 7.40 7.18 6.80 7.48 7.10 7.31 6.94 6.77 7.24 7.25 7.30 6.79 7.71 7.03 7.68 6.78 7.27 7.08 7.54 7.49 7.46 6.77 7.39 7.50 7.55 7.44 6.92 7.71 7.35 7.13 7.46 7.61 7.12 7.21 7.65 7.63 7.13 7.03 7.34 6.76 6.93 7.70 7.30 6.93 7.18 6.95 6.91 7.22 7.71 7.10 7.13 6.88 6.90 7.27 7.01 7.43 6.86 6.89 7.58 7.19 7.69 7.34 7.10 7.29 7.69 6.98 7.74 7.43 7.71 7.24 7.48 7.00 7.68 7.08 7.54 6.98 7.21 7.71 6.89 7.23 7.11 7.33 7.59 7.17 7.17 7.61 7.48 7.04 7.25 6.79 7.23 7.45 -9999 -9999 -9999 -9999 -9999 -9999 -9999 -9999 -9999 -9999 -9999 -9999 -9999 -9999 -9999 -9999 -9999 -9999 -9999
6.87 7.33 7.70 7.41 6.77 7.08 7.42 7.25 6.85 7.29 7.18 6.94 7.47 7.10 6.86 7.70 7.03 6.86 6.99 7.26 6.75 7.75 7.50 6.78 7.17 7.56 6.81 6.85 7.33 7.63 7.45 7.30 7.21 7.65 6.95 6.81 7.63 7.23 7.68 7.41 6.91 7.34 7.20 6.97 6.77 6.90 7.21 6.80 7.32 7.29 7.52 7.54 7.18 6.92 6.98 7.64 7.52 6.99 7.19 6.90 7.44 7.50 7.27 7.17 6.88 7.63 7.62 7.56 7.21 7.63 6.92 7.21 6.82 7.67 7.56 7.69 6.87 6.92 6.95 7.15 7.47 6.82 7.12 7.72 7.26 6.79 6.92 6.93 7.54 7.73 6.83 7.40 7.20 7.62 7.11 6.86 7.27 7.55 7.25 7.30 7.35 7.73 6.92 7.69 7.71 7.01 7.22 6.93 7.35 7.59 7.39 6.80 7.10 6.92 6.75 6.92 7.25 7.72 7.70 7.65 7.49 7.45 7.17 7.44 7.27 7.32 6.91 7.10 6.84 7.03 6.99 6.85 7.25 7.03 6.95 7.48 7.20 7.37 6.99 7.22 7.39 6.86 7.01 7.36 6.98 6.96 7.43 7.07 7.27 6.86 7.32 7.13 7.35 6.89 7.68 7.66 7.38 7.20 6.78 6.85 7.56 6.95 6.79 6.85 7.37 7.68 7.01 7.10 7.60 7.35 7.04 7.74 7.10 7.48 7.24 7.07 7.30 7.46 6.96 7.49 6.93 7.52 7.29 7.31 6.92 7.43 7.06 7.29 7.53 6.83 7.57 6.87 7.04 7.37 7.11 7.14 -9999 -9999 -9999 -9999 -9999 -9999 -9999 -9999 -9999 -9999 -9999 -9999 -9999 -9999 -9999 -9999 -9999 -9999 -9999
7.65 6.77 6.78 6.87 7.49 7.46 7.33 6.89 7.75 7.42 7.31 7.42 6.75 7.34 6.80 6.99 7.43 7.04 7.74 7.35 7.51 7.27 7.72 7.02 7.61 7.06 7.37 7.68 7.66 7.35 6.75 7.39 7.02 7.15 7.27 7.51 7.58 7.74 7.01 7.00 7.48 7.73 6.98 7.33 7.14 7.13 7.06 7.50 7.35 6.97 7.42 7.19 7.65 7.17 7.28 6.80 7.58 7.34 7.57 7.51 7.33 6.83 7.68 7.70 7.06 7.71 7.03 6.80 7.74 7.12 7.18 7.27 7.17 7.66 7.74 6.91 6.98 7.10 7.33 7.04 7.20 7.44 7.59 7.26 7.65 7.16 7.06 7.15 7.53 7.03 6.92 7.08 7.24 6.93 6.99 6.81 7.30 7.74 6.94 7.55 7.61 7.26 7.59 7.02 6.89 7.70 6.78 7.15 6.81 7.44 7.52 7.35 7.25 7.02 7.20 7.69 7.07 6.93 7.02 6.75 7.34 6.89 7.05 7.44 7.73 7.31 7.62 7.02 7.33 7.00 6.96 7.59 6.78 6.76 7.61 6.91 7.73 7.54 7.53 7.70 7.00 7.75 7.06 7.12 7.55 7.59 7.15 7.28 7.09 7.23 7.22 7.30 7.33 7.50 6.82 7.12 7.04 7.50 7.60 7.11 7.51 7.49 7.70 7.03 7.35 7.05 7.53 6.77 7.07 7.48 7.57 6.84 6.99 6.87 6.85 7.55 7.32 7.19 7.52 7.18 7.23 7.32 7.13 7.00 7.55 7.65 6.77 7.21 7.55 6.83 7.50 6.97 6.82 7.07 7.20 7.28 -9999 -9999 -9999 -9999 -9999 -9999 -9999 -9999 -9999 -9999 -9999 -9999 -9999 -9999 -9999 -9999 -9999 -9999 -9999
7.56 7.57 7.72 7.49 7.13 7.32 7.64 7.15 7.70 6.76 7.15 7.27 6.89 6.86 7.68 6.80 7.31 7.33 7.45 7.40 6.95 7.43 6.84 7.37 7.64 7.45 7.46 6.89 7.02 7.22 6.76 6.93 7.47 7.75 6.96 7.34 7.65 7.66 7.51 7.42 7.14 7.34 7.72 6.81 7.67 7.70 7.69 7.39 6.85 6.82 7.20 7.32 7.30 7.50 7.21 7.10 7.29 7.47 7.13 7.58 7.57 7.48 7.41 7.01 7.38 6.76 7.00 6.85 7.39 7.49 6.92 7.18 6.83 7.42 7.22 7.47 7.12 7.62 6.87 7.37 7.57 7.45 7.60 7.27 7.25 7.24 7.19 7.34 7.67 7.46 7.12 7.00 7.35 7.01 7.54 7.17 7.33 7.20 7.44 7.45 7.27 7.39 7.07 7.64 7.34 7.63 7.72 7.25 7.05 7.45 7.70 7.21 6.75 7.16 7.62 7.04 7.23 7.27 7.72 7.45 7.15 7.02 7.66 6.93 7.04 6.99 6.97 6.98 7.51 7.50 6.85 7.58 7.61 7.66 7.59 7.29 6.91 6.80 7.37 7.74 6.98 6.86 6.91 7.06 6.88 7.58 7.48 7.49 7.57 7.09 7.70 7.28 7.06 7.16 7.26 7.33 7.33 6.91 7.16 6.96 7.16 6.79 6.94 7.22 7.36 7.70 7.69 6.82 7.21 7.26 7.62 7.05 6.80 6.76 7.18 7.34 7.38 7.51 7.04 7.74 7.59 7.74 7.12 7.24 7.34 7.49 7.32 7.65 6.84 6.99 6.97 7.07 7.45 7.36 7.25 7.45 -9999 -9999 -9999 -9999 -9999 -9999 -9999 -9999 -9999 -9999 -9999 -9999 -9999 -9999 -9999 -9999 -9999 -9999 -9999
7.47 6.79 7.30 6.94 7.20 7.70 7.73 7.28 7.38 7.09 6.97 6.85 7.42 7.47 7.48 7.44 7.62 7.45 7.60 6.98 7.25 7.01 7.55 7.33 6.76 7.35 7.66 6.93 7.51 6.79 7.46 6.89 6.95 7.52 7.66 7.14 7.44 7.16 6.80 7.65 6.79 7.03 6.87 6.92 7.19 7.03 7.14 7.73 7.02 7.02 7.03 7.32 6.85 7.51 7.70 6.91 6.87 6.83 7.34 7.43 6.96 6.95 6.75 7.71 6.96 7.21 7.18 6.80 7.66 7.06 7.02 7.07 7.01 6.93 6.88 6.90 7.21 6.77 7.29 7.29 7.02 7.40 7.55 6.99 7.13 7.36 6.83 7.50 7.39 7.43 6.98 7.60 7.37 7.00 6.85 7.04 6.83 6.88 7.18 6.85 7.26 7.25 7.50 6.99 7.69 7.40 7.26 7.64 6.96 6.98 7.07 7.67 7.53 7.41 7.00 7.71 7.46 7.64 7.47 6.81 6.97 7.11 6.76 7.59 7.72 7.13 7.09 7.37 7.58 7.39 7.39 6.97 7.64 7.29 7.00 7.00 7.71 7.68 7.67 6.84 7.66 7.21 6.90 7.37 6.98 6.79 6.77 7.70 6.97 7.27 7.20 7.60 6.89 6.80 6.99 7.31 7.50 7.38 6.96 7.59 6.87 6.96 7.51 7.23 7.15 7.68 7.17 7.61 7.72 7.13 7.61 6.77 7.44 7.71 7.49 6.94 6.99 7.27 7.56 7.75 6.94 7.32 6.76 7.05 7.12 7.65 7.48 7.69 7.21 7.55 7.56 7.20 7.21 7.47 6.79 6.82 -9999 -9999 -9999 -9999 -9999 -9999 -9999 -9999 -9999 -9999 -9999 -9999 -9999 -9999 -9999 -9999 -9999 -9999 -9999
7.25 7.06 7.33 7.69 7.05 7.24 6.85 7.17 7.34 7.57 7.64 7.49 7.32 7.27 6.86 7.69 7.39 7.29 7.06 7.03 6.82 7.13 7.34 7.38 7.15 6.77 6.98 7.12 7.46 7.32 7.30 7.07 7.73 7.05 7.29 7.75 7.17 7.45 6.89 7.71 6.80 7.58 7.13 7.21 6.99 7.69 7.07 7.52 7.39 7.68 7.62 7.34 7.18 7.62 7.39 6.80 7.45 6.91 7.07 7.16 7.41 7.27 7.30 7.28 6.87 7.09 7.22 7.52 7.42 7.01 7.08 7.12 7.11 7.40 7.30 6.78 7.06 6.94 7.46 7.08 6.85 7.49 7.41 6.93 7.54 7.55 6.98 7.01 7.22 7.01 6.81 7.28 6.98 6.92 7.18 6.78 7.70 7.34 7.01 7.06 7.56 6.84 6.75 7.55 7.44 7.56 7.12 7.65 6.77 7.16 6.84 6.97 7.00 7.59 7.35 7.48 7.28 7.22 7.35 7.59 7.32 7.57 7.49 6.85 7.27 7.05 6.87 7.25 7.65 7.06 6.84 7.24 7.40 7.61 6.95 7.16 6.80 7.41 7.38 7.45 7.23 7.20 7.34 6.97 7.18 6.82 7.07 7.55 7.73 7.40 7.11 7.27 7.01 7.42 7.12 7.40 7.10 6.91 7.26 7.66 7.52 6.85 6.80 7.42 7.17 7.51 7.34 7.74 6.97 7.59 7.56 7.42 7.44 7.48 7.16 7.45 7.08 7.22 7.59 7.01 7.54 6.99 7.61 7.16 7.14 7.57 7.54 7.49 6.75 6.91 7.15 7.53 7.48 7.31 7.25 7.06 6.91 -9999 -9999 -9999 -9999 -9999 -9999 -9999 -9999 -9999 -9999 -9999 -9999 -9999 -9999 -9999 -9999 -9999 -9999
7.67 6.90 7.20 7.56 7.56 7.15 6.80 7.57 7.20 7.68 7.31 6.97 6.84 7.47 6.93 7.49 6.82 7.68 6.85 7.50 7.07 6.91 7.51 6.79 7.06 6.88 7.18 7.58 7.40 7.61 7.14 7.01 7.47 7.11 7.06 6.83 7.16 7.09 7.74 7.53 7.30 7.27 7.75 6.92 7.38 7.58 7.14 7.69 7.28 7.63 7.63 7.41 7.34 6.93 7.70 7.53 7.28 7.14 7.70 6.92 7.25 6.86 7.38 7.11 7.62 7.20 7.20 7.20 7.41 7.61 7.30 7.57 7.39 7.34 7.73 7.29 7.69 6.84 7.24 7.10 7.60 7.39 7.18 7.74 7.55 6.87 7.09 6.80 7.22 7.57 7.23 7.50 7.45 7.08 7.31 7.20 7.31 7.54 7.44 7.02 6.92 6.95 6.82 7.10 7.50 7.46 7.63 7.39 6.99 6.76 7.37 7.15 7.23 7.26 7.10 7.16 7.01 7.20 7.21 6.92 7.03 7.35 7.18 6.79 6.89 6.78 7.35 6.93 7.62 7.09 6.98 7.29 7.04 7.74 7.34 7.26 7.41 7.10 7.05 7.61 7.08 7.35 7.16 7.55 7.02 6.85 7.27 6.76 6.91 6.98 6.96 7.51 7.57 7.01 7.62 6.98 7.72 6.83 6.93 7.26 7.04 7.12 6.81 6.84 7.10 7.73 7.12 7.05 6.83 7.08 7.54 7.54 7.57 7.57 7.42 7.42 6.93 7.65 7.55 7.43 7.46 7.08 7.48 6.79 7.04 7.62 7.65 6.94 7.31 7.00 7.28 6.95 6.83 7.71 7.15 7.04 7.06 -9999 -9999 -9999 -9999 -9999 -9999 -9999 -9999 -9999 -9999 -9999 -9999 -9999 -9999 -9999 -9999 -9999 -9999
7.61 6.80 7.52 6.85 6.76 7.59 7.29 7.42 7.26 7.39 6.83 7.16 7.20 7.58 7.32 6.94 7.20 6.92 6.99 7.22 7.33 7.67 7.47 7.70 6.79 6.78 7.58 6.95 7.29 7.60 7.30 7.07 6.92 7.72 7.09 7.27 7.68 7.12 7.64 7.25 7.11 7.19 6.99 7.16 7.42 7.38 7.08 6.77 7.02 7.60 7.71 6.85 6.81 7.19 6.97 7.19 7.44 7.28 7.70 7.51 7.67 7.67 7.53 7.26 7.01 7.50 7.73 7.03 7.35 7.25 7.48 7.41 6.86 7.31 6.92 7.43 7.59 7.01 7.52 7.55 7.66 6.91 6.76 7.15 6.99 7.49 6.76 6.82 6.83 6.90 7.50 7.26 7.48 6.82 6.87 7.24 7.50 7.25 7.11 6.91 7.08 6.81 7.17 7.47 7.66 6.87 7.01 6.86 7.55 6.95 7.53 6.88 6.97 6.87 7.26 7.33 7.32 7.02 7.62 7.66 7.26 7.46 7.56 6.91 7.40 6.90 6.90 7.51 7.73 7.05 6.91 7.06 7.55 7.30 7.58 7.44 7.64 6.90 7.20 7.13 7.46 7.23 6.82 7.01 7.40 7.27 7.71 7.35 6.86 7.25 7.28 6.80 7.24 7.41 6.78 7.10 7.59 7.54 7.53 7.25 7.54 7.04 7.00 6.76 7.32 7.63 6.81 7.02 7.34 7.17 7.70 7.23 6.96 7.32 7.23 6.82 7.56 7.03 7.57 7.16 6.90 7.56 7.75 6.97 6.78 6.91 6.82 7.34 7.59 7.14 6.94 7.64 7.36 7.50 7.09 7.13 6.90 -9999 -9999 -9999 -9999 -9999 -9999 -9999 -9999 -9999 -9999 -9999 -9999 -9999 -9999 -9999 -9999 -9999 -9999
7.23 7.05 7.28 7.46 7.35 7.12 7.62 6.80 7.07 6.78 6.96 7.28 7.47 7.58 7.25 7.11 7.65 7.04 7.63 6.94 7.03 7.49 6.81 6.87 7.07 7.03 7.29 7.58 6.92 6.77 7.12 7.30 6.84 7.53 7.50 7.42 7.23 7.38 7.60 6.96 7.57 7.10 7.10 6.83 7.17 7.36 7.47 6.79 7.35 7.65 7.44 7.34 7.06 6.98 6.81 7.72 7.43 6.79 7.08 7.37 6.79 6.86 7.08 7.28 7.66 6.96 7.16 7.51 7.00 6.81 7.62 7.16 7.48 7.70 7.67 6.97 7.04 7.12 7.52 6.88 7.14 6.87 7.55 7.17 7.73 7.59 7.63 7.10 7.63 7.71 7.65 7.54 7.39 6.86 7.20 7.46 7.69 6.99 7.42 7.20 7.39 6.85 7.35 7.70 7.21 7.71 6.90 7.01 7.43 7.73 6.97 6.79 7.57 7.34 7.08 6.96 7.23 7.69 6.92 7.73 7.46 7.50 6.98 7.52 7.52 7.19 7.34 7.74 6.91 6.88 7.60 6.82 7.22 7.33 6.94 7.69 7.71 7.26 7.73 7.68 6.89 7.56 6.87 7.28 7.42 6.96 7.27 7.01 6.83 7.32 6.76 7.10 7.18 6.99 6.90 7.55 6.81 7.40 7.15 7.52 7.39 7.15 7.43 7.70 7.17 6.76 7.37 7.48 7.51 7.18 7.72 7.42 7.36 7.34 7.00 6.97 6.78 7.33 7.17 6.85 7.07 7.62 7.07 7.68 7.65 7.42 7.16 6.94 7.22 7.10 7.70 7.13 7.63 7.23 6.83 7.65 7.58 -9999 -9999 -9999 -9999 -9999 -9999 -9999 -9999 -9999 -9999 -9999 -9999 -9999 -9999 -9999 -9999 -9999 -9999
6.97 7.00 7.01 7.21 6.99 6.81 7.71 6.91 6.93 7.46 7.32 7.53 6.90 7.69 7.37 7.02 7.68 7.39 7.35 7.24 7.15 7.05 7.18 7.18 6.93 7.34 7.07 7.74 7.20 7.75 6.86 6.89 7.74 6.82 7.06 7.39 6.75 7.55 6.81 7.68 6.91 7.43 7.21 7.28 6.82 7.61 7.28 6.98 6.84 7.70 6.88 7.27 7.10 7.16 7.49 7.48 7.22 7.55 7.03 7.68 7.66 7.61 7.49 7.47 7.56 7.57 7.70 7.13 7.02 7.56 7.17 7.48 7.64 7.50 7.55 7.71 7.49 7.03 7.27 6.81 7.06 6.82 7.02 6.82 7.39 7.16 6.88 7.10 7.71 7.61 7.08 6.91 7.35 7.27 6.95 7.44 7.23 7.28 7.27 6.99 6.82 7.65 7.51 7.72 7.63 7.30 7.51 7.25 6.91 6.95 6.96 6.87 7.54 6.92 7.30 7.06 7.65 7.35 7.49 7.54 7.75 7.10 7.48 7.44 6.85 7.37 6.83 7.62 6.84 7.20 6.89 7.28 6.83 7.63 7.75 7.35 6.86 7.34 7.20 6.78 7.72 7.52 7.72 6.94 7.64 7.23 7.38 7.46 7.57 6.86 7.09 7.13 6.84 6.87 7.10 7.08 7.12 7.40 7.57 7.33 7.35 7.26 6.82 7.55 7.37 7.55 6.99 7.32 7.06 6.94 7.41 6.79 7.18 7.63 6.85 6.78 7.52 7.16 7.25 7.31 7.04 6.94 6.82 7.34 6.77 7.22 7.57 6.88 7.42 7.35 -9999 -9999 -9999 -9999 -9999 -9999 -9999 -9999 -9999 -9999 -9999 -9999 -9999 -9999 -9999 -9999 -9999 -9999 -9999 -9999 -9999 -9999 -9999 -9999 -9999
7.63 7.37 7.39 7.53 7.45 6.88 7.06 7.15 7.21 7.64 7.69 7.04 7.16 7.33 7.30 6.90 7.25 6.90 7.14 7.69 7.23 7.54 6.80 7.18 6.93 7.55 6.78 6.83 7.57 6.80 7.16 7.43 6.76 7.10 7.72 6.75 7.57 7.50 6.76 6.82 7.34 6.76 6.82 6.99 7.57 6.91 7.28 7.52 7.73 7.21 6.80 7.60 7.03 7.15 7.53 6.96 7.62 7.25 7.25 6.93 6.75 7.00 7.27 7.11 7.63 7.61 7.04 7.71 6.95 7.43 6.84 7.24 7.53 7.67 7.13 7.43 7.69 7.36 7.00 7.26 7.51 7.44 7.59 7.11 7.59 7.16 6.97 7.74 7.59 6.90 7.60 7.54 6.80 7.52 7.61 7.57 7.64 6.93 6.91 7.45 7.15 7.27 7.34 7.61 7.56 7.43 7.42 7.20 7.40 7.08 7.28 7.43 7.11 7.00 7.49 6.77 7.32 7.38 7.24 7.15 7.67 6.83 7.02 7.36 7.69 7.49 7.44 6.76 7.22 7.10 7.37 6.97 7.38 7.75 6.75 7.73 7.43 7.59 7.01 7.10 7.45 7.63 7.75 7.24 6.81 7.69 7.38 7.38 7.03 7.17 7.32 7.54 7.07 7.12 7.52 6.77 7.40 6.91 6.84 7.22 7.69 7.09 7.11 7.75 7.19 7.45 6.83 6.94 6.80 7.11 7.35 6.78 6.87 7.47 7.66 6.75 7.31 7.55 7.27 7.73 7.57 7.22 7.46 7.17 6.77 6.83 7.33 6.86 -9999 -9999 -9999 -9999 -9999 -9999 -9999 -9999 -9999 -9999 -9999 -9999 -9999 -9999 -9999 -9999 -9999 -9999 -9999 -9999 -9999 -9999 -9999 -9999 -9999 -9999 -9999
7.46 7.13 7.00 7.25 7.66 6.86 7.28 6.88 7.65 7.23 7.01 7.40 7.19 7.06 7.14 7.20 7.64 7.57 7.19 7.30 7.00 7.36 6.96 7.25 6.78 7.74 6.83 6.79 7.57 7.37 7.02 6.80 7.57 7.52 7.62 6.92 7.55 7.61 7.21 7.35 7.51 7.66 6.81 7.62 6.89 7.29 7.27 7.29 7.36 7.10 6.76 7.00 6.77 7.75 6.88 7.11 6.78 7.19 6.99 7.24 7.71 7.04 7.08 7.35 7.02 6.92 6.89 7.02 7.10 7.03 7.61 7.50 7.74 7.08 6.96 7.70 6.94 7.02 7.54 7.68 6.94 7.61 7.62 7.01 7.32 7.53 7.06 7.01 7.20 6.94 7.30 7.55 7.45 7.72 7.06 7.57 7.69 6.95 7.15 7.69 6.96 7.69 7.30 7.13 7.21 7.26 7.75 6.84 6.84 6.90 7.58 7.09 7.02 7.27 7.71 7.68 6.97 6.80 7.41 7.04 6.75 7.40 7.60 7.10 7.32 6.76 7.61 7.39 7.03 7.24 6.88 7.29 6.79 6.79 7.25 6.76 7.50 7.19 7.30 7.41 7.07 7.25 6.79 7.34 6.87 7.11 7.26 6.82 7.46 6.75 6.94 7.38 6.95 7.06 7.60 6.98 7.61 7.47 7.04 7.44 7.04 7.03 6.78 6.97 6.91 7.20 6.80 7.24 7.60 7.50 6.97 7.48 7.65 6.95 7.52 7.31 7.02 6.89 7.57 7.44 7.01 7.51 7.48 7.20 7.20 6.88 7.41 7.14 -9999 -9999 -9999 -9999 -9999 -9999 -9999 -9999 -9999 -9999 -9999 -9999 -9999 -9999 -9999 -9999 -9999 -9999 -9999 -9999 -9999 -9999 -9999 -9999 -9999 -9999 -9999
7.59 7.38 7.01 7.01 7.05 7.15 7.37 7.22 6.83 7.37 7.29 6.81 7.54 7.43 7.72 6.77 7.20 7.16 7.62 7.63 7.57 7.08 7.68 6.87 7.41 6.96 7.38 7.64 7.38 7.33 7.66 6.82 7.47 7.01 7.18 7.50 6.84 7.52 7.40 7.35 6.81 7.48 6.99 7.52 7.64 7.16 7.52 6.80 7.56 7.17 7.72 7.35 7.59 7.43 7.30 6.93 7.49 6.83 6.77 7.18 7.13 7.21 7.07 7.13 7.52 7.39 7.20 6.85 7.52 7.71 7.73 7.09 6.77 7.17 7.08 7.07 7.42 7.63 7.07 7.22 7.27 7.67 7.25 6.76 7.52 7.69 7.75 7.24 7.03 7.53 7.40 7.22 7.64 7.00 7.59 7.28 7.71 7.33 7.10 7.03 7.74 7.05 7.16 7.11 7.56 7.31 7.22 7.72 6.90 7.10 7.24 7.02 7.10 7.49 6.79 7.02 6.98 7.57 7.51 7.26 6.82 7.11 7.39 7.01 7.34 7.51 6.77 7.72 7.20 7.67 7.68 7.52 6.95 7.05 7.53 6.80 6.80 7.35 7.58 7.26 7.04 7.39 7.64 7.10 7.03 7.04 6.85 7.26 7.03 6.95 7.36 7.00 6.79 7.35 7.42 7.17 7.69 7.59 7.41 7.29 7.24 7.38 7.22 7.14 7.15 7.24 7.25 7.50 7.67 7.36 7.07 7.03 7.60 6.97 7.48 6.88 6.80 7.46 7.11 7.37 6.90 6.83 7.48 7.27 7.40 7.40 7.16 7.63 -9999 -9999 -9999 -9999 -9999 -9999 -9999 -9999 -9999 -9999 -9999 -9999 -9999 -9999 -9999 -9999 -9999 -9999 -9999 -9999 -9999 -9999 -9999 -9999 -9999 -9999 -9999
7.25 7.32 7.71 7.44 7.39 7.24 7.67 7.46 7.71 7.70 6.84 7.11 7.66 7.25 7.04 7.72 6.91 7.44 7.28 6.79 7.57 7.20 7.66 6.79 7.62 7.75 7.05 7.27 7.15 6.83 7.67 7.18 7.43 7.64 7.20 7.34 7.00 7.20 7.33 7.58 7.68 7.43 7.25 7.04 7.54 7.49 6.87 7.74 7.62 7.27 7.55 7.56 6.76 6.97 7.42 7.44 7.22 7.69 7.68 7.65 7.12 7.42 6.91 7.56 7.08 7.11 7.70 7.42 7.08 7.34 6.80 6.84 7.49 6.96 6.80 7.60 7.28 7.15 7.32 7.38 7.60 7.03 6.76 7.59 7.17 7.57 7.43 7.23 6.91 7.05 7.38 7.27 6.80 7.02 7.03 7.34 7.60 6.97 6.92 6.90 7.46 7.46 7.67 7.63 6.95 7.46 7.38 7.50 7.10 7.50 7.45 7.21 7.54 6.76 7.18 7.21 7.41 7.09 7.62 7.67 7.32 7.69 7.25 6.88 7.45 7.65 7.53 7.54 6.86 6.80 6.76 7.40 7.29 7.39 7.59 6.80 7.13 7.64 6.78 6.80 7.56 7.73 7.46 7.72 6.77 6.96 6.93 7.54 7.37 7.04 7.39 7.08 6.91 7.71 7.69 6.86 7.54 7.56 6.86 7.57 7.12 7.68 7.05 7.11 6.78 7.31 6.90 7.56 7.01 7.09 6.89 7.09 6.97 7.54 7.32 7.71 7.02 7.74 7.73 7.51 7.03 6.91 6.89 7.50 7.36 7.35 7.34 7.69 -9999 -9999 -9999 -9999 -9999 -9999 -9999 -9999 -9999 -9999 -9999 -9999 -9999 -9999 -9999 -9999 -9999 -9999 -9999 -9999 -9999 -9999 -9999 -9999 -9999 -9999 -9999
6.86 7.18 7.73 7.12 7.19 7.47 7.68 6.84 7.59 7.41 7.36 7.47 7.43 7.10 7.06 7.70 7.70 7.28 7.17 7.43 7.47 7.59 7.17 7.30 6.81 7.42 6.84 7.16 7.74 7.50 7.46 7.41 6.77 7.06 6.81 7.43 7.12 7.27 7.37 7.37 6.87 7.25 7.63 7.48 7.66 7.01 6.77 7.60 7.68 7.56 7.36 7.72 6.77 6.96 7.10 7.01 6.84 7.56 6.96 6.92 7.17 7.67 6.81 7.56 7.72 7.58 7.01 7.35 7.28 6.83 7.69 6.99 6.93 6.85 7.45 6.97 7.36 7.41 7.37 7.45 7.07 7.18 7.35 6.77 7.43 7.50 6.83 6.77 7.24 7.58 6.92 7.46 7.02 7.19 7.34 6.76 7.05 7.06 7.12 7.21 6.79 6.78 7.74 7.55 7.33 6.79 7.55 6.83 7.56 6.97 6.92 7.31 7.75 7.28 6.91 6.85 6.92 6.89 7.71 6.99 7.41 7.44 7.32 7.26 7.14 6.98 7.24 7.05 6.86 7.16 6.97 6.84 7.43 7.25 7.67 7.60 7.45 7.72 7.46 7.07 7.75 7.14 6.92 7.66 7.26 7.61 7.47 6.88 7.12 7.47 7.26 7.33 7.65 7.03 6.75 7.35 7.01 7.31 6.89 7.43 7.35 7.04 7.68 7.34 7.28 6.83 7.28 7.30 7.05 6.99 7.19 7.03 7.63 6.80 6.78 7.51 7.16 6.90 6.88 7.66 7.12 7.74 7.42 6.81 7.62 6.80 7.16 7.43 7.61 -9999 -9999 -9999 -9999 -9999 -9999 -9999 -9999 -9999 -9999 -9999 -9999 -9999 -9999 -9999 -9999 -9999 -9999 -9999 -9999 -9999 -9999 -9999 -9999 -9999 -9999
7.62 7.47 7.71 7.36 7.07 7.17 6.98 7.22 7.62 7.72 7.57 7.64 6.93 7.28 6.94 6.98 7.30 7.55 7.61 7.12 7.09 7.20 7.11 7.72 7.32 7.49 7.70 7.21 7.40 6.94 7.55 7.70 7.09 6.85 7.32 7.03 7.42 7.09 7.45 7.21 7.70 7.24 7.68 6.81 7.71 7.24 6.92 7.38 7.60 6.78 7.64 7.33 7.54 6.83 6.79 7.61 7.64 7.08 6.92 6.96 7.26 6.79 7.23 7.56 7.44 7.56 7.23 6.93 7.60 7.17 7.28 7.50 7.38 7.11 6.90 7.62 6.93 7.21 7.59 6.83 7.10 7.44 7.23 6.87 7.01 6.82 7.74 7.30 7.37 7.47 7.41 7.67 7.57 7.00 7.60 7.22 7.66 7.53 7.54 7.74 7.55 7.09 7.49 7.64 7.58 7.75 7.47 7.03 7.21 7.58 6.98 7.14 7.51 7.50 7.49 6.94 6.92 6.84 7.03 7.62 7.08 7.56 7.53 7.04 7.58 7.48 7.66 7.05 7.03 6.96 6.91 7.57 7.57 7.68 7.36 7.74 7.21 7.36 7.70 7.33 7.34 7.44 7.10 7.07 7.60 7.73 7.68 7.16 7.02 7.13 7.55 7.37 7.17 7.04 7.69 7.62 6.82 7.02 6.78 7.00 7.24 7.24 7.68 7.26 7.59 6.85 7.68 6.95 7.74 7.52 6.98 7.74 7.62 6.91 7.59 6.79 7.31 7.57 7.45 7.51 6.82 7.13 7.68 7.55 7.48 7.51 6.80 7.57 7.39 -9999 -9999 -9999 -9999 -9999 -9999 -9999 -9999 -9999 -9999 -9999 -9999 -9999 -9999 -9999 -9999 -9999 -9999 -9999 -9999 -9999 -9999 -9999 -9999 -9999 -9999
7.39 7.06 7.32 7.51 7.31 7.70 7.73 7.12 7.48 7.64 7.06 7.11 7.43 7.57 7.47 6.82 7.68 7.49 7.21 6.82 7.70 7.59 7.13 7.59 7.53 7.25 7.02 7.38 6.97 6.99 7.41 7.52 7.68 7.65 7.58 6.83 6.78 7.50 7.38 7.50 6.80 7.30 7.47 6.88 7.48 7.40 6.86 7.74 7.01 7.29 7.49 7.50 7.66 7.24 7.66 6.84 7.57 7.55 7.50 7.13 7.30 7.23 7.10 6.94 7.16 7.38 7.56 7.24 7.24 7.35 7.54 7.35 6.96 7.10 6.88 7.15 6.77 7.72 7.34 6.97 7.68 6.82 7.23 6.90 7.03 7.21 7.13 7.40 6.78 7.23 7.18 6.90 7.72 7.16 7.58 6.76 7.23 7.36 7.56 7.22 7.70 7.44 7.75 7.63 7.16 7.02 7.32 7.27 7.09 6.82 6.87 7.17 7.07 6.97 6.86 7.25 6.94 7.26 6.93 6.78 7.58 7.13 6.97 7.38 6.97 7.19 7.00 7.42 6.76 7.42 7.09 7.23 7.25 7.39 6.97 7.04 7.73 7.08 7.41 6.83 7.39 7.36 7.41 6.77 6.83 7.21 7.01 7.26 7.54 7.48 7.02 6.96 6.78 7.15 7.16 6.86 7.59 7.03 6.85 6.96 7.13 7.20 7.52 7.09 7.24 6.93 7.51 6.96 6.83 7.67 6.80 7.74 7.55 6.82 7.22 6.96 6.77 6.93 7.52 7.62 6.86 6.80 6.79 7.26 7.48 7.69 7.33 7.20 7.00 -9999 -9999 -9999 -9999 -9999 -9999 -9999 -9999 -9999 -9999 -9999 -9999 -9999 -9999 -9999 -9999 -9999 -9999 -9999 -9999 -9999 -9999 -9999 -9999 -9999 -9999
7.13 7.03 6.78 7.33 6.81 7.15 7.31 7.45 7.22 7.54 7.59 7.40 7.10 6.79 7.33 7.51 7.28 7.61 7.43 6.95 6.81 7.22 7.12 7.41 7.56 7.54 7.23 7.48 6.87 7.33 7.14 6.84 6.98 7.29 7.72 7.38 7.21 7.14 7.49 7.29 6.89 7.28 6.80 7.13 6.91 7.25 7.10 7.31 6.78 7.31 7.04 7.55 6.79 7.59 7.07 7.43 6.76 7.34 7.55 7.52 7.17 7.50 7.36 7.53 7.01 7.29 6.95 7.60 7.07 7.30 7.38 7.18 7.35 7.43 7.60 7.58 6.79 7.12 7.73 7.72 7.63 6.93 7.73 7.60 6.92 6.97 7.00 7.64 7.19 7.20 7.46 7.52 7.64 7.10 7.10 7.29 7.26 7.36 7.01 7.30 6.76 7.60 7.72 7.38 7.22 7.74 6.89 7.63 7.17 6.76 7.71 6.78 7.44 7.13 7.15 6.84 7.70 7.59 7.71 7.72 7.17 7.57 7.53 7.75 7.33 7.09 7.05 6.78 7.20 6.88 7.44 7.26 7.34 7.68 7.07 7.19 6.85 6.76 7.04 7.06 7.54 6.93 7.29 7.69 6.90 7.26 7.02 7.41 6.93 7.39 7.04 7.46 7.44 7.65 7.66 6.75 7.45 7.34 7.31 7.14 6.81 7.55 7.67 6.87 7.43 7.21 7.08 6.78 6.76 7.00 7.49 7.26 7.57 7.01 7.61 7.65 7.70 6.87 7.72 7.56 7.28 7.35 7.67 7.18 7.52 6.85 6.77 7.72 7.37 -9999 -9999 -9999 -9999 -9999 -9999 -9999 -9999 -9999 -9999 -9999 -9999 -9999 -9999 -9999 -9999 -9999 -9999 -9999 -9999 -9999 -9999 -9999 -9999 -9999 -9999
7.60 7.03 7.21 6.99 7.03 7.27 7.53 7.04 7.16 7.51 7.13 7.56 7.41 6.94 7.54 6.78 7.72 7.28 6.94 7.49 7.64 7.70 7.54 6.80 7.20 7.00 6.80 6.76 7.60 7.27 7.00 7.39 7.28 6.88 7.67 7.73 7.46 7.54 7.28 7.13 7.01 7.24 7.50 7.58 7.47 7.41 7.64 7.08 7.39 6.83 7.58 7.50 7.56 7.01 7.22 7.17 7.09 7.23 7.54 7.26 7.36 7.26 7.47 7.07 6.77 7.09 6.87 7.12 6.92 7.62 7.52 7.08 7.41 6.79 6.97 7.21 6.98 7.65 7.39 6.81 7.20 7.01 7.17 7.35 7.34 7.07 6.76 7.38 7.33 7.69 7.01 7.23 7.69 7.03 6.84 7.27 7.67 6.95 7.52 7.28 6.80 6.78 7.64 7.30 6.84 7.22 7.41 7.58 7.11 7.62 7.11 7.51 7.02 7.34 7.07 6.92 7.17 7.29 7.33 7.29 7.31 6.87 7.35 6.81 7.44 7.04 6.77 7.04 7.47 7.14 7.67 7.27 7.71 7.40 7.67 7.42 7.71 6.82 7.24 7.33 7.39 7.59 7.47 7.03 6.81 7.24 6.90 6.78 7.53 7.74 7.48 7.39 6.99 7.69 6.88 7.26 7.15 7.00 7.00 7.40 7.14 7.74 7.75 7.49 7.19 7.71 6.82 7.23 7.31 7.02 7.02 7.47 7.07 7.24 6.93 6.93 7.39 7.33 7.68 7.69 7.66 7.05 7.17 7.14 7.25 6.88 7.30 6.96 7.30 -9999 -9999 -9999 -9999 -9999 -9999 -9999 -9999 -9999 -9999 -9999 -9999 -9999 -9999 -9999 -9999 -9999 -9999 -9999 -9999 -9999 -9999 -9999 -9999 -9999 -9999
7.34 6.86 7.08 7.36 7.07 7.68 7.37 7.35 7.20 7.65 7.56 7.20 7.69 7.24 7.72 7.59 6.84 7.48 6.78 7.01 7.25 6.83 6.92 7.31 7.10 6.86 7.02 6.89 7.32 6.97 7.45 7.34 7.65 6.79 6.98 7.60 6.93 6.78 7.56 6.90 6.92 7.34 7.33 6.85 7.32 6.96 7.65 7.51 7.71 7.72 7.61 7.26 7.43 7.07 7.20 7.22 7.30 7.46 6.84 6.75 7.67 7.11 7.65 7.03 6.99 7.36 6.87 7.32 7.47 7.36 7.23 7.36 7.57 6.93 7.38 7.42 7.42 6.76 7.38 7.09 6.92 6.98 7.48 7.35 6.86 7.27 7.01 6.93 7.51 7.41 7.74 7.02 7.19 7.53 7.12 7.30 7.42 6.93 7.00 7.22 6.91 7.47 6.97 7.39 6.93 7.74 7.33 7.03 7.30 7.30 7.21 7.60 6.92 7.17 6.97 7.04 7.17 6.95 6.99 7.57 7.08 7.15 7.17 7.48 7.74 7.66 7.07 7.15 7.20 6.83 7.12 7.46 7.30 6.87 7.47 7.15 7.53 7.46 7.70 7.42 6.93 7.19 7.44 7.67 7.08 7.12 7.58 7.09 7.04 7.40 7.21 7.08 7.16 7.40 7.08 7.10 7.65 7.18 7.44 6.97 7.58 6.79 7.45 6.97 7.44 7.15 7.68 6.98 7.25 7.63 7.30 7.59 6.78 7.29 7.57 7.34 7.48 7.25 7.32 7.72 7.20 6.81 7.27 7.61 7.36 7.48 7.51 7.16 7.38 -9999 -9999 -9999 -9999 -9999 -9999 -9999 -9999 -9999 -9999 -9999 -9999 -9999 -9999 -9999 -9999 -9999 -9999 -9999 -9999 -9999 -9999 -9999 -9999 -9999 -9999
7.48 7.48 7.62 7.45 6.83 7.68 7.28 7.26 7.70 7.46 7.53 6.87 7.59 7.06 7.55 7.02 7.03 6.88 6.82 7.11 6.80 7.07 7.62 7.04 7.31 7.21 7.71 7.32 7.42 6.90 7.26 7.59 6.92 7.68 7.28 7.58 6.86 6.90 7.43 7.51 7.55 7.05 6.91 7.28 6.92 6.93 6.83 6.77 7.06 7.45 6.78 7.32 7.68 7.51 7.30 7.47 7.73 7.33 7.20 6.95 7.63 6.76 6.78 6.99 7.00 6.90 7.29 7.15 7.16 7.23 7.07 7.70 6.88 7.64 6.92 7.22 7.55 7.02 7.22 7.14 7.03 7.01 7.14 7.19 7.63 7.70 7.01 6.84 7.40 7.37 7.34 7.00 7.13 7.36 6.80 6.91 7.42 7.38 7.44 7.04 7.74 7.14 7.03 7.61 7.50 7.57 7.21 7.43 7.37 7.38 7.08 7.70 7.23 7.60 7.20 7.44 7.34 7.50 7.00 7.10 7.61 7.50 7.34 7.09 7.42 7.70 7.37 7.10 7.38 7.29 7.30 7.40 7.04 7.03 7.46 7.48 7.28 7.23 7.44 7.19 7.43 7.75 7.13 6.89 6.80 7.25 7.45 6.91 7.03 7.20 6.76 7.51 7.03 7.57 7.36 7.01 7.01 7.10 7.17 7.59 7.01 7.23 6.93 7.27 7.17 7.53 7.14 7.04 7.34 7.21 7.14 6.85 6.87 7.14 7.17 6.83 7.43 7.55 7.41 6.90 7.45 7.49 7.34 6.79 6.91 7.68 7.42 7.36 7.29 -9999 -9999 -9999 -9999 -9999 -9999 -9999 -9999 -9999 -9999 -9999 -9999 -9999 -9999 -9999 -9999 -9999 -9999 -9999 -9999 -9999 -9999 -9999 -9999 -9999 -9999
7.53 7.08 7.00 7.66 6.75 7.07 7.28 7.06 7.12 6.89 7.59 6.82 7.19 7.73 7.52 7.17 6.81 7.53 7.74 6.83 7.02 6.89 7.09 7.40 7.75 6.75 7.06 7.08 7.46 7.16 7.73 7.26 6.99 7.59 7.55 7.48 7.66 7.03 7.60 7.54 7.57 7.63 7.62 7.30 7.65 7.18 7.72 7.33 6.95 7.04 7.45 7.51 7.13 6.80 7.19 7.47 7.60 6.82 7.10 7.57 7.50 7.29 6.97 7.51 6.86 7.51 7.57 7.36 7.33 7.67 7.27 7.67 7.33 7.23 6.86 6.82 7.06 7.30 7.66 7.72 7.25 7.54 7.30 6.77 7.51 7.51 7.14 7.67 7.08 7.17 7.27 6.94 7.39 7.60 7.41 6.87 7.35 6.76 7.21 7.33 7.14 7.71 7.15 7.28 6.75 7.15 6.95 7.52 7.29 6.96 6.76 7.62 6.93 7.60 6.98 7.15 6.75 7.41 7.46 7.69 6.79 6.80 6.87 7.33 7.30 7.52 7.62 7.11 7.31 7.29 7.58 6.99 7.09 7.58 7.24 7.60 7.14 7.17 7.05 7.45 7.28 7.27 6.85 6.99 7.54 7.50 7.67 7.27 7.13 7.01 6.77 7.63 7.56 7.27 7.21 6.75 7.62 7.66 7.74 7.73 7.46 7.19 7.32 7.59 7.13 7.63 7.74 7.71 7.75 7.50 7.06 7.56 7.42 7.56 7.32 7.55 7.35 6.79 7.50 6.91 6.77 7.74 7.20 7.39 7.10 7.25 7.00 7.50 7.23 7.54 -9999 -9999 -9999 -9999 -9999 -9999 -9999 -9999 -9999 -9999 -9999 -9999 -9999 -9999 -9999 -9999 -9999 -9999 -9999 -9999 -9999 -9999 -9999 -9999 -9999
7.02 7.46 7.18 7.40 7.73 7.38 7.34 7.49 7.08 7.10 7.47 7.72 7.54 7.59 7.04 7.58 7.65 7.05 7.18 6.93 7.54 7.50 7.22 7.14 7.65 7.08 7.36 6.88 7.02 6.93 7.17 7.60 7.10 6.80 6.94 7.17 7.01 6.76 7.47 7.68 7.13 7.09 6.94 7.38 7.12 7.11 6.87 6.99 6.97 7.57 7.47 7.12 6.98 7.13 7.18 7.64 7.21 6.89 7.08 7.60 7.42 7.16 7.47 6.88 6.82 7.23 7.68 7.00 7.56 7.01 7.24 7.20 7.23 7.45 7.68 7.26 7.21 7.16 7.42 7.24 7.28 7.74 6.88 7.73 7.72 7.14 6.92 6.84 7.21 7.34 6.92 6.96 7.27 7.58 6.82 7.29 7.57 6.99 6.95 7.62 7.10 7.16 7.11 7.28 7.14 7.19 6.97 7.67 6.79 7.09 6.91 7.67 6.86 7.41 7.00 6.97 7.11 7.35 7.20 7.31 7.09 7.47 7.06 7.57 7.66 7.43 6.97 7.01 6.90 7.56 7.43 6.96 7.66 7.32 7.57 6.99 7.13 7.04 7.40 7.47 6.99 7.11 6.98 7.46 7.62 7.59 7.41 7.34 7.43 7.31 7.58 7.22 7.57 7.57 7.15 6.92 6.80 6.99 7.32 7.57 6.86 7.64 7.68 7.55 6.89 7.72 6.99 7.18 7.62 7.57 7.37 6.86 7.68 6.92 7.32 7.47 7.59 7.12 7.03 7.66 7.72 7.71 7.56 7.23 7.00 6.79 7.48 6.95 7.74 7.68 -9999 -9999 -9999 -9999 -9999 -9999 -9999 -9999 -9999 -9999 -9999 -9999 -9999 -9999 -9999 -9999 -9999 -9999 -9999 -9999 -9999 -9999 -9999 -9999 -9999
7.25 7.28 6.76 7.66 7.27 7.39 6.81 7.01 6.80 7.71 7.05 7.42 7.52 7.08 7.07 7.41 7.57 7.01 7.01 7.67 7.13 7.07 7.71 7.34 6.84 6.84 7.11 7.49 7.40 7.15 7.34 7.71 6.81 7.64 6.98 7.40 6.77 7.15 7.45 7.05 7.74 7.50 6.99 6.96 7.08 7.02 7.02 7.70 7.32 7.11 7.39 7.50 6.95 7.18 7.66 7.42 7.63 7.47 7.01 7.72 6.93 7.45 7.41 7.53 7.49 7.44 6.78 7.52 6.84 7.60 7.66 7.45 7.18 7.63 7.19 7.05 7.61 6.83 6.90 7.04 6.93 6.80 7.70 6.92 7.59 7.36 6.94 7.10 7.03 7.59 6.98 7.69 7.56 7.63 7.61 7.34 7.08 7.28 7.16 6.91 7.20 7.02 6.98 7.43 7.15 7.26 6.85 7.06 7.35 7.29 6.94 7.28 7.54 7.31 7.05 7.68 7.35 7.23 7.62 7.32 7.50 7.64 7.26 7.28 6.76 6.78 7.74 7.01 7.39 7.62 6.95 7.38 7.36 7.36 7.63 7.31 7.18 7.24 6.84 7.02 7.52 7.25 7.44 7.67 6.85 6.99 7.47 7.74 6.85 7.32 7.24 7.28 7.67 7.65 7.13 7.72 7.71 7.27 7.01 7.28 7.47 7.36 7.10 7.75 7.41 7.09 7.14 6.91 7.66 7.50 6.79 7.40 7.25 7.27 6.77 7.01 7.48 7.08 7.48 6.87 7.30 7.33 7.21 7.10 7.50 7.34 7.39 7.02 7.45 7.25 -9999 -9999 -9999 -9999 -9999 -9999 -9999 -9999 -9999 -9999 -9999 -9999 -9999 -9999 -9999 -9999 -9999 -9999 -9999 -9999 -9999 -9999 -9999 -9999 -9999
6.90 7.11 7.15 7.68 7.35 7.12 7.72 7.19 7.32 7.40 7.22 7.36 7.21 7.71 7.67 7.56 7.44 7.09 6.82 7.11 7.30 7.25 6.84 7.47 7.40 7.73 6.79 7.07 7.16 7.66 7.32 6.98 7.35 7.31 6.94 7.29 6.96 7.20 6.82 6.86 7.14 7.58 7.05 7.52 7.24 7.31 7.03 6.81 7.49 7.51 6.97 7.55 6.94 7.20 6.87 7.04 7.34 6.77 7.38 7.00 6.79 7.39 6.90 7.40 7.21 7.68 7.73 6.91 7.12 7.39 7.71 7.10 7.55 6.92 7.31 6.81 6.84 7.23 7.16 7.48 6.84 7.17 7.32 6.93 7.53 6.84 7.30 7.23 7.59 7.63 7.63 7.62 7.21 7.04 7.17 6.75 7.10 6.79 7.35 7.70 6.81 6.76 7.54 7.33 7.13 7.73 7.70 7.35 7.41 7.48 7.07 7.15 6.93 7.69 6.77 6.77 7.00 7.67 7.55 7.57 7.40 7.34 7.24 7.36 7.42 7.46 7.62 7.26 6.95 6.83 6.77 7.00 7.70 6.88 7.07 7.35 7.55 7.11 7.02 7.41 7.39 7.32 7.14 6.83 7.23 7.15 6.85 6.76 6.78 7.02 7.59 6.93 7.53 6.92 7.64 7.02 7.18 7.07 7.68 7.17 6.80 7.65 6.99 7.10 7.09 6.76 7.63 7.19 7.44 6.78 7.60 7.69 6.92 7.52 7.10 6.80 7.49 7.64 6.96 7.59 6.84 7.30 7.08 6.77 7.07 6.82 7.18 7.64 7.28 7.01 -9999 -9999 -9999 -9999 -9999 -9999 -9999 -9999 -9999 -9999 -9999 -9999 -9999 -9999 -9999 -9999 -9999 -9999 -9999 -9999 -9999 -9999 -9999 -9999 -9999
7.68 7.08 7.08 6.78 6.95 7.04 7.53 7.45 7.71 7.22 7.55 7.37 7.46 7.15 7.25 7.04 6.81 6.80 6.88 6.99 7.02 7.19 7.18 6.85 7.01 6.76 7.57 7.06 7.73 7.65 7.72 7.40 7.44 7.37 7.36 6.83 7.20 7.26 7.72 7.55 7.17 6.77 7.60 7.22 7.11 7.34 7.32 6.78 6.92 7.66 6.91 7.17 7.03 7.21 6.81 7.50 6.99 6.82 7.41 7.61 7.28 7.64 7.31 6.94 7.04 7.15 7.02 7.70 6.97 7.41 7.59 7.72 6.92 6.99 7.60 7.18 7.42 7.46 7.71 7.04 6.87 6.85 7.17 7.38 7.43 6.98 7.02 7.12 7.21 7.25 7.73 7.55 7.12 6.93 7.27 6.94 7.43 7.23 7.15 7.65 7.25 7.55 7.14 7.28 7.39 7.36 7.50 7.12 6.91 6.87 6.96 7.62 7.09 7.29 6.82 7.00 7.68 7.59 6.94 6.95 7.08 7.51 7.48 7.13 7.40 7.65 7.15 7.59 7.59 7.16 7.05 7.12 6.82 6.94 7.25 7.48 6.82 7.52 7.19 7.27 7.67 7.43 6.93 6.75 7.03 7.13 7.16 7.61 7.17 7.31 7.47 7.75 6.91 6.99 7.73 6.83 7.10 7.71 7.43 6.83 7.38 7.16 7.71 7.47 7.57 7.35 7.43 7.24 7.20 7.56 7.72 7.33 7.24 7.45 7.31 7.66 6.81 6.85 6.99 7.00 7.50 7.70 7.03 6.79 6.82 7.72 7.42 6.93 7.70 6.78 -9999 -9999 -9999 -9999 -9999 -9999 -9999 -9999 -9999 -9999 -9999 -9999 -9999 -9999 -9999 -9999 -9999 -9999 -9999 -9999 -9999 -9999 -9999 -9999 -9999
7.54 7.13 7.15 7.19 7.46 7.18 7.33 7.62 7.00 6.95 7.34 6.98 7.05 6.99 6.91 7.33 6.94 6.90 7.09 7.54 7.36 7.03 7.17 7.37 6.89 7.49 7.54 7.70 7.44 7.27 7.10 7.41 7.13 6.80 7.48 7.23 6.97 7.74 6.76 7.00 6.86 7.08 7.35 7.50 6.83 7.47 7.48 7.19 6.90 7.26 7.15 7.24 6.78 7.66 7.07 7.02 7.43 7.23 7.15 7.56 7.37 7.08 7.32 7.44 6.97 7.59 6.82 7.43 7.70 6.77 7.72 6.92 7.31 6.90 7.03 7.18 6.94 7.47 7.06 7.16 6.88 7.37 7.47 7.42 6.76 6.87 7.72 7.40 6.93 6.77 7.45 7.09 7.12 7.06 7.48 7.11 7.63 6.77 7.38 7.26 7.50 7.74 7.32 6.92 7.00 7.03 7.62 7.10 7.20 7.56 7.40 6.99 7.57 7.62 7.34 6.89 7.05 7.46 6.76 7.32 7.71 6.84 7.57 7.20 6.80 6.78 6.91 7.32 7.30 6.85 7.64 7.30 7.64 7.46 6.76 7.24 7.51 7.74 7.18 6.82 7.73 7.27 7.29 7.59 7.34 7.44 7.21 7.52 6.91 6.88 7.49 7.40 6.91 7.16 7.73 7.25 6.81 7.16 6.96 7.02 7.38 7.43 7.40 7.11 7.54 7.59 7.66 6.78 7.74 7.50 7.34 7.14 7.27 7.10 7.45 7.56 7.61 7.32 7.35 7.11 7.49 7.08 6.99 6.89 7.71 6.84 6.76 7.04 7.44 7.43 -9999 -9999 -9999 -9999 -9999 -9999 -9999 -9999 -9999 -9999 -9999 -9999 -9999 -9999 -9999 -9999 -9999 -9999 -9999 -9999 -9999 -9999 -9999 -9999 -9999
7.41 6.83 7.21 6.91 7.42 6.97 6.83 7.68 7.35 7.20 6.81 7.36 7.49 7.37 6.80 6.77 7.60 7.39 7.21 7.47 6.84 6.93 7.58 6.83 7.58 7.42 6.82 7.03 7.24 7.05 6.89 7.41 6.95 7.31 7.68 7.27 7.45 6.93 6.99 7.43 7.12 7.60 7.44 6.92 7.13 7.40 7.03 7.45 7.58 7.74 7.23 7.39 7.24 7.03 7.27 7.37 7.32 7.47 7.34 7.66 7.36 7.54 7.15 7.47 7.60 7.08 7.14 7.04 6.79 7.03 7.69 7.36 7.31 7.36 7.12 7.13 7.25 7.42 7.22 7.66 7.20 6.77 6.90 6.95 7.56 7.64 7.55 7.49 7.66 7.57 6.91 7.45 7.15 6.96 7.52 7.43 7.04 7.64 6.98 7.61 6.79 7.12 7.26 7.54 6.78 6.91 7.36 7.12 7.36 7.72 7.18 7.75 7.59 7.10 7.10 7.00 7.65 7.22 7.60 7.29 7.06 7.14 7.72 7.05 7.28 6.76 7.31 7.25 6.82 7.10 7.37 6.78 7.17 7.70 7.06 7.40 6.99 7.29 7.73 7.62 7.16 6.85 7.09 6.77 7.00 6.81 6.86 7.50 7.09 7.71 7.74 7.56 7.67 7.71 6.88 7.28 7.63 6.98 7.38 6.84 7.46 6.97 7.18 7.44 7.01 7.60 7.66 6.89 6.90 6.92 7.16 7.17 7.73 6.76 7.64 6.76 7.27 7.35 7.06 7.69 7.70 7.09 7.50 6.90 7.61 7.27 7.34 7.48 7.21 7.59 6.92 -9999 -9999 -9999 -9999 -9999 -9999 -9999 -9999 -9999 -9999 -9999 -9999 -9999 -9999 -9999 -9999 -9999 -9999 -9999 -9999 -9999 -9999 -9999 -9999
7.02 7.01 7.60 7.02 7.06 6.78 7.57 7.53 7.75 7.74 7.66 7.25 7.22 7.06 7.12 7.64 7.63 7.11 7.20 7.45 6.76 7.48 7.17 7.18 7.47 6.86 6.89 6.79 7.13 7.63 7.31 6.94 7.19 7.67 6.84 7.70 7.25 7.17 7.63 7.38 6.97 6.95 7.17 7.26 6.96 7.71 7.75 7.45 7.72 7.35 7.37 7.09 7.16 6.91 7.54 7.28 7.45 7.38 7.44 7.28 7.70 7.46 7.54 7.09 6.75 7.26 7.29 7.33 7.52 7.69 6.86 7.12 6.98 7.14 7.18 7.52 7.47 7.69 6.82 7.02 7.12 6.95 7.16 6.96 7.46 6.99 7.09 6.88 7.14 7.72 6.84 7.17 6.85 7.09 7.36 7.42 7.67 7.54 7.42 7.35 7.19 7.25 7.36 7.17 6.79 7.08 7.62 7.73 7.69 6.77 6.98 7.45 6.83 7.27 7.67 7.44 6.84 7.72 7.54 7.44 6.92 7.24 7.46 7.24 7.43 7.67 7.65 6.79 7.24 6.96 6.88 7.33 7.72 7.06 6.88 7.52 7.03 7.13 7.64 7.21 7.71 6.93 7.33 7.20 7.04 7.41 7.66 6.92 6.96 7.52 7.61 7.04 7.10 6.86 7.58 7.02 7.09 7.67 7.33 7.40 7.36 7.25 6.82 6.90 7.38 7.71 7.59 7.29 6.94 6.80 6.98 7.34 7.69 7.09 6.92 7.00 6.97 7.01 7.00 7.26 6.85 7.72 7.10 6.75 6.97 7.06 6.79 7.49 7.37 7.67 7.70 -9999 -9999 -9999 -9999 -9999 -9999 -9999 -9999 -9999 -9999 -9999 -9999 -9999 -9999 -9999 -9999 -9999 -9999 -9999 -9999 -9999 -9999 -9999 -9999
7.14 7.16 7.23 7.30 7.37 6.91 7.65 7.57 6.83 7.58 7.04 7.50 7.21 7.45 7.43 7.28 7.40 7.56 7.30 7.14 6.98 7.15 7.01 7.30 7.29 6.92 7.55 7.73 7.15 7.67 7.44 7.02 6.88 7.04 7.35 7.12 7.47 6.81 7.36 6.95 7.12 7.57 6.84 6.84 7.69 6.91 7.57 6.79 6.91 6.77 7.72 6.79 7.04 7.53 7.44 6.85 7.60 7.73 7.11 6.99 6.93 6.95 6.96 6.78 6.85 7.64 7.46 7.21 6.87 7.69 7.18 6.88 7.41 7.59 6.85 7.27 7.71 6.99 7.72 6.77 7.25 7.48 7.22 6.93 7.53 7.38 7.14 7.04 7.36 7.10 7.24 7.12 7.10 6.84 7.02 7.67 6.94 7.45 6.81 6.77 7.42 6.91 6.87 7.15 7.11 7.10 7.48 7.65 7.00 6.99 6.75 6.95 7.32 7.51 6.88 7.16 7.36 7.35 7.05 7.51 7.61 7.75 6.95 7.67 7.36 6.88 7.72 7.15 7.13 7.44 7.49 7.01 7.34 6.92 6.93 7.45 7.34 7.09 7.54 7.72 7.05 7.55 7.54 7.38 7.60 7.66 7.74 6.78 7.50 6.94 7.15 7.68 7.26 7.74 6.88 6.99 7.51 7.14 6.84 7.26 7.25 6.91 7.03 7.07 6.96 7.51 7.15 7.57 7.32 7.18 7.62 6.94 6.92 7.74 7.57 7.39 7.68 7.28 6.99 7.60 7.74 7.00 7.23 7.23 7.68 7.20 6.93 7.40 7.37 7.28 7.19 -9999 -9999 -9999 -9999 -9999 -9999 -9999 -9999 -9999 -9999 -9999 -9999 -9999 -9999 -9999 -9999 -9999 -9999 -9999 -9999 -9999 -9999 -9999 -9999
7.31 7.11 7.15 7.51 7.21 7.32 6.98 7.23 7.03 7.06 7.73 7.48 7.12 7.01 7.20 7.21 6.78 7.21 7.46 7.65 7.26 7.02 7.72 7.12 7.57 7.59 6.83 6.77 6.84 7.56 7.05 7.23 7.55 6.93 7.09 7.73 7.53 6.99 7.46 6.98 6.78 7.50 6.83 7.48 7.35 7.47 7.32 7.70 7.05 7.24 6.93 6.94 7.64 6.96 7.74 7.72 7.23 7.16 7.69 7.10 7.48 7.44 7.56 7.53 7.60 7.28 7.69 7.27 7.33 6.82 7.08 7.06 7.00 7.65 7.08 7.59 7.75 7.07 7.37 7.42 7.24 7.71 7.04 6.85 7.52 7.25 7.48 6.97 7.07 7.54 7.33 7.11 7.73 6.77 7.04 7.53 6.85 6.79 7.10 7.16 6.98 7.21 7.02 7.60 6.75 7.03 7.54 7.48 7.61 7.20 7.57 7.29 7.28 7.20 7.66 7.35 6.86 7.42 6.97 7.45 7.18 7.56 6.96 7.69 7.62 7.08 7.69 7.19 7.09 7.16 6.78 7.48 7.53 6.84 7.73 6.97 7.63 7.18 7.65 7.69 7.13 7.32 6.83 7.04 7.27 7.49 7.28 7.00 7.25 7.53 6.90 7.74 7.30 7.08 7.36 6.88 7.39 7.55 6.96 7.56 7.20 6.96 7.08 7.71 7.59 7.37 6.82 7.17 6.97 7.11 7.16 6.97 7.25 7.04 7.15 7.68 6.76 7.33 7.17 7.10 6.93 7.38 6.97 7.15 6.87 7.23 7.61 7.17 7.50 7.04 6.81 -9999 -9999 -9999 -9999 -9999 -9999 -9999 -9999 -9999 -9999 -9999 -9999 -9999 -9999 -9999 -9999 -9999 -9999 -9999 -9999 -9999 -9999 -9999 -9999
7.21 6.92 7.01 7.48 6.76 6.86 7.59 7.52 6.77 7.34 7.55 7.16 6.84 7.59 7.03 7.04 7.26 7.21 6.94 7.02 6.84 7.13 7.50 7.70 7.03 7.56 7.14 7.37 7.10 7.69 7.10 7.62 7.24 6.93 7.44 7.49 6.93 7.70 7.63 6.87 7.73 7.19 7.42 6.88 7.60 7.08 7.46 7.34 7.73 7.15 7.59 6.91 7.54 6.93 7.49 7.54 6.90 6.81 7.56 6.82 7.52 7.50 7.55 7.65 6.80 7.01 7.67 7.04 7.18 6.97 7.65 7.68 7.73 6.83 6.85 7.00 7.24 7.48 7.02 6.95 7.55 6.82 7.62 7.57 7.25 7.01 7.66 7.58 6.78 7.28 7.06 7.40 7.57 7.55 7.71 7.44 6.78 7.35 7.32 7.10 7.52 7.64 7.44 6.83 7.28 7.41 7.12 6.87 7.06 7.12 7.16 7.64 7.55 6.94 7.46 6.88 6.84 7.11 7.71 7.52 7.01 6.96 6.93 7.42 7.39 7.56 7.04 6.89 7.55 7.36 7.18 7.18 6.97 6.79 7.71 7.48 7.40 7.45 7.18 7.64 7.34 7.53 6.80 7.60 7.21 7.54 7.46 7.14 7.10 7.58 7.14 7.19 7.38 6.83 6.95 7.59 7.56 7.13 6.95 7.18 7.53 6.75 6.86 7.68 7.23 7.63 7.70 6.81 7.10 7.43 7.34 7.01 6.85 7.32 7.07 7.73 7.36 6.83 7.16 6.91 6.97 7.22 7.43 7.12 7.12 7.11 7.51 7.07 7.20 7.67 7.52 -9999 -9999 -9999 -9999 -9999 -9999 -9999 -9999 -9999 -9999 -9999 -9999 -9999 -9999 -9999 -9999 -9999 -9999 -9999 -9999 -9999 -9999 -9999 -9999
6.87 6.97 7.16 7.09 6.92 7.74 7.64 7.43 6.76 6.94 7.66 7.66 7.40 7.18 7.45 6.86 7.38 7.37 7.21 7.39 7.60 7.30 7.40 6.91 7.08 7.09 7.51 7.16 7.24 7.52 6.89 7.38 7.45 7.70 7.57 7.09 7.49 7.50 6.76 7.13 7.60 6.80 7.26 6.77 6.76 7.15 7.57 7.63 7.07 7.61 6.98 7.05 7.34 6.78 7.10 6.86 7.33 7.41 7.36 6.91 6.90 6.98 7.55 6.90 7.35 7.21 7.23 7.55 7.62 6.98 7.49 7.61 7.05 7.40 7.63 7.56 7.69 7.37 7.70 7.24 7.43 7.27 6.81 7.35 7.41 7.24 7.13 7.48 7.40 6.85 7.75 6.79 7.48 7.08 6.90 7.30 7.54 6.78 7.39 7.57 7.67 7.13 6.98 7.06 6.82 7.01 7.68 7.08 6.81 7.04 6.81 7.00 7.36 6.87 7.09 7.12 7.52 7.26 7.22 7.08 7.59 7.19 7.11 6.94 7.10 6.95 7.45 7.48 7.72 7.43 7.13 7.30 7.13 7.43 7.60 7.29 7.40 6.92 6.96 7.63 7.31 7.57 7.19 7.39 6.75 7.11 7.58 7.11 7.64 7.60 7.44 7.17 6.87 7.67 7.55 6.86 7.31 7.58 6.84 7.65 6.88 7.61 7.75 7.74 7.62 6.81 7.24 7.07 6.84 7.03 6.94 6.90 6.92 7.05 7.70 6.88 7.47 6.91 7.38 6.83 7.63 6.93 7.27 7.52 7.40 7.59 6.91 7.53 6.89 7.59 7.67 -9999 -9999 -9999 -9999 -9999 -9999 -9999 -9999 -9999 -9999 -9999 -9999 -9999 -9999 -9999 -9999 -9999 -9999 -9999 -9999 -9999 -9999 -9999 -9999
7.67 6.76 7.00 7.48 7.41 7.14 7.00 6.90 7.01 6.76 6.82 7.42 7.32 7.66 7.09 7.47 6.88 6.78 7.46 7.23 6.78 6.76 7.16 6.94 7.47 7.36 7.02 7.38 7.60 7.01 7.73 7.20 7.13 7.12 7.17 7.41 7.46 7.71 6.79 7.24 7.55 7.46 7.74 7.74 7.42 7.41 7.65 7.68 7.54 6.77 6.78 7.11 7.37 7.39 7.37 7.73 7.27 7.04 7.29 7.22 7.16 6.99 7.39 7.61 7.63 7.74 7.69 7.27 6.83 7.34 7.34 6.84 7.29 7.05 7.35 7.53 7.57 7.44 7.62 7.02 6.78 7.11 7.53 7.62 7.43 7.10 7.65 6.79 7.07 6.76 7.61 7.00 7.74 6.81 6.85 7.08 7.55 7.59 7.24 7.35 7.00 7.51 6.96 7.20 6.83 7.41 7.04 6.87 6.99 6.88 7.20 7.32 7.58 6.79 6.99 6.79 7.01 7.17 7.32 7.18 7.63 7.33 7.22 7.47 6.97 7.60 6.79 7.54 7.08 6.85 7.39 6.76 7.02 6.94 6.88 7.13 7.64 7.05 6.97 7.21 6.86 6.89 7.09 7.12 7.38 7.39 7.21 7.14 7.47 6.85 6.89 6.94 7.33 6.96 7.59 7.63 6.89 7.20 7.51 7.56 7.74 7.57 7.74 6.88 6.77 6.88 7.21 7.38 7.59 7.60 7.38 6.77 7.14 6.81 7.49 6.97 6.91 7.62 7.62 7.70 7.39 7.69 7.64 6.96 6.99 6.92 7.04 7.58 7.24 7.70 7.07 -9999 -9999 -9999 -9999 -9999 -9999 -9999 -9999 -9999 -9999 -9999 -9999 -9999 -9999 -9999 -9999 -9999 -9999 -9999 -9999 -9999 -9999 -9999 -9999
6.86 7.62 6.78 7.01 7.27 7.20 6.78 6.89 6.78 7.66 6.89 6.84 7.10 7.17 7.06 7.06 6.91 7.40 6.95 7.60 6.78 7.61 7.21 7.26 7.11 7.41 7.65 6.87 7.49 6.95 6.78 7.58 7.01 7.02 7.31 7.67 7.25 7.67 7.32 6.92 7.56 7.21 7.65 6.88 7.62 7.24 7.46 7.66 6.96 7.18 7.57 7.34 7.58 7.45 6.89 7.14 7.45 6.93 7.52 7.16 7.31 6.84 6.96 6.87 7.42 7.07 7.26 7.41 6.95 6.95 7.44 7.16 7.57 7.22 6.93 6.91 7.14 7.41 7.27 7.44 7.60 7.48 7.71 7.23 6.75 6.88 7.73 7.74 7.23 7.01 7.30 7.40 6.98 7.41 7.52 7.02 6.84 7.08 7.36 7.46 7.49 7.59 7.04 7.00 7.57 6.85 7.28 7.65 6.80 7.42 7.72 7.13 7.40 7.35 7.62 7.11 7.11 7.48 7.19 6.85 6.98 6.92 7.15 7.18 6.87 7.17 7.03 7.17 7.57 7.05 7.38 7.59 7.61 6.98 7.65 7.08 7.33 6.90 7.70 6.96 7.74 7.19 7.38 7.59 7.07 7.40 7.25 7.18 7.68 7.02 7.23 7.75 7.00 7.02 7.42 6.86 7.42 7.34 7.15 7.37 6.79 6.92 6.99 7.23 7.23 7.40 7.65 7.51 7.14 7.28 7.65 7.62 7.07 6.95 7.39 7.29 7.27 6.81 7.49 7.68 7.19 7.50 7.05 7.75 7.74 7.41 6.77 7.12 7.32 7.74 7.52 7.74 -9999 -9999 -9999 -9999 -9999 -9999 -9999 -9999 -9999 -9999 -9999 -9999 -9999 -9999 -9999 -9999 -9999 -9999 -9999 -9999 -9999 -9999 -9999
7.32 6.81 7.33 7.68 7.51 6.82 6.77 7.54 7.63 6.83 7.05 7.11 6.94 7.50 7.00 7.45 7.16 6.89 7.13 6.78 7.15 6.87 7.47 7.45 7.19 6.94 7.31 7.49 6.94 7.02 7.11 7.59 7.55 7.68 7.28 7.05 6.93 7.26 6.82 6.91 7.11 7.20 7.69 7.25 7.00 7.38 7.68 7.09 7.60 7.41 6.76 6.82 7.27 7.03 7.67 7.55 6.79 7.55 7.46 7.18 7.01 7.51 7.06 6.82 7.10 7.67 7.72 7.65 7.05 7.71 6.84 7.13 7.08 7.35 6.98 7.23 7.08 6.87 6.99 6.80 7.11 6.87 7.26 7.39 7.22 7.20 7.45 7.72 6.96 7.72 6.78 7.56 6.99 7.10 7.73 7.64 7.69 7.57 7.08 7.32 7.11 7.35 7.60 7.49 7.23 6.80 6.82 7.25 7.69 7.26 7.64 7.30 7.24 7.26 6.88 7.72 6.96 7.14 7.65 7.36 6.83 7.50 6.92 7.70 6.76 7.34 7.40 7.17 6.86 7.21 7.40 6.97 7.63 7.58 7.68 7.20 6.79 7.61 6.77 7.05 7.30 6.87 6.98 6.86 7.30 7.42 7.05 7.27 7.26 7.00 7.70 7.11 7.33 7.46 7.34 6.84 7.11 7.02 7.43 7.45 7.60 6.93 6.81 7.20 7.31 6.86 7.23 7.12 7.30 6.89 7.64 7.48 7.27 6.91 7.54 7.38 7.08 7.70 7.57 6.80 7.34 7.09 7.49 7.32 7.56 7.32 7.18 7.20 6.95 7.11 7.75 7.14 -9999 -9999 -9999 -9999 -9999 -9999 -9999 -9999 -9999 -9999 -9999 -9999 -9999 -9999 -9999 -9999 -9999 -9999 -9999 -9999 -9999 -9999 -9999
7.73 7.56 7.41 7.35 7.26 7.23 7.01 7.73 7.19 7.68 6.91 7.61 7.16 7.06 7.14 6.75 7.09 7.14 7.74 7.29 7.14 7.38 7.06 6.78 7.43 7.68 7.34 7.45 7.62 7.15 6.75 7.13 6.99 7.26 7.35 7.64 7.67 7.43 7.45 7.25 7.16 7.00 7.55 7.56 6.81 7.57 7.07 7.24 7.37 7.41 7.31 6.98 7.62 7.12 7.59 7.43 7.20 7.26 6.80 7.73 7.34 6.95 6.79 7.45 7.12 7.26 6.84 6.76 7.08 7.74 7.69 7.24 7.24 7.11 7.01 7.42 7.69 7.31 7.57 7.20 7.07 6.96 6.92 7.29 7.44 6.90 7.11 7.23 7.50 7.00 6.78 6.93 6.84 7.57 7.74 7.28 7.47 7.01 7.04 7.58 7.44 7.57 6.94 7.61 7.62 7.42 6.95 6.91 7.09 7.53 7.22 6.76 6.91 7.20 7.26 6.89 7.09 7.50 6.87 6.92 6.81 7.14 6.83 7.58 7.44 7.12 6.98 7.72 7.18 7.26 7.00 6.76 6.96 6.83 6.80 6.94 7.56 7.46 7.06 7.65 7.54 7.59 6.97 7.25 7.63 7.73 7.51 7.68 7.37 6.80 6.97 7.48 7.06 7.70 7.08 7.02 6.89 6.91 7.66 7.71 7.24 7.43 6.81 7.16 7.12 6.79 6.85 7.49 7.11 7.46 7.23 7.23 7.50 6.82 7.70 7.04 7.12 7.63 7.65 7.22 7.45 7.18 6.90 6.83 7.23 7.36 7.42 7.21 7.20 7.64 6.98 7.57 -9999 -9999 -9999 -9999 -9999 -9999 -9999 -9999 -9999 -9999 -9999 -9999 -9999 -9999 -9999 -9999 -9999 -9999 -9999 -9999 -9999 -9999 -9999
7.08 6.92 7.58 6.76 7.36 7.25 6.78 7.58 7.48 6.84 7.43 7.16 6.88 7.69 6.85 7.37 7.31 6.90 7.34 7.13 7.22 7.55 6.77 7.21 6.97 7.51 7.06 7.33 7.45 6.95 7.29 7.70 7.04 7.31 6.99 7.26 7.46 6.92 7.06 7.51 7.40 7.49 7.17 7.39 7.34 7.16 7.64 6.83 7.45 7.31 7.61 6.86 7.49 7.09 7.09 7.36 7.50 7.65 7.34 7.42 6.77 7.61 6.92 7.26 7.29 7.72 7.48 7.06 6.82 7.39 6.86 7.57 7.07 6.77 6.90 6.79 7.57 7.68 7.03 6.94 7.09 7.36 7.06 7.03 6.95 7.37 7.14 7.06 7.25 7.61 6.92 6.89 7.25 7.15 7.16 6.96 7.19 7.55 7.56 7.53 7.51 7.16 7.38 6.83 6.92 6.90 7.51 6.81 6.89 7.61 6.95 6.89 7.70 7.28 7.29 7.46 7.55 7.63 6.93 7.03 6.93 7.23 7.21 7.54 6.78 7.74 7.01 6.99 7.60 7.49 6.85 7.00 7.03 7.64 7.15 7.43 7.41 7.04 6.95 7.42 7.69 7.45 7.20 7.72 7.52 7.35 7.60 6.95 7.29 7.31 7.62 7.64 7.74 7.28 7.09 6.89 7.63 7.09 7.41 7.01 7.06 7.73 7.67 7.22 6.77 7.15 7.40 7.44 7.67 7.09 7.35 7.54 7.69 7.70 7.51 7.61 7.39 7.59 7.07 6.91 7.53 7.08 7.11 7.22 6.96 7.58 7.58 6.80 7.11 7.23 6.91 7.00 -9999 -9999 -9999 -9999 -9999 -9999 -9999 -9999 -9999 -9999 -9999 -9999 -9999 -9999 -9999 -9999 -9999 -9999 -9999 -9999 -9999 -9999 -9999
7.08 7.58 7.16 7.07 6.84 7.55 7.02 6.83 7.06 6.92 7.20 7.73 7.67 7.30 6.95 7.73 7.03 7.06 6.97 6.83 6.93 6.97 7.58 7.30 6.88 7.06 6.76 7.28 7.40 7.28 7.16 7.61 6.80 7.22 7.06 6.79 7.13 6.86 7.47 7.24 7.32 7.01 7.59 6.79 7.59 7.36 7.20 7.29 6.98 7.22 6.86 7.34 7.26 7.27 7.64 7.02 7.26 7.22 6.97 7.30 7.38 6.75 7.47 7.18 7.32 7.57 6.89 7.01 6.79 7.71 7.12 7.37 7.39 7.36 6.92 7.25 7.15 7.06 7.34 6.99 7.70 7.04 7.62 6.80 7.41 6.97 7.45 7.36 7.17 7.32 7.38 7.40 6.93 7.52 6.94 7.23 7.59 7.05 7.61 7.28 7.45 7.72 6.95 6.91 6.86 7.59 6.89 7.45 7.29 7.16 7.71 7.05 6.99 7.35 7.24 7.45 6.92 7.71 7.06 7.63 6.82 7.02 7.67 6.91 7.28 7.26 7.64 7.67 6.93 7.28 7.73 7.14 7.62 7.09 6.99 7.34 7.74 7.05 7.28 7.50 7.13 6.87 7.53 7.57 7.36 7.42 7.22 6.91 7.33 7.26 6.88 7.25 6.87 7.60 6.78 6.82 7.50 7.41 7.54 6.89 7.19 7.05 7.08 6.86 7.14 7.72 7.53 6.92 7.18 7.36 7.50 6.78 7.32 7.20 7.57 7.67 6.77 7.41 7.21 7.69 6.76 7.13 7.29 7.17 7.69 7.23 7.70 7.27 6.78 7.20 7.55 7.39 -9999 -9999 -9999 -9999 -9999 -9999 -9999 -9999 -9999 -9999 -9999 -9999 -9999 -9999 -9999 -9999 -9999 -9999 -9999 -9999 -9999 -9999 -9999
7.11 7.18 7.38 7.37 6.95 7.54 6.93 7.43 7.63 7.38 7.39 7.35 7.53 7.19 7.68 7.39 7.23 6.99 7.15 6.98 7.30 7.31 7.22 6.96 7.41 7.49 7.24 7.11 6.99 7.32 7.31 7.34 7.01 7.36 7.74 7.26 7.29 7.46 7.27 7.00 7.38 7.64 7.64 7.02 7.30 7.05 6.76 7.39 6.85 6.89 6.93 7.26 7.39 7.26 7.20 6.81 7.08 7.58 7.55 6.79 7.18 7.29 7.20 7.49 7.36 6.85 7.66 6.76 7.58 7.73 6.85 7.64 7.55 7.69 7.70 7.55 6.86 7.53 7.36 7.75 7.37 7.01 7.24 7.20 6.79 7.16 7.63 7.41 7.21 7.34 7.42 7.60 7.17 6.79 7.13 7.06 7.69 7.00 7.53 7.50 7.36 6.99 7.01 7.39 7.10 6.97 6.88 7.72 7.19 6.76 7.47 7.21 7.70 6.78 6.80 6.92 7.74 7.29 7.47 6.77 7.22 6.95 6.90 6.89 6.79 7.20 6.90 6.99 7.34 7.71 7.44 7.27 7.60 7.05 7.01 6.83 7.28 7.60 7.42 7.10 7.54 7.67 7.29 7.32 7.54 6.78 7.06 6.89 6.78 7.11 6.88 7.20 7.68 7.40 6.82 7.30 7.47 7.01 7.12 7.07 7.65 7.04 7.41 7.44 7.56 6.79 7.57 7.59 7.49 7.30 7.10 7.70 7.41 7.35 7.37 7.02 7.01 7.41 7.17 6.78 7.12 7.41 7.30 7.69 7.34 7.31 7.48 7.67 6.78 7.37 7.36 7.29 -9999 -9999 -9999 -9999 -9999 -9999 -9999 -9999 -9999 -9999 -9999 -9999 -9999 -9999 -9999 -9999 -9999 -9999 -9999 -9999 -9999 -9999 -9999
7.45 7.36 6.75 7.67 6.94 7.54 7.60 7.70 7.61 7.20 7.21 7.47 6.77 6.97 7.54 7.22 7.59 6.75 7.46 7.36 6.99 6.83 7.02 6.80 6.87 7.44 7.47 6.93 7.30 7.45 7.34 6.78 7.53 7.41 6.84 7.26 6.81 7.06 7.73 7.56 6.82 6.99 7.56 7.25 6.94 7.02 7.19 6.88 7.25 7.21 6.92 7.45 7.49 6.76 7.70 7.08 6.91 6.97 7.41 7.10 7.57 6.97 7.42 7.60 7.09 7.01 7.68 7.25 7.04 6.90 6.96 7.32 7.74 7.29 7.49 7.14 7.71 7.25 7.15 7.08 7.64 7.22 6.84 7.48 7.33 7.21 6.89 7.10 6.93 7.33 6.90 6.97 7.61 7.55 7.73 6.92 7.18 7.26 6.87 7.55 7.42 6.89 7.07 6.82 7.60 7.56 7.31 6.86 7.35 7.53 7.25 6.86 7.05 7.09 6.76 7.31 7.03 7.32 7.61 7.20 7.38 7.69 7.07 7.65 7.53 7.59 6.90 7.54 7.62 7.21 6.95 7.36 7.41 7.55 7.72 6.97 7.13 7.66 7.38 7.18 6.80 7.52 7.62 6.76 7.74 6.91 7.66 7.37 7.22 7.39 7.51 6.83 6.94 7.17 7.60 7.08 7.16 7.38 7.13 6.82 7.24 6.86 7.33 7.13 7.27 6.80 7.22 7.03 7.45 7.64 7.26 6.93 6.76 7.35 7.32 7.72 7.19 7.12 7.24 7.17 7.16 6.96 7.72 7.74 7.25 7.36 7.58 7.47 7.61 7.38 7.15 7.12 7.41 -9999 -9999 -9999 -9999 -9999 -9999 -9999 -9999 -9999 -9999 -9999 -9999 -9999 -9999 -9999 -9999 -9999 -9999 -9999 -9999 -9999 -9999
7.31 6.86 7.19 7.73 6.82 7.48 7.38 7.24 7.46 7.09 7.66 6.89 7.64 7.74 6.87 7.27 7.02 6.94 7.64 7.12 7.39 6.96 7.11 7.48 7.16 7.53 7.31 7.15 7.62 7.13 7.29 6.93 7.62 7.18 7.14 6.77 7.42 7.18 7.41 7.68 7.08 7.35 7.15 7.23 7.42 6.80 6.95 7.20 6.79 7.21 7.48 7.66 7.34 7.04 7.71 7.42 7.02 7.44 7.59 7.00 7.44 7.55 7.28 7.22 7.67 7.17 7.22 7.59 7.53 7.24 6.77 7.69 7.58 7.11 7.57 7.08 7.69 6.84 7.02 7.38 7.13 7.68 7.21 7.74 7.14 7.75 7.38 7.41 6.76 6.79 7.25 7.18 7.50 6.94 7.58 6.99 7.12 7.63 7.05 7.10 7.40 6.83 7.39 7.36 7.65 7.26 7.36 6.77 7.13 6.89 7.39 6.98 7.46 7.47 7.74 7.24 6.83 7.23 7.31 6.78 7.46 6.95 7.23 6.95 7.21 6.98 6.95 7.57 7.73 7.31 7.05 7.25 7.71 7.62 7.42 7.13 7.20 7.68 7.57 7.07 7.21 7.54 7.51 7.06 6.81 6.77 7.16 7.65 7.49 7.14 7.37 7.52 7.09 7.10 7.08 7.40 6.83 7.41 7.60 7.55 7.35 7.16 7.61 7.62 7.20 7.06 6.89 7.20 7.18 7.35 7.68 7.28 6.99 6.76 7.74 6.94 7.24 7.60 6.95 7.05 7.64 6.89 7.13 7.04 7.62 7.14 7.46 6.96 7.15 7.22 6.86 7.04 6.97 -9999 -9999 -9999 -9999 -9999 -9999 -9999 -9999 -9999 -9999 -9999 -9999 -9999 -9999 -9999 -9999 -9999 -9999 -9999 -9999 -9999 -9999
6.93 6.85 7.15 7.29 7.31 7.04 7.58 7.46 7.53 7.19 7.02 7.12 6.86 7.15 7.48 7.37 6.85 7.50 6.87 7.49 7.06 6.95 7.65 7.63 7.32 6.77 7.01 7.22 7.74 7.72 7.23 7.22 7.46 7.21 6.78 7.37 7.16 6.96 6.99 7.42 7.06 7.55 7.17 6.92 7.30 7.14 6.80 6.80 6.98 7.32 6.76 7.05 7.32 7.69 7.74 7.03 7.50 7.64 7.08 7.41 7.36 7.58 7.38 7.02 7.04 7.51 7.37 7.28 7.70 7.46 7.13 7.22 6.87 6.97 7.13 6.76 7.24 7.11 7.23 6.76 7.39 6.97 7.57 7.03 7.64 6.87 7.17 6.91 6.93 6.78 6.96 7.69 7.68 7.69 7.09 7.63 6.86 7.26 7.47 7.37 7.52 7.71 7.29 7.64 7.07 7.39 7.52 7.10 7.58 6.83 7.49 7.55 6.79 6.86 7.11 7.47 7.22 7.58 7.08 7.64 7.53 7.39 6.77 7.70 7.69 7.32 6.81 7.36 7.11 7.66 7.44 6.88 7.30 7.03 7.47 7.30 7.49 6.96 6.76 7.66 7.46 7.64 7.42 6.86 7.19 6.85 7.11 7.67 7.11 7.11 7.56 7.73 7.12 7.19 7.08 7.46 7.33 7.43 7.49 6.75 6.85 7.71 7.59 6.97 6.83 7.65 6.98 7.26 7.00 7.21 7.52 7.61 7.35 7.66 7.58 7.65 7.17 6.78 6.76 6.92 6.91 6.97 7.21 7.44 7.00 6.85 7.08 7.67 7.10 7.22 7.12 7.35 7.40 -9999 -9999 -9999 -9999 -9999 -9999 -9999 -9999 -9999 -9999 -9999 -9999 -9999 -9999 -9999 -9999 -9999 -9999 -9999 -9999 -9999 -9999
6.80 7.58 7.23 7.39 7.63 7.66 7.08 7.09 7.69 7.01 6.96 7.69 7.44 7.21 7.65 7.75 6.81 6.90 7.72 7.65 6.86 7.36 7.41 7.08 7.09 6.98 7.41 7.63 6.86 7.67 7.70 7.53 7.29 7.75 7.70 7.39 6.90 7.06 7.34 7.54 7.02 7.33 7.31 7.21 7.43 6.99 7.06 7.52 6.86 6.85 7.17 6.90 7.72 7.06 7.14 7.20 7.41 7.73 7.16 7.65 7.07 7.71 7.06 7.70 7.68 7.32 7.11 6.89 7.26 7.58 7.74 7.48 6.77 7.65 7.19 7.59 6.81 7.54 7.58 7.17 7.02 7.60 7.05 7.63 6.88 7.24 7.45 7.04 6.77 7.06 7.17 6.83 7.56 7.33 7.42 7.68 7.50 7.67 7.49 7.73 7.55 7.13 7.16 7.74 7.64 7.04 6.91 6.93 7.64 7.17 7.44 7.25 7.41 7.25 7.41 7.40 7.07 7.40 6.97 7.50 6.85 7.62 7.54 7.69 6.89 7.22 6.94 6.79 7.38 6.99 7.19 6.87 6.96 7.26 6.91 7.57 7.14 6.89 7.56 6.94 7.17 7.31 6.82 7.62 7.73 6.78 7.02 6.79 6.78 6.99 7.37 7.44 7.62 7.10 7.56 7.18 7.58 6.86 7.20 7.54 6.94 7.35 7.57 7.51 6.91 7.51 6.91 7.23 7.70 7.08 6.97 6.98 6.85 7.17 7.15 7.28 7.17 7.51 7.21 7.68 7.58 7.59 7.24 7.56 7.19 7.03 6.97 7.07 7.11 7.30 7.11 7.06 7.67 -9999 -9999 -9999 -9999 -9999 -9999 -9999 -9999 -9999 -9999 -9999 -9999 -9999 -9999 -9999 -9999 -9999 -9999 -9999 -9999 -9999 -9999
6.83 7.25 7.48 7.61 7.01 7.70 7.00 7.60 7.27 6.87 7.15 7.38 7.68 6.79 6.99 6.86 7.07 7.31 7.14 7.51 6.83 7.74 7.19 6.92 7.52 6.91 7.04 7.45 7.19 7.67 6.99 7.41 7.17 6.92 7.06 7.04 7.47 7.28 6.83 7.54 7.75 7.31 7.55 7.34 6.96 6.78 7.47 6.85 7.18 7.59 7.15 7.18 7.32 7.75 7.04 7.50 7.28 7.17 6.91 7.17 6.78 6.77 6.99 7.55 7.39 7.40 6.76 6.92 7.34 7.39 7.75 6.77 7.50 7.67 7.40 7.37 7.70 7.46 7.53 6.79 6.86 7.57 7.60 7.38 7.59 7.66 7.24 7.01 7.11 7.03 7.69 6.80 7.53 7.11 7.41 7.41 7.29 7.14 6.78 7.19 6.96 7.44 7.69 7.61 7.37 7.35 7.14 7.26 6.76 6.97 7.39 6.87 6.91 6.98 6.88 7.12 7.50 7.57 6.96 7.72 7.05 7.31 6.93 7.16 7.70 7.10 7.57 6.76 7.06 6.92 7.20 7.47 7.18 7.30 7.15 7.56 7.71 7.07 7.44 7.69 7.60 6.84 6.90 7.44 7.10 7.50 7.08 7.06 6.94 7.22 7.00 7.72 7.65 7.03 7.47 7.52 6.91 7.51 6.76 7.18 6.82 7.33 7.65 6.92 6.76 7.33 7.04 7.04 7.55 7.25 7.67 6.86 7.00 6.91 7.26 7.25 7.63 7.57 7.36 7.13 6.91 6.80 7.56 7.14 7.22 7.65 6.92 7.46 7.31 6.98 7.02 7.18 7.25 -9999 -9999 -9999 -9999 -9999 -9999 -9999 -9999 -9999 -9999 -9999 -9999 -9999 -9999 -9999 -9999 -9999 -9999 -9999 -9999 -9999 -9999
7.18 6.99 6.87 7.02 6.84 7.02 7.24 7.66 7.68 6.82 7.36 6.94 7.29 6.97 7.68 7.34 7.19 6.86 7.64 6.96 6.91 6.76 7.31 7.05 7.38 7.55 7.55 7.24 7.53 7.03 7.36 6.81 7.36 7.06 6.75 6.99 7.73 6.84 7.18 7.14 7.21 7.41 7.69 7.70 7.53 6.84 7.44 7.54 6.83 7.64 6.85 7.22 7.46 6.93 7.11 7.54 7.09 7.32 7.74 7.21 7.24 7.69 7.54 7.73 7.26 7.22 7.24 7.05 6.93 7.58 6.88 7.00 7.59 7.04 6.93 7.66 7.45 7.63 7.38 7.54 7.65 7.35 7.22 7.20 6.98 7.44 7.56 6.78 7.45 7.03 7.07 7.60 7.74 7.20 6.87 7.08 7.23 7.17 7.68 7.45 7.25 6.89 7.36 6.88 7.13 7.60 7.15 7.26 7.25 7.08 6.79 7.48 7.34 7.65 7.27 7.07 7.29 7.16 7.74 7.17 7.21 7.13 6.93 7.55 7.44 7.06 7.63 7.60 6.84 6.89 7.32 7.53 7.62 6.82 6.95 7.69 7.56 6.94 7.05 7.68 7.09 6.94 6.95 7.46 7.70 7.31 7.20 7.46 7.03 6.81 7.70 7.00 7.57 7.30 6.95 7.74 7.47 7.21 6.97 6.84 7.23 7.51 6.84 7.55 6.82 6.95 7.54 7.60 6.90 7.42 6.86 6.81 6.93 6.75 7.14 7.51 7.34 7.11 7.58 6.75 7.24 7.28 7.08 7.74 7.60 6.82 6.94 7.30 7.54 6.85 7.72 7.63 7.44 -9999 -9999 -9999 -9999 -9999 -9999 -9999 -9999 -9999 -9999 -9999 -9999 -9999 -9999 -9999 -9999 -9999 -9999 -9999 -9999 -9999 -9999
7.35 7.35 7.01 7.38 6.85 7.42 7.19 7.51 7.55 7.62 7.26 7.47 6.81 7.40 7.72 7.06 7.49 7.40 7.44 6.76 7.33 7.53 6.75 7.62 7.03 7.41 7.24 7.38 7.06 7.00 7.59 6.86 7.13 7.75 7.52 6.86 7.71 7.53 7.42 7.05 7.40 7.52 7.15 7.18 7.58 6.82 6.89 7.37 7.49 6.87 7.15 7.25 7.34 6.96 7.35 7.50 6.95 6.86 7.01 7.37 7.13 7.64 7.31 7.49 7.28 7.54 6.79 7.01 7.50 6.93 7.41 7.26 7.61 6.92 7.01 7.40 7.30 7.43 7.00 7.33 7.48 7.51 7.37 6.82 6.83 7.18 7.31 6.76 7.52 7.14 6.91 7.72 7.49 7.31 7.25 7.29 7.39 7.52 7.71 7.17 7.68 7.71 7.43 6.92 7.08 7.43 7.16 7.28 7.05 7.49 7.41 7.20 7.32 7.16 7.07 7.49 7.08 7.17 7.68 6.83 7.24 7.11 7.19 7.26 7.09 7.23 7.22 6.83 6.92 7.39 7.33 7.20 6.76 6.97 7.22 7.56 7.24 7.14 7.13 7.12 7.75 7.03 7.09 6.81 7.26 7.65 6.95 6.95 6.94 7.19 7.06 6.79 7.37 7.44 7.10 6.95 6.83 7.64 7.40 6.99 7.52 7.00 6.91 6.92 7.43 7.63 7.05 7.72 7.52 7.57 6.77 7.56 7.68 7.67 7.41 6.78 7.42 7.66 7.39 7.20 7.26 6.98 6.96 7.74 6.89 7.03 7.65 7.32 7.65 7.18 7.11 7.36 7.27 6.99 -9999 -9999 -9999 -9999 -9999 -9999 -9999 -9999 -9999 -9999 -9999 -9999 -9999 -9999 -9999 -9999 -9999 -9999 -9999 -9999 -9999
7.21 6.88 7.53 7.72 6.86 7.25 6.87 6.94 7.19 6.76 7.17 7.40 7.14 6.92 6.81 7.22 7.51 6.86 6.78 7.05 7.27 7.25 7.56 7.52 7.29 7.62 6.80 7.02 7.56 7.55 6.80 6.77 7.31 7.68 7.45 7.20 7.49 6.87 7.29 6.86 7.64 7.51 7.11 6.79 7.35 6.96 7.18 7.02 6.96 7.24 7.21 6.88 7.19 6.79 7.43 7.47 7.37 6.92 6.97 7.02 7.44 7.05 7.16 6.77 7.14 7.42 7.36 6.95 7.20 7.52 6.97 6.93 6.90 7.14 6.76 6.84 7.71 7.28 7.10 7.09 7.55 6.78 7.02 7.40 7.20 7.16 7.49 7.50 6.92 6.85 6.88 7.23 7.15 7.35 7.02 7.18 7.27 7.36 7.05 7.46 7.12 7.28 7.52 7.09 7.58 7.26 7.37 7.07 7.51 7.50 7.26 7.50 7.38 7.18 7.09 7.31 6.75 7.13 7.23 7.16 7.39 7.51 7.34 7.72 7.52 7.73 7.59 7.05 7.50 7.53 7.06 6.92 7.07 6.99 7.41 7.12 7.23 7.48 7.13 7.48 6.98 7.08 7.44 7.08 7.42 7.20 7.13 6.87 7.05 7.51 6.89 6.95 7.51 6.80 7.43 7.39 7.72 7.49 7.27 7.61 7.35 7.73 7.67 7.67 6.98 7.53 7.68 6.88 7.58 7.54 7.19 6.93 7.20 7.11 7.10 7.12 7.24 7.53 7.75 7.02 7.54 7.44 7.59 7.64 7.66 6.77 7.73 7.69 7.61 6.91 7.28 7.53 7.34 6.83 -9999 -9999 -9999 -9999 -9999 -9999 -9999 -9999 -9999 -9999 -9999 -9999 -9999 -9999 -9999 -9999 -9999 -9999 -9999 -9999 -9999
7.25 7.03 7.51 7.64 6.95 6.77 7.27 6.94 7.02 7.52 7.58 7.68 7.17 7.07 7.29 7.54 7.51 7.18 7.32 7.12 7.14 6.83 7.13 6.90 7.63 7.37 7.36 7.61 7.34 7.47 7.04 7.54 7.63 7.61 7.50 6.89 6.99 7.73 7.26 7.20 7.71 6.98 6.79 6.83 6.87 7.45 6.82 7.59 7.71 7.07 7.61 7.39 6.94 7.45 6.88 7.72 7.17 7.11 6.92 7.73 7.27 7.57 6.77 6.97 6.80 7.26 7.20 7.33 7.13 7.57 6.87 7.13 7.33 7.54 7.48 7.35 7.19 7.36 6.85 7.53 7.18 7.10 6.88 6.93 7.24 7.22 7.16 7.30 7.10 7.57 7.41 7.17 7.68 7.41 7.44 7.17 6.79 7.64 7.09 7.71 6.94 7.58 6.88 6.93 6.89 7.26 7.28 7.29 7.27 7.55 7.15 7.74 7.67 7.58 7.46 6.99 7.15 6.96 6.94 7.18 7.06 6.94 6.85 7.02 7.32 7.29 7.00 7.38 6.85 7.56 6.82 7.37 6.89 7.55 7.40 7.38 7.73 6.81 7.10 6.87 6.76 6.82 7.66 6.75 7.10 6.94 7.65 7.61 6.91 7.49 6.98 6.84 7.20 7.52 7.02 6.91 7.62 7.15 7.74 7.30 6.78 7.72 7.72 7.30 7.29 7.30 7.06 7.27 7.66 6.90 7.11 7.72 6.89 7.25 7.30 7.19 7.33 7.73 6.91 7.03 7.31 7.65 7.33 6.83 7.05 6.84 6.87 6.82 7.25 7.65 7.40 7.42 7.08 6.83 -9999 -9999 -9999 -9999 -9999 -9999 -9999 -9999 -9999 -9999 -9999 -9999 -9999 -9999 -9999 -9999 -9999 -9999 -9999 -9999 -9999
7.62 7.39 7.00 7.32 7.62 7.14 7.17 6.97 7.49 7.22 7.31 7.38 7.09 6.99 7.09 7.62 7.21 6.83 6.83 7.03 6.91 7.05 7.22 6.87 7.53 6.84 7.18 7.13 7.59 7.70 7.52 7.57 7.58 6.98 7.15 7.60 6.89 7.30 7.15 7.27 7.06 6.77 7.09 6.77 7.28 7.11 7.10 7.05 7.24 7.47 7.49 7.70 7.20 6.97 6.94 6.82 7.48 7.30 6.92 7.70 6.80 7.48 7.03 6.80 7.15 7.25 6.94 6.89 7.05 7.12 7.41 7.00 6.92 7.45 7.21 7.14 6.90 7.51 7.69 7.19 7.09 6.90 7.39 6.83 7.31 7.09 6.82 7.63 7.19 6.93 7.53 6.98 7.69 7.48 7.28 7.34 6.83 7.67 7.16 7.05 7.40 7.36 7.42 7.19 6.90 6.89 7.00 7.63 6.99 7.63 7.03 7.12 7.05 7.36 7.18 7.31 7.15 7.41 6.94 7.06 7.13 7.58 6.77 7.64 7.27 7.09 7.45 7.70 7.36 7.13 7.40 7.56 6.76 6.86 7.11 6.84 7.24 7.72 7.07 7.54 7.14 7.67 7.42 7.29 7.14 7.55 7.02 7.00 7.14 7.56 7.25 7.19 7.39 7.68 7.73 7.20 6.93 7.63 6.86 6.93 7.41 7.51 7.47 7.22 6.94 7.21 6.82 7.33 6.84 7.08 7.62 7.35 7.06 7.56 7.28 6.95 7.55 7.64 6.82 6.88 7.39 6.88 7.29 7.72 6.80 7.36 6.93 7.34 7.71 7.43 6.98 7.66 7.32 7.12 -9999 -9999 -9999 -9999 -9999 -9999 -9999 -9999 -9999 -9999 -9999 -9999 -9999 -9999 -9999 -9999 -9999 -9999 -9999 -9999 -9999
7.69 6.89 7.29 7.24 7.49 6.89 6.78 6.85 6.79 7.68 6.83 7.60 7.60 7.71 7.09 7.33 7.28 7.09 7.05 6.95 7.07 7.35 7.11 7.25 7.45 7.42 7.56 6.83 7.28 7.35 6.92 7.35 7.28 7.57 7.48 7.64 7.59 7.57 7.13 7.23 6.92 7.59 7.55 7.23 6.77 7.49 7.21 7.46 7.41 7.09 7.54 7.00 7.07 7.72 7.15 7.70 7.28 7.48 6.87 6.90 7.45 7.44 6.99 7.74 7.21 6.97 7.11 7.49 7.49 7.59 7.04 7.33 7.58 7.30 7.54 7.48 6.83 7.74 6.89 7.48 7.02 6.98 6.75 7.63 6.99 7.24 7.22 7.39 7.30 7.31 7.00 7.21 7.30 7.09 7.55 6.79 7.43 7.66 7.37 7.41 7.65 6.80 7.73 7.39 7.48 7.27 7.30 7.60 7.03 7.61 7.01 7.55 7.09 7.51 7.01 6.85 7.23 6.82 7.53 7.00 7.58 6.83 6.76 7.69 7.09 7.53 6.91 6.97 7.22 7.45 6.79 7.52 7.42 7.25 7.32 7.52 7.65 7.18 7.65 7.32 7.64 7.30 6.83 6.85 7.17 6.97 7.11 7.53 7.12 7.60 7.49 7.13 7.20 7.63 7.74 6.88 7.59 7.11 7.08 6.98 6.91 7.54 7.68 7.05 6.79 6.81 6.99 7.39 6.99 7.24 6.96 6.80 7.41 6.98 7.49 7.40 7.42 7.49 7.36 6.99 7.04 7.35 7.27 7.41 7.63 7.02 7.46 7.30 6.87 7.24 7.66 6.91 7.69 7.52 -9999 -9999 -9999 -9999 -9999 -9999 -9999 -9999 -9999 -9999 -9999 -9999 -9999 -9999 -9999 -9999 -9999 -9999 -9999 -9999 -9999
7.22 7.55 7.36 7.22 6.96 6.96 6.86 6.97 7.10 6.77 6.77 7.52 7.72 7.50 7.51 6.89 7.37 7.13 7.16 7.49 7.50 7.22 7.35 7.63 6.83 7.65 7.43 7.43 7.36 7.07 7.70 7.43 7.38 7.47 6.87 7.32 7.67 7.43 6.75 7.15 6.92 7.64 7.41 6.86 7.54 6.80 7.40 7.59 7.26 6.94 7.52 7.26 6.99 6.93 6.77 6.92 7.74 7.10 6.87 7.67 7.70 7.15 7.43 6.78 7.33 7.13 7.41 7.74 7.58 6.76 6.82 7.17 7.01 7.24 7.08 7.16 7.10 7.61 7.53 7.33 7.44 6.86 7.45 7.65 6.77 7.43 6.80 7.14 7.15 7.53 6.75 7.72 6.83 6.98 7.53 6.79 6.90 7.08 7.35 6.88 7.13 7.53 7.02 7.10 7.74 7.00 7.63 7.50 6.83 7.72 7.73 7.50 7.62 7.61 7.23 6.98 7.31 7.70 6.87 7.05 7.00 7.30 7.04 7.20 7.64 7.61 7.12 7.14 6.77 7.31 7.14 7.27 7.21 6.88 7.62 6.81 7.36 7.16 7.14 7.27 7.74 7.60 6.90 7.20 7.63 7.19 7.37 7.66 7.30 7.17 7.22 7.02 6.89 6.83 6.93 7.18 7.48 7.44 7.66 6.96 6.89 7.54 6.78 7.51 7.30 6.76 7.39 7.51 7.38 7.33 7.31 7.44 7.69 6.89 7.73 6.79 7.66 7.45 7.36 6.76 7.39 7.17 7.27 7.03 7.19 7.39 7.50 7.66 7.27 7.60 7.54 7.40 7.56 7.35 -9999 -9999 -9999 -9999 -9999 -9999 -9999 -9999 -9999 -9999 -9999 -9999 -9999 -9999 -9999 -9999 -9999 -9999 -9999 -9999 -9999
6.88 7.26 7.56 7.20 7.47 7.32 7.46 6.93 7.35 6.93 7.26 7.16 7.71 7.61 7.47 7.15 7.68 6.86 7.31 7.28 7.50 6.95 6.79 6.95 6.77 7.02 7.04 7.25 7.10 7.35 7.60 7.35 7.45 6.96 7.74 7.28 6.86 7.41 7.14 7.08 7.64 7.02 7.11 7.57 7.43 6.80 7.04 7.22 7.55 6.93 7.54 7.25 7.68 7.33 6.80 7.52 6.84 7.04 7.72 7.07 6.89 7.72 7.07 6.93 7.69 7.22 7.61 7.39 7.40 7.06 7.51 7.04 6.89 7.25 7.13 6.80 6.87 6.76 7.34 7.38 7.33 7.10 7.51 7.12 6.81 7.45 7.72 6.89 7.11 7.24 6.83 7.52 7.17 7.36 6.90 6.97 7.49 7.23 7.43 7.45 7.51 7.25 7.69 7.40 7.72 7.02 6.92 7.38 7.34 6.95 7.38 7.46 7.05 7.46 6.94 7.04 6.84 7.05 7.24 7.57 7.34 7.06 7.66 7.15 6.98 7.02 6.87 7.39 7.43 7.52 7.61 7.56 7.73 6.83 7.34 6.86 6.89 7.70 7.43 7.19 7.00 7.68 7.17 7.29 7.72 7.72 7.44 7.25 6.88 7.68 7.22 7.21 6.90 7.17 7.42 7.69 7.67 7.13 7.31 7.40 7.46 7.28 7.01 7.05 7.12 7.04 6.89 7.39 7.33 7.16 6.88 7.19 6.86 7.72 7.03 7.28 6.98 7.68 7.29 7.68 6.82 6.95 7.65 7.12 7.21 7.67 6.88 6.75 7.49 6.96 7.50 6.98 7.10 6.80 -9999 -9999 -9999 -9999 -9999 -9999 -9999 -9999 -9999 -9999 -9999 -9999 -9999 -9999 -9999 -9999 -9999 -9999 -9999 -9999 -9999
7.38 7.37 6.89 7.67 7.02 7.41 7.60 7.69 6.97 7.17 7.47 7.54 6.79 7.00 7.05 7.63 6.98 6.80 7.08 7.34 6.82 7.43 7.32 7.14 7.00 7.07 6.76 7.53 6.80 6.99 7.20 6.77 7.14 7.17 7.34 7.07 7.42 7.65 7.29 7.54 7.45 7.42 7.50 7.74 7.38 7.29 7.22 7.65 7.65 7.72 7.27 7.22 6.78 7.16 7.04 7.54 7.12 7.28 6.80 7.46 6.82 7.35 6.86 7.02 7.07 7.55 7.30 6.77 6.95 6.99 7.68 6.84 7.67 6.87 7.03 7.43 7.51 7.12 6.82 7.71 7.58 7.51 7.35 7.40 7.09 6.95 6.82 7.62 7.45 6.77 6.85 7.70 7.49 7.35 7.12 7.39 7.08 7.67 7.04 7.21 7.57 7.37 6.80 6.98 7.28 6.97 6.85 7.04 7.46 7.30 7.42 7.10 7.08 6.92 7.30 7.72 6.95 6.92 7.38 7.15 7.37 6.76 7.71 7.23 6.94 7.39 7.71 7.71 6.77 7.29 6.79 7.38 7.40 7.54 7.74 7.33 6.84 7.21 7.68 7.41 7.59 7.67 6.79 7.64 7.46 7.49 7.08 7.53 7.59 7.60 7.54 7.37 6.99 7.43 6.78 7.14 7.17 7.31 7.66 7.42 6.99 7.69 7.50 7.45 7.56 7.22 7.25 7.48 7.44 6.87 7.07 7.60 7.17 6.96 7.51 6.98 7.06 7.11 7.29 7.44 7.73 7.28 7.17 7.70 7.69 7.13 7.37 7.37 7.05 7.61 6.86 6.92 7.24 6.82 7.28 -9999 -9999 -9999 -9999 -9999 -9999 -9999 -9999 -9999 -9999 -9999 -9999 -9999 -9999 -9999 -9999 -9999 -9999 -9999 -9999
7.16 7.20 6.77 7.09 7.36 7.40 6.85 7.67 7.51 6.87 7.57 7.21 6.96 7.44 7.05 6.95 7.04 7.65 7.30 7.48 7.48 7.36 6.92 7.16 6.96 7.62 7.56 6.89 7.07 7.23 7.59 6.93 7.37 6.86 7.61 7.58 7.56 7.28 7.08 7.49 7.45 7.02 7.12 7.20 7.72 7.45 7.20 7.69 6.90 6.92 7.28 7.21 7.21 7.03 7.55 7.37 7.00 6.99 7.50 7.47 7.11 6.79 7.69 7.54 7.19 7.26 7.05 7.33 6.94 7.18 7.67 7.35 6.89 7.75 7.19 7.02 7.17 7.73 6.83 7.35 7.54 6.94 7.44 7.46 7.54 6.98 7.56 6.77 7.56 7.53 6.75 7.68 7.14 6.76 7.41 7.48 7.35 7.70 7.37 7.72 7.65 7.74 6.96 7.74 7.32 6.99 7.62 7.49 7.21 7.06 7.55 6.85 6.75 7.37 7.72 7.71 6.85 7.54 6.96 7.35 6.90 7.53 7.55 7.65 7.04 7.70 7.72 6.84 7.13 7.08 7.51 7.32 7.30 6.78 7.11 7.05 7.65 6.88 7.00 7.32 6.96 6.90 7.25 7.24 7.13 7.36 7.07 6.87 7.59 7.16 7.59 6.90 7.71 7.41 7.06 6.88 7.15 7.44 6.89 7.30 7.56 7.75 7.03 7.07 7.14 7.11 6.92 7.10 6.96 7.12 7.27 7.32 7.52 7.59 6.77 6.86 7.16 7.47 7.27 6.88 7.31 7.29 7.39 7.12 7.35 7.41 7.21 7.27 6.82 6.90 7.15 7.39 7.15 7.00 7.34 -9999 -9999 -9999 -9999 -9999 -9999 -9999 -9999 -9999 -9999 -9999 -9999 -9999 -9999 -9999 -9999 -9999 -9999 -9999 -9999
7.25 7.46 7.51 7.07 7.70 7.57 7.45 7.45 6.91 6.90 7.20 7.06 7.61 7.10 7.45 7.06 7.32 7.34 7.73 7.43 6.75 7.66 6.81 6.90 6.92 6.99 6.80 7.22 7.04 7.11 7.09 7.09 6.98 7.02 7.59 7.00 7.71 7.67 7.10 7.43 7.70 7.40 6.78 6.75 7.12 7.14 6.90 7.60 6.86 7.51 7.35 7.52 7.49 7.16 7.28 7.13 7.14 7.38 7.06 7.55 6.95 7.03 7.36 7.63 7.64 6.98 7.66 7.55 6.83 7.75 7.65 6.88 6.85 7.44 7.74 7.27 7.60 7.38 7.58 7.57 7.48 6.78 7.55 7.58 7.10 7.56 6.84 7.14 7.23 6.82 7.01 7.13 7.30 7.52 7.66 6.85 7.57 7.36 6.91 7.56 7.69 7.51 7.22 7.37 7.03 7.74 7.64 7.02 7.14 7.08 7.48 7.68 7.17 7.09 7.57 7.31 7.69 7.14 7.11 7.34 6.99 7.69 7.68 7.65 7.29 7.57 7.64 7.67 7.15 7.03 7.45 7.24 7.21 7.36 7.04 7.74 6.85 7.07 6.98 7.61 7.75 7.22 7.20 7.17 6.94 7.62 7.67 6.97 6.87 7.00 7.12 7.27 7.11 7.47 6.90 7.03 7.43 6.99 7.15 7.63 7.74 7.45 7.55 6.88 6.87 7.31 7.57 7.26 6.87 6.96 6.86 7.04 7.23 7.44 7.28 7.50 7.63 6.78 7.31 7.38 6.87 7.33 7.47 6.76 7.06 6.97 7.64 7.37 7.20 7.54 6.93 6.91 7.53 7.56 7.14 -9999 -9999 -9999 -9999 -9999 -9999 -9999 -9999 -9999 -9999 -9999 -9999 -9999 -9999 -9999 -9999 -9999 -9999 -9999 -9999
7.67 7.23 7.25 7.49 6.97 7.67 7.07 6.89 7.11 7.38 6.95 6.80 7.63 7.40 7.02 7.11 7.35 7.69 7.37 7.14 7.44 6.82 7.16 7.14 7.38 7.46 6.99 7.65 6.82 7.12 7.05 7.10 6.91 7.29 7.27 6.93 7.29 7.15 7.71 6.83 7.25 6.80 7.18 7.62 7.54 7.22 7.57 6.87 7.23 6.76 7.67 7.16 7.63 7.73 7.33 6.97 7.18 7.72 7.57 7.71 7.59 7.56 6.89 6.93 7.39 7.36 7.26 7.68 6.80 7.45 7.38 6.84 7.46 7.35 7.29 7.10 7.30 7.53 7.72 7.71 7.16 6.82 7.68 6.97 7.49 7.58 7.53 7.03 6.78 7.14 7.69 6.76 6.77 7.43 7.69 7.26 7.15 7.75 6.81 7.63 7.40 7.47 7.61 6.91 6.87 6.78 7.60 7.00 7.43 7.11 7.67 7.73 7.65 6.98 7.42 7.34 7.45 7.69 7.31 7.20 7.69 7.64 7.56 7.50 6.87 7.10 6.77 7.19 7.44 7.73 7.13 7.05 7.26 7.43 7.34 7.64 6.84 6.94 7.14 7.43 7.30 7.15 7.50 7.19 7.35 6.90 7.37 6.79 7.09 7.23 7.70 7.66 6.91 7.67 7.74 7.41 6.90 7.18 6.97 7.50 6.90 7.02 7.37 7.74 7.43 7.00 7.07 7.30 7.19 6.95 7.64 6.93 6.75 7.56 6.85 7.52 7.34 7.22 7.49 7.26 7.38 7.33 7.42 7.70 7.08 7.17 7.24 7.50 7.74 6.84 7.11 7.41 7.01 6.84 6.95 -9999 -9999 -9999 -9999 -9999 -9999 -9999 -9999 -9999 -9999 -9999 -9999 -9999 -9999 -9999 -9999 -9999 -9999 -9999 -9999
7.53 7.63 7.33 6.82 7.41 7.16 7.19 7.62 6.90 6.90 7.62 7.41 7.09 7.26 7.48 6.83 6.82 6.87 7.30 7.53 7.47 7.28 7.68 7.51 6.88 6.94 7.71 7.59 7.40 6.92 6.87 6.87 6.79 7.09 7.30 6.89 7.34 7.46 7.37 7.08 6.94 7.41 7.08 6.97 7.01 6.98 7.72 7.60 6.98 7.01 7.36 7.27 7.29 7.21 7.70 7.58 7.52 6.91 7.18 7.03 6.75 7.47 6.81 7.34 7.33 7.42 7.10 6.94 7.21 6.80 7.28 7.56 7.70 6.89 7.11 7.57 7.26 7.10 7.12 6.97 7.02 6.87 6.79 7.69 6.79 7.12 7.01 7.45 7.46 7.59 6.84 7.44 7.71 6.88 7.38 7.63 6.86 7.25 6.95 6.96 7.23 7.13 6.82 7.59 7.59 6.80 7.05 7.01 6.77 6.94 7.28 7.13 7.49 7.28 6.77 7.01 6.81 6.80 7.14 7.24 7.40 7.41 7.64 7.43 7.40 6.86 6.89 6.78 6.98 6.75 7.00 7.67 7.54 7.17 7.74 7.43 6.90 6.75 6.94 7.15 7.59 7.27 7.07 6.79 6.87 6.89 7.08 7.31 7.10 7.39 7.20 7.51 6.79 7.47 6.91 7.00 7.72 7.17 7.06 7.17 7.27 7.67 7.60 6.92 6.92 7.68 7.49 7.19 7.14 6.84 6.86 7.48 7.69 7.55 7.75 7.67 7.56 7.16 7.68 6.88 7.60 7.70 6.76 7.51 7.35 6.90 7.02 7.54 6.78 7.71 7.18 7.39 6.92 7.11 7.37 -9999 -9999 -9999 -9999 -9999 -9999 -9999 -9999 -9999 -9999 -9999 -9999 -9999 -9999 -9999 -9999 -9999 -9999 -9999 -9999
7.64 6.80 7.45 7.29 7.48 7.37 7.00 7.25 7.06 7.11 6.89 7.10 7.43 7.46 6.93 7.39 7.35 7.15 7.26 7.56 7.20 7.13 7.43 7.14 6.88 7.25 7.25 7.44 7.46 7.36 7.04 7.10 7.26 6.87 7.44 7.01 7.70 6.95 7.14 7.49 7.11 7.02 6.76 7.35 7.71 6.96 7.31 7.71 7.00 6.99 7.30 7.59 7.51 7.40 7.35 7.14 6.99 7.17 7.14 7.50 7.65 7.61 6.87 7.48 7.33 6.98 7.72 7.53 6.84 7.59 7.20 6.82 6.88 7.67 7.23 7.09 7.65 7.30 7.65 7.22 6.84 7.16 7.44 6.82 7.09 7.08 7.62 7.23 7.34 7.54 7.70 7.55 7.31 7.19 6.88 7.48 7.51 7.71 7.62 7.60 7.01 7.30 7.70 7.53 7.42 6.95 7.58 7.28 7.18 7.02 7.07 7.16 6.93 7.55 7.02 6.88 7.64 6.85 7.71 6.81 7.21 7.20 7.43 7.55 7.06 7.26 6.76 6.89 6.81 7.30 7.06 7.28 7.68 7.29 7.67 7.65 7.63 6.97 7.63 7.33 6.75 7.66 7.18 6.79 7.57 7.12 7.75 7.40 7.23 7.26 7.64 6.95 7.35 7.71 7.17 7.02 7.26 7.07 6.97 7.33 7.44 7.19 7.41 7.19 7.67 6.91 6.84 7.72 7.21 7.21 6.91 7.29 7.32 7.02 6.77 7.18 7.65 7.62 6.91 6.85 6.88 7.14 7.20 7.29 7.37 7.28 7.52 7.25 6.83 7.15 7.14 7.27 7.07 7.72 7.12 -9999 -9999 -9999 -9999 -9999 -9999 -9999 -9999 -9999 -9999 -9999 -9999 -9999 -9999 -9999 -9999 -9999 -9999 -9999 -9999
7.67 7.11 6.77 7.27 6.93 7.44 7.44 7.19 7.52 6.93 6.77 7.13 7.07 7.27 7.66 7.52 6.87 7.13 7.19 7.03 7.54 7.33 6.88 6.92 6.88 7.14 7.10 7.64 7.37 7.39 7.65 7.27 6.96 7.19 7.40 7.09 7.62 7.54 7.35 7.47 6.98 7.37 7.69 7.40 7.32 7.24 7.75 7.10 6.91 7.30 7.40 6.90 7.47 6.90 6.99 7.27 6.98 6.78 7.20 7.06 7.58 7.35 7.48 7.21 7.72 6.97 7.42 7.20 7.17 7.64 7.44 7.27 7.38 7.65 7.18 7.30 7.68 7.30 7.72 7.08 7.52 7.25 7.43 7.01 7.59 6.81 6.94 7.40 7.33 7.01 6.85 6.87 7.32 7.36 7.10 7.56 7.24 7.29 7.57 7.30 6.80 7.59 7.54 7.36 7.25 7.05 7.14 7.66 6.85 7.28 7.60 6.92 7.41 7.19 7.63 6.77 7.63 7.70 7.27 6.89 6.75 7.03 7.49 6.96 7.63 7.40 6.88 7.00 7.57 6.93 7.20 6.88 7.40 7.05 7.68 7.48 7.38 7.47 7.49 7.38 6.86 7.37 7.72 7.00 7.47 6.92 7.28 7.70 7.36 7.75 7.05 7.29 7.37 6.81 7.09 7.24 7.41 7.50 7.10 6.96 7.72 7.34 7.15 7.25 7.48 7.33 7.62 7.50 7.66 7.15 7.59 6.98 7.43 6.89 7.02 6.98 6.91 6.84 7.72 7.01 7.01 6.88 6.77 7.37 7.73 7.34 6.93 7.45 7.00 7.23 7.73 7.55 7.21 7.52 6.94 7.52 -9999 -9999 -9999 -9999 -9999 -9999 -9999 -9999 -9999 -9999 -9999 -9999 -9999 -9999 -9999 -9999 -9999 -9999 -9999
7.07 7.72 7.57 7.52 6.76 7.29 7.17 6.95 7.19 7.23 7.08 7.39 6.79 7.03 6.94 7.24 7.36 7.33 7.57 7.44 7.60 7.20 7.75 7.40 6.98 7.67 7.23 6.92 6.83 7.02 7.10 6.98 6.97 7.07 6.90 6.85 7.18 7.61 7.46 7.25 7.37 7.66 7.27 7.13 7.47 7.74 7.28 7.51 6.91 7.11 7.59 7.05 7.64 7.02 6.78 6.87 7.48 7.56 7.20 7.46 7.36 7.22 7.23 7.47 6.76 7.09 6.83 7.45 6.82 6.84 6.82 7.70 6.78 7.36 7.56 6.91 7.34 6.76 7.11 7.27 7.10 7.30 7.48 7.21 7.14 7.73 7.45 7.58 6.99 7.06 7.42 6.79 7.13 6.99 6.98 7.27 7.16 6.83 7.02 6.91 7.57 6.93 7.05 7.37 7.06 6.77 7.05 7.20 7.24 7.60 6.79 7.02 7.29 7.47 6.96 7.34 7.31 6.84 7.43 7.22 7.37 6.77 7.63 7.27 6.98 7.13 7.26 6.84 7.71 6.76 7.24 7.74 7.25 7.43 7.16 7.43 7.49 7.63 6.81 7.75 7.09 7.65 7.40 7.36 7.59 7.40 7.31 7.30 7.30 7.20 7.17 7.51 7.47 7.21 7.35 7.20 7.17 7.63 6.99 7.53 7.65 7.40 7.35 6.94 7.05 7.10 7.59 7.05 7.02 7.09 7.59 7.22 6.97 7.34 7.06 7.40 7.48 7.04 7.44 7.25 7.33 7.39 7.25 6.84 7.18 7.73 7.30 7.04 7.08 6.83 7.40 6.98 6.91 7.61 7.07 7.13 -9999 -9999 -9999 -9999 -9999 -9999 -9999 -9999 -9999 -9999 -9999 -9999 -9999 -9999 -9999 -9999 -9999 -9999 -9999
7.53 7.52 7.30 7.14 7.20 7.46 7.40 7.34 6.89 7.53 6.88 7.27 7.39 7.29 6.88 7.04 7.44 7.07 7.36 7.31 6.91 7.26 6.93 7.54 6.93 7.11 6.79 7.74 7.29 7.43 7.06 7.35 7.00 7.00 6.98 7.34 7.73 7.61 6.80 7.43 7.25 7.32 7.25 7.62 7.65 7.67 6.83 7.74 7.31 6.78 7.61 7.15 7.52 7.15 6.95 7.21 6.76 6.84 7.45 7.60 7.65 7.16 6.79 7.18 7.33 7.23 7.44 7.15 7.73 7.18 7.37 6.88 7.44 7.61 7.10 7.51 7.04 7.00 7.66 7.53 7.45 7.00 7.44 6.77 7.61 7.16 7.49 7.56 7.00 7.71 7.10 7.00 6.85 7.11 6.84 7.08 7.18 6.93 7.08 6.81 7.72 7.39 7.67 7.48 7.49 7.23 7.12 6.95 7.00 7.43 7.40 7.68 7.34 7.53 7.10 7.72 6.86 7.03 7.75 7.12 7.58 7.24 7.52 7.52 7.33 7.02 7.18 6.88 7.51 7.71 6.94 6.77 7.37 7.58 7.28 7.40 7.30 7.58 7.55 7.15 7.20 7.04 7.47 7.59 7.56 6.87 7.65 7.03 7.27 7.68 7.61 7.48 7.70 7.49 6.77 7.32 6.94 7.11 7.51 7.07 6.89 7.10 7.75 6.79 7.26 7.25 7.07 6.88 7.69 7.14 7.42 7.27 6.80 7.31 7.45 7.23 6.93 7.56 7.70 6.91 7.47 7.00 6.86 6.87 7.31 7.18 7.43 7.49 7.70 7.47 7.14 7.04 7.47 7.36 6.92 7.27 -9999 -9999 -9999 -9999 -9999 -9999 -9999 -9999 -9999 -9999 -9999 -9999 -9999 -9999 -9999 -9999 -9999 -9999 -9999
7.63 6.93 6.88 7.16 6.84 7.14 7.50 7.54 7.50 7.17 7.12 7.19 6.95 7.25 7.25 7.20 6.79 7.34 6.91 7.50 7.07 7.62 7.71 7.66 6.91 7.70 7.48 7.49 7.02 7.47 7.09 7.71 6.80 7.49 7.61 7.59 7.60 7.73 7.11 7.09 7.30 7.67 7.50 7.26 6.76 6.89 7.61 7.53 6.79 7.25 6.82 7.09 7.07 7.73 7.63 7.08 7.14 7.31 7.58 7.43 7.72 6.93 7.44 7.09 7.14 7.39 6.79 6.99 6.91 7.34 7.52 7.38 7.25 6.92 7.49 7.29 7.10 7.08 7.61 7.01 7.22 7.37 6.84 6.94 6.78 7.17 7.12 7.33 7.18 6.84 6.82 6.84 7.60 7.27 7.72 7.21 7.25 6.79 6.96 7.08 7.70 7.27 7.36 7.33 7.57 7.17 6.80 6.82 6.95 6.87 7.13 7.13 6.85 7.53 7.06 6.94 7.55 6.97 7.28 7.43 7.34 7.50 7.19 7.21 6.92 7.19 6.75 7.54 7.60 7.24 7.19 7.15 7.54 7.05 6.83 7.26 7.04 7.74 7.29 7.72 7.07 7.15 6.82 6.85 6.97 7.13 7.48 7.04 6.78 7.59 7.04 7.00 7.16 6.78 7.16 7.20 7.46 7.68 6.76 7.21 7.58 6.88 7.73 7.62 7.58 7.50 7.11 7.71 6.83 7.71 7.30 7.30 7.50 6.97 7.02 7.11 7.02 7.41 6.80 7.36 7.35 7.38 7.59 7.41 6.98 7.62 6.93 6.84 7.62 7.52 7.29 7.34 6.77 7.37 6.79 7.55 -9999 -9999 -9999 -9999 -9999 -9999 -9999 -9999 -9999 -9999 -9999 -9999 -9999 -9999 -9999 -9999 -9999 -9999 -9999
6.78 7.74 6.80 6.88 6.76 6.86 7.54 7.03 7.53 7.54 7.66 7.45 6.79 7.06 7.06 7.50 7.62 7.14 7.39 6.87 7.37 7.69 7.75 7.64 6.91 7.52 7.59 7.21 7.25 7.37 6.97 6.77 7.05 6.83 6.94 7.60 7.34 7.19 7.46 7.41 7.49 7.46 7.18 7.43 7.54 7.30 7.45 7.49 7.20 7.17 7.75 7.57 7.57 7.21 7.07 6.96 7.27 6.90 6.87 7.15 7.73 6.97 7.10 7.36 7.03 6.80 7.52 7.27 7.65 6.85 7.62 6.86 7.10 7.10 7.55 7.01 6.86 7.12 6.80 7.54 7.28 7.08 6.76 7.41 6.94 7.12 7.03 7.48 7.25 7.39 7.22 7.56 6.92 7.56 7.42 6.78 7.43 6.95 7.65 7.44 7.61 7.14 7.15 6.81 7.69 7.72 7.43 6.85 7.48 6.84 7.60 7.15 7.45 7.11 7.67 7.48 7.10 7.54 7.02 7.30 7.24 7.37 7.65 7.35 7.09 7.55 7.36 6.84 7.13 7.28 7.10 7.66 7.26 6.80 7.69 7.68 7.59 7.03 6.85 6.82 7.35 7.36 7.65 7.48 6.96 7.60 7.18 7.49 7.67 7.28 7.62 7.27 7.65 6.91 7.63 7.65 7.20 6.94 6.81 7.72 6.83 7.67 7.41 7.11 7.32 7.41 6.79 6.81 7.02 7.39 7.52 7.62 7.19 7.64 7.34 7.34 6.87 7.44 6.78 6.87 6.94 7.07 7.48 7.18 7.44 6.97 6.86 7.03 7.64 6.81 7.63 7.67 7.14 7.35 6.80 6.82 -9999 -9999 -9999 -9999 -9999 -9999 -9999 -9999 -9999 -9999 -9999 -9999 -9999 -9999 -9999 -9999 -9999 -9999 -9999
6.97 6.80 7.38 7.01 7.17 7.68 7.25 6.77 7.13 7.13 7.39 7.53 7.49 7.35 7.71 7.01 7.49 7.66 7.10 7.35 6.84 7.32 7.03 6.80 7.04 6.86 7.32 7.32 7.62 7.60 7.03 7.75 6.85 6.99 7.17 7.06 7.16 7.27 7.14 7.59 7.39 7.43 7.02 6.79 6.99 6.87 7.38 7.66 7.48 7.32 6.88 7.26 7.62 7.23 7.51 7.12 7.04 6.88 6.99 7.39 7.17 7.55 7.56 7.64 7.69 7.67 7.52 6.80 7.15 7.01 6.83 6.97 7.19 7.10 7.36 7.48 7.11 7.52 7.32 6.86 7.66 7.00 7.01 7.04 6.76 7.25 7.40 6.79 7.17 7.72 7.04 6.90 6.97 7.32 7.48 7.23 7.48 7.68 7.61 7.43 6.77 6.90 7.27 6.89 7.67 7.27 7.06 7.11 7.39 7.44 7.29 7.44 6.94 7.43 7.18 7.26 7.08 7.11 7.17 7.69 7.19 6.79 6.82 6.92 7.62 7.45 7.06 6.86 7.65 6.81 6.86 6.97 7.08 7.08 6.84 7.18 7.71 6.95 6.79 7.72 7.09 7.02 7.09 7.23 7.55 7.04 7.65 7.41 6.82 7.44 6.81 7.50 6.77 7.26 7.40 7.06 7.60 6.96 7.13 6.96 7.00 7.56 7.52 7.61 6.89 7.46 7.40 7.29 7.03 7.56 6.84 7.31 7.03 6.86 7.03 7.05 6.77 6.90 6.93 7.57 6.96 7.57 7.03 7.39 7.08 7.04 7.30 7.24 7.08 7.53 7.56 7.48 7.54 7.33 7.58 7.23 -9999 -9999 -9999 -9999 -9999 -9999 -9999 -9999 -9999 -9999 -9999 -9999 -9999 -9999 -9999 -9999 -9999 -9999 -9999
7.68 6.96 7.15 7.02 7.70 6.96 7.06 7.44 7.58 7.23 7.65 7.45 6.90 7.23 7.10 7.49 7.33 7.32 7.69 7.64 6.81 7.07 7.30 7.02 7.71 7.11 7.14 6.83 7.49 7.04 7.73 7.24 6.88 7.14 7.50 7.46 7.53 7.69 7.43 7.22 6.80 7.35 7.72 7.29 7.58 7.36 7.66 7.22 7.42 7.28 6.92 7.19 6.92 7.02 6.80 7.01 7.46 7.04 7.07 6.92 7.34 6.88 6.87 7.17 6.91 7.22 6.75 7.33 7.68 7.01 7.46 7.40 7.00 7.37 7.48 6.88 7.64 7.13 7.31 7.47 7.65 7.49 7.47 7.19 6.97 7.02 7.53 7.45 7.35 7.40 7.47 6.85 7.51 7.01 7.72 7.34 7.70 7.51 7.35 7.59 6.76 7.11 7.22 6.78 7.19 7.29 7.00 6.97 7.65 7.49 7.45 7.64 7.53 7.60 7.10 7.73 7.17 7.48 6.93 7.69 7.01 6.85 7.42 6.78 7.03 6.90 6.78 6.92 7.65 7.44 6.89 7.15 6.98 6.79 7.58 7.73 6.79 7.06 7.66 7.08 6.94 7.40 7.41 7.43 7.03 7.53 7.20 7.13 7.42 7.36 7.67 7.72 7.22 7.51 7.04 7.17 6.92 7.63 7.08 7.23 7.26 6.93 6.97 7.09 7.38 7.29 7.43 7.58 6.99 7.26 7.53 7.10 7.00 7.62 6.90 7.71 7.26 7.35 7.72 7.68 7.08 7.16 7.38 6.84 7.72 6.97 6.98 7.38 6.77 7.59 7.05 7.22 6.95 7.67 7.55 7.44 -9999 -9999 -9999 -9999 -9999 -9999 -9999 -9999 -9999 -9999 -9999 -9999 -9999 -9999 -9999 -9999 -9999 -9999 -9999
7.44 6.79 7.45 7.62 7.41 7.41 7.01 7.38 7.49 7.56 6.76 7.24 7.18 7.64 7.54 7.57 6.90 7.62 7.18 7.32 7.51 7.29 7.24 6.79 7.64 7.54 7.53 7.42 7.01 7.12 7.34 7.53 7.03 6.77 6.91 7.13 7.44 7.55 7.03 6.76 7.55 7.21 6.82 7.36 7.11 7.27 6.94 6.91 7.19 7.30 7.59 7.18 7.32 7.59 6.83 6.77 7.30 7.68 7.58 7.01 6.97 7.45 7.17 7.26 6.81 7.19 7.14 7.33 6.88 7.59 7.18 7.43 7.63 7.26 6.80 7.48 7.06 7.21 7.59 6.90 7.49 7.14 7.21 7.56 7.32 7.63 7.35 7.16 6.94 7.18 7.71 7.39 6.95 7.37 6.76 6.95 7.59 7.29 6.91 6.80 7.63 7.12 7.52 6.94 6.98 7.56 7.08 6.80 7.64 6.76 7.54 6.84 7.54 7.39 7.36 7.70 6.95 7.52 7.05 7.36 7.42 7.65 7.09 7.26 7.73 7.46 7.42 7.22 6.81 7.10 7.11 7.27 7.67 7.04 6.96 7.55 6.87 6.81 7.50 7.68 6.84 7.61 7.29 6.92 7.33 7.09 7.56 7.35 7.13 7.46 7.20 7.75 7.34 7.30 7.24 7.04 6.96 7.52 7.43 7.07 7.36 7.07 7.12 7.56 7.68 7.53 7.72 7.34 7.37 7.43 6.93 7.58 6.86 7.09 7.13 7.51 7.62 7.60 7.29 7.26 6.79 7.51 7.17 7.65 6.85 7.67 7.13 7.36 7.06 7.03 6.89 7.30 7.28 7.58 7.48 7.06 6.80 -9999 -9999 -9999 -9999 -9999 -9999 -9999 -9999 -9999 -9999 -9999 -9999 -9999 -9999 -9999 -9999 -9999 -9999
7.73 7.09 7.34 7.17 7.53 7.51 7.65 7.00 6.96 6.88 6.87 6.96 7.56 6.80 6.92 7.58 7.35 7.34 6.90 7.67 7.49 7.75 6.89 7.12 7.74 7.48 7.55 6.82 7.40 7.62 7.69 7.36 7.06 7.51 6.91 7.60 6.85 7.03 7.40 7.27 7.25 7.18 6.93 6.88 6.79 7.08 7.12 7.66 7.00 7.25 7.10 6.83 7.67 6.88 6.80 7.20 7.14 7.07 6.99 7.45 7.23 6.92 7.61 7.49 6.88 6.83 6.75 7.63 7.66 7.26 7.27 7.57 7.22 6.99 6.94 7.43 6.93 7.37 6.89 7.21 7.36 7.11 7.18 7.25 7.59 7.66 6.90 7.53 7.73 7.12 6.87 6.76 6.91 7.52 7.38 7.03 6.87 7.60 7.59 6.87 6.81 6.87 7.33 7.28 7.67 7.22 7.08 6.85 7.72 6.96 6.92 7.10 7.13 7.61 7.58 7.34 7.67 7.39 7.54 6.88 6.80 7.43 7.34 7.35 6.82 7.54 7.04 6.97 7.23 7.74 7.50 7.32 7.71 7.10 7.53 7.17 7.54 7.68 6.87 7.37 7.68 7.41 7.00 7.14 7.58 7.32 6.88 7.45 6.86 7.65 7.38 7.70 7.42 7.30 7.14 7.28 7.00 6.84 6.97 6.81 7.28 6.80 6.88 7.11 7.59 6.90 7.58 6.92 7.26 7.03 7.25 6.89 7.11 7.06 7.43 7.29 6.93 7.74 7.20 7.49 7.02 7.52 6.77 7.62 7.58 7.00 7.37 7.40 7.64 7.13 7.44 7.74 7.33 7.70 7.22 7.56 6.84 -9999 -9999 -9999 -9999 -9999 -9999 -9999 -9999 -9999 -9999 -9999 -9999 -9999 -9999 -9999 -9999 -9999 -9999
7.69 7.55 7.59 7.55 7.75 7.55 6.83 7.61 6.95 7.27 7.37 6.94 7.11 7.57 7.64 7.41 7.55 7.36 6.81 7.72 7.16 7.68 7.52 6.91 7.48 7.15 7.24 7.28 7.24 7.33 7.29 6.82 7.58 6.82 6.89 7.49 7.53 7.60 7.11 6.96 7.26 7.66 6.83 7.44 7.09 7.52 7.68 6.92 7.02 7.59 7.58 7.64 6.94 6.94 7.05 7.00 7.69 7.29 7.65 7.49 7.68 7.39 7.59 7.12 6.77 7.23 6.98 6.99 7.55 7.40 7.43 7.37 6.84 7.61 7.46 7.31 7.17 7.48 7.69 7.42 7.35 7.64 7.63 7.11 6.95 7.02 6.97 7.15 7.02 7.53 6.87 7.36 6.83 7.23 7.13 7.33 6.81 7.70 7.68 7.27 6.87 7.15 6.94 6.89 7.42 7.11 7.52 6.89 7.69 7.54 6.77 7.21 7.74 7.36 7.30 7.18 6.80 7.43 7.71 7.65 7.43 7.52 6.96 6.98 7.52 7.01 7.69 7.07 7.28 7.26 7.58 7.70 7.57 7.05 7.57 6.90 7.01 7.17 7.30 7.60 7.12 7.39 7.40 6.92 7.29 7.23 7.36 7.10 7.32 6.83 7.58 7.64 7.60 7.00 7.40 7.62 7.17 7.54 7.18 7.39 6.97 7.30 7.51 7.63 7.32 7.56 7.66 7.51 7.29 7.12 7.61 7.52 7.46 7.38 7.29 7.07 7.04 7.67 7.28 6.95 7.72 7.11 6.93 7.22 7.69 7.67 7.73 7.72 7.24 7.48 7.67 7.32 6.90 6.99 6.91 6.92 7.38 -9999 -9999 -9999 -9999 -9999 -9999 -9999 -9999 -9999 -9999 -9999 -9999 -9999 -9999 -9999 -9999 -9999 -9999
7.50 7.03 6.94 7.64 7.08 7.02 6.76 7.15 7.32 7.47 7.41 6.87 7.03 6.78 7.62 7.74 7.72 7.04 7.70 6.80 7.50 7.34 7.42 7.54 7.44 7.11 6.91 7.26 7.03 7.37 7.06 7.50 6.85 7.27 7.42 7.43 6.99 6.81 7.45 7.63 6.88 6.89 6.91 7.15 7.38 6.76 6.91 7.15 7.48 7.61 7.04 7.71 7.29 6.92 7.49 7.17 7.17 7.23 7.01 6.90 7.49 6.99 7.24 7.48 6.83 7.11 7.36 6.92 7.63 7.29 7.19 7.56 7.68 7.15 7.10 6.85 6.92 7.73 7.33 7.41 7.59 7.10 7.30 7.69 7.24 7.29 7.05 6.97 6.96 7.22 7.33 7.27 7.06 7.14 7.14 7.09 7.09 7.71 7.19 7.52 7.59 7.27 7.68 7.32 7.02 7.74 6.92 7.02 6.88 7.33 7.36 7.04 7.73 7.53 7.67 7.38 7.42 7.55 7.23 7.35 7.66 7.08 7.56 7.03 6.79 7.51 7.15 7.53 7.63 7.15 7.58 7.57 7.03 6.99 7.31 7.52 7.27 6.98 7.19 7.58 6.90 7.32 7.65 7.25 7.17 6.93 6.96 7.25 7.25 7.21 7.33 6.78 6.86 7.42 7.01 6.83 6.89 7.13 7.29 7.03 7.00 7.06 7.63 7.38 7.39 6.80 6.88 7.60 7.29 7.31 7.19 7.52 6.86 7.26 7.27 7.64 7.60 7.61 6.99 7.71 7.51 7.32 7.12 7.42 7.71 6.93 6.95 7.28 7.10 7.28 7.29 6.90 7.22 6.98 7.39 6.84 7.05 -9999 -9999 -9999 -9999 -9999 -9999 -9999 -9999 -9999 -9999 -9999 -9999 -9999 -9999 -9999 -9999 -9999 -9999
6.85 7.67 6.97 7.27 6.94 6.76 7.38 7.48 7.17 7.20 7.38 7.26 7.25 6.85 7.27 7.67 7.31 7.18 6.87 6.90 7.62 6.90 6.91 7.53 7.71 7.21 7.52 7.14 7.51 6.98 7.73 7.50 7.70 7.12 6.77 7.74 7.58 7.06 7.39 7.08 7.58 7.35 7.31 6.80 7.73 7.59 6.77 7.16 7.43 7.39 7.61 7.72 6.83 6.96 6.94 7.33 7.17 7.44 6.78 6.78 6.83 7.17 7.24 7.67 6.95 7.22 6.92 7.28 7.03 6.98 7.47 7.49 7.06 7.23 6.92 7.20 7.70 7.35 7.07 7.09 6.76 6.85 6.84 6.87 6.86 7.15 7.60 7.08 6.80 7.10 6.90 7.32 7.01 7.56 7.00 7.45 7.27 7.37 6.90 7.19 7.58 7.58 7.35 7.57 7.35 7.49 7.28 6.92 7.23 7.46 7.73 6.83 7.63 7.56 7.09 7.19 7.69 7.28 7.46 7.06 7.60 6.96 7.60 7.74 6.94 7.70 6.96 7.53 6.80 6.82 7.62 6.89 7.37 6.78 7.60 7.63 6.81 7.47 6.85 7.19 6.79 7.21 6.91 6.91 6.85 6.89 6.94 7.09 7.04 7.53 7.71 7.15 7.43 6.86 6.81 6.87 7.09 6.91 6.78 6.85 6.86 7.41 7.05 7.27 7.26 7.26 7.61 7.71 7.33 7.41 6.83 6.83 6.98 7.55 7.24 7.23 6.98 7.03 7.59 7.70 7.17 7.53 7.67 7.21 7.75 7.54 7.11 7.66 7.08 7.03 6.83 7.32 7.74 7.49 7.27 7.29 7.46 -9999 -9999 -9999 -9999 -9999 -9999 -9999 -9999 -9999 -9999 -9999 -9999 -9999 -9999 -9999 -9999 -9999 -9999
7.28 7.25 7.12 6.99 7.59 7.14 7.25 7.23 7.70 7.03 6.96 6.80 6.94 7.29 7.21 7.67 7.55 7.49 7.06 7.21 7.42 7.56 6.87 7.33 7.27 7.17 6.76 7.59 7.20 7.60 7.51 7.29 6.89 7.22 7.30 7.23 6.91 7.13 7.34 7.65 7.11 6.87 7.25 7.01 7.40 6.97 6.91 7.66 7.75 7.68 6.99 7.21 6.85 7.71 7.48 7.47 6.84 7.46 7.04 7.56 7.59 7.22 6.94 7.19 7.27 7.73 6.79 6.76 6.81 6.90 7.42 7.32 7.05 7.17 7.21 6.87 7.34 7.41 7.26 7.47 7.60 6.92 6.86 7.71 7.40 7.16 7.62 7.09 7.65 7.23 7.01 6.85 7.64 7.52 7.16 7.31 7.39 7.28 6.81 7.19 7.23 7.01 7.03 7.46 7.38 7.10 7.01 7.21 7.74 7.36 6.96 7.42 7.15 7.28 7.06 6.87 6.88 7.66 7.13 7.11 7.58 6.78 6.92 7.37 7.01 7.10 7.75 6.80 7.40 6.86 7.42 7.23 6.80 7.38 6.96 7.37 7.03 7.16 6.99 6.85 7.26 7.53 6.85 6.91 7.46 7.60 7.73 7.29 7.44 7.68 7.55 6.94 7.24 6.95 7.46 7.49 7.02 7.09 7.66 7.45 7.13 6.99 7.57 7.12 7.49 7.73 7.42 6.92 7.55 7.41 7.10 7.66 7.24 7.30 7.51 6.76 6.79 7.69 7.24 7.08 7.28 7.13 7.37 7.67 7.01 7.75 7.50 7.36 7.13 7.71 7.70 7.51 7.38 7.27 7.11 6.77 6.93 -9999 -9999 -9999 -9999 -9999 -9999 -9999 -9999 -9999 -9999 -9999 -9999 -9999 -9999 -9999 -9999 -9999 -9999
7.41 6.83 7.02 7.28 7.29 7.35 7.63 6.98 7.29 7.14 6.90 7.16 7.53 7.43 7.13 7.59 7.13 7.66 7.38 7.12 7.27 7.21 7.37 7.09 7.21 7.32 7.10 7.35 7.62 7.20 7.47 6.88 7.28 6.83 7.44 7.34 7.52 6.80 7.28 7.04 6.95 7.15 7.65 7.40 7.07 7.39 6.97 7.52 6.96 7.16 6.85 6.77 7.33 7.62 7.60 6.92 6.88 7.03 6.96 7.36 7.05 7.69 7.61 7.57 7.01 6.80 7.33 7.53 7.04 7.35 7.31 7.62 7.42 7.44 6.86 7.23 7.54 7.19 7.00 7.56 7.74 7.46 7.59 7.66 7.34 7.01 6.86 7.19 6.97 7.34 7.13 6.79 7.71 6.93 7.40 6.91 7.73 7.45 7.65 6.98 7.75 6.87 7.49 6.83 7.30 7.19 6.77 7.36 7.10 7.19 6.83 7.23 7.43 7.58 7.44 6.87 7.66 7.10 6.91 7.18 7.29 7.40 7.58 6.99 7.25 7.35 7.09 7.04 7.22 7.44 6.79 7.25 6.81 7.30 7.69 6.96 6.79 7.72 7.16 7.15 7.37 7.13 7.08 7.33 7.55 7.29 7.30 7.23 7.00 7.62 7.36 7.00 6.79 7.74 6.85 7.18 7.73 6.97 7.71 7.07 7.44 7.00 7.31 6.79 6.78 7.50 6.92 7.29 6.83 7.31 7.17 7.04 7.34 6.93 7.25 6.98 7.16 6.77 7.67 6.91 7.62 7.19 7.14 6.81 7.45 7.62 7.03 7.07 7.34 7.67 7.52 6.80 7.29 7.12 6.86 6.99 7.53 7.48 -9999 -9999 -9999 -9999 -9999 -9999 -9999 -9999 -9999 -9999 -9999 -9999 -9999 -9999 -9999 -9999 -9999
6.93 6.77 7.50 7.18 7.56 7.52 6.92 6.92 7.11 6.77 7.47 7.58 6.79 6.86 7.26 7.20 7.23 7.26 7.63 7.06 7.11 7.56 7.53 7.20 7.00 7.09 7.71 6.93 7.53 7.31 6.85 6.83 7.48 7.24 7.18 7.45 7.17 7.18 7.18 7.70 6.79 7.60 7.48 7.49 7.36 6.82 7.32 7.60 7.43 6.79 7.46 7.40 7.33 6.88 7.07 7.53 7.37 7.66 6.75 6.95 7.44 6.84 6.87 7.10 7.57 7.28 6.88 7.40 6.79 7.26 7.65 7.09 6.98 7.26 7.59 6.79 7.14 7.65 7.64 7.31 7.44 7.13 6.84 6.88 7.36 7.35 7.30 7.39 7.36 6.97 7.24 7.19 7.35 7.28 7.48 7.50 7.72 6.86 6.90 6.98 7.20 6.97 7.38 6.83 6.78 7.33 7.30 7.38 7.59 7.02 7.10 6.92 7.08 7.21 7.45 7.48 7.12 7.72 7.70 7.30 7.50 6.79 7.15 7.28 6.98 6.89 7.10 7.39 7.54 7.42 7.38 7.73 7.05 7.54 7.05 6.87 7.71 6.80 7.51 7.29 7.51 7.63 7.42 7.35 7.08 7.13 7.74 7.58 7.12 6.79 7.54 7.24 7.11 7.44 6.92 7.46 7.70 7.65 7.66 7.68 7.57 6.92 7.61 6.80 7.09 6.77 7.20 7.06 7.75 7.14 7.65 7.45 7.20 7.04 7.28 7.45 7.67 7.32 7.07 6.89 7.42 7.65 7.41 7.49 6.94 6.80 6.83 7.38 7.56 7.46 6.78 7.08 6.96 7.45 7.30 7.62 7.09 7.46 -9999 -9999 -9999 -9999 -9999 -9999 -9999 -9999 -9999 -9999 -9999 -9999 -9999 -9999 -9999 -9999 -9999
7.64 6.78 7.07 7.71 7.07 7.14 7.73 7.29 7.65 7.45 7.01 7.48 7.09 7.06 7.57 7.51 7.25 6.77 7.11 6.94 7.31 7.38 6.99 6.83 7.73 7.54 6.76 7.53 6.90 6.84 7.69 7.11 7.16 6.86 7.71 7.21 7.17 7.13 7.07 7.52 7.33 6.92 6.90 7.30 7.45 6.79 7.57 7.13 7.09 7.21 7.15 6.90 7.41 6.83 7.60 7.29 7.72 7.71 7.73 7.33 7.49 7.27 7.24 7.35 6.81 6.91 7.23 6.97 7.24 6.80 7.38 6.82 7.04 7.13 7.40 7.41 7.34 7.18 7.66 7.04 7.74 7.02 7.37 7.41 7.66 7.61 6.97 7.07 6.94 7.44 7.67 7.31 7.52 6.81 7.19 7.07 7.16 7.41 7.67 6.76 6.97 7.41 6.78 7.12 7.70 7.09 6.98 7.52 7.65 7.39 7.43 7.54 7.22 7.47 7.40 7.37 6.91 7.51 6.76 7.41 7.51 7.59 7.30 7.56 6.98 7.23 7.23 7.00 6.95 7.66 7.61 7.62 6.98 7.55 7.40 6.88 7.62 6.76 7.58 7.68 6.97 6.78 6.83 7.51 7.69 7.10 7.03 7.23 6.81 7.60 7.37 7.45 6.87 7.52 7.53 7.70 7.57 7.21 7.04 7.20 7.54 7.15 7.10 7.74 7.09 7.05 6.94 6.93 7.55 7.73 7.24 7.31 6.91 6.84 7.65 6.80 7.31 6.84 7.71 6.77 7.06 7.63 7.69 7.46 7.25 7.09 7.14 7.02 7.62 6.97 7.69 7.64 7.52 7.34 7.27 7.62 7.40 6.97 -9999 -9999 -9999 -9999 -9999 -9999 -9999 -9999 -9999 -9999 -9999 -9999 -9999 -9999 -9999 -9999 -9999
7.74 7.71 7.15 7.17 6.83 6.76 7.23 6.89 7.61 7.32 7.16 7.13 6.77 7.28 7.73 6.87 7.04 6.79 6.90 7.49 6.78 7.12 7.16 7.38 7.06 7.18 6.81 7.50 6.80 7.17 6.83 7.41 7.07 7.22 7.59 7.20 7.73 7.35 7.46 6.79 7.48 7.08 7.60 7.11 6.96 7.16 7.16 7.51 6.80 7.36 7.13 7.32 7.04 7.00 6.89 6.79 7.26 7.65 7.20 7.01 7.03 7.17 7.50 7.69 7.07 7.36 6.93 7.00 7.50 7.40 6.75 6.97 6.81 7.08 7.71 6.85 6.85 7.46 6.93 7.51 7.57 7.64 7.29 7.56 7.71 7.59 6.76 7.13 7.64 7.04 6.79 7.25 7.45 7.40 7.39 6.87 6.85 7.40 7.19 6.91 7.14 7.57 7.42 7.01 7.14 7.03 7.36 7.49 7.68 7.62 7.47 7.08 7.24 7.60 6.79 7.04 7.26 6.88 7.03 7.00 7.57 6.85 7.67 6.83 7.71 7.52 7.52 6.86 7.54 7.29 6.97 7.09 7.17 7.18 7.05 7.58 7.73 6.77 7.37 7.50 6.82 7.08 6.78 7.03 7.03 7.19 7.32 7.07 7.14 6.85 7.61 7.39 7.46 7.37 7.04 7.47 7.17 7.07 6.97 7.67 7.63 7.37 6.86 7.15 7.55 6.85 7.34 7.28 6.98 7.35 6.97 7.20 7.53 6.97 7.51 6.86 6.84 6.90 7.42 6.80 7.71 7.37 7.24 7.06 7.67 7.33 7.40 6.88 7.56 7.47 7.09 6.85 7.03 6.90 7.44 7.60 7.36 7.03 -9999 -9999 -9999 -9999 -9999 -9999 -9999 -9999 -9999 -9999 -9999 -9999 -9999 -9999 -9999 -9999 -9999
7.29 7.47 7.74 7.42 7.14 7.10 7.03 7.63 7.17 7.24 7.24 7.42 7.08 6.92 7.59 6.85 7.44 6.85 7.73 7.73 6.81 7.70 7.39 7.29 7.23 7.16 7.17 6.82 7.63 7.37 7.03 7.63 7.32 7.30 7.15 7.75 7.06 6.99 7.50 7.67 7.20 7.00 6.88 7.38 7.06 6.85 7.17 7.03 7.11 7.71 6.92 7.64 6.79 7.45 7.52 6.86 7.62 7.54 7.28 7.32 7.24 7.18 7.44 6.81 7.60 7.16 6.84 7.06 6.96 7.29 7.58 7.74 6.85 6.81 7.59 7.41 6.87 7.23 7.15 7.10 7.27 7.52 6.89 7.69 7.12 7.44 7.26 7.15 6.89 7.02 7.15 6.79 7.02 7.42 7.68 7.31 7.63 6.93 7.71 7.16 7.50 7.34 7.12 6.93 7.51 7.71 7.15 6.85 7.40 7.16 7.72 6.89 7.08 7.67 6.83 6.94 6.93 7.45 7.42 7.59 7.55 7.45 7.49 7.43 7.54 7.42 7.35 7.69 7.53 7.45 7.52 7.03 7.26 7.36 7.17 7.39 7.51 6.94 6.91 6.77 7.05 7.42 7.54 6.97 7.27 7.09 7.34 7.34 7.72 7.05 6.92 7.67 6.78 7.32 6.80 6.86 7.09 7.42 6.90 6.80 7.47 7.11 7.23 7.07 7.68 7.71 7.21 7.74 7.29 7.51 7.15 6.91 7.56 6.90 7.53 7.02 7.19 7.68 7.33 6.86 7.04 6.95 7.34 7.28 7.22 7.01 7.03 7.44 7.19 7.24 6.90 7.68 6.96 7.66 7.04 7.71 7.27 7.42 -9999 -9999 -9999 -9999 -9999 -9999 -9999 -9999 -9999 -9999 -9999 -9999 -9999 -9999 -9999 -9999 -9999
6.79 7.72 6.99 7.54 7.50 7.17 7.24 6.84 6.76 7.26 7.32 7.60 7.24 7.36 7.71 6.77 7.67 7.17 7.07 7.32 7.29 7.17 7.26 7.28 7.74 7.06 7.39 6.75 7.50 7.05 7.37 7.11 7.29 7.43 7.41 7.36 7.12 7.54 6.76 7.34 7.13 7.25 7.64 6.76 7.74 7.67 7.68 7.37 7.45 6.81 7.36 7.52 7.13 7.53 6.85 6.98 7.43 7.28 7.47 7.02 7.28 6.87 7.73 7.15 7.32 7.40 6.93 7.18 7.65 7.57 7.15 7.22 7.55 7.28 7.42 7.18 6.76 7.65 6.79 7.59 7.64 7.72 7.66 7.07 7.33 6.95 7.06 7.20 6.99 7.72 7.36 7.31 7.32 7.08 7.21 7.19 7.05 7.02 7.58 7.29 7.21 7.71 7.36 6.90 7.72 6.93 6.76 7.51 7.67 7.49 7.51 6.76 7.59 7.00 7.32 7.57 6.90 7.59 6.93 7.43 7.75 7.09 6.82 7.09 7.01 7.00 7.02 7.28 7.19 6.80 7.51 7.35 7.33 7.07 6.86 7.12 6.77 7.35 7.36 7.30 6.98 7.10 7.54 7.28 7.58 6.86 7.64 7.69 7.52 7.32 6.79 7.64 7.66 7.67 7.44 6.95 7.32 7.09 6.99 7.33 6.93 6.81 7.63 7.51 7.10 6.92 7.15 7.45 7.21 7.39 7.17 6.81 6.81 6.76 6.90 7.65 7.12 7.07 7.65 7.52 7.49 7.22 7.15 7.31 7.30 7.50 7.49 7.67 7.73 7.43 7.41 7.26 6.90 7.33 7.50 6.78 7.28 6.75 -9999 -9999 -9999 -9999 -9999 -9999 -9999 -9999 -9999 -9999 -9999 -9999 -9999 -9999 -9999 -9999 -9999
7.56 7.00 7.16 7.54 7.07 7.11 6.89 7.12 7.41 7.38 6.86 7.00 6.83 6.85 7.05 7.19 6.96 6.88 6.86 6.83 7.45 6.89 7.17 7.07 7.28 7.41 6.91 7.33 7.11 7.22 7.03 7.57 6.81 7.05 7.47 7.32 7.60 7.44 7.05 7.53 6.93 7.74 7.08 7.24 7.15 6.81 6.78 7.63 6.86 7.53 7.35 7.49 7.72 7.08 7.58 7.38 7.28 7.01 7.40 7.37 7.18 7.45 7.07 7.47 7.47 7.54 6.80 6.83 7.12 6.78 7.05 7.05 7.74 6.81 7.11 7.25 7.14 7.17 7.20 7.50 7.00 7.03 7.39 7.14 7.54 7.45 7.58 7.53 6.77 7.10 7.27 7.62 7.62 7.74 7.32 7.27 6.76 7.42 7.50 7.37 7.68 7.17 7.22 7.39 7.12 7.40 7.50 6.85 6.85 6.95 6.99 7.60 7.38 7.09 7.50 7.58 7.31 6.92 7.60 7.70 6.96 7.49 7.74 7.15 6.96 6.80 7.59 6.98 7.72 7.19 7.12 7.56 6.93 6.75 6.78 7.60 7.12 7.36 6.83 7.33 7.46 7.08 6.92 6.82 7.61 7.14 6.88 7.66 6.89 7.54 7.42 7.19 6.90 7.53 7.73 7.41 7.50 7.45 7.71 7.17 7.10 7.69 7.26 6.96 7.46 7.66 7.04 6.75 7.20 7.57 7.67 7.32 7.33 6.86 7.16 6.77 7.19 7.65 6.93 6.87 7.25 7.73 7.59 7.30 7.22 7.46 6.95 7.30 7.67 7.04 7.20 7.55 7.44 7.11 7.71 6.88 7.49 7.66 -9999 -9999 -9999 -9999 -9999 -9999 -9999 -9999 -9999 -9999 -9999 -9999 -9999 -9999 -9999 -9999 -9999
7.00 7.49 7.58 7.21 7.10 7.59 6.87 7.62 7.73 7.26 7.64 7.35 7.33 7.40 7.37 7.25 6.94 7.15 6.90 7.59 7.55 7.70 6.89 6.77 6.82 6.95 6.93 7.67 7.60 7.44 7.46 6.80 7.32 7.53 7.55 7.48 7.40 7.18 7.38 7.11 7.72 7.41 6.82 7.60 7.62 7.11 7.43 7.34 7.66 7.37 7.63 6.80 7.16 7.32 6.80 7.34 6.77 7.31 7.72 7.59 6.85 7.68 7.38 7.10 6.94 7.43 6.84 6.93 7.70 7.66 7.53 7.21 7.45 7.06 7.16 6.90 6.87 7.61 7.05 7.46 6.82 7.42 7.74 6.89 7.25 7.74 7.42 7.51 7.64 7.15 7.03 7.41 7.72 7.09 7.09 7.26 7.49 7.44 7.34 7.57 7.04 7.14 7.23 7.39 6.77 7.43 7.11 6.88 7.48 7.02 7.51 6.80 6.88 7.10 6.85 6.95 6.84 7.29 7.30 7.29 7.69 7.28 7.58 7.39 6.92 6.77 7.05 7.27 7.18 7.40 7.63 6.82 7.64 7.72 7.06 6.87 6.82 7.61 7.25 7.42 7.72 7.40 7.26 7.11 7.32 7.70 7.39 7.36 7.74 7.54 7.67 7.22 7.10 7.24 7.44 6.75 7.24 6.93 6.88 7.02 6.90 7.56 6.83 7.50 7.55 7.17 7.37 6.95 7.30 6.93 7.61 7.13 7.40 7.66 7.37 6.98 7.09 7.48 6.75 7.68 7.70 7.09 7.49 7.55 7.40 7.22 7.12 7.13 6.78 7.60 7.73 7.40 7.61 7.23 6.81 7.14 7.37 7.32 7.22 -9999 -9999 -9999 -9999 -9999 -9999 -9999 -9999 -9999 -9999 -9999 -9999 -9999 -9999 -9999 -9999
7.66 6.77 7.26 7.69 6.99 7.12 7.55 7.05 6.93 7.41 6.81 7.38 7.61 6.82 7.36 6.76 6.92 7.54 7.19 7.22 7.35 7.31 7.00 7.42 7.59 6.78 6.88 7.62 7.36 7.18 6.79 6.84 7.42 7.33 7.49 7.03 7.34 6.76 6.76 7.59 6.88 6.76 7.46 7.42 7.52 7.45 7.02 7.25 7.73 7.18 7.04 7.12 7.47 7.50 7.31 7.24 7.08 6.87 7.20 7.72 7.08 7.71 7.08 7.22 6.89 7.34 7.05 7.28 7.25 7.34 7.50 7.61 7.54 6.76 7.58 7.16 7.36 7.40 7.48 7.64 7.52 7.47 7.28 6.85 7.27 7.63 7.12 7.48 7.68 7.74 6.99 7.45 7.65 6.90 7.55 7.64 7.75 7.71 7.46 6.80 7.46 7.47 7.46 7.08 7.71 6.75 6.87 7.59 6.88 7.16 7.60 7.52 7.36 7.21 7.19 7.29 6.82 7.06 7.72 6.93 6.78 7.28 7.02 7.17 7.53 7.06 7.28 7.00 7.16 7.09 7.39 7.40 7.34 7.41 7.43 7.31 7.06 6.80 6.88 7.50 6.95 7.38 6.76 6.75 7.39 7.52 7.18 7.14 7.16 7.47 7.37 6.94 6.79 7.38 7.31 6.75 7.69 7.63 6.79 7.11 7.59 6.80 6.95 7.71 7.63 7.46 7.53 7.49 7.10 7.05 7.57 7.01 6.85 7.21 6.82 7.63 6.91 7.58 7.35 7.00 7.59 7.38 7.75 7.10 7.15 7.41 6.79 7.56 7.74 7.35 7.08 6.81 7.23 7.64 7.07 7.62 7.59 7.59 6.91 -9999 -9999 -9999 -9999 -9999 -9999 -9999 -9999 -9999 -9999 -9999 -9999 -9999 -9999 -9999 -9999
7.58 7.09 7.29 7.17 7.30 7.26 6.91 7.18 7.60 7.21 7.46 7.64 7.06 7.26 7.46 7.39 6.76 7.63 7.67 6.86 7.51 6.97 7.11 7.13 7.28 7.38 6.87 7.75 6.93 7.52 7.75 7.75 7.26 7.07 7.34 6.79 6.82 7.13 7.70 7.36 7.44 7.52 6.83 7.55 6.75 6.84 6.81 7.15 7.07 6.90 6.89 7.22 7.66 7.74 7.07 7.40 7.15 7.56 7.08 6.76 6.91 6.87 6.99 7.68 7.66 7.30 7.64 6.94 7.71 7.10 7.02 7.45 7.39 7.27 7.16 7.33 7.44 7.49 7.65 7.67 7.49 7.21 7.27 6.83 7.33 7.59 7.17 7.50 7.23 7.07 7.70 7.20 6.93 7.56 6.93 7.20 6.84 7.33 7.71 7.39 7.60 7.44 7.55 7.40 7.71 7.69 6.78 6.79 7.02 7.69 7.22 7.58 7.29 6.79 6.86 7.44 7.67 7.05 7.33 6.92 7.45 6.86 7.41 7.43 7.53 7.73 7.66 7.30 7.16 6.94 7.69 7.02 7.54 7.70 6.89 6.88 7.04 7.28 7.59 7.30 7.33 7.61 7.55 7.58 7.74 7.45 7.12 7.54 7.45 7.71 7.39 6.84 7.03 7.25 7.22 7.44 7.59 6.78 7.28 7.73 7.50 6.83 7.11 6.87 7.38 7.71 7.50 7.70 6.82 6.84 7.31 6.84 7.17 7.44 7.74 7.59 7.29 6.85 7.17 7.73 7.67 7.14 7.18 7.04 7.10 7.04 6.91 6.76 7.30 6.82 6.90 7.65 7.57 7.26 7.54 7.18 7.51 7.18 7.30 -9999 -9999 -9999 -9999 -9999 -9999 -9999 -9999 -9999 -9999 -9999 -9999 -9999 -9999 -9999 -9999
6.88 7.00 7.61 7.61 7.04 7.36 7.71 7.33 7.34 7.71 7.32 7.28 6.91 6.99 7.68 7.02 7.31 7.59 7.50 7.30 7.16 7.28 7.48 7.70 7.20 7.20 6.80 7.06 6.97 7.25 7.67 7.45 6.80 7.11 7.26 7.29 7.31 7.14 7.42 7.29 6.92 7.26 7.49 7.15 6.80 6.93 7.03 7.51 7.17 7.43 7.64 7.39 6.79 7.14 6.94 6.79 7.03 7.55 7.29 6.86 7.16 7.16 7.56 7.24 7.40 7.38 7.36 7.57 7.38 7.19 7.17 7.67 7.26 6.90 7.36 6.86 7.11 7.36 7.08 7.06 7.42 7.19 7.66 7.29 7.16 7.33 6.89 7.65 7.33 7.44 6.81 7.60 6.88 7.27 7.54 6.97 7.56 7.47 6.96 6.83 7.74 7.06 7.44 6.86 6.94 7.66 7.34 6.76 6.89 7.56 6.89 6.76 6.89 7.44 6.92 7.02 7.27 7.66 6.83 7.27 6.78 7.00 7.66 7.53 7.20 7.44 7.06 7.17 7.52 7.27 6.88 6.92 7.28 7.08 6.78 6.98 7.15 7.07 7.63 7.48 6.87 7.05 7.15 7.25 7.38 7.25 7.39 7.38 6.83 7.26 7.00 7.56 7.43 7.45 7.50 7.69 7.35 7.42 7.52 6.81 6.97 6.82 7.58 6.86 7.43 7.13 7.53 7.74 7.59 7.48 7.56 7.30 7.47 6.81 6.99 7.43 6.76 7.43 6.85 7.04 7.37 7.62 7.71 7.69 7.74 7.39 7.11 7.04 7.07 6.97 7.46 6.85 7.06 7.20 6.87 7.37 7.05 7.15 7.01 -9999 -9999 -9999 -9999 -9999 -9999 -9999 -9999 -9999 -9999 -9999 -9999 -9999 -9999 -9999 -9999
6.81 7.20 6.87 7.67 7.64 7.04 7.32 7.14 7.20 7.24 6.80 7.39 7.06 7.44 7.01 7.53 6.97 6.93 7.36 6.82 7.15 6.98 7.10 6.78 7.34 7.66 7.07 7.07 7.16 6.98 7.55 6.76 7.42 7.47 6.80 7.64 7.06 7.50 7.05 7.72 7.44 7.46 7.56 7.40 7.63 7.67 7.41 6.78 7.68 6.85 7.66 7.70 6.78 7.24 6.99 7.59 7.37 6.76 7.23 7.31 6.81 6.88 7.51 6.75 7.30 7.11 6.88 7.05 6.90 7.47 7.28 7.14 7.55 7.49 6.99 7.64 7.62 6.97 7.53 7.29 7.15 7.71 7.21 7.52 7.42 6.94 6.91 7.46 6.95 7.50 7.39 7.05 7.40 7.67 6.79 7.55 7.27 6.79 7.06 7.27 7.18 7.38 7.48 6.82 7.22 7.69 7.04 7.20 7.26 7.33 6.87 7.01 7.40 7.53 6.93 7.01 7.56 7.10 6.78 7.29 7.36 7.13 6.84 6.88 7.56 7.40 7.42 7.64 7.17 7.59 7.38 7.56 7.43 6.80 7.33 7.21 7.24 6.89 7.25 6.79 7.62 7.69 6.96 7.25 6.91 6.78 7.60 7.10 7.17 7.47 7.08 7.05 7.13 7.11 6.92 7.56 7.35 6.93 7.38 6.99 7.50 7.42 6.76 7.15 7.54 7.15 6.93 7.07 7.59 7.07 7.02 7.05 7.22 7.36 7.73 7.07 7.47 6.76 7.10 7.47 7.24 6.97 7.08 7.57 7.61 6.78 7.32 6.80 7.16 7.23 7.41 7.73 7.01 7.08 7.09 7.04 7.37 7.46 6.76 -9999 -9999 -9999 -9999 -9999 -9999 -9999 -9999 -9999 -9999 -9999 -9999 -9999 -9999 -9999 -9999
7.26 7.66 6.99 7.52 7.07 6.96 7.67 7.22 6.86 7.49 7.63 7.46 7.75 6.95 7.05 6.82 7.68 7.22 6.83 7.55 6.76 6.90 7.15 7.48 7.18 7.61 7.35 6.90 6.98 6.95 7.24 7.14 7.72 7.41 7.67 7.00 7.73 7.35 7.15 7.63 7.68 7.49 6.98 7.48 7.29 7.26 7.12 6.93 6.98 7.39 7.73 7.39 6.88 7.35 6.79 6.79 7.53 6.85 7.63 6.86 7.30 7.02 7.03 7.23 7.59 7.55 7.58 7.16 7.44 7.57 7.18 7.15 7.56 7.26 6.96 7.20 7.20 7.20 7.22 6.81 7.02 7.06 7.70 7.01 6.96 7.38 7.51 7.04 7.21 7.01 6.94 7.46 7.01 7.42 7.35 6.98 6.98 7.31 6.78 7.08 6.99 7.28 7.68 7.20 7.33 7.42 7.32 6.94 7.64 6.93 7.47 7.69 6.95 6.83 7.07 7.23 6.80 7.09 7.63 7.27 7.68 7.46 7.48 7.68 6.84 7.14 7.12 6.94 7.04 7.49 6.99 7.24 7.28 7.00 7.70 7.33 7.65 7.57 7.02 6.77 6.97 7.36 7.73 6.96 7.39 7.12 6.79 7.58 7.02 7.48 7.31 6.84 7.15 6.92 6.85 6.91 7.08 7.12 6.75 7.38 7.20 7.11 7.67 7.59 6.99 7.43 7.15 6.76 7.57 7.34 7.09 7.06 7.66 7.31 7.13 7.23 6.83 7.70 7.54 7.49 7.40 7.60 7.53 7.67 6.91 7.08 6.87 7.54 7.59 7.59 7.35 7.67 7.50 7.50 7.33 7.26 7.15 7.47 7.64 -9999 -9999 -9999 -9999 -9999 -9999 -9999 -9999 -9999 -9999 -9999 -9999 -9999 -9999 -9999 -9999
7.29 7.17 6.89 7.39 6.80 6.85 7.31 6.79 7.67 7.56 7.71 7.49 7.74 7.32 7.58 7.17 7.38 7.68 7.14 7.66 7.72 7.48 7.68 7.00 6.95 6.75 7.50 7.13 7.10 7.54 7.25 7.11 7.22 7.00 7.47 7.68 7.17 7.31 7.06 7.39 7.51 7.42 7.06 7.25 7.33 7.38 7.62 7.33 7.74 7.40 7.21 7.69 7.59 6.82 7.52 6.99 7.11 7.35 7.17 6.95 6.98 7.23 7.73 7.13 7.49 6.75 7.12 6.98 7.49 7.68 7.72 6.94 7.19 7.66 7.45 7.50 7.61 6.85 7.57 7.69 6.94 7.02 7.61 7.18 7.74 7.46 7.74 7.41 6.95 7.27 7.11 7.24 7.59 6.92 7.64 7.10 7.18 7.33 7.52 7.07 7.43 7.42 7.42 7.01 6.78 6.90 7.32 7.48 7.09 7.16 7.05 6.97 7.02 7.51 7.69 7.42 7.34 7.71 7.15 7.39 6.82 6.86 7.44 7.62 7.50 7.40 7.51 7.16 7.23 7.64 6.84 7.60 7.28 7.66 7.69 7.35 7.54 6.94 7.74 7.33 7.22 7.65 6.93 7.51 6.98 7.49 7.29 7.25 7.22 7.45 7.05 7.38 7.48 6.82 7.00 7.25 7.48 7.51 6.91 7.40 6.80 6.93 7.33 6.91 7.57 7.64 6.87 7.71 6.79 7.20 7.35 6.78 7.21 7.64 7.31 7.17 7.58 6.90 7.47 7.46 6.77 7.25 7.53 7.56 6.96 7.12 7.52 7.61 6.89 6.91 7.57 7.26 7.17 7.66 7.36 6.98 6.92 7.10 7.63 6.84 -9999 -9999 -9999 -9999 -9999 -9999 -9999 -9999 -9999 -9999 -9999 -9999 -9999 -9999 -9999
7.42 7.14 7.13 6.79 7.24 6.88 7.66 7.12 7.55 7.72 6.85 7.37 7.27 6.90 7.12 7.50 6.76 7.73 7.29 7.42 7.58 7.18 6.89 6.75 7.24 6.76 7.13 6.78 7.28 7.67 7.65 6.81 7.08 6.88 7.24 7.15 7.57 7.18 7.63 7.26 6.91 7.20 6.92 6.75 7.73 7.69 7.06 6.96 7.36 7.71 7.03 6.90 7.22 7.40 7.12 7.67 7.74 7.61 7.04 6.90 7.56 7.07 7.71 6.86 7.52 7.51 7.56 6.86 6.97 7.28 7.05 6.87 7.35 7.29 6.81 6.96 6.89 7.54 6.89 6.99 6.96 7.38 6.75 7.18 6.94 7.55 7.09 7.46 7.64 7.03 7.30 7.39 7.44 7.18 7.20 7.49 7.70 6.98 7.66 7.10 7.00 7.44 6.80 7.39 7.46 7.14 7.49 7.15 7.49 7.43 7.66 7.36 7.06 7.73 7.69 7.27 7.71 7.49 7.70 6.86 7.55 7.07 7.39 7.67 6.93 6.81 6.81 7.20 7.41 7.27 7.67 7.72 6.85 6.98 7.34 7.44 6.90 7.17 7.62 7.13 6.98 6.93 7.28 7.19 7.57 7.06 7.00 7.69 7.04 7.04 7.03 7.34 7.33 7.70 7.71 7.28 6.99 7.08 6.98 6.90 7.55 7.27 7.55 7.33 7.20 7.26 7.38 6.94 6.80 6.95 7.06 7.62 6.82 7.21 7.13 7.47 6.75 7.51 7.01 7.60 6.90 6.85 7.22 7.15 6.93 7.24 7.25 7.73 6.81 7.69 7.50 6.80 6.93 7.70 7.15 7.65 7.65 7.26 7.13 6.78 -9999 -9999 -9999 7.39 7.33 7.61 7.00 7.09 6.96 -9999 -9999 -9999 -9999 -9999 -9999
6.96 7.41 7.39 7.05 7.03 6.95 7.62 7.01 6.99 7.05 7.12 7.06 6.85 6.95 7.09 6.75 7.31 7.65 7.11 7.36 7.56 7.31 6.79 7.27 6.76 6.96 6.85 7.43 7.06 7.24 7.41 7.10 7.64 7.36 7.58 6.82 7.07 7.74 7.04 7.36 6.93 7.27 7.61 7.67 7.42 7.14 6.95 6.96 7.38 7.54 7.15 6.84 7.63 7.64 7.03 7.56 7.22 6.78 7.07 7.31 6.89 7.18 7.69 6.86 7.70 7.30 7.68 7.15 7.69 6.99 7.73 7.72 7.67 7.35 7.13 7.34 6.90 7.15 7.44 7.40 7.30 7.29 6.91 7.08 7.29 7.04 6.96 7.33 7.41 6.96 7.30 7.17 6.90 7.56 7.73 7.20 6.88 7.39 7.47 7.00 6.83 7.59 7.54 7.26 7.35 7.24 7.70 7.57 7.33 7.39 6.99 6.98 7.37 7.52 7.24 7.29 7.72 7.19 6.82 7.48 6.81 7.26 7.29 7.04 7.61 6.93 7.21 7.08 7.15 6.90 6.84 6.97 7.67 7.28 7.56 6.79 6.90 6.99 7.10 7.17 6.86 7.45 7.64 7.31 7.13 6.95 7.07 7.31 7.38 7.67 7.06 7.05 6.79 7.74 7.71 7.72 6.95 7.19 7.32 7.67 7.25 7.00 7.03 7.62 7.74 6.90 7.71 7.39 7.09 6.91 7.29 7.33 7.71 7.53 7.04 7.50 7.12 7.35 7.41 6.87 7.05 7.64 6.90 7.12 7.54 7.00 7.01 6.98 7.32 7.10 7.50 7.44 7.08 7.56 6.95 7.29 7.41 7.52 7.02 6.92 7.31 7.02 7.34 7.37 7.65 6.91 7.46 7.54 7.45 7.12 -9999 -9999 -9999 -9999 -9999
7.67 7.36 6.80 6.77 7.74 6.99 6.96 7.67 7.10 7.29 7.50 7.04 7.57 7.66 7.13 6.85 7.64 7.53 7.57 7.28 7.13 7.17 7.12 7.11 7.44 6.84 7.04 7.40 7.69 6.92 6.84 7.61 6.80 7.55 6.96 6.84 7.16 6.95 6.82 7.54 7.52 7.72 7.06 7.17 7.58 6.94 7.41 6.86 6.78 7.55 7.09 7.26 7.74 7.09 7.59 7.02 7.58 7.20 6.99 7.61 7.43 7.59 6.79 7.15 7.16 6.97 6.96 7.75 6.76 6.83 6.90 7.26 7.49 7.06 7.71 7.15 7.20 6.93 7.08 7.19 6.94 7.74 7.29 7.66 7.73 7.40 6.89 6.81 7.26 7.52 7.40 7.20 6.86 6.90 7.17 6.98 6.85 7.35 7.72 7.30 7.17 7.69 7.13 7.36 7.36 7.37 7.52 7.26 6.80 7.32 7.57 7.08 6.96 7.24 7.11 7.16 7.58 7.65 6.96 6.91 7.08 7.56 6.85 6.99 7.33 7.64 6.97 7.10 7.45 6.77 7.60 7.34 7.41 7.31 7.22 7.14 7.56 6.89 7.40 7.17 7.61 6.98 7.29 7.05 7.48 7.69 7.56 7.50 6.87 7.38 7.50 6.79 6.95 7.57 7.08 7.57 7.75 7.52 7.32 7.35 7.22 6.89 6.86 7.19 6.78 7.29 7.50 7.46 7.71 7.41 7.38 6.77 7.31 6.91 6.85 7.08 7.68 7.61 7.73 7.00 7.29 7.51 6.88 7.02 7.67 7.06 6.81 6.97 6.79 6.84 7.09 6.90 7.25 7.04 7.50 7.09 7.74 6.77 7.60 7.27 7.26 7.29 7.64 7.34 6.89 6.82 7.22 7.03 7.08 7.29 -9999 -9999 -9999 -9999 -9999
6.94 7.08 7.21 6.82 7.65 7.69 7.33 7.24 7.56 7.63 7.30 7.29 7.48 7.02 7.39 7.07 6.87 7.66 7.27 7.30 7.54 7.31 6.82 7.67 7.56 7.35 7.23 7.66 6.91 7.43 7.10 7.67 7.14 6.93 6.93 7.08 7.57 7.25 7.08 7.73 7.29 6.82 7.43 7.07 7.73 7.01 7.16 7.34 6.86 6.92 6.95 7.16 7.65 6.94 6.95 7.14 7.21 7.03 7.00 7.65 7.48 7.64 7.28 6.80 7.02 6.91 7.46 7.06 6.76 7.58 7.00 6.96 6.87 7.29 7.51 7.40 7.49 7.28 6.96 7.32 6.92 7.36 7.64 7.48 7.45 7.49 7.42 7.60 6.80 7.41 7.08 7.04 7.25 7.60 7.24 6.79 7.42 7.47 7.05 7.15 7.04 7.72 6.99 7.59 6.92 7.36 7.13 7.40 7.53 6.90 7.42 7.68 6.76 7.37 6.82 7.46 6.98 7.59 6.94 7.00 7.63 7.08 7.10 6.92 6.93 7.13 7.37 7.35 7.58 7.65 7.38 7.55 7.23 7.19 7.71 7.26 6.95 7.04 7.50 6.96 7.34 7.64 7.19 7.30 7.12 7.74 7.36 7.02 7.27 7.69 7.75 7.65 7.03 7.24 6.92 6.79 6.80 6.80 7.32 7.10 7.28 6.89 7.27 6.84 6.83 7.61 7.55 7.16 7.54 7.32 6.77 7.38 7.19 6.82 6.83 7.51 6.92 6.80 6.93 7.61 6.95 7.40 7.60 7.66 7.40 6.98 7.66 7.62 7.45 7.59 7.13 7.06 7.49 7.47 6.92 6.90 6.94 7.10 7.15 7.46 7.61 7.15 7.19 6.97 7.41 6.84 6.90 6.79 7.60 7.08 -9999 -9999 -9999 -9999 -9999
7.34 7.65 7.26 7.37 6.85 7.30 6.91 7.30 7.37 6.96 7.16 7.56 7.42 7.50 6.75 6.93 7.28 7.09 7.37 7.23 7.46 6.80 7.57 7.10 7.74 6.97 6.88 7.32 7.71 6.92 6.98 7.75 7.31 7.42 7.46 7.68 7.29 7.27 6.82 7.24 7.28 7.27 7.41 6.97 7.37 7.60 6.96 7.37 6.78 7.73 7.70 7.45 7.48 6.82 7.10 7.37 7.70 6.78 7.48 7.65 7.54 7.19 7.01 7.04 7.65 7.67 6.75 7.36 7.24 7.10 6.85 7.50 7.54 7.52 7.10 7.62 7.21 7.18 6.77 7.56 7.74 6.92 7.25 7.08 6.76 7.08 7.10 7.06 7.04 7.37 7.15 7.12 7.59 7.01 7.44 7.02 7.27 7.11 7.51 7.42 6.86 6.94 7.43 6.86 7.28 7.70 7.22 7.73 7.09 6.84 7.20 7.71 6.86 7.47 7.32 7.34 7.25 7.05 7.74 7.26 7.20 7.52 7.19 7.06 6.77 6.85 6.76 6.87 7.51 7.50 7.45 6.91 7.00 7.36 6.79 7.10 7.59 7.52 7.08 7.00 6.88 7.64 7.33 7.10 7.26 7.50 7.47 6.87 7.69 7.32 7.06 7.22 6.99 7.56 7.19 7.32 7.46 7.46 7.74 7.09 6.79 7.24 7.72 7.63 7.59 7.54 6.80 7.56 7.05 7.20 7.19 7.14 7.61 7.29 7.47 7.09 6.85 7.35 7.02 7.10 7.66 7.25 7.23 7.49 6.95 6.96 7.11 6.77 7.44 7.37 7.20 6.99 7.33 7.71 7.55 6.83 6.92 7.70 7.12 7.27 7.13 7.42 7.69 6.77 7.36 6.94 7.71 6.82 7.00 6.88 -9999 -9999 -9999 -9999 -9999
6.84 7.63 7.17 6.98 6.98 6.80 7.16 7.31 7.32 7.10 7.05 6.80 7.04 7.16 7.35 7.02 7.44 7.11 7.71 7.61 7.35 7.48 7.02 7.04 7.38 6.82 6.89 7.01 7.69 6.81 7.68 7.49 7.22 7.41 6.88 6.93 7.41 7.00 6.76 6.77 7.01 6.76 7.02 7.34 6.91 7.35 7.34 7.53 7.65 7.11 7.65 7.21 7.68 7.60 7.10 7.72 7.75 7.28 7.00 6.95 7.56 7.51 6.76 7.32 7.33 7.45 7.42 7.59 6.93 7.29 6.85 7.09 7.21 7.47 7.71 7.51 6.86 7.10 6.94 7.55 6.97 7.30 7.26 7.74 7.59 7.62 7.10 7.28 6.77 6.92 7.75 6.83 7.43 7.28 7.04 7.19 7.44 7.66 7.37 6.79 7.28 7.40 7.74 7.41 6.86 7.67 6.82 7.04 7.54 7.21 7.04 6.96 7.36 6.91 7.59 7.52 7.44 7.09 6.83 7.36 6.78 7.03 7.70 6.84 7.63 7.23 6.94 7.24 7.50 6.77 6.86 7.48 7.54 6.87 7.36 7.31 7.02 7.33 7.03 6.87 7.19 7.52 7.06 7.20 7.45 6.75 7.07 7.60 6.95 6.89 7.00 7.38 7.51 7.40 7.17 7.52 7.64 6.82 6.75 7.73 6.88 7.03 6.76 7.09 6.78 7.53 6.79 6.76 7.64 7.60 7.33 7.33 6.78 7.60 7.44 7.35 7.27 7.68 6.92 6.87 6.77 7.59 6.86 7.15 7.58 7.60 7.54 7.09 7.49 7.70 6.83 7.32 7.47 6.77 7.35 7.34 7.06 7.09 7.32 7.11 6.84 7.53 7.59 7.02 7.62 6.78 6.98 7.05 7.52 7.54 -9999 -9999 -9999 -9999 -9999
6.87 7.55 7.42 7.11 7.62 7.15 6.99 7.23 7.74 7.65 7.11 7.52 6.89 7.62 7.26 7.20 7.17 7.27 7.58 6.90 7.60 7.39 6.82 6.82 7.55 6.81 7.06 6.93 6.95 7.75 7.63 7.62 6.75 6.95 7.51 7.69 6.97 7.23 7.39 7.31 7.16 7.74 6.91 7.15 7.59 7.36 7.23 7.60 7.51 7.70 7.09 7.60 7.01 7.56 6.92 7.50 7.27 7.64 7.00 7.48 7.08 7.47 7.49 7.67 7.43 7.48 7.62 6.88 6.90 7.48 7.70 6.94 7.56 7.67 7.45 7.70 7.14 7.19 7.25 7.36 7.17 7.48 7.20 6.94 7.48 7.35 7.70 6.77 7.34 6.76 6.88 7.14 7.22 6.81 7.52 6.90 6.94 6.81 6.84 6.78 7.13 7.40 7.24 7.48 7.12 7.69 7.57 7.74 6.76 7.47 7.57 7.61 7.01 7.21 7.32 7.54 7.64 6.95 7.73 6.94 6.84 7.69 7.29 7.49 7.06 6.98 7.70 7.43 7.32 6.82 6.99 7.08 7.39 6.87 7.55 7.02 7.12 7.42 7.37 6.93 7.40 7.73 6.87 7.62 7.32 7.42 7.11 7.57 6.89 7.67 7.30 7.57 6.82 7.68 7.46 7.65 7.65 7.03 7.64 6.77 7.13 7.70 7.65 7.25 7.53 7.11 7.48 6.92 7.10 7.06 6.93 7.03 7.33 7.25 7.73 6.86 7.68 7.19 7.06 7.71 6.81 6.86 7.58 7.53 7.14 7.19 7.18 6.90 7.00 7.04 6.79 6.92 7.54 6.83 7.32 6.93 7.21 7.50 7.66 6.86 7.37 6.98 7.67 7.39 7.20 7.44 7.68 6.95 7.08 7.02 -9999 -9999 -9999 -9999 -9999
7.08 6.75 7.33 7.59 7.32 7.28 7.59 7.31 7.04 7.55 6.75 7.19 7.31 7.67 6.85 6.82 7.07 7.21 7.36 7.71 7.74 7.15 6.92 6.86 7.70 7.59 7.72 7.25 6.86 7.21 7.08 7.19 7.40 6.79 7.53 6.83 7.48 7.65 7.43 7.14 6.98 7.32 6.90 7.04 6.90 7.07 7.56 7.70 7.71 7.73 7.69 7.16 7.39 6.89 7.31 7.07 6.89 7.16 7.74 7.39 7.34 6.79 7.62 7.54 7.44 7.37 7.50 6.90 7.49 7.64 6.87 7.53 7.29 7.74 7.05 7.63 7.38 7.50 7.59 7.42 7.74 7.14 7.49 6.91 7.36 6.86 7.51 7.30 7.24 6.85 7.69 6.87 7.39 7.47 7.03 7.11 7.09 7.32 7.13 7.48 6.97 7.19 7.66 7.27 7.26 6.76 7.64 7.73 7.46 7.50 7.15 6.95 6.86 7.09 7.51 7.73 6.87 7.64 7.61 7.24 7.42 6.99 7.25 7.45 7.22 7.72 7.58 7.11 6.76 7.11 7.42 7.64 6.76 7.34 7.32 7.50 7.43 7.74 7.27 7.05 7.13 7.74 6.90 6.79 7.08 7.74 7.06 7.19 6.88 7.49 7.46 7.05 7.63 6.94 7.23 7.33 7.43 7.45 7.45 7.26 6.78 6.79 7.69 7.45 7.61 7.55 7.12 6.92 6.99 7.34 6.82 7.14 6.90 7.19 6.81 7.23 7.06 7.31 7.51 7.16 6.94 7.12 6.93 7.01 6.91 7.11 6.80 6.96 6.77 7.24 7.00 7.54 7.00 6.94 7.52 7.10 7.22 7.48 7.58 6.85 7.74 7.72 7.12 7.38 7.52 7.09 7.43 6.88 7.34 7.48 -9999 -9999 -9999 -9999 -9999
6.98 6.88 7.73 6.95 7.56 7.32 7.15 6.91 7.71 7.65 7.40 7.40 6.75 7.60 7.42 7.06 7.41 6.75 6.81 6.87 7.14 7.65 7.00 7.47 7.53 6.93 7.43 7.34 7.21 7.26 7.56 7.73 6.87 6.80 7.25 7.73 7.64 7.21 7.50 7.57 7.52 7.62 7.22 6.83 7.20 7.32 7.27 6.75 7.72 7.61 6.81 7.01 7.22 7.12 7.43 7.03 7.34 7.19 6.97 7.57 7.74 7.53 7.48 7.72 7.66 7.25 7.13 7.59 7.61 6.81 7.10 7.57 7.61 7.63 7.60 7.22 7.14 7.33 7.38 7.15 7.74 7.53 7.63 7.14 6.83 7.71 7.16 6.77 7.55 6.97 7.64 6.77 7.17 7.07 7.27 7.50 7.31 7.42 6.79 6.85 6.98 6.88 7.49 7.16 6.80 7.63 6.91 7.20 7.62 7.02 7.60 7.50 7.12 7.40 7.29 7.07 7.45 7.18 7.01 7.54 6.81 7.74 7.03 7.33 6.75 7.56 6.87 7.49 6.92 6.82 6.98 7.08 7.40 6.87 7.35 7.63 7.51 6.76 6.89 7.32 7.54 6.92 7.25 7.46 6.89 6.76 7.17 7.03 6.94 6.81 6.89 7.37 7.28 7.54 7.13 7.21 7.22 7.32 7.58 7.51 7.57 6.93 7.70 7.46 7.07 6.81 7.34 7.29 7.20 6.80 7.10 6.75 7.68 7.67 7.12 6.86 7.43 6.94 7.54 7.27 7.39 7.06 7.55 7.14 7.06 7.73 7.02 6.97 7.17 6.81 6.89 7.51 7.15 7.47 7.18 7.45 7.62 7.07 7.56 7.30 7.10 7.19 7.21 7.64 7.60 7.59 6.87 7.71 6.96 6.89 6.85 -9999 -9999 -9999 -9999
7.43 7.19 6.89 7.54 7.03 7.02 7.34 7.01 6.83 7.01 7.06 7.53 7.45 7.60 7.33 7.59 7.19 7.69 6.86 7.28 7.05 7.74 7.52 7.09 6.76 7.43 7.31 7.63 7.29 7.22 7.12 7.16 7.73 6.86 7.12 7.32 7.25 7.42 6.97 7.36 6.85 7.71 6.77 6.78 6.92 7.67 7.13 7.29 7.25 7.33 7.47 7.28 7.53 6.77 6.86 7.61 6.94 7.49 6.96 7.44 7.65 6.84 7.28 6.96 7.26 7.43 7.07 7.60 6.84 7.48 7.50 7.71 7.27 7.68 7.10 7.52 7.44 6.93 7.12 6.80 6.90 7.36 7.20 7.44 6.81 6.96 6.85 7.57 7.48 6.88 7.59 6.76 6.91 7.70 7.57 7.08 7.11 7.59 7.14 7.09 7.04 7.41 6.82 6.93 7.53 7.29 7.28 7.75 7.73 7.04 7.64 7.59 6.80 7.69 7.13 7.26 7.57 7.59 6.82 7.68 7.63 6.89 6.89 7.27 6.83 6.76 7.47 7.31 6.78 6.83 6.95 7.65 6.96 7.17 7.23 7.43 7.18 7.70 7.40 7.10 7.22 6.76 7.39 7.55 7.71 7.28 7.57 6.82 6.77 7.71 6.95 7.13 7.71 7.01 7.57 6.90 7.34 7.66 7.43 7.68 7.17 7.11 6.84 7.31 6.96 6.92 7.07 7.47 7.01 7.64 7.17 6.91 7.18 7.13 7.27 7.48 7.01 6.89 7.61 7.05 7.47 7.26 7.74 7.14 7.25 7.55 6.95 7.02 7.05 7.01 7.25 7.28 7.00 7.32 7.54 7.38 7.55 7.14 7.57 7.01 7.53 6.80 7.42 7.68 7.13 7.15 7.00 7.18 7.04 7.60 7.19 -9999 -9999 -9999 -9999
6.93 6.88 7.56 7.27 7.57 6.75 6.76 7.01 7.01 7.21 6.82 7.34 7.20 7.27 6.95 7.40 7.48 7.71 6.81 6.88 6.84 7.67 7.26 7.57 7.12 7.01 7.18 6.92 7.50 7.12 7.73 7.30 7.61 7.45 7.19 6.84 7.24 7.01 7.73 7.52 6.96 7.60 7.21 6.98 7.62 7.30 7.22 7.57 7.26 7.35 7.60 6.90 7.21 7.61 7.35 6.83 7.32 7.25 7.22 7.50 7.65 7.64 7.51 7.58 7.70 7.54 7.69 7.64 7.27 7.06 7.70 7.59 7.68 6.79 7.52 7.06 7.51 7.67 7.09 6.95 7.08 7.34 7.29 7.00 6.81 7.72 7.62 7.52 7.51 7.56 7.22 6.82 7.54 6.81 7.58 6.83 6.82 6.79 6.78 7.71 7.67 7.04 7.12 7.40 6.89 7.48 7.55 7.52 7.36 7.39 7.64 7.19 7.05 7.72 6.86 7.06 7.41 7.41 7.75 7.45 7.12 7.54 7.62 7.61 6.94 7.26 6.82 7.68 6.84 7.26 6.95 7.68 7.70 7.14 7.06 7.43 7.04 7.70 7.16 7.71 7.54 7.01 7.29 7.51 7.42 7.73 7.48 6.83 7.51 6.96 7.30 7.06 7.72 7.34 6.88 6.90 7.28 6.80 7.70 7.75 7.32 6.77 6.96 7.12 7.38 7.09 7.03 7.32 7.18 7.33 6.79 7.65 7.00 7.40 6.99 7.51 6.76 7.05 6.91 7.32 7.24 6.85 7.26 7.04 6.86 7.69 7.47 7.54 7.02 7.25 6.83 7.58 7.57 7.54 6.75 7.57 6.99 7.72 7.12 7.61 7.47 7.00 7.58 7.03 7.40 7.16 7.36 7.71 7.28 7.27 7.58 -9999 -9999 -9999 -9999
7.33 6.93 7.26 7.10 7.45 7.24 6.89 7.47 7.57 7.25 7.57 6.98 6.89 7.70 6.82 7.54 7.30 7.30 7.25 7.11 6.84 6.97 7.64 6.85 7.13 6.76 7.50 7.69 6.92 7.03 7.70 7.14 7.25 7.71 7.36 7.42 7.68 6.81 7.52 6.99 6.90 7.75 6.88 6.81 7.62 7.61 7.30 7.47 7.43 7.70 7.71 6.99 7.07 6.84 6.79 7.38 6.91 7.55 7.51 7.37 7.52 7.52 7.14 7.37 7.74 7.02 6.77 7.51 7.30 7.04 7.47 7.05 7.11 7.68 7.04 7.67 7.70 6.77 7.69 7.16 7.71 7.44 7.67 7.33 6.93 6.86 7.03 7.52 7.12 6.89 7.08 7.02 7.37 6.86 7.59 6.79 6.98 7.61 7.00 7.27 7.41 7.14 6.96 7.40 7.46 7.61 6.78 7.61 7.24 7.43 7.07 6.89 7.07 7.19 7.25 7.65 7.46 6.85 6.90 6.83 6.98 6.95 7.28 7.03 7.37 7.23 6.77 7.35 7.18 7.33 6.94 7.33 7.46 6.85 7.69 6.92 7.38 7.09 6.92 7.41 6.82 6.91 7.65 7.64 6.83 7.28 7.03 6.80 7.67 7.38 7.66 6.95 7.32 6.87 6.79 7.17 7.18 7.12 7.22 7.31 7.56 7.51 7.64 6.84 7.61 7.11 7.40 7.53 7.45 7.72 6.77 6.77 7.38 7.34 6.87 7.13 6.76 6.79 7.25 6.99 7.40 7.28 7.15 7.65 7.34 6.79 6.95 7.50 6.79 6.91 7.24 7.49 6.83 7.12 7.05 7.38 7.67 6.94 6.86 7.55 7.42 7.47 7.41 6.75 7.28 6.93 7.17 7.60 7.11 6.96 6.84 -9999 -9999 -9999 -9999
7.05 7.39 7.16 6.87 6.94 7.66 7.10 7.00 6.90 7.71 7.72 7.01 7.74 7.37 7.42 6.97 6.98 7.03 7.63 7.10 6.77 7.63 7.66 7.58 7.73 6.94 6.79 7.45 7.65 7.08 7.72 7.35 7.02 7.13 6.94 7.32 7.19 6.96 7.12 7.12 6.82 6.99 7.16 7.15 7.64 7.25 7.07 7.69 7.58 6.79 7.37 7.50 7.23 6.78 7.23 6.93 7.31 7.73 7.37 6.84 6.99 7.65 7.50 7.53 7.45 7.15 7.31 7.68 7.08 6.78 7.08 6.85 7.70 7.56 7.13 7.71 6.85 7.60 7.68 6.96 6.98 7.33 7.07 7.41 7.09 6.88 7.50 7.34 7.23 7.44 7.18 7.21 7.45 7.64 7.72 7.49 6.84 7.60 7.04 7.39 6.88 6.82 7.73 7.69 7.65 7.72 7.04 7.38 7.38 7.16 7.57 6.93 7.05 7.67 6.78 7.32 7.49 7.16 6.87 6.85 7.19 7.24 6.88 7.16 7.60 6.88 7.23 7.15 7.08 7.18 7.52 7.19 7.44 6.93 7.66 7.33 7.20 7.59 7.74 7.70 7.28 6.92 6.86 7.05 7.33 7.37 7.72 6.93 7.68 7.14 7.14 7.42 6.76 7.09 7.44 6.78 7.08 7.18 6.99 6.92 7.12 7.65 7.20 6.87 7.17 7.09 7.65 7.59 6.84 7.21 7.62 7.31 7.52 7.29 6.78 7.56 7.44 7.10 7.48 7.00 7.55 6.77 7.59 7.71 7.45 7.41 7.51 7.37 7.10 7.20 7.18 7.28 7.18 7.30 7.31 7.56 6.81 7.32 7.33 6.92 7.72 6.83 7.02 7.18 7.21 7.00 6.90 7.17 7.23 7.35 6.86 -9999 -9999 -9999 -9999
6.85 7.61 7.46 7.53 6.82 7.53 7.24 7.40 6.80 7.29 6.82 7.26 7.54 7.63 6.97 6.93 7.43 7.13 7.11 7.30 7.49 7.13 7.35 7.61 7.70 7.31 7.05 6.98 7.15 6.86 7.38 7.09 7.49 7.66 7.08 7.69 7.45 7.36 7.06 7.26 6.89 6.84 7.12 6.88 7.32 7.32 6.91 7.50 7.40 7.14 7.67 7.42 7.57 7.46 6.86 7.08 6.88 7.45 7.01 7.38 7.55 6.80 7.71 7.37 6.82 7.39 7.69 7.11 7.33 7.50 7.29 7.44 6.94 7.00 7.48 7.52 7.30 6.99 7.24 7.43 7.27 7.19 7.28 6.80 6.76 7.21 7.75 6.77 7.22 7.36 7.39 6.96 7.75 6.97 6.84 7.11 7.07 6.79 7.22 7.33 7.73 6.87 7.53 7.45 7.16 7.46 7.54 6.75 7.23 6.77 7.41 7.37 7.63 7.66 6.94 7.52 7.56 7.20 7.30 6.83 7.48 7.16 6.82 6.77 7.03 7.11 6.93 7.41 7.05 7.38 7.47 6.99 7.66 7.29 7.43 7.50 7.46 7.01 7.41 7.69 7.13 7.43 7.31 6.79 6.99 6.97 6.97 6.85 6.78 7.40 7.07 6.86 7.36 7.16 7.25 7.45 6.78 6.78 7.10 7.02 7.55 7.00 7.22 7.14 6.89 7.74 6.78 7.49 7.19 7.31 7.73 6.84 7.07 7.09 7.70 7.16 7.69 7.74 7.37 6.91 6.84 6.78 7.07 7.00 7.08 7.05 6.81 7.37 6.82 7.49 7.16 6.87 6.94 7.71 7.05 6.84 7.54 6.86 7.19 7.20 7.09 7.23 7.70 6.83 7.02 7.60 6.81 6.76 7.70 6.90 7.60 -9999 -9999 -9999 -9999
7.34 7.53 7.26 7.29 7.14 7.66 7.68 7.27 6.80 7.65 7.47 6.97 7.55 7.60 7.42 7.22 7.49 7.58 7.01 6.88 7.63 7.71 6.95 7.68 6.82 7.17 7.18 6.85 7.38 7.52 6.88 6.90 7.74 6.81 7.32 7.45 7.31 7.51 6.84 7.69 7.65 7.28 7.03 7.23 6.75 6.78 7.06 7.10 6.95 7.04 7.02 7.22 7.46 7.18 6.77 7.02 7.15 6.92 6.98 7.27 7.36 6.89 6.97 6.98 7.51 7.54 7.71 7.37 6.85 6.87 7.11 7.25 7.00 7.74 7.33 7.01 6.96 6.99 6.94 7.36 7.16 6.86 7.72 6.96 7.36 7.07 7.18 7.48 6.81 7.56 7.70 7.23 7.16 7.14 6.99 6.90 7.30 7.15 7.73 7.00 7.19 7.65 6.98 6.94 7.38 7.46 7.57 7.69 7.42 7.54 7.71 6.82 7.65 6.82 7.38 7.51 7.58 7.00 7.26 7.30 7.25 6.75 7.43 7.72 7.19 7.61 6.78 6.85 7.63 7.59 7.55 7.66 7.63 7.28 6.98 7.68 7.69 7.62 7.45 7.27 7.38 7.67 6.81 6.79 7.00 7.29 7.75 7.27 7.72 7.27 7.25 7.32 7.28 7.20 7.24 6.82 7.03 6.82 6.91 7.44 7.31 7.00 7.20 7.34 6.89 7.34 6.83 7.73 7.55 7.45 7.51 7.63 7.50 7.02 7.18 6.92 6.82 7.32 7.50 6.88 6.95 7.42 6.84 7.56 6.90 6.93 7.43 6.95 7.30 6.85 6.81 7.52 6.76 7.64 7.43 7.40 7.68 6.91 7.04 7.65 7.55 7.26 7.31 7.11 7.31 7.56 7.72 7.39 7.57 6.93 7.02 7.17 -9999 -9999 -9999
6.84 7.44 7.70 7.10 7.22 7.03 7.70 7.55 7.69 7.65 6.99 7.03 7.55 6.90 7.74 7.15 6.97 7.75 6.80 7.40 7.23 6.77 7.58 7.40 7.42 7.38 7.04 7.48 7.10 6.84 7.04 7.32 7.43 7.16 7.64 7.10 7.40 7.38 7.10 7.31 6.90 7.15 7.68 6.82 6.87 7.35 7.44 7.01 7.20 7.47 6.87 7.65 7.36 7.20 7.13 6.99 7.68 6.94 6.79 7.57 7.36 6.92 7.19 7.08 6.89 7.23 6.82 6.98 7.20 7.74 7.50 7.66 7.02 6.84 6.98 7.06 6.97 7.40 7.11 6.78 7.37 7.66 7.45 6.77 7.29 7.40 7.70 7.10 7.66 7.31 6.98 7.24 7.70 7.62 7.03 7.38 6.75 7.12 7.01 6.82 6.89 6.96 7.19 7.19 7.73 7.24 6.95 7.27 7.05 7.63 7.00 6.93 7.24 7.41 7.03 7.57 7.39 6.92 7.43 7.74 7.62 7.63 7.32 6.86 7.35 7.36 7.54 7.46 7.24 7.21 7.58 7.52 7.14 7.35 7.26 7.18 7.48 7.15 6.99 7.48 7.28 7.03 7.51 6.82 7.57 7.65 7.72 6.84 7.28 7.46 7.27 7.46 6.79 7.24 6.79 7.52 7.05 6.77 7.42 7.62 7.63 7.63 7.50 6.99 6.86 7.08 7.28 7.11 7.55 7.40 7.20 7.28 7.26 7.01 7.01 7.16 7.57 6.83 7.01 7.23 7.10 7.14 7.11 7.60 7.52 7.27 7.26 7.60 7.38 7.03 6.79 7.15 7.68 7.50 6.91 7.40 7.59 7.10 6.76 7.38 7.65 7.24 7.55 6.88 7.01 7.23 6.92 6.93 6.89 6.93 7.30 7.22 -9999 -9999 -9999
6.93 6.83 7.45 7.70 7.47 6.83 7.36 7.27 6.96 7.65 7.41 6.78 7.48 6.80 7.69 7.09 6.95 7.38 7.18 6.82 7.21 7.52 7.64 7.19 7.37 7.29 7.74 7.01 7.70 7.58 7.60 6.97 7.66 7.30 7.48 7.61 6.97 6.92 7.11 7.27 6.99 6.93 7.20 7.60 7.39 7.48 7.32 6.83 6.75 7.44 6.78 6.97 6.89 7.08 7.01 7.32 7.00 7.46 7.70 7.68 7.47 7.58 7.28 6.78 7.35 7.58 7.03 6.87 7.06 7.61 7.04 7.73 6.99 6.94 7.09 6.92 7.16 7.59 7.12 7.21 7.19 7.40 7.14 7.27 7.31 6.91 6.78 7.58 7.14 7.48 6.94 7.44 6.92 7.38 6.80 7.73 7.38 6.84 6.82 6.85 7.13 6.98 7.74 6.88 7.69 7.59 7.31 7.57 7.07 7.55 7.62 7.49 7.35 6.79 7.36 6.80 6.85 7.35 7.35 6.92 7.72 7.43 6.82 7.23 7.41 7.63 6.83 7.41 7.22 7.54 7.37 6.87 7.01 7.47 7.16 7.64 6.99 7.02 6.84 7.01 6.94 7.67 7.08 7.61 7.01 7.51 7.69 7.66 7.07 7.56 7.17 7.03 7.30 6.87 6.87 7.29 6.86 7.65 6.99 7.32 7.09 7.54 7.75 7.22 6.87 7.72 6.85 6.96 7.27 7.41 6.84 7.03 7.29 7.20 7.41 7.61 7.49 7.38 7.04 7.03 7.60 7.51 7.36 7.68 7.73 7.59 7.00 6.78 7.40 7.43 6.76 7.11 6.82 7.14 7.40 6.85 7.23 7.32 7.65 6.77 7.59 6.82 6.85 7.48 7.60 6.97 7.12 7.40 7.04 7.06 7.10 7.50 -9999 -9999 -9999
7.50 7.03 7.57 7.38 7.68 6.77 7.20 7.16 7.32 7.12 7.06 7.65 7.46 7.33 6.80 6.96 7.69 6.92 7.00 7.73 6.85 6.79 7.71 6.99 6.96 6.84 7.31 7.52 7.02 7.04 6.97 7.34 6.82 6.87 6.93 7.18 7.69 7.20 6.91 6.81 6.82 6.84 7.08 7.27 7.61 7.03 7.69 7.49 7.62 7.70 7.12 7.24 7.08 7.72 6.98 7.69 7.36 7.56 6.89 6.95 6.97 7.28 6.90 7.08 7.37 7.08 7.59 6.87 6.94 7.37 7.13 7.26 7.33 7.33 7.04 7.72 7.01 7.29 7.32 7.31 7.17 6.84 7.16 7.55 6.98 7.14 7.20 7.14 6.94 6.80 7.67 7.03 7.53 7.60 7.65 7.41 7.73 7.64 6.99 7.57 7.59 6.86 7.56 7.28 7.34 7.04 6.76 7.06 7.40 7.37 7.12 7.58 7.09 7.46 6.84 7.51 7.31 7.17 7.48 7.20 7.06 7.73 6.77 7.72 7.30 7.32 7.61 6.94 7.66 7.01 7.50 6.90 7.27 6.83 6.85 7.39 7.67 7.32 7.23 7.31 7.48 6.97 7.48 7.04 7.28 7.51 7.20 7.08 7.38 7.27 7.07 6.75 7.05 7.37 7.37 7.70 7.70 7.72 7.23 7.24 6.97 7.67 7.01 7.71 7.38 6.81 6.96 7.07 7.43 6.88 7.75 7.57 6.84 6.75 6.96 7.65 6.97 7.64 7.64 7.16 7.41 7.42 7.64 7.13 7.66 7.07 7.48 7.28 7.33 7.58 7.69 7.17 7.28 7.54 7.12 6.91 7.23 7.14 7.09 7.10 7.37 7.54 7.62 7.65 6.76 7.31 7.46 7.05 6.89 6.92 7.34 7.21 -9999 -9999 -9999
7.11 7.03 7.47 7.17 7.46 7.54 6.87 7.24 7.64 6.78 7.72 7.10 7.20 7.11 6.93 7.47 7.57 7.40 6.90 7.61 7.60 6.79 7.33 7.17 7.37 7.22 7.72 7.58 7.62 7.52 7.16 6.80 7.37 7.02 6.90 7.35 7.07 7.40 7.58 7.49 7.00 7.42 7.18 7.34 7.17 6.89 6.87 7.66 7.61 7.00 6.87 7.65 7.66 6.94 7.34 7.40 6.87 7.13 7.47 7.30 7.15 7.22 7.53 6.83 7.65 7.11 7.58 7.45 7.26 7.12 7.44 7.31 6.89 7.23 7.14 7.18 6.93 6.95 7.66 6.95 7.46 7.31 7.24 7.35 7.28 7.54 7.21 7.33 6.95 7.39 6.84 6.88 6.99 7.06 7.26 6.79 7.31 7.07 7.58 7.44 7.59 6.99 7.14 7.47 7.55 7.36 7.07 7.51 7.02 7.59 7.38 7.37 7.41 7.53 7.73 7.55 7.11 7.68 7.52 7.68 7.71 7.59 6.84 7.03 7.17 7.09 7.30 6.84 7.49 6.86 7.23 6.83 7.13 7.13 7.40 7.52 7.23 7.10 7.50 7.39 7.35 6.80 7.02 7.01 7.45 7.37 7.38 7.44 7.46 7.02 7.63 7.53 7.62 7.08 7.02 7.54 7.72 7.20 6.87 7.60 7.32 7.75 6.95 7.05 7.73 7.40 7.15 6.78 7.73 7.16 7.53 7.74 7.05 6.98 6.78 6.86 6.90 6.90 7.72 6.90 7.28 7.03 7.66 6.90 6.77 7.59 7.01 6.83 7.47 6.79 7.54 7.59 7.65 7.25 7.37 7.18 7.21 6.85 7.43 7.24 7.43 7.47 7.18 7.57 7.65 7.47 7.10 6.75 7.65 6.91 7.37 6.91 -9999 -9999 -9999
7.50 7.45 7.26 6.94 6.81 7.46 6.90 7.07 6.81 7.35 7.67 6.88 7.08 7.58 7.45 7.25 6.91 7.49 7.60 6.80 7.57 7.45 6.93 7.24 7.00 7.60 6.85 7.58 6.82 6.86 7.23 7.11 7.20 6.79 7.13 7.26 7.72 7.53 6.89 6.88 7.31 7.45 6.80 7.46 7.19 7.48 7.08 7.04 7.36 7.44 7.71 6.83 7.00 7.23 6.90 6.96 7.39 7.03 7.46 6.96 7.00 6.83 7.20 6.86 7.25 7.04 7.72 6.85 7.75 7.74 7.29 7.32 7.46 7.34 7.62 6.78 6.97 7.02 6.81 7.30 6.76 7.34 6.97 7.20 6.89 7.53 6.99 6.84 7.54 7.62 7.55 7.20 6.80 7.58 6.83 6.91 6.81 7.04 7.34 6.94 7.12 7.11 7.20 7.02 7.14 7.13 6.82 7.74 6.81 7.52 7.47 7.57 7.69 7.65 7.37 6.78 6.91 7.35 6.76 7.15 7.45 6.81 6.81 7.46 6.97 7.14 7.40 6.85 7.66 7.11 7.09 7.56 7.70 7.06 7.44 7.60 6.75 6.94 7.54 6.81 7.39 7.44 7.40 7.67 7.02 6.84 6.75 7.26 7.22 7.45 7.47 7.45 6.88 6.99 7.36 7.72 7.71 7.67 6.81 7.04 7.58 7.64 7.62 7.17 7.49 7.30 6.89 7.72 7.44 7.35 6.79 6.96 6.75 7.19 7.74 7.10 7.42 7.53 6.91 7.56 7.60 7.68 7.34 7.37 7.02 7.07 7.20 7.09 6.99 7.47 6.92 7.18 7.70 7.43 6.89 7.68 7.01 7.30 6.89 6.93 7.34 7.35 7.60 7.67 7.67 7.44 7.43 7.44 7.22 6.78 6.75 6.89 -9999 -9999 -9999
6.79 7.19 7.36 6.87 7.63 6.97 6.98 7.67 6.80 7.55 7.16 7.61 7.54 7.52 7.09 6.82 7.39 7.60 7.11 6.91 6.91 7.70 7.56 7.74 7.46 7.59 7.69 7.27 7.16 7.60 7.48 7.67 7.17 7.45 7.04 7.12 7.45 7.28 7.44 7.47 6.76 7.52 6.89 7.49 7.26 6.85 7.28 7.40 7.63 6.89 6.92 6.98 7.60 7.56 7.00 6.81 7.50 7.50 7.07 7.74 7.37 6.89 7.31 7.02 7.08 6.78 7.32 6.99 7.38 7.43 7.52 7.18 7.45 6.95 7.11 6.88 7.19 7.28 7.63 6.97 6.90 7.47 7.42 6.98 7.70 7.17 7.55 7.31 6.82 7.22 7.10 7.46 7.41 6.83 7.28 6.93 7.73 7.10 7.50 7.25 6.89 7.62 7.24 6.84 7.40 7.73 7.17 7.46 6.89 7.22 7.19 7.12 7.55 6.88 7.55 7.30 6.96 7.39 6.87 7.35 7.54 6.84 7.64 6.75 6.76 7.41 7.24 7.30 7.19 7.19 7.41 7.03 6.86 7.18 7.36 6.90 7.15 7.29 7.20 7.68 7.01 7.09 7.05 7.39 6.85 7.43 7.01 7.31 6.77 7.73 6.78 6.88 7.51 7.14 7.10 7.59 7.62 7.22 6.79 6.79 7.31 7.10 7.32 7.60 7.05 7.22 7.02 7.45 7.59 7.35 7.50 6.95 7.22 7.53 6.78 6.91 7.60 7.21 6.87 7.48 6.79 7.25 6.90 6.88 7.52 7.68 7.02 7.02 7.63 7.14 6.85 7.10 6.93 6.87 7.66 6.80 6.81 7.14 7.35 7.60 7.73 6.89 6.99 7.12 6.85 7.57 7.18 7.31 7.41 7.56 7.26 7.70 6.84 -9999 -9999
7.50 7.32 7.67 7.44 7.69 7.68 7.06 7.47 7.48 7.70 7.56 7.34 6.93 7.22 7.14 7.29 6.98 7.56 7.54 7.10 7.35 7.61 7.29 7.24 7.54 7.43 7.34 7.05 7.18 7.39 7.59 6.86 6.83 7.47 7.66 7.38 7.68 6.90 7.21 7.22 6.92 6.78 6.88 7.50 6.99 7.50 7.48 7.20 7.07 7.04 7.09 7.05 7.66 7.17 7.43 7.39 7.02 6.76 7.36 6.80 7.51 7.64 7.46 6.85 6.83 6.76 7.60 7.29 6.77 7.19 7.67 7.49 6.89 7.18 6.93 7.43 7.19 7.10 7.10 6.81 7.07 6.78 7.59 7.23 6.81 6.88 6.86 7.06 7.15 7.42 7.60 7.63 6.90 7.58 7.72 6.85 7.01 7.46 7.51 7.32 7.19 7.47 7.15 7.70 7.41 6.84 7.28 6.81 7.55 7.70 7.35 7.15 7.01 6.86 7.27 7.38 7.32 6.87 7.54 7.09 6.93 7.19 7.10 6.94 6.78 7.19 6.93 7.00 7.55 7.22 6.77 6.75 7.52 6.97 7.62 7.66 7.44 7.52 7.34 7.73 7.36 7.50 7.48 7.25 7.56 7.51 7.26 7.41 7.38 7.72 7.22 7.04 7.08 7.46 6.88 6.79 6.94 7.63 7.40 7.13 7.52 6.99 7.31 7.36 7.52 7.71 7.54 6.88 7.10 7.45 7.06 7.54 7.57 7.53 6.80 6.90 7.25 7.10 7.69 7.47 7.52 7.47 7.21 7.38 7.21 6.84 7.35 7.20 7.65 7.14 7.49 7.68 7.25 7.29 6.79 7.23 7.07 7.06 7.15 7.49 7.65 7.70 7.45 6.75 7.35 7.57 7.13 7.73 6.96 7.19 7.29 7.11 7.38 -9999 -9999
6.85 7.59 7.44 6.99 6.89 6.82 7.57 7.36 6.87 6.88 7.63 7.36 7.71 7.34 7.49 7.05 7.50 7.10 7.08 6.96 7.47 7.31 7.40 7.29 7.47 7.51 7.05 6.86 6.89 7.20 7.35 7.37 7.32 7.58 7.19 7.53 6.85 7.64 7.01 7.33 6.77 6.89 7.29 7.09 7.17 6.81 7.33 7.31 6.89 7.66 7.58 6.94 7.32 6.97 7.73 7.47 7.69 7.38 7.22 6.76 6.90 6.91 6.85 7.34 7.01 6.83 6.97 7.24 6.95 6.95 7.37 7.32 7.58 7.45 7.37 7.47 6.94 7.04 7.33 7.03 7.72 7.48 7.45 7.06 7.01 7.30 7.36 6.96 7.39 7.67 6.86 7.04 7.48 6.79 7.61 6.79 7.07 6.79 7.09 7.12 7.70 7.45 7.57 7.62 7.14 7.47 6.81 7.69 7.48 7.28 6.84 6.90 7.34 7.13 7.63 6.88 7.47 7.25 7.08 6.96 7.49 7.24 6.76 6.90 6.94 7.35 7.26 7.13 7.47 7.40 7.36 7.41 7.40 7.26 7.46 7.14 6.80 7.62 7.68 7.45 7.49 7.13 6.75 7.55 7.22 6.76 6.80 7.70 6.98 6.92 6.78 7.36 7.38 6.99 7.35 7.38 7.73 7.32 7.35 7.05 7.07 7.58 7.18 7.59 6.84 6.79 6.85 6.87 7.42 6.90 7.60 7.15 7.45 7.71 7.21 7.03 7.04 6.81 7.49 6.81 7.34 6.87 7.61 7.32 7.15 7.54 6.87 6.97 7.07 6.94 7.68 7.25 7.55 7.01 6.93 6.91 7.58 7.39 6.85 7.14 6.87 7.39 6.89 7.75 7.11 7.04 7.25 6.85 7.54 7.01 7.36 7.02 6.92 -9999 -9999
6.83 6.91 7.22 7.61 7.11 6.88 7.49 7.08 7.20 7.14 7.09 7.12 7.39 7.36 7.30 7.44 6.92 7.35 7.32 7.38 6.96 7.12 7.29 7.44 7.66 7.35 7.68 7.34 7.54 7.15 7.65 7.25 7.50 7.14 7.54 7.44 7.18 7.20 7.00 6.82 7.23 7.36 7.06 7.20 7.20 7.49 7.15 7.67 7.52 7.47 7.13 7.00 6.94 6.77 6.95 7.19 7.14 7.12 7.19 7.23 7.03 6.92 7.39 7.01 7.74 7.73 7.54 7.39 6.78 7.56 6.92 7.67 7.36 7.05 7.54 6.75 7.73 7.45 7.51 6.98 7.67 7.21 7.50 7.63 7.35 7.07 7.72 7.33 6.80 7.67 7.29 6.91 6.78 7.12 7.23 7.50 7.49 7.45 7.17 7.48 6.79 7.05 7.48 6.90 7.21 7.48 7.23 6.76 6.83 7.49 7.30 7.59 6.95 7.58 7.01 6.94 6.99 7.31 6.84 7.50 6.90 7.00 6.89 7.22 7.65 7.20 7.59 7.68 6.84 7.02 6.75 7.37 7.24 7.02 7.22 7.08 7.08 7.22 6.87 7.46 7.58 6.80 6.88 7.51 6.80 6.91 7.10 6.79 6.93 7.71 7.73 6.77 6.77 7.14 7.67 7.17 6.81 7.45 7.23 7.11 7.23 7.71 7.69 7.04 7.31 7.52 6.86 7.44 6.77 7.64 7.66 7.30 7.18 7.22 7.42 7.39 7.06 7.54 7.22 6.88 7.74 7.64 7.73 7.57 6.99 6.94 7.47 6.93 7.13 7.01 6.93 7.09 7.47 7.57 6.77 7.72 7.01 7.68 7.26 7.63 6.77 7.47 7.38 6.85 6.87 7.08 6.99 7.02 6.77 6.85 7.41 7.64 7.32 -9999 -9999
7.70 7.46 7.09 7.10 7.65 6.84 7.19 7.17 7.48 7.70 7.35 7.20 7.62 7.52 6.92 6.86 7.74 6.82 7.41 7.04 7.01 7.69 6.86 6.87 7.74 6.88 7.35 6.88 7.73 6.75 6.79 6.89 6.76 7.60 7.41 7.51 7.32 7.71 7.37 7.45 7.08 7.29 7.75 7.47 7.58 7.33 6.88 7.70 7.11 7.44 6.97 7.33 7.12 7.30 7.19 7.07 7.23 7.40 6.98 7.18 7.28 7.30 7.61 7.33 7.36 7.53 7.41 7.74 6.95 6.93 7.46 7.24 6.96 6.86 7.56 7.04 7.34 7.68 7.46 6.79 7.66 7.17 7.27 6.83 6.88 6.85 7.45 7.25 7.60 7.51 7.61 7.20 7.75 7.49 7.24 7.34 7.40 7.18 7.47 7.52 7.18 6.80 7.57 7.72 7.43 6.85 7.23 7.51 6.82 6.97 7.71 7.52 7.67 6.83 7.34 7.47 7.09 7.02 7.60 7.05 7.30 7.35 7.68 6.80 7.44 6.99 6.96 7.56 6.92 7.37 7.11 6.91 7.25 7.01 6.96 7.59 7.04 7.24 7.41 7.67 7.73 7.03 6.90 7.60 7.44 7.32 6.81 7.63 6.81 6.81 7.62 6.85 7.07 6.81 7.51 7.69 7.13 7.05 7.63 7.74 7.25 7.41 7.56 7.41 7.07 6.92 7.22 6.96 7.75 7.04 6.85 7.18 7.03 7.37 7.64 6.76 6.79 7.01 7.22 6.80 7.56 6.82 7.45 7.41 7.53 6.84 6.97 7.28 6.85 7.34 7.02 7.10 7.57 7.06 7.18 7.24 7.60 6.98 7.31 7.55 7.32 7.60 7.67 7.60 7.50 6.91 6.81 7.19 7.64 7.31 6.86 7.56 7.31 -9999 -9999
7.59 7.09 7.39 7.09 6.81 6.85 7.33 7.07 7.51 7.73 6.99 6.98 7.00 7.22 6.75 7.59 7.38 7.51 7.70 7.39 6.91 7.09 6.84 6.83 6.94 7.19 7.48 7.27 7.70 6.96 7.04 6.97 6.93 6.80 7.64 7.29 7.19 7.14 7.23 7.12 6.76 7.43 7.65 7.12 7.20 7.36 7.61 6.95 6.92 7.45 7.13 7.23 7.53 7.72 7.19 7.09 7.61 7.43 7.51 7.53 6.94 7.48 7.18 6.95 7.70 7.04 7.73 7.62 7.18 7.37 7.12 6.98 7.06 7.72 7.03 7.12 7.53 7.19 6.98 7.65 7.17 6.94 6.83 7.70 7.19 7.73 7.34 6.83 7.55 7.42 7.30 7.65 7.04 7.12 7.20 7.29 7.75 7.47 7.15 7.58 6.99 7.35 7.70 7.48 7.09 7.28 7.04 6.83 7.53 7.35 6.85 7.03 7.03 7.02 7.52 7.37 7.48 6.97 7.34 7.36 7.61 7.01 7.41 6.89 7.44 7.01 6.81 7.63 7.08 7.73 7.46 7.17 7.61 7.71 7.34 7.66 7.33 7.65 7.10 7.39 7.47 6.96 7.69 7.30 7.71 7.60 7.19 7.33 7.55 7.41 6.79 7.13 7.58 7.55 7.11 6.77 7.09 7.67 7.63 7.51 6.75 6.75 7.53 7.53 7.73 6.86 7.59 7.59 7.06 7.21 7.44 7.64 7.00 6.91 6.75 7.37 7.62 6.85 7.25 7.63 6.88 6.78 7.27 7.56 7.37 7.57 6.95 7.41 7.40 7.41 6.91 7.44 7.21 6.89 7.27 6.81 7.58 7.18 7.69 7.40 6.96 7.73 6.98 7.31 7.04 7.45 7.66 7.67 6.89 6.86 7.49 7.62 7.11 -9999 -9999
7.32 7.36 7.67 7.57 7.61 7.37 7.64 7.04 7.04 7.13 7.52 7.23 6.82 7.29 7.60 7.18 7.18 7.49 7.18 7.68 7.57 6.83 6.75 6.96 7.07 7.36 7.16 7.28 7.64 7.53 7.50 7.13 7.03 7.67 6.92 7.57 7.31 7.72 7.06 7.51 7.68 7.45 7.61 7.27 7.43 6.93 7.06 7.51 7.32 6.88 7.58 6.75 6.77 6.80 7.51 6.79 7.46 7.48 6.86 7.39 7.22 7.44 7.41 7.38 6.77 7.49 7.34 7.24 7.07 6.91 7.41 7.35 7.18 6.86 7.26 6.97 6.91 7.09 6.97 7.53 7.51 7.11 7.00 7.51 7.52 6.78 7.51 7.52 7.21 7.51 7.35 6.89 7.37 7.58 7.73 7.47 7.61 7.36 7.02 6.86 6.97 7.06 7.28 7.38 7.67 7.17 7.15 7.05 6.98 7.05 7.08 7.48 6.82 7.03 7.35 7.49 7.44 6.80 7.25 6.82 6.91 6.75 7.07 7.63 7.69 7.01 7.16 7.32 7.22 7.64 7.36 7.46 7.15 6.83 7.63 6.77 6.92 7.33 6.93 7.62 7.34 7.10 7.38 7.61 6.94 7.69 7.50 7.14 7.60 7.19 6.80 7.23 7.04 7.64 6.81 7.74 6.98 6.98 7.61 7.44 7.04 7.13 6.92 7.69 7.51 7.38 7.59 7.04 7.66 7.06 7.54 7.75 6.97 7.59 7.04 7.40 7.47 7.34 6.85 7.13 6.85 6.81 7.40 6.93 6.78 7.19 7.19 6.93 7.35 7.71 7.65 7.75 7.52 7.55 7.70 6.87 6.79 7.41 7.27 6.84 7.05 7.55 6.98 7.20 7.43 7.17 6.90 7.64 7.60 7.18 6.83 6.98 7.37 -9999 -9999
7.43 7.13 6.87 7.62 7.06 7.38 7.50 6.93 7.62 7.52 6.82 7.70 7.54 7.63 7.20 7.68 7.22 7.42 7.42 7.44 7.09 7.75 7.44 6.78 6.82 7.63 7.70 7.00 6.90 7.05 7.73 7.04 7.12 6.75 6.81 7.27 7.11 7.52 7.58 7.18 7.39 7.15 6.84 7.37 6.94 6.94 6.93 7.14 6.82 7.41 7.35 6.93 7.43 6.93 7.29 6.81 7.72 7.19 7.53 7.14 7.70 7.43 7.16 7.24 6.83 6.80 7.48 7.44 7.09 7.35 6.87 6.84 7.43 6.79 6.91 7.50 7.53 7.27 7.23 7.50 7.68 6.85 7.24 7.06 7.55 7.34 7.18 7.47 7.26 6.75 7.72 7.07 7.49 7.31 7.63 7.12 7.38 7.75 7.59 7.74 7.08 7.44 7.58 7.42 6.83 7.69 7.05 7.59 6.91 7.19 7.32 7.05 7.32 6.77 6.92 7.13 6.80 7.34 7.00 7.31 7.13 7.49 7.35 7.30 7.44 7.56 7.37 7.05 7.66 7.40 6.94 7.50 7.64 7.61 7.54 6.95 7.64 7.47 7.29 7.39 7.37 6.90 7.20 7.19 7.15 7.24 7.32 7.09 7.05 7.70 7.09 7.54 6.77 7.33 7.31 7.13 7.57 7.57 7.10 7.67 6.78 6.84 7.37 7.14 7.01 7.30 7.54 6.89 7.35 7.64 7.01 7.52 7.23 7.13 7.51 7.44 6.81 7.29 7.07 7.28 7.10 7.45 7.74 7.26 7.25 6.92 7.40 6.92 6.91 7.47 6.90 7.71 7.18 7.20 7.47 7.24 7.49 7.34 7.29 7.52 7.53 7.37 6.92 7.60 7.37 7.28 6.92 7.41 7.16 7.07 7.37 -9999 -9999 -9999 -9999
7.13 6.95 6.82 6.86 7.41 7.56 7.71 7.13 6.87 7.19 7.45 7.39 7.62 7.34 7.30 7.03 6.78 7.52 7.54 6.97 6.82 7.07 7.70 7.28 7.73 6.83 7.13 6.79 6.79 7.18 7.26 7.35 6.97 7.34 7.72 6.88 6.93 7.19 6.94 6.85 7.63 7.43 7.03 7.11 7.49 6.85 7.37 7.40 7.31 6.94 6.92 6.86 7.26 7.19 7.54 7.19 7.00 6.99 7.10 7.35 7.13 7.68 7.56 6.85 7.49 7.15 7.07 7.19 6.78 7.35 7.54 7.11 6.87 7.08 7.30 6.78 6.89 7.36 7.47 7.27 7.01 6.90 7.02 6.92 7.40 7.55 6.93 7.74 7.09 7.04 7.47 7.56 6.91 7.63 6.93 7.28 7.14 6.93 6.98 6.95 6.93 7.40 7.41 7.05 7.56 6.87 6.78 6.89 7.35 7.46 7.08 7.15 7.22 7.56 6.85 6.99 7.49 6.80 6.84 6.84 7.65 7.00 7.73 7.00 7.20 7.06 7.32 7.72 6.93 7.72 7.52 7.40 7.74 7.70 6.87 6.80 7.36 7.52 7.46 7.74 6.83 7.06 7.57 7.74 7.31 7.54 7.12 7.34 7.22 6.87 6.86 6.94 7.64 6.76 7.74 7.46 7.68 7.47 6.80 7.53 7.32 7.48 7.68 7.11 7.08 7.49 7.15 7.31 6.79 7.11 7.12 7.74 7.39 6.99 6.93 7.08 7.67 7.22 7.08 6.82 6.97 7.54 7.59 7.66 7.64 7.62 7.16 7.24 7.35 7.48 7.30 7.61 7.12 7.46 7.21 7.24 6.86 7.14 7.58 7.71 7.14 6.91 6.81 7.68 -9999 -9999 -9999 -9999 -9999 -9999 -9999 -9999 -9999 -9999 -9999
7.41 7.25 7.15 7.36 7.73 7.32 7.11 7.26 6.85 7.52 7.18 6.90 7.64 6.96 6.90 7.44 7.16 7.21 7.33 7.50 7.17 7.65 7.61 7.59 6.84 7.42 7.61 7.17 6.85 7.54 7.12 7.28 6.76 7.59 6.94 7.02 6.91 6.75 6.93 7.61 6.85 7.17 6.77 7.47 7.66 7.61 7.26 7.07 7.48 7.62 7.66 7.33 6.96 7.50 7.59 7.05 7.62 6.83 7.03 7.49 7.41 7.73 7.62 7.04 6.76 7.58 7.04 7.10 6.87 7.29 7.59 7.60 6.76 7.33 6.81 6.88 7.52 6.91 6.92 7.53 7.57 7.58 7.43 7.62 7.65 7.36 7.53 6.75 7.53 6.96 7.02 7.10 7.68 7.05 7.36 7.27 7.43 7.01 7.42 7.45 7.12 7.75 6.85 7.50 7.05 7.46 7.26 6.88 6.99 7.72 7.61 7.60 6.99 7.33 6.87 6.89 7.49 7.51 6.89 7.09 6.94 7.50 7.37 7.37 7.14 7.05 7.69 7.66 7.45 7.62 7.33 7.63 7.69 7.02 7.13 7.22 7.39 7.29 7.43 6.92 7.45 7.67 6.92 7.69 7.00 6.76 7.48 6.99 7.42 7.71 6.87 7.71 7.00 7.30 6.98 7.73 7.57 7.41 7.36 7.72 7.60 6.80 7.01 7.71 6.98 7.54 7.40 7.12 7.74 7.29 7.48 7.56 7.57 7.55 6.86 7.58 7.44 7.29 7.19 7.04 7.23 7.38 7.41 7.16 7.39 7.37 7.37 7.48 6.89 7.14 7.55 7.09 7.37 6.87 7.40 7.34 7.72 7.73 -9999 -9999 -9999 -9999 -9999 -9999 -9999 -9999 -9999 -9999 -9999 -9999 -9999 -9999 -9999 -9999 -9999
7.55 7.35 6.89 7.65 7.13 7.72 6.78 7.71 7.56 7.71 7.55 7.54 7.44 7.28 7.69 7.19 7.45 7.46 6.97 7.55 7.38 7.70 7.71 7.35 7.34 7.47 6.87 7.36 7.64 7.20 7.69 7.36 7.43 7.12 7.64 7.17 7.64 7.43 7.74 7.28 7.52 7.17 7.06 7.51 7.25 6.84 7.52 7.67 6.95 7.16 7.06 7.57 6.92 7.28 7.22 7.07 7.53 6.86 7.42 7.30 6.95 7.75 7.54 7.01 7.53 7.07 7.51 6.94 6.88 7.35 7.54 7.34 6.96 7.64 7.36 6.98 7.01 7.41 7.34 7.62 6.79 6.92 7.01 7.21 7.72 7.45 7.03 7.69 7.25 7.45 6.76 7.41 7.41 7.40 7.21 7.12 6.89 7.33 7.19 7.45 7.73 7.12 6.85 7.36 6.84 7.30 7.60 7.34 6.79 7.47 7.47 7.65 6.85 7.60 6.91 7.60 7.48 7.21 7.20 7.73 7.73 7.64 7.07 6.93 7.29 7.23 7.01 7.36 7.38 7.22 7.37 7.47 7.54 6.78 7.26 6.99 7.55 6.83 7.46 6.89 7.54 7.45 7.64 7.04 6.83 7.61 7.69 7.53 7.32 7.42 6.90 7.22 7.46 6.81 6.82 7.41 7.66 7.05 7.37 7.20 7.47 7.15 7.05 6.87 7.17 7.12 7.70 7.60 7.26 6.86 7.13 7.69 7.05 7.14 7.02 7.46 7.21 6.87 7.39 7.53 6.87 6.97 7.04 7.17 7.40 7.39 7.49 7.71 7.75 7.41 7.18 -9999 -9999 -9999 -9999 -9999 -9999 -9999 -9999 -9999 -9999 -9999 -9999 -9999 -9999 -9999 -9999 -9999 -9999 -9999 -9999 -9999 -9999 -9999 -9999
7.35 6.84 7.05 7.05 7.12 6.76 7.35 7.40 6.83 7.03 7.65 7.35 7.40 7.28 7.66 7.64 7.04 6.76 7.47 6.98 7.16 6.76 7.15 7.64 7.35 7.23 7.54 7.21 7.25 6.95 7.35 6.96 7.01 7.73 6.95 7.73 7.33 7.46 7.52 7.01 7.44 6.93 7.07 7.62 7.39 6.97 7.25 7.69 7.53 6.84 6.82 7.61 7.27 7.61 7.27 7.49 6.89 7.37 7.68 6.77 7.31 6.93 7.39 7.12 6.95 7.42 6.91 6.91 6.81 7.59 7.00 7.25 7.31 6.77 7.08 7.50 6.97 7.58 7.57 6.82 7.02 7.06 7.03 7.31 6.96 6.97 7.03 7.38 7.50 7.62 7.31 6.77 7.44 7.28 6.97 7.64 7.38 6.83 7.35 7.74 7.44 6.82 7.33 7.60 6.84 7.58 7.74 7.53 7.26 6.79 6.81 7.27 7.12 7.61 7.02 7.20 7.43 7.44 7.70 7.06 7.01 7.01 6.92 6.91 7.26 7.39 7.16 7.44 6.88 7.35 6.92 7.64 7.12 7.57 7.45 7.62 6.80 7.62 7.44 7.42 7.65 7.22 7.66 7.28 6.89 7.71 7.41 7.57 7.20 7.50 6.79 7.73 7.70 6.77 7.43 7.75 6.81 6.79 7.19 7.51 7.20 7.12 7.11 7.00 7.19 7.67 7.14 6.85 7.59 7.72 7.39 7.03 7.38 7.39 7.12 6.79 7.70 7.31 6.89 7.40 7.71 7.23 7.46 7.62 -9999 -9999 -9999 -9999 -9999 -9999 -9999 -9999 -9999 -9999 -9999 -9999 -9999 -9999 -9999 -9999 -9999 -9999 -9999 -9999 -9999 -9999 -9999 -9999 -9999 -9999 -9999 -9999 -9999 -9999 -9999
7.59 6.99 7.33 7.64 7.35 6.95 7.65 7.00 7.27 7.40 7.66 7.34 6.88 6.89 6.99 7.69 6.92 7.72 7.48 6.89 7.16 7.49 7.07 7.21 6.92 7.16 7.49 7.64 7.56 7.17 6.96 7.29 7.58 6.97 7.37 7.07 7.66 7.56 7.54 6.77 7.18 7.09 6.99 7.57 7.04 7.63 7.68 6.89 7.08 7.57 6.90 7.59 6.91 7.23 7.28 7.43 7.69 7.62 7.53 7.58 7.18 7.74 6.89 7.17 7.48 7.58 7.44 6.81 6.83 7.12 7.36 7.08 7.45 7.32 7.53 7.39 7.45 6.85 7.19 7.74 6.85 7.09 7.13 7.44 6.97 7.66 6.95 7.08 7.61 7.35 7.23 7.09 6.97 7.25 6.81 6.84 7.54 6.82 7.03 7.39 7.58 7.01 7.72 7.71 7.05 7.14 7.59 7.46 7.69 6.88 7.46 7.32 7.35 7.29 6.87 6.99 7.27 7.51 7.37 7.58 6.83 7.29 7.75 7.28 7.67 7.54 7.31 6.79 7.33 7.24 7.05 7.74 7.27 7.13 6.99 6.78 7.51 7.59 7.38 7.33 7.04 7.49 6.77 7.36 7.41 7.20 6.82 6.83 7.45 6.92 7.34 7.18 6.98 7.48 7.37 7.08 7.53 7.26 7.10 7.39 7.34 7.15 7.73 7.04 7.09 7.36 7.29 7.22 7.40 7.22 7.02 7.46 7.30 7.61 7.54 7.30 6.77 -9999 -9999 -9999 -9999 -9999 -9999 -9999 -9999 -9999 -9999 -9999 -9999 -9999 -9999 -9999 -9999 -9999 -9999 -9999 -9999 -9999 -9999 -9999 -9999 -9999 -9999 -9999 -9999 -9999 -9999 -9999 -9999 -9999 -9999 -9999 -9999 -9999 -9999
6.97 7.58 6.92 7.38 7.26 7.43 6.92 7.23 7.22 7.54 7.00 7.45 6.76 6.83 7.26 7.54 7.28 7.60 7.74 7.41 7.21 7.42 7.61 6.81 7.17 6.83 6.81 7.37 7.58 7.74 6.98 7.16 7.02 6.90 7.27 7.70 6.99 7.67 7.68 7.02 7.74 7.16 7.14 7.72 7.50 7.51 7.21 7.15 7.47 7.29 7.58 7.38 7.21 6.85 7.16 7.19 6.97 7.48 7.54 7.18 7.38 7.64 7.10 6.88 7.73 6.98 7.56 7.46 7.03 7.20 7.12 6.84 7.32 7.62 6.93 6.82 7.32 6.88 6.95 7.01 7.67 7.71 6.80 7.10 6.96 6.88 6.99 6.85 7.42 7.70 7.27 7.29 7.13 6.87 7.21 7.66 6.78 7.10 7.37 7.42 6.78 7.09 7.04 7.40 7.21 7.34 7.42 7.37 7.32 7.46 7.09 6.99 7.59 7.57 7.38 7.39 7.70 7.63 7.18 7.35 7.02 6.89 6.81 6.81 7.00 7.42 7.48 7.54 7.29 7.50 6.88 7.30 7.48 6.80 7.02 7.68 6.84 7.47 7.63 7.32 6.89 6.88 7.15 7.38 7.17 7.29 7.42 7.12 7.28 7.50 7.54 7.45 7.35 7.70 7.47 7.69 7.26 7.50 7.26 7.34 7.26 7.61 7.57 6.91 7.34 7.53 7.40 7.40 7.39 6.78 -9999 -9999 -9999 -9999 -9999 -9999 -9999 -9999 -9999 -9999 -9999 -9999 -9999 -9999 -9999 -9999 -9999 -9999 -9999 -9999 -9999 -9999 -9999 -9999 -9999 -9999 -9999 -9999 -9999 -9999 -9999 -9999 -9999 -9999 -9999 -9999 -9999 -9999 -9999 -9999 -9999 -9999 -9999 -9999 -9999
7.08 7.67 7.14 7.52 6.87 7.37 6.86 6.93 7.47 6.93 7.01 6.76 7.47 6.99 7.36 6.82 7.46 6.82 6.88 7.74 7.08 6.98 7.27 6.96 6.98 7.46 6.86 7.01 7.53 7.36 7.19 7.10 7.43 6.77 6.96 7.29 7.51 7.47 7.72 7.49 6.92 6.76 7.51 7.56 7.37 7.70 6.92 7.09 7.61 7.02 7.24 7.24 7.38 7.23 6.88 7.04 7.41 6.80 7.05 7.54 7.06 7.46 6.80 6.89 7.26 7.22 7.32 7.09 7.50 7.69 7.23 6.95 7.36 7.60 7.49 7.48 6.79 7.53 7.57 7.56 7.02 7.64 6.85 7.45 7.45 7.22 7.58 7.21 7.73 7.09 6.89 7.36 7.41 7.58 7.02 7.26 7.63 7.57 6.96 7.40 6.88 7.57 7.66 6.80 7.59 7.56 6.93 6.84 7.67 7.24 7.68 7.20 7.09 7.75 6.93 7.03 7.47 7.63 7.30 7.12 6.96 7.34 7.50 6.82 6.91 7.67 7.67 7.52 6.77 7.01 7.32 7.18 7.33 6.84 7.64 7.05 7.43 6.93 6.86 6.81 6.91 7.45 7.22 7.30 7.12 7.29 7.68 7.30 7.75 7.70 7.02 7.32 7.63 7.37 6.83 7.47 7.19 6.98 7.30 7.34 7.70 7.44 7.11 7.54 6.96 7.37 7.14 7.61 7.28 -9999 -9999 -9999 -9999 -9999 -9999 -9999 -9999 -9999 -9999 -9999 -9999 -9999 -9999 -9999 -9999 -9999 -9999 -9999 -9999 -9999 -9999 -9999 -9999 -9999 -9999 -9999 -9999 -9999 -9999 -9999 -9999 -9999 -9999 -9999 -9999 -9999 -9999 -9999 -9999 -9999 -9999 -9999 -9999 -9999 -9999
6.81 6.90 7.69 7.29 7.02 7.27 7.36 7.13 7.56 6.98 6.86 6.78 7.28 7.20 7.31 6.91 7.02 6.85 6.76 7.48 6.86 7.44 7.03 7.24 7.49 7.01 7.57 7.29 7.48 7.00 7.62 7.49 6.96 7.27 7.51 7.39 7.32 6.95 7.32 7.02 7.69 6.78 7.23 7.23 7.25 7.35 7.21 7.38 6.98 7.67 6.81 7.09 7.44 7.50 7.49 7.70 7.58 6.75 6.80 6.93 6.79 6.86 7.33 7.06 7.23 6.77 6.99 6.79 7.66 7.48 7.58 7.71 7.57 7.71 7.29 6.89 7.43 7.19 7.09 7.55 7.27 7.00 6.90 7.33 7.49 7.28 6.92 7.10 7.34 6.76 7.20 6.95 6.97 7.62 7.22 7.48 7.08 7.60 7.63 7.57 7.58 6.98 7.12 7.17 7.12 7.47 7.56 7.62 7.53 7.68 6.82 7.46 6.81 7.67 6.75 7.52 7.68 7.48 7.40 6.92 6.95 6.98 7.04 7.13 7.16 7.20 7.19 7.46 7.03 7.71 7.37 6.90 7.17 6.98 7.33 7.46 7.60 7.69 7.20 7.61 7.42 6.90 7.41 7.08 7.65 7.22 7.26 7.17 7.46 7.30 6.86 7.06 7.21 6.96 7.71 6.77 7.48 7.67 7.23 7.65 7.23 7.69 7.11 7.21 7.74 7.06 7.05 7.16 7.01 7.07 -9999 -9999 -9999 -9999 -9999 -9999 -9999 -9999 -9999 -9999 -9999 -9999 -9999 -9999 -9999 -9999 -9999 -9999 -9999 -9999 -9999 -9999 -9999 -9999 -9999 -9999 -9999 -9999 -9999 -9999 -9999 -9999 -9999 -9999 -9999 -9999 -9999 -9999 -9999 -9999 -9999 -9999 -9999 -9999 -9999
7.63 6.87 7.40 7.56 7.02 6.97 7.35 6.77 7.15 7.12 7.67 7.47 7.05 7.25 7.51 6.92 7.34 7.50 6.95 7.34 6.77 7.65 7.13 7.47 7.68 7.20 7.28 7.04 7.74 7.05 7.21 7.11 6.77 7.51 6.90 7.38 7.57 6.84 7.32 7.02 7.70 7.04 7.09 7.04 7.45 7.59 7.68 7.72 7.57 7.75 7.65 7.63 6.93 6.86 6.85 7.68 7.38 7.29 7.27 7.24 7.54 7.11 7.43 7.72 7.17 7.54 7.53 7.49 7.08 6.81 6.84 7.74 7.30 7.10 7.34 7.24 7.72 7.35 7.01 7.68 7.00 7.09 7.29 7.12 7.30 7.41 6.92 7.14 6.97 7.35 6.85 7.44 7.38 7.01 7.09 6.76 7.70 7.58 6.95 6.88 7.14 6.80 7.39 7.38 6.76 7.07 7.42 7.13 7.74 7.01 7.17 7.01 7.19 6.80 7.45 7.29 7.00 7.44 7.21 7.35 7.53 6.95 7.60 7.55 7.34 7.01 7.30 7.28 7.52 7.47 6.90 7.60 7.50 7.20 7.35 7.47 7.47 7.39 6.97 7.14 7.46 6.86 6.82 7.17 7.51 6.83 7.54 7.34 7.01 7.55 6.89 7.44 7.69 7.17 7.02 7.60 7.21 7.72 7.33 7.33 7.05 7.60 7.36 7.47 7.50 7.31 7.56 7.48 7.37 7.49 -9999 -9999 -9999 -9999 -9999 -9999 -9999 -9999 -9999 -9999 -9999 -9999 -9999 -9999 -9999 -9999 -9999 -9999 -9999 -9999 -9999 -9999 -9999 -9999 -9999 -9999 -9999 -9999 -9999 -9999 -9999 -9999 -9999 -9999 -9999 -9999 -9999 -9999 -9999 -9999 -9999 -9999 -9999 -9999 -9999
7.46 7.23 7.24 6.94 7.35 7.53 7.23 6.86 7.57 7.65 7.51 7.40 7.08 7.37 7.17 7.19 7.64 7.73 7.66 6.92 7.74 7.46 7.60 7.06 7.20 7.57 7.22 7.57 7.29 6.98 7.30 7.23 7.02 6.95 7.69 6.79 7.64 7.36 7.49 7.08 7.58 7.03 7.37 6.86 7.29 7.13 7.05 6.90 7.01 7.45 7.49 7.70 7.30 7.36 7.34 7.59 7.25 7.28 7.42 7.28 7.39 7.51 7.43 6.89 6.80 7.38 7.44 7.64 7.64 6.90 7.31 7.03 6.90 7.28 7.74 7.38 7.36 6.99 6.91 7.05 6.76 7.49 7.59 7.19 6.97 7.40 7.70 7.49 6.78 7.52 7.07 7.41 7.40 6.98 7.17 7.37 7.36 7.65 7.52 7.61 6.84 7.50 6.96 7.14 7.24 6.79 6.86 7.08 7.59 6.97 7.20 7.65 7.34 6.97 7.67 7.29 7.50 6.88 6.96 7.70 7.61 7.05 6.80 7.41 7.48 7.15 6.83 7.42 7.37 7.09 7.34 6.81 6.94 7.16 6.98 7.10 6.81 7.54 7.45 7.39 6.78 7.42 6.90 7.01 6.83 7.58 7.32 6.83 7.33 6.75 7.36 7.45 7.43 7.42 6.98 7.13 7.30 7.70 6.76 7.37 6.76 7.70 7.57 7.03 7.06 7.05 7.40 6.96 6.80 7.15 -9999 -9999 -9999 -9999 -9999 -9999 -9999 -9999 -9999 -9999 -9999 -9999 -9999 -9999 -9999 -9999 -9999 -9999 -9999 -9999 -9999 -9999 -9999 -9999 -9999 -9999 -9999 -9999 -9999 -9999 -9999 -9999 -9999 -9999 -9999 -9999 -9999 -9999 -9999 -9999 -9999 -9999 -9999 -9999 -9999
7.11 7.61 7.20 6.84 6.93 7.52 7.56 7.00 7.33 6.79 6.94 6.99 7.24 6.93 7.16 7.10 7.21 6.90 7.52 6.83 7.17 6.82 6.94 7.30 7.45 7.50 7.47 6.86 7.17 7.70 6.82 7.58 7.48 6.92 7.74 6.99 6.88 6.97 7.01 7.49 7.28 7.50 6.90 6.89 7.51 7.47 7.20 6.91 6.93 7.17 6.94 7.57 7.02 7.56 6.77 7.05 6.89 7.18 7.60 7.62 7.34 7.43 7.34 7.59 6.88 6.87 7.72 6.86 7.59 7.49 6.81 6.87 7.47 6.89 6.79 7.32 7.20 6.78 7.71 7.22 6.98 7.13 7.56 7.34 6.76 6.88 7.67 7.18 7.28 6.83 6.95 6.77 7.05 7.11 7.39 7.28 6.76 6.85 7.20 7.74 7.56 6.80 7.44 7.32 6.84 7.37 6.91 7.02 7.71 7.17 7.42 7.55 7.04 6.93 7.64 7.52 7.16 7.13 7.67 7.33 7.34 7.31 7.24 7.73 7.42 6.76 7.69 7.71 7.69 6.86 7.02 6.81 7.45 7.00 7.59 7.66 7.30 7.42 6.86 7.66 7.24 7.10 7.37 7.47 7.26 7.50 7.47 7.58 7.17 7.16 7.04 7.74 7.02 7.31 6.89 7.26 7.60 6.94 6.76 7.00 7.73 7.46 6.82 7.43 6.76 7.43 6.76 7.00 7.31 6.86 -9999 -9999 -9999 -9999 -9999 -9999 -9999 -9999 -9999 -9999 -9999 -9999 -9999 -9999 -9999 -9999 -9999 -9999 -9999 -9999 -9999 -9999 -9999 -9999 -9999 -9999 -9999 -9999 -9999 -9999 -9999 -9999 -9999 -9999 -9999 -9999 -9999 -9999 -9999 -9999 -9999 -9999 -9999 -9999 -9999
6.80 7.47 7.09 7.10 7.21 7.47 7.68 6.89 7.41 7.27 7.28 7.00 7.10 7.00 7.69 7.01 7.20 7.45 7.54 7.37 6.90 6.95 7.19 7.10 6.95 7.27 6.89 7.12 7.34 6.99 6.96 6.84 7.21 6.76 7.02 7.42 7.21 7.02 7.08 7.32 7.74 7.40 7.05 6.79 7.14 7.33 7.19 7.61 7.42 7.47 7.50 6.94 7.11 6.82 7.65 7.55 6.83 7.69 7.53 7.12 7.17 7.11 7.18 7.09 7.20 7.24 7.44 7.63 7.18 7.30 7.63 7.74 6.82 7.28 6.80 7.53 6.78 6.76 7.05 6.80 6.76 7.65 7.51 6.99 6.99 7.36 6.84 7.70 7.25 7.21 6.77 7.54 6.79 7.33 7.65 7.07 7.66 7.17 6.77 6.87 7.06 7.49 7.38 6.93 7.57 6.82 6.97 7.38 7.41 7.32 6.97 7.43 6.83 6.82 7.65 6.95 6.81 7.14 7.36 6.83 7.72 7.60 7.43 7.14 6.84 7.34 6.77 6.97 7.45 7.37 6.80 7.05 7.22 6.81 7.50 6.76 7.08 7.72 7.11 7.29 7.20 6.81 7.12 7.28 7.75 6.92 6.94 7.59 7.20 7.19 6.78 7.63 6.84 7.25 7.28 7.65 7.58 7.59 6.86 7.49 7.34 7.58 7.51 7.59 6.97 7.74 7.34 6.78 7.68 7.45 -9999 -9999 -9999 -9999 -9999 -9999 -9999 -9999 -9999 -9999 -9999 -9999 -9999 -9999 -9999 -9999 -9999 -9999 -9999 -9999 -9999 -9999 -9999 -9999 -9999 -9999 -9999 -9999 -9999 -9999 -9999 -9999 -9999 -9999 -9999 -9999 -9999 -9999 -9999 -9999 -9999 -9999 -9999 -9999 -9999
6.96 7.46 7.33 6.94 6.96 7.32 6.88 6.90 7.53 7.06 7.03 7.72 7.65 7.57 7.43 7.22 7.50 7.37 7.06 6.83 7.15 6.96 7.32 7.32 7.12 7.22 7.08 7.14 7.30 7.58 7.53 7.17 7.28 6.88 7.37 7.66 7.07 7.13 7.24 7.20 7.10 7.37 7.48 6.93 7.16 7.53 6.99 7.33 6.90 6.93 7.13 6.87 7.02 7.00 7.34 7.11 7.33 6.80 6.87 7.51 7.74 7.02 7.00 7.19 7.05 7.71 7.31 7.38 7.68 6.94 6.80 7.26 7.25 7.41 6.88 6.91 7.43 7.05 7.13 6.83 6.93 7.10 7.70 7.71 7.61 7.69 7.59 7.31 7.22 6.88 7.04 7.06 7.33 7.60 7.14 7.73 7.61 6.99 6.98 7.73 6.80 7.56 7.00 7.44 6.82 7.69 7.04 7.37 7.52 7.25 7.04 7.10 7.23 7.31 7.18 6.86 7.74 7.15 7.58 7.41 7.51 7.55 7.50 6.85 7.73 7.64 6.88 7.38 7.06 7.26 7.29 6.93 6.75 7.60 7.69 7.27 7.56 6.91 7.49 6.95 6.81 7.66 6.87 7.00 6.89 7.38 7.01 7.15 7.68 6.78 6.84 7.22 7.08 7.55 7.55 7.19 7.24 7.53 7.07 7.73 6.94 7.22 7.34 7.19 6.90 7.00 7.33 6.86 6.81 7.08 -9999 -9999 -9999 -9999 -9999 -9999 -9999 -9999 -9999 -9999 -9999 -9999 -9999 -9999 -9999 -9999 -9999 -9999 -9999 -9999 -9999 -9999 -9999 -9999 -9999 -9999 -9999 -9999 -9999 -9999 -9999 -9999 -9999 -9999 -9999 -9999 -9999 -9999 -9999 -9999 -9999 -9999 -9999 -9999 -9999
6.92 7.25 7.73 6.96 6.97 7.23 7.60 6.81 7.51 6.95 7.43 7.28 7.11 7.43 7.33 7.75 7.49 6.94 6.92 6.83 7.51 7.27 7.71 7.71 7.34 7.08 7.43 7.27 6.91 7.56 7.19 6.75 6.94 6.96 6.94 7.43 7.13 7.62 6.99 7.33 7.49 7.31 7.64 7.43 7.42 7.56 7.11 7.24 6.93 6.78 6.96 6.90 6.97 7.44 7.69 7.48 7.67 7.31 6.80 7.19 6.82 7.19 7.25 7.23 7.12 7.38 7.04 7.63 7.16 6.83 7.07 7.40 7.30 6.89 6.85 7.04 6.90 7.31 7.40 7.19 7.09 7.34 7.48 7.30 6.85 7.18 7.62 7.65 7.54 7.17 7.32 7.15 7.05 6.98 7.00 7.74 7.48 6.92 7.50 7.11 7.05 6.96 7.28 7.03 6.86 7.33 7.36 7.03 7.71 7.58 6.95 7.24 7.58 7.48 7.61 7.34 6.89 7.01 7.47 6.82 7.44 7.34 6.85 7.44 7.56 7.53 7.13 7.54 6.98 7.74 7.54 7.20 7.08 7.25 7.18 6.95 6.89 7.33 7.03 7.52 6.86 7.16 7.64 6.97 7.20 6.96 7.49 7.59 7.60 7.49 7.43 6.86 6.98 7.74 7.32 7.14 7.42 7.47 7.73 7.29 7.05 7.72 7.00 7.17 7.54 7.19 7.02 7.25 7.28 7.71 -9999 -9999 -9999 -9999 -9999 -9999 -9999 -9999 -9999 -9999 -9999 -9999 -9999 -9999 -9999 -9999 -9999 -9999 -9999 -9999 -9999 -9999 -9999 -9999 -9999 -9999 -9999 -9999 -9999 -9999 -9999 -9999 -9999 -9999 -9999 -9999 -9999 -9999 -9999 -9999 -9999 -9999 -9999 -9999 -9999
6.80 6.87 6.96 7.69 7.26 7.62 7.10 7.38 7.22 6.81 7.22 7.58 7.55 7.20 7.25 6.89 7.13 7.47 6.90 7.10 7.48 7.45 7.24 7.02 6.91 7.59 7.24 6.78 7.13 7.02 7.22 6.94 7.59 6.82 7.04 7.72 7.65 7.56 7.52 7.10 6.99 7.57 7.27 6.99 7.49 7.69 7.70 6.79 7.59 6.81 7.62 7.13 7.01 7.57 7.34 7.23 6.94 6.78 7.37 7.10 7.52 7.64 7.03 7.06 6.91 7.31 7.53 6.91 6.96 7.65 7.66 6.78 7.51 6.99 7.25 7.71 7.09 6.78 6.87 7.60 7.13 7.23 6.98 7.15 7.18 7.63 7.71 7.36 7.38 6.82 7.43 7.49 7.36 7.32 6.82 7.42 6.86 7.22 6.89 6.77 7.38 6.93 7.07 7.25 7.17 7.18 7.38 6.92 7.14 7.72 7.09 7.15 7.46 7.64 6.78 6.98 6.98 6.76 6.98 6.86 6.77 7.06 7.36 6.88 6.83 7.71 7.08 7.22 7.35 7.05 6.95 7.75 7.33 6.78 7.34 7.36 6.91 7.23 7.29 7.24 7.52 7.59 7.30 7.73 7.07 7.46 7.38 7.29 7.37 7.66 6.77 6.97 6.86 6.81 7.02 7.22 7.24 7.24 7.72 6.98 7.58 7.08 7.22 7.50 7.37 7.29 7.01 6.78 7.30 7.42 7.12 -9999 -9999 -9999 -9999 -9999 -9999 -9999 -9999 -9999 -9999 -9999 -9999 -9999 -9999 -9999 -9999 -9999 -9999 -9999 -9999 -9999 -9999 -9999 -9999 -9999 -9999 -9999 -9999 -9999 -9999 -9999 -9999 -9999 -9999 -9999 -9999 -9999 -9999 -9999 -9999 -9999 -9999 -9999 -9999
7.13 6.91 7.45 7.22 7.33 7.15 7.68 7.54 7.11 7.40 7.28 7.06 7.63 6.86 7.55 7.09 7.27 7.11 6.93 7.11 7.65 7.65 7.65 7.13 7.54 6.75 7.44 6.87 7.02 7.19 7.00 7.68 7.30 6.86 6.79 7.66 7.09 7.30 7.75 7.40 6.80 6.83 7.52 7.21 6.97 7.03 7.09 6.84 7.63 7.38 6.89 7.65 7.50 7.69 6.86 7.13 7.02 7.03 6.91 7.37 7.71 7.64 7.48 6.80 7.49 6.92 7.61 7.61 7.28 6.99 7.73 7.16 7.71 6.79 7.61 7.62 7.53 7.49 7.56 7.67 7.00 7.16 7.30 6.83 7.34 7.13 7.33 7.69 7.28 7.45 7.72 7.61 7.61 7.32 7.56 7.14 6.76 7.11 7.72 7.09 7.25 7.51 7.35 7.63 7.60 7.00 7.42 7.19 7.50 6.98 7.20 7.73 7.37 7.09 7.38 7.73 6.87 6.84 7.41 6.81 7.38 6.96 7.35 7.05 7.00 7.06 7.47 7.68 7.58 7.29 7.61 7.65 6.78 7.54 7.11 7.58 7.49 7.15 6.79 6.89 6.98 7.46 7.11 6.96 7.52 7.64 7.74 7.41 6.85 7.54 7.37 7.59 6.86 6.85 7.19 7.15 7.43 7.23 7.50 7.10 7.22 7.32 7.31 7.36 7.27 7.37 6.93 6.83 6.93 7.45 7.31 -9999 -9999 -9999 -9999 -9999 -9999 -9999 -9999 -9999 -9999 -9999 -9999 -9999 -9999 -9999 -9999 -9999 -9999 -9999 -9999 -9999 -9999 -9999 -9999 -9999 -9999 -9999 -9999 -9999 -9999 -9999 -9999 -9999 -9999 -9999 -9999 -9999 -9999 -9999 -9999 -9999 -9999 -9999 -9999
7.56 7.68 7.28 7.47 7.08 7.73 7.00 6.90 6.78 7.07 7.53 7.70 6.90 7.73 7.39 7.24 7.15 7.29 7.64 7.20 7.21 7.39 7.30 7.35 7.51 7.51 6.85 6.99 7.07 7.37 7.21 7.12 6.92 7.37 7.11 7.10 7.44 7.06 7.73 7.71 7.33 7.44 7.13 7.30 7.55 7.38 7.15 7.36 7.69 7.47 7.48 6.86 6.81 7.46 7.55 7.48 7.27 7.08 6.76 6.76 6.88 7.04 7.36 7.68 7.49 7.53 7.67 7.48 7.05 7.46 7.50 7.32 6.93 6.78 7.72 6.76 6.94 7.61 7.61 7.16 6.78 7.31 7.04 6.77 6.79 7.55 6.88 7.58 6.93 7.34 7.35 7.26 7.71 7.35 7.33 7.54 6.77 7.63 7.47 7.75 7.68 7.03 7.14 7.45 6.99 7.70 7.70 7.54 7.26 7.46 6.84 7.06 7.50 6.84 6.88 7.32 7.41 6.76 7.71 7.54 7.46 7.71 7.56 7.20 6.89 7.32 7.58 7.52 7.40 7.50 7.00 7.71 7.40 7.66 6.79 7.23 7.36 6.82 6.79 7.43 6.85 7.23 7.45 6.91 7.03 7.33 7.25 7.64 6.90 7.60 7.30 6.98 7.69 7.19 7.30 7.28 6.93 7.71 6.82 6.89 6.97 6.93 7.31 7.00 6.89 7.05 7.30 6.85 7.29 7.41 7.74 -9999 -9999 -9999 -9999 -9999 -9999 -9999 -9999 -9999 -9999 -9999 -9999 -9999 -9999 -9999 -9999 -9999 -9999 -9999 -9999 -9999 -9999 -9999 -9999 -9999 -9999 -9999 -9999 -9999 -9999 -9999 -9999 -9999 -9999 -9999 -9999 -9999 -9999 -9999 -9999 -9999 -9999 -9999 -9999
7.39 7.11 7.65 6.97 7.12 7.60 7.38 6.77 7.14 7.38 7.59 6.84 7.47 7.66 7.63 7.14 7.52 6.79 7.55 7.04 7.47 7.01 7.10 7.56 6.99 7.04 7.15 7.44 7.02 7.21 6.89 6.76 6.90 7.10 7.13 6.78 7.52 7.22 7.53 7.23 7.13 7.07 7.67 6.75 7.64 7.66 6.94 7.12 7.30 7.52 7.05 7.30 7.33 7.08 7.75 7.27 7.53 6.80 7.74 7.27 7.53 7.63 7.46 7.17 6.76 7.14 7.71 7.51 6.90 7.22 7.64 6.94 7.71 7.01 7.69 6.85 7.13 7.07 6.94 7.59 7.15 7.38 7.13 7.46 7.12 7.25 7.25 7.25 7.05 6.85 7.60 7.23 6.77 7.44 6.95 7.55 7.47 7.66 7.61 6.91 7.41 7.58 7.69 7.10 7.57 7.24 6.85 6.92 7.66 7.52 6.92 6.94 7.37 6.90 6.76 7.12 6.97 7.41 7.41 7.43 7.31 6.99 7.55 7.18 6.97 6.76 7.67 7.64 6.80 7.30 6.88 6.95 7.34 7.38 6.81 7.71 7.07 6.92 7.43 7.74 7.35 7.28 7.59 7.68 7.10 6.97 7.09 7.05 7.40 6.75 7.70 7.41 7.65 7.55 7.62 7.42 7.13 6.81 7.32 6.93 6.97 7.55 7.08 7.19 7.37 7.45 7.68 6.76 6.99 6.82 7.54 -9999 -9999 -9999 -9999 -9999 -9999 -9999 -9999 -9999 -9999 -9999 -9999 -9999 -9999 -9999 -9999 -9999 -9999 -9999 -9999 -9999 -9999 -9999 -9999 -9999 -9999 -9999 -9999 -9999 -9999 -9999 -9999 -9999 -9999 -9999 -9999 -9999 -9999 -9999 -9999 -9999 -9999 -9999 -9999
7.07 6.96 7.17 6.87 7.14 6.95 7.26 7.64 7.38 7.74 7.08 7.55 7.68 7.10 7.01 7.56 7.56 7.13 6.92 7.69 7.09 7.53 7.08 7.24 7.63 7.51 7.23 7.46 7.32 7.51 6.86 7.45 7.15 7.65 7.70 7.66 7.39 6.88 7.06 6.97 7.04 7.69 7.55 7.29 7.60 6.94 7.25 7.51 7.45 7.07 6.96 6.89 6.97 6.78 7.54 7.45 7.28 7.66 7.01 7.67 6.96 7.74 7.64 7.19 7.01 7.26 7.04 6.94 7.03 7.57 7.60 7.34 6.87 7.33 6.91 7.48 7.72 7.15 7.26 6.80 7.25 7.58 7.02 7.34 7.19 7.07 6.80 7.13 7.62 7.24 7.54 7.11 6.88 6.75 6.75 7.09 7.22 6.92 7.59 7.01 6.83 6.94 7.42 7.64 7.21 7.59 7.23 7.00 6.91 6.76 7.07 7.28 7.20 7.01 6.90 7.47 7.20 7.27 7.21 7.00 6.80 7.10 6.99 7.41 7.53 6.97 7.35 7.49 7.34 7.11 7.06 7.21 7.67 7.61 7.15 7.29 7.01 7.47 7.50 6.83 7.42 7.55 7.01 7.68 7.62 7.65 7.59 7.39 6.75 7.04 6.92 7.52 7.12 7.21 7.26 7.57 7.64 7.25 7.23 6.85 6.94 7.46 7.26 7.01 7.39 7.21 7.23 6.98 7.26 6.85 7.08 -9999 -9999 -9999 -9999 -9999 -9999 -9999 -9999 -9999 -9999 -9999 -9999 -9999 -9999 -9999 -9999 -9999 -9999 -9999 -9999 -9999 -9999 -9999 -9999 -9999 -9999 -9999 -9999 -9999 -9999 -9999 -9999 -9999 -9999 -9999 -9999 -9999 -9999 -9999 -9999 -9999 -9999 -9999 -9999
7.18 7.47 7.54 7.42 6.80 7.08 7.42 7.55 6.92 6.91 7.18 7.55 7.19 7.75 7.06 6.99 6.78 7.58 7.67 7.23 7.60 7.68 7.63 7.01 7.05 7.70 6.80 7.58 7.64 7.50 7.53 7.63 7.12 7.05 7.46 7.64 7.19 7.34 7.29 7.39 7.20 7.38 7.34 6.78 6.97 7.32 7.21 7.00 6.83 6.78 7.54 7.30 7.27 7.22 7.69 7.02 7.03 6.84 7.15 6.84 6.87 7.23 7.49 7.56 7.26 6.84 6.77 7.03 7.32 6.85 7.37 7.17 6.77 7.45 6.91 7.73 7.06 7.04 6.86 7.04 7.40 7.23 6.79 7.26 6.88 7.49 7.71 7.01 7.74 6.80 7.58 7.57 6.88 7.03 7.08 6.87 7.42 7.10 7.42 7.02 7.07 7.16 7.72 7.34 7.67 6.99 7.28 6.97 7.11 7.44 6.87 7.71 7.00 7.42 7.26 6.79 6.94 7.20 7.58 7.64 7.29 7.49 7.66 6.92 7.26 7.31 7.51 7.25 6.76 7.74 6.95 7.69 7.49 6.89 7.59 7.17 7.56 7.58 7.38 6.80 7.65 7.23 7.16 7.60 7.24 6.92 7.60 7.19 6.83 7.73 7.52 7.29 6.93 7.67 7.48 6.86 6.77 7.10 6.95 6.85 7.26 7.09 7.50 6.97 7.61 6.77 7.62 6.75 7.48 7.31 6.82 -9999 -9999 -9999 -9999 -9999 -9999 -9999 -9999 -9999 -9999 -9999 -9999 -9999 -9999 -9999 -9999 -9999 -9999 -9999 -9999 -9999 -9999 -9999 -9999 -9999 -9999 -9999 -9999 -9999 -9999 -9999 -9999 -9999 -9999 -9999 -9999 -9999 -9999 -9999 -9999 -9999 -9999 -9999 -9999
7.02 7.12 7.60 7.27 7.09 7.29 6.99 6.83 7.75 7.13 6.92 6.84 7.55 7.31 6.85 7.18 7.24 6.75 7.28 6.92 7.50 7.19 7.72 7.61 7.03 7.52 7.37 7.09 7.00 7.58 7.13 7.58 7.19 7.25 6.97 7.65 7.65 6.92 7.47 7.60 7.07 7.31 6.98 7.01 7.57 6.99 7.54 7.32 7.60 7.22 7.33 7.12 6.79 7.25 7.31 7.16 7.56 7.65 7.50 7.00 7.49 7.32 7.45 7.68 7.57 7.39 7.43 6.80 7.54 7.22 7.34 7.22 7.22 7.25 7.41 6.89 6.81 7.32 7.38 7.30 7.57 7.20 7.54 7.63 6.84 7.19 7.17 7.58 7.15 7.37 7.53 7.67 7.35 6.97 7.02 7.25 6.91 7.28 7.69 7.20 6.95 7.55 7.11 7.60 6.93 6.91 7.74 6.86 6.80 7.09 7.53 7.43 7.52 6.87 7.36 7.03 7.17 7.40 7.36 6.97 7.37 7.66 7.29 7.68 6.91 6.86 7.42 7.28 7.44 6.90 7.52 7.56 7.17 7.47 6.89 7.41 6.94 7.18 7.19 6.99 6.77 7.04 7.05 7.27 6.76 7.00 6.91 7.15 7.22 7.07 6.97 7.16 7.45 7.17 7.67 7.47 7.50 7.65 6.90 6.78 6.89 7.12 7.46 7.02 7.65 6.80 6.94 6.81 7.66 7.55 6.85 -9999 -9999 -9999 -9999 -9999 -9999 -9999 -9999 -9999 -9999 -9999 -9999 -9999 -9999 -9999 -9999 -9999 -9999 -9999 -9999 -9999 -9999 -9999 -9999 -9999 -9999 -9999 -9999 -9999 -9999 -9999 -9999 -9999 -9999 -9999 -9999 -9999 -9999 -9999 -9999 -9999 -9999 -9999 -9999
7.00 7.57 6.78 7.37 7.28 6.78 7.45 7.43 7.35 7.53 7.73 6.75 7.30 7.51 7.49 7.56 6.97 7.05 7.46 7.30 7.11 6.90 6.95 7.71 7.09 7.55 7.01 7.69 7.33 7.33 6.93 7.59 7.23 7.54 6.89 7.72 7.50 7.05 7.40 7.21 7.46 7.66 7.65 6.89 7.30 6.84 7.53 6.97 7.69 7.66 7.71 6.91 7.61 7.62 7.13 7.65 6.80 7.61 6.94 7.19 7.70 7.63 6.87 7.26 7.58 7.07 7.23 7.00 7.44 7.47 7.09 6.90 7.24 6.99 7.05 6.89 6.81 7.52 6.99 7.45 7.25 7.17 6.84 7.27 7.35 7.50 6.94 7.29 7.68 7.14 6.86 6.77 7.46 7.01 7.63 7.18 7.08 7.06 6.99 7.12 7.41 7.72 7.34 6.94 7.46 6.94 7.70 7.29 7.11 7.03 7.36 6.91 7.61 7.23 7.13 7.01 7.38 7.22 7.43 6.91 7.28 6.88 6.98 7.24 7.71 7.26 7.30 6.95 7.23 7.47 6.84 7.62 7.39 7.04 6.93 7.23 7.41 7.14 7.22 7.71 6.84 7.24 6.99 7.43 6.81 7.20 6.94 6.78 7.67 7.45 6.98 6.97 7.52 7.31 7.26 7.07 7.58 7.37 7.03 7.31 6.81 7.75 7.66 7.68 7.18 7.33 7.42 7.58 7.21 7.24 6.99 7.64 -9999 -9999 -9999 -9999 -9999 -9999 -9999 -9999 -9999 -9999 -9999 -9999 -9999 -9999 -9999 -9999 -9999 -9999 -9999 -9999 -9999 -9999 -9999 -9999 -9999 -9999 -9999 -9999 -9999 -9999 -9999 -9999 -9999 -9999 -9999 -9999 -9999 -9999 -9999 -9999 -9999 -9999 -9999
7.70 7.56 7.71 6.94 7.72 7.67 6.89 7.59 7.60 7.56 7.47 6.85 6.89 7.26 6.82 7.65 6.98 7.40 7.57 7.44 7.74 6.78 7.51 7.08 7.12 7.54 6.94 7.13 6.86 6.79 7.50 7.19 7.32 7.37 7.31 7.19 7.09 7.54 7.37 7.66 6.79 7.58 6.82 7.32 7.43 6.92 7.09 7.01 7.02 6.95 7.36 7.13 7.09 7.22 7.68 6.97 7.22 7.19 7.09 7.68 7.49 7.62 6.83 6.97 7.48 7.67 7.74 7.04 7.55 6.84 7.23 7.53 7.49 7.20 7.65 7.40 7.36 7.73 7.43 6.87 7.45 7.48 7.42 7.02 7.42 6.87 6.99 7.13 6.91 7.60 7.13 7.69 6.91 7.68 7.09 7.53 7.08 6.97 7.27 7.05 6.80 7.00 7.44 7.45 7.32 7.46 7.00 7.54 7.32 7.29 7.39 7.15 7.61 7.63 7.37 7.60 6.84 7.13 7.47 6.82 7.48 7.58 7.67 7.24 6.76 7.72 7.56 6.81 7.56 7.05 7.54 7.44 7.03 7.22 6.90 7.57 7.59 6.82 7.49 7.23 7.72 7.42 6.76 7.02 7.27 7.21 6.96 7.33 7.28 7.72 7.29 7.67 6.81 6.97 7.29 7.14 6.98 7.71 7.60 6.80 7.58 7.53 7.53 7.16 6.84 7.08 6.96 7.40 7.64 6.91 7.09 7.14 -9999 -9999 -9999 -9999 -9999 -9999 -9999 -9999 -9999 -9999 -9999 -9999 -9999 -9999 -9999 -9999 -9999 -9999 -9999 -9999 -9999 -9999 -9999 -9999 -9999 -9999 -9999 -9999 -9999 -9999 -9999 -9999 -9999 -9999 -9999 -9999 -9999 -9999 -9999 -9999 -9999 -9999 -9999
7.62 7.58 6.97 6.77 7.18 6.90 7.35 7.02 7.57 7.46 6.81 7.29 7.40 6.91 6.76 7.10 7.40 7.10 7.62 7.08 7.22 7.15 6.83 6.78 7.35 7.34 7.41 7.63 7.61 7.52 7.00 7.66 7.22 7.75 6.75 7.57 7.50 7.47 6.91 7.51 6.99 7.62 7.08 7.20 7.30 7.66 7.67 7.18 6.80 7.33 6.86 7.41 7.62 7.69 7.26 7.54 7.64 7.47 7.62 6.83 7.62 7.09 7.58 7.67 7.10 7.67 6.76 7.04 7.61 6.90 7.52 6.95 6.92 7.29 7.45 7.39 7.49 7.33 7.31 6.97 7.24 7.33 7.22 7.61 6.82 6.96 6.85 7.38 6.75 7.21 6.82 7.09 6.96 7.30 7.59 6.95 7.42 7.24 7.68 7.61 7.03 7.38 7.69 7.61 7.60 7.07 7.69 7.71 7.24 7.30 7.63 7.17 7.34 7.20 7.43 7.60 7.35 7.09 7.28 7.38 7.14 7.69 7.05 7.68 6.95 7.54 6.79 7.20 6.87 7.15 7.02 7.36 6.96 7.45 6.94 6.92 7.62 7.49 7.60 7.02 6.79 7.20 7.09 6.84 7.43 7.16 7.53 7.38 7.04 7.60 6.92 7.52 6.92 7.19 7.17 7.71 6.77 6.88 7.61 7.09 6.89 7.35 7.41 6.84 7.07 7.59 7.26 7.59 7.35 7.61 6.91 6.95 -9999 -9999 -9999 -9999 -9999 -9999 -9999 -9999 -9999 -9999 -9999 -9999 -9999 -9999 -9999 -9999 -9999 -9999 -9999 -9999 -9999 -9999 -9999 -9999 -9999 -9999 -9999 -9999 -9999 -9999 -9999 -9999 -9999 -9999 -9999 -9999 -9999 -9999 -9999 -9999 -9999 -9999 -9999
7.46 7.59 7.40 7.20 7.29 6.98 7.63 7.63 7.14 7.65 7.27 7.66 7.68 6.75 7.44 6.96 7.09 6.85 7.69 7.51 6.93 7.57 7.24 6.92 6.84 6.89 7.33 7.70 7.68 7.48 7.14 7.10 7.62 7.34 7.57 7.30 7.67 7.55 7.59 6.94 7.17 6.77 7.65 7.33 7.58 7.69 6.91 6.89 7.37 7.67 7.50 7.27 6.80 7.15 6.85 6.91 7.22 7.55 7.21 7.71 7.72 7.30 7.08 7.46 7.55 6.91 7.49 6.78 6.89 7.48 7.47 7.38 7.27 7.44 7.24 6.94 7.03 6.92 7.22 6.94 6.75 7.53 7.52 6.84 6.87 7.65 7.12 7.53 7.02 7.15 7.30 7.60 6.82 6.96 7.19 7.15 7.45 7.11 7.13 7.33 7.68 7.03 7.09 7.15 7.45 7.49 7.01 7.47 7.74 7.70 7.67 7.19 7.18 6.75 7.06 7.36 7.27 7.74 7.03 7.30 7.47 7.60 7.02 7.27 7.69 7.16 7.74 6.96 7.63 7.34 7.25 7.48 7.20 6.99 6.91 7.56 7.67 6.80 7.32 7.26 7.60 6.77 7.73 7.32 7.69 7.54 7.67 6.93 7.10 7.49 6.82 7.16 7.53 7.67 6.87 6.83 6.77 7.55 7.11 7.16 6.92 6.83 7.04 7.60 7.14 6.84 7.03 6.91 7.71 7.25 7.20 7.41 -9999 -9999 -9999 -9999 -9999 -9999 -9999 -9999 -9999 -9999 -9999 -9999 -9999 -9999 -9999 -9999 -9999 -9999 -9999 -9999 -9999 -9999 -9999 -9999 -9999 -9999 -9999 -9999 -9999 -9999 -9999 -9999 -9999 -9999 -9999 -9999 -9999 -9999 -9999 -9999 -9999 -9999 -9999
7.47 7.14 7.64 7.49 7.22 7.01 7.10 7.48 7.43 7.20 6.88 7.50 7.44 6.77 7.55 7.42 7.00 6.91 7.47 6.90 7.30 7.55 7.53 7.63 6.77 7.72 6.84 7.64 7.32 6.87 7.20 7.60 6.91 7.61 7.25 7.54 7.46 7.21 6.75 7.42 7.38 7.54 7.03 7.21 7.54 6.95 7.66 7.42 7.60 7.08 7.25 7.45 6.83 6.83 6.99 7.05 7.04 7.17 7.70 6.88 6.89 7.30 6.79 7.73 7.19 6.82 7.54 7.26 7.63 7.34 7.53 6.97 7.39 7.19 7.14 6.84 7.49 7.09 7.34 7.64 7.53 6.97 7.34 7.13 7.58 6.85 6.90 6.84 6.90 7.63 7.72 7.57 7.62 7.64 7.33 6.79 7.32 7.41 7.06 7.10 6.90 6.95 7.38 7.60 7.15 7.51 6.88 7.44 6.87 7.00 7.73 7.35 6.93 7.73 7.43 6.97 7.66 6.96 7.11 7.24 6.79 7.38 7.34 7.69 7.63 6.88 7.09 6.88 7.35 6.90 7.75 7.01 6.97 6.94 7.28 7.61 7.10 7.55 6.78 6.79 6.96 7.04 6.81 7.64 7.72 7.24 7.44 7.18 6.86 7.29 7.04 7.04 7.28 7.52 7.21 7.11 7.59 7.08 6.82 6.99 7.55 7.51 7.39 7.63 6.96 6.86 7.54 7.02 6.84 6.98 7.40 7.63 -9999 -9999 -9999 -9999 -9999 -9999 -9999 -9999 -9999 -9999 -9999 -9999 -9999 -9999 -9999 -9999 -9999 -9999 -9999 -9999 -9999 -9999 -9999 -9999 -9999 -9999 -9999 -9999 -9999 -9999 -9999 -9999 -9999 -9999 -9999 -9999 -9999 -9999 -9999 -9999 -9999 -9999 -9999
7.33 7.57 6.94 7.53 6.88 7.72 7.05 7.52 7.63 7.28 7.38 7.61 7.47 6.83 7.68 7.64 6.86 6.77 7.03 7.63 7.64 7.26 7.01 7.58 7.21 7.16 6.97 6.77 6.94 7.74 7.07 7.47 7.25 7.28 7.08 6.80 7.70 6.80 7.09 7.63 7.23 7.04 6.99 6.90 7.66 6.85 7.11 7.39 7.72 7.34 6.82 7.55 7.20 6.78 7.56 7.70 7.00 7.20 6.96 7.17 7.07 7.19 7.22 7.61 7.04 7.38 7.72 6.80 7.03 6.85 7.27 6.76 7.02 7.47 7.39 7.57 7.09 7.49 7.58 7.74 6.88 7.54 6.88 7.58 7.50 7.53 7.24 7.10 7.19 7.54 7.62 7.65 7.67 7.09 7.21 7.07 6.98 7.34 7.55 6.85 7.37 7.42 7.42 6.87 6.94 7.10 7.34 7.14 6.81 7.71 7.43 7.71 7.25 7.23 7.24 7.29 7.22 7.62 7.46 7.34 7.61 7.44 6.93 7.70 6.85 6.84 6.87 7.05 7.28 7.53 7.49 6.91 6.89 7.45 7.33 7.03 7.04 6.92 7.69 7.20 7.06 7.68 7.05 7.55 6.89 7.69 7.65 6.91 7.13 7.70 7.51 7.41 7.12 7.34 6.93 7.11 7.06 6.99 7.14 7.53 7.44 6.99 7.39 7.10 6.93 7.20 7.36 7.25 7.37 7.55 6.89 7.41 -9999 -9999 -9999 -9999 -9999 -9999 -9999 -9999 -9999 -9999 -9999 -9999 -9999 -9999 -9999 -9999 -9999 -9999 -9999 -9999 -9999 -9999 -9999 -9999 -9999 -9999 -9999 -9999 -9999 -9999 -9999 -9999 -9999 -9999 -9999 -9999 -9999 -9999 -9999 -9999 -9999 -9999 -9999
7.67 6.76 7.27 7.30 7.02 7.49 7.21 7.18 7.00 7.12 7.63 7.15 7.46 7.18 6.82 7.64 7.03 7.09 7.28 6.97 7.20 7.23 7.00 6.76 7.24 7.40 7.22 7.27 7.38 6.93 7.09 7.49 7.61 7.18 7.52 7.29 7.46 6.84 7.73 7.54 7.15 7.35 6.93 6.88 7.72 7.54 7.21 7.21 6.90 7.21 7.01 6.98 7.29 6.80 7.01 7.47 7.36 7.46 7.40 7.30 7.43 7.45 7.67 7.12 7.69 6.81 7.01 7.48 7.31 7.59 7.10 7.28 7.02 7.28 6.92 7.26 7.37 6.99 7.14 6.86 6.94 6.75 7.15 7.69 7.55 7.69 7.15 7.59 7.31 7.43 6.89 7.06 7.10 7.34 7.71 6.77 7.22 7.12 7.64 7.10 7.26 7.03 7.04 7.33 7.49 6.88 6.76 6.86 7.02 7.04 7.58 7.32 7.73 6.90 7.57 7.44 6.76 7.05 6.88 7.47 6.88 7.17 7.68 6.90 7.70 7.40 7.03 7.05 7.33 7.23 6.97 6.75 7.56 7.65 7.37 6.82 7.20 7.08 7.17 7.58 7.31 7.52 6.76 7.41 7.41 7.69 7.62 7.49 6.95 7.14 7.63 7.56 7.09 7.38 6.77 7.37 7.63 7.08 7.35 7.30 7.56 7.28 7.35 7.28 7.07 7.52 7.43 7.69 7.64 6.79 6.88 7.14 7.06 -9999 -9999 -9999 -9999 -9999 -9999 -9999 -9999 -9999 -9999 -9999 -9999 -9999 -9999 -9999 -9999 -9999 -9999 -9999 -9999 -9999 -9999 -9999 -9999 -9999 -9999 -9999 -9999 -9999 -9999 -9999 -9999 -9999 -9999 -9999 -9999 -9999 -9999 -9999 -9999 -9999 -9999
7.58 7.47 6.94 7.01 7.24 7.14 7.09 6.85 7.26 7.24 7.33 7.36 7.50 7.01 7.10 7.03 7.01 7.47 6.90 7.68 7.20 7.58 6.91 7.51 7.03 7.09 7.04 6.77 7.08 7.20 7.26 7.63 7.15 7.40 7.35 7.36 7.15 6.91 6.86 7.35 7.70 7.16 7.40 6.79 6.77 7.68 6.78 7.09 7.18 7.73 7.13 7.01 7.25 7.22 7.47 7.70 7.25 7.25 6.79 7.19 7.11 7.28 6.93 7.44 7.19 7.52 7.20 6.95 7.51 7.48 6.97 7.36 6.84 7.57 6.81 6.99 7.28 7.65 7.27 7.66 7.24 7.46 6.97 7.71 7.60 7.29 7.21 7.30 7.36 7.74 6.86 6.77 7.02 7.45 7.45 7.36 7.27 7.65 7.20 7.08 6.89 7.10 7.49 7.26 7.31 6.76 6.86 7.43 7.33 7.35 6.92 7.53 6.92 7.42 7.29 7.54 7.52 7.45 7.49 6.82 7.00 7.11 7.37 7.20 7.00 7.71 7.64 7.43 7.02 7.46 6.78 7.58 7.13 7.12 7.53 7.72 6.88 7.00 7.22 7.34 7.11 7.01 7.71 7.06 6.95 7.41 7.61 6.98 7.44 6.92 6.89 6.77 7.63 6.91 6.78 7.04 7.50 7.73 7.50 7.33 7.03 7.51 7.55 6.85 7.34 7.10 7.00 7.68 6.91 6.93 7.61 7.41 7.41 -9999 -9999 -9999 -9999 -9999 -9999 -9999 -9999 -9999 -9999 -9999 -9999 -9999 -9999 -9999 -9999 -9999 -9999 -9999 -9999 -9999 -9999 -9999 -9999 -9999 -9999 -9999 -9999 -9999 -9999 -9999 -9999 -9999 -9999 -9999 -9999 -9999 -9999 -9999 -9999 -9999 -9999
7.73 7.41 6.82 6.87 7.24 7.65 6.82 7.64 6.87 7.16 6.92 7.63 7.18 7.36 6.97 7.62 7.59 6.86 7.72 6.77 6.78 7.08 6.82 7.24 6.90 7.53 6.80 7.53 7.67 7.42 7.05 7.50 7.46 7.57 7.55 7.55 7.53 6.83 7.48 6.92 7.00 7.54 6.80 7.00 7.51 7.31 7.35 7.64 7.66 6.90 7.55 6.76 7.73 7.10 6.80 7.48 7.29 7.66 7.11 6.91 7.61 7.08 7.17 7.16 7.40 6.93 7.05 7.43 7.25 7.45 6.86 7.53 6.80 6.78 7.03 6.92 7.74 6.97 6.93 7.51 7.12 7.55 7.20 7.31 7.08 7.26 7.47 7.53 7.48 7.69 7.65 6.82 7.34 7.54 7.36 7.20 6.83 7.03 7.39 7.00 6.86 7.74 7.59 7.03 7.12 6.97 7.15 7.38 6.82 7.31 7.12 6.76 7.51 7.60 7.15 7.65 6.89 7.09 7.23 6.96 7.01 7.19 7.25 7.16 6.76 6.80 7.15 7.49 6.85 6.92 7.31 7.41 7.12 7.06 7.35 7.01 7.48 7.37 7.68 7.52 7.05 7.41 7.12 7.03 7.41 7.46 6.92 7.53 7.34 7.49 7.28 7.67 7.15 7.20 7.22 7.27 7.71 7.53 6.94 6.98 7.19 7.52 7.38 6.75 6.98 7.64 7.01 7.56 7.35 6.96 6.91 7.10 6.76 -9999 -9999 -9999 -9999 -9999 -9999 -9999 -9999 -9999 -9999 -9999 -9999 -9999 -9999 -9999 -9999 -9999 -9999 -9999 -9999 -9999 -9999 -9999 -9999 -9999 -9999 -9999 -9999 -9999 -9999 -9999 -9999 -9999 -9999 -9999 -9999 -9999 -9999 -9999 -9999 -9999 -9999
7.33 7.73 6.98 7.40 6.85 6.84 6.97 7.00 7.23 7.46 7.38 7.60 7.06 6.87 6.83 7.15 7.30 7.41 7.71 7.49 7.25 7.43 7.02 6.88 7.34 7.35 7.22 7.17 6.95 7.24 7.53 6.81 6.84 7.56 6.83 6.76 7.60 7.70 7.66 6.95 7.13 6.99 7.61 7.21 7.04 7.04 6.85 7.15 7.46 7.34 7.57 7.64 7.34 7.36 7.70 7.74 7.57 6.98 6.79 7.33 7.06 7.12 7.04 7.53 7.74 6.93 7.74 7.38 7.04 7.36 7.39 6.79 7.28 7.05 6.83 7.33 6.92 6.82 7.44 6.89 7.19 7.15 7.33 7.66 7.19 7.53 6.81 7.09 7.71 6.98 7.40 7.41 7.35 7.69 6.81 6.84 6.75 6.92 7.36 7.42 7.62 6.79 7.41 7.45 6.99 7.31 7.52 7.29 7.08 7.64 7.21 7.50 7.51 7.06 6.87 7.72 6.78 6.95 7.56 7.72 6.84 7.47 6.81 7.09 7.56 7.59 6.84 6.95 7.00 7.28 7.10 7.54 7.67 7.02 7.37 6.86 7.05 6.76 7.42 7.38 7.40 7.45 7.50 7.56 7.61 7.29 7.05 7.43 7.59 7.68 7.10 7.25 7.51 7.54 7.07 7.42 7.64 7.75 6.95 6.76 7.02 6.92 7.24 7.56 6.85 7.56 7.04 7.01 7.26 6.93 7.57 6.79 7.16 -9999 -9999 -9999 -9999 -9999 -9999 -9999 -9999 -9999 -9999 -9999 -9999 -9999 -9999 -9999 -9999 -9999 -9999 -9999 -9999 -9999 -9999 -9999 -9999 -9999 -9999 -9999 -9999 -9999 -9999 -9999 -9999 -9999 -9999 -9999 -9999 -9999 -9999 -9999 -9999 -9999 -9999
7.50 7.15 7.40 6.77 7.10 7.36 7.53 6.95 6.79 7.34 7.42 6.88 7.38 6.97 7.57 6.96 7.41 7.20 7.32 7.17 6.98 7.47 7.13 7.06 7.74 7.67 7.45 7.30 7.00 7.25 7.72 7.69 7.08 7.51 7.25 7.32 6.90 7.10 7.22 6.76 6.77 6.98 7.26 7.59 7.25 6.85 7.63 7.14 6.90 7.54 7.73 7.28 7.36 7.64 6.96 6.96 7.72 6.90 7.71 6.99 7.45 7.39 7.51 6.87 7.32 6.82 7.11 7.32 7.19 7.41 6.98 7.35 7.64 7.51 7.56 7.40 7.03 7.52 7.72 6.95 7.75 7.50 7.23 7.04 6.94 7.47 7.67 7.05 7.16 7.74 7.48 7.08 7.48 7.37 6.97 7.64 7.49 7.61 7.09 7.53 7.01 6.83 7.48 7.69 7.49 7.72 6.85 6.99 7.53 7.64 7.36 7.70 7.24 6.92 7.30 6.84 7.57 7.54 7.52 7.67 6.76 6.81 7.31 7.46 6.97 7.44 7.26 7.18 7.31 7.55 6.91 7.13 6.88 7.72 6.87 7.59 7.63 7.37 7.67 7.57 7.25 6.77 7.68 7.69 7.43 6.77 7.36 7.65 7.05 7.15 7.45 7.16 6.82 7.07 7.66 6.89 7.12 7.03 7.04 6.97 6.88 7.31 6.94 7.30 7.37 7.29 6.95 7.20 6.87 7.35 7.17 7.33 6.78 -9999 -9999 -9999 -9999 -9999 -9999 -9999 -9999 -9999 -9999 -9999 -9999 -9999 -9999 -9999 -9999 -9999 -9999 -9999 -9999 -9999 -9999 -9999 -9999 -9999 -9999 -9999 -9999 -9999 -9999 -9999 -9999 -9999 -9999 -9999 -9999 -9999 -9999 -9999 -9999 -9999 -9999
7.08 6.97 7.18 7.66 7.04 7.29 7.32 7.53 7.58 7.49 6.88 6.79 7.56 7.54 7.67 6.76 7.15 7.33 7.34 7.36 7.05 7.46 7.12 6.96 7.05 7.51 7.35 7.71 7.21 7.12 6.84 6.85 7.06 7.31 7.49 7.58 6.88 7.02 7.06 7.20 7.09 7.65 7.26 7.67 7.26 7.74 7.40 7.37 7.35 6.90 7.49 7.04 7.64 7.23 7.10 7.20 7.29 7.49 7.70 7.33 6.84 7.36 7.04 7.27 7.43 7.25 7.25 6.99 7.09 7.62 6.90 7.74 7.00 6.95 7.32 7.02 7.67 7.33 7.03 7.09 6.89 7.55 7.28 6.91 7.37 6.88 7.14 7.17 7.11 7.39 7.06 7.09 7.15 7.31 7.02 6.86 7.48 6.92 7.19 7.37 6.99 6.91 7.61 6.83 6.89 7.56 7.73 6.80 7.06 6.80 7.60 6.82 6.84 7.43 6.90 7.08 7.50 7.19 7.28 6.89 6.84 7.52 6.81 7.06 6.85 7.37 7.51 7.12 6.96 6.96 7.73 7.73 7.17 6.93 6.91 7.35 7.04 7.28 7.71 7.46 7.20 7.48 7.25 7.58 7.46 7.13 7.68 7.46 7.65 6.95 6.96 6.99 7.70 7.14 7.54 6.87 7.59 6.92 6.81 6.80 7.42 7.08 7.67 7.18 7.59 7.21 7.70 7.37 7.29 7.60 7.21 7.45 6.80 -9999 -9999 -9999 -9999 -9999 -9999 -9999 -9999 -9999 -9999 -9999 -9999 -9999 -9999 -9999 -9999 -9999 -9999 -9999 -9999 -9999 -9999 -9999 -9999 -9999 -9999 -9999 -9999 -9999 -9999 -9999 -9999 -9999 -9999 -9999 -9999 -9999 -9999 -9999 -9999 -9999 -9999
6.79 7.43 7.69 7.13 6.91 7.15 7.22 7.55 7.65 7.04 7.46 7.33 7.29 7.61 7.22 6.78 7.22 7.59 7.40 7.07 7.63 7.64 7.50 7.24 7.48 7.27 7.05 7.16 7.29 7.56 7.25 7.13 7.45 7.17 7.05 7.00 7.64 7.02 6.75 7.48 7.33 6.80 7.06 7.58 7.32 6.91 7.41 7.00 6.95 7.51 7.18 7.51 7.32 7.42 7.33 7.53 7.03 7.21 6.76 7.66 7.09 7.74 7.42 7.18 7.18 7.02 7.00 7.54 7.70 7.52 7.71 7.26 7.75 7.00 7.01 7.38 7.39 7.65 6.79 7.24 7.15 7.53 6.98 7.35 7.44 6.83 6.82 6.80 7.61 7.26 7.23 7.57 7.71 7.50 7.70 7.11 6.95 6.94 7.16 7.63 7.27 7.12 7.20 7.03 7.20 7.03 6.98 7.71 6.80 7.29 6.83 6.76 7.40 7.48 7.62 7.01 7.15 7.10 6.90 7.58 6.91 6.85 7.72 7.43 7.59 7.57 7.10 7.61 7.33 7.09 7.60 7.61 7.57 7.72 7.54 7.35 7.36 7.22 7.38 7.48 7.53 6.94 7.67 6.98 6.87 7.09 7.45 7.55 7.50 7.56 7.05 7.25 6.85 6.85 7.28 7.64 6.88 7.09 7.49 7.74 7.16 7.43 7.60 7.06 7.35 7.37 7.68 7.23 7.04 7.16 7.02 6.92 7.06 -9999 -9999 -9999 -9999 -9999 -9999 -9999 -9999 -9999 -9999 -9999 -9999 -9999 -9999 -9999 -9999 -9999 -9999 -9999 -9999 -9999 -9999 -9999 -9999 -9999 -9999 -9999 -9999 -9999 -9999 -9999 -9999 -9999 -9999 -9999 -9999 -9999 -9999 -9999 -9999 -9999 -9999
7.53 6.99 7.61 6.96 6.85 7.48 7.28 7.17 7.34 6.90 7.57 7.30 7.50 7.35 6.82 7.29 7.03 7.29 7.39 6.81 6.83 7.16 7.25 7.66 7.57 6.85 7.65 7.69 6.95 7.58 7.02 7.11 7.39 7.58 7.49 7.13 7.25 6.99 7.53 7.30 7.00 7.73 6.84 6.80 6.92 7.67 7.00 7.74 6.98 7.60 7.62 7.55 6.91 7.57 7.69 7.48 7.71 6.83 7.48 7.47 7.15 6.96 7.34 7.62 6.89 7.28 7.41 7.74 6.89 7.14 6.75 7.60 7.07 6.84 7.41 7.22 7.29 7.64 7.07 7.65 7.09 6.85 7.00 7.68 7.14 7.24 7.58 7.29 7.41 7.36 7.61 7.71 7.48 7.38 6.95 6.93 7.40 7.70 6.98 6.77 7.47 7.44 7.05 7.16 6.88 6.80 6.76 7.55 7.31 7.07 7.39 7.25 7.29 7.66 6.81 7.52 7.30 7.48 7.53 6.78 6.83 7.71 7.67 7.29 7.50 6.88 7.72 6.76 6.95 7.56 7.26 6.96 7.55 7.04 7.25 6.79 7.11 7.44 6.97 7.75 7.47 7.27 6.85 7.16 7.70 7.51 6.99 7.43 7.25 7.07 7.11 7.16 7.43 7.20 7.49 7.58 7.72 7.19 7.05 6.90 7.39 7.47 7.68 7.09 7.17 6.83 7.58 6.77 7.57 7.67 7.64 7.09 6.90 7.63 -9999 -9999 -9999 -9999 -9999 -9999 -9999 -9999 -9999 -9999 -9999 -9999 -9999 -9999 -9999 -9999 -9999 -9999 -9999 -9999 -9999 -9999 -9999 -9999 -9999 -9999 -9999 -9999 -9999 -9999 -9999 -9999 -9999 -9999 -9999 -9999 -9999 -9999 -9999 -9999 -9999
7.61 7.69 6.97 7.32 7.05 7.58 6.88 7.30 7.33 6.76 7.49 7.16 7.68 7.28 7.64 7.62 7.28 6.81 7.55 7.54 6.92 6.82 7.19 6.84 7.27 6.86 7.03 7.05 6.95 6.95 7.26 7.61 6.84 6.88 7.72 7.00 7.49 7.19 7.56 6.92 7.61 7.33 7.17 7.49 6.78 7.41 7.75 6.80 7.40 7.21 7.38 7.37 6.94 7.27 7.49 6.97 7.74 6.94 7.50 7.66 6.80 7.34 6.99 7.07 7.27 7.69 7.29 7.57 7.51 7.41 7.48 7.16 6.86 7.48 7.68 7.39 7.12 7.74 7.01 7.67 7.24 6.85 6.86 7.54 7.13 7.11 7.68 7.00 7.54 7.32 6.89 7.42 6.99 7.30 7.19 7.00 6.78 7.66 6.90 7.45 7.33 7.49 7.27 7.74 6.91 6.79 7.20 6.98 7.04 7.29 7.30 7.33 7.68 7.05 7.29 7.48 7.18 7.23 7.09 7.43 6.82 7.64 7.48 6.86 7.12 7.08 7.23 7.68 7.28 6.79 7.55 7.48 7.01 7.26 7.72 7.45 7.47 7.28 7.06 7.60 7.36 7.46 7.14 7.68 7.68 6.75 7.33 7.26 7.27 7.03 7.32 7.53 7.09 6.83 7.06 7.29 7.17 6.87 7.31 6.89 7.04 7.07 7.26 7.25 7.31 7.17 7.14 7.16 7.40 7.32 7.58 7.25 6.86 7.14 -9999 -9999 -9999 -9999 -9999 -9999 -9999 -9999 -9999 -9999 -9999 -9999 -9999 -9999 -9999 -9999 -9999 -9999 -9999 -9999 -9999 -9999 -9999 -9999 -9999 -9999 -9999 -9999 -9999 -9999 -9999 -9999 -9999 -9999 -9999 -9999 -9999 -9999 -9999 -9999 -9999
7.24 6.89 7.63 6.96 6.76 7.22 7.48 7.64 7.55 7.19 7.08 7.51 7.09 7.19 7.08 7.03 7.58 7.27 7.13 7.00 7.34 7.00 7.07 7.41 7.07 7.15 7.02 7.51 7.67 7.33 7.29 7.55 7.18 7.10 7.48 7.74 7.02 7.03 7.08 6.84 7.33 7.11 7.09 6.89 7.31 7.57 7.23 7.19 7.29 6.80 7.08 7.34 7.20 7.10 7.14 7.65 6.92 7.00 7.20 7.10 7.06 7.13 7.14 7.40 6.95 6.81 7.10 7.19 6.87 7.10 7.14 7.07 7.60 7.42 6.89 7.47 6.97 7.29 7.46 7.48 6.81 7.34 7.14 6.75 6.81 6.90 7.24 7.46 7.06 7.52 7.12 7.15 6.92 7.70 6.83 7.36 7.29 7.55 6.80 7.26 7.00 7.51 7.24 7.61 6.87 7.05 7.10 6.78 7.31 7.52 6.76 7.16 7.10 6.96 7.66 7.51 7.27 6.84 6.87 7.55 7.00 6.96 7.58 7.66 7.48 6.89 7.12 7.47 6.78 7.49 7.62 7.02 7.74 7.17 7.63 7.41 7.06 7.67 7.51 7.75 7.31 7.44 7.30 7.03 6.95 7.72 7.07 6.81 7.06 7.73 6.91 7.01 7.49 7.71 7.38 7.04 6.91 7.58 7.59 7.65 7.66 7.05 7.03 7.14 6.99 6.93 6.76 7.67 7.64 7.09 7.63 7.33 7.09 7.13 -9999 -9999 -9999 -9999 -9999 -9999 -9999 -9999 -9999 -9999 -9999 -9999 -9999 -9999 -9999 -9999 -9999 -9999 -9999 -9999 -9999 -9999 -9999 -9999 -9999 -9999 -9999 -9999 -9999 -9999 -9999 -9999 -9999 -9999 -9999 -9999 -9999 -9999 -9999 -9999 -9999
6.91 7.23 7.41 7.33 7.28 7.66 7.51 7.56 7.57 7.72 7.25 7.43 7.08 7.49 7.71 7.14 7.12 6.79 7.51 7.23 7.71 7.19 7.74 7.16 7.71 7.04 7.44 7.73 7.19 7.66 7.32 6.82 7.50 7.70 6.80 7.08 7.59 6.98 6.83 7.49 7.24 6.96 6.97 7.44 7.44 6.95 7.18 7.55 6.94 7.16 7.14 6.93 7.61 7.56 7.45 7.59 7.71 7.22 7.39 7.51 7.07 7.43 6.91 7.22 7.06 6.77 7.31 7.12 7.09 6.96 7.73 7.57 7.13 7.68 7.59 7.16 6.80 7.53 6.83 7.35 7.56 7.07 7.62 7.45 6.93 7.33 7.20 7.43 7.61 7.01 7.41 6.91 7.45 7.24 7.53 7.69 7.00 7.35 7.70 7.06 7.69 7.42 6.99 7.12 6.84 6.97 7.07 6.82 7.03 7.26 7.11 7.74 7.23 7.09 7.01 7.26 7.21 7.41 6.79 7.34 7.51 6.97 6.87 7.67 7.36 6.78 7.50 7.37 7.07 7.14 6.86 7.74 7.40 7.43 7.43 7.14 7.07 7.40 6.98 7.73 7.17 6.85 7.48 7.09 7.11 6.90 6.82 7.21 7.06 7.65 6.90 7.73 7.29 6.91 7.08 7.63 6.90 7.05 7.33 7.16 7.55 6.89 7.31 6.83 7.01 7.42 6.99 7.12 7.58 6.82 7.58 7.10 7.34 6.85 -9999 -9999 -9999 -9999 -9999 -9999 -9999 -9999 -9999 -9999 -9999 -9999 -9999 -9999 -9999 -9999 -9999 -9999 -9999 -9999 -9999 -9999 -9999 -9999 -9999 -9999 -9999 -9999 -9999 -9999 -9999 -9999 -9999 -9999 -9999 -9999 -9999 -9999 -9999 -9999 -9999
7.64 7.42 7.25 7.21 6.85 7.56 7.22 7.12 7.08 7.13 7.44 6.99 6.90 7.57 7.00 7.67 7.13 7.35 7.56 7.19 7.61 7.11 7.33 7.43 6.78 7.53 7.48 7.54 7.59 7.30 7.13 7.24 6.98 7.13 6.93 7.03 7.47 7.54 7.41 7.28 7.29 7.48 7.08 7.30 7.25 7.00 7.71 6.83 6.88 6.84 7.69 7.35 7.29 7.45 7.36 7.50 7.67 7.01 7.32 7.09 7.64 6.89 7.12 7.57 7.70 7.64 6.89 6.87 7.19 7.13 7.49 7.72 7.56 7.26 7.00 7.58 7.16 7.66 6.77 6.87 7.43 7.64 7.06 7.43 6.97 7.03 7.20 6.87 6.95 7.38 7.60 7.52 7.65 6.99 7.53 7.64 7.51 6.76 7.31 7.25 7.42 7.10 7.36 7.71 7.05 7.73 6.97 6.99 7.36 7.20 7.66 7.60 7.70 7.09 7.35 7.48 7.54 7.23 7.15 7.38 7.60 7.15 6.94 7.18 6.86 7.43 6.81 7.26 7.51 6.92 6.75 7.18 7.20 7.68 7.13 7.67 7.15 7.56 6.93 6.89 6.90 7.75 7.71 7.58 7.14 7.34 7.03 6.89 7.26 7.00 6.93 6.98 7.02 6.87 6.79 7.47 7.43 7.63 7.11 7.03 7.65 6.99 7.36 7.27 6.98 7.19 7.62 7.66 6.88 7.11 7.68 6.94 7.22 7.13 -9999 -9999 -9999 -9999 -9999 -9999 -9999 -9999 -9999 -9999 -9999 -9999 -9999 -9999 -9999 -9999 -9999 -9999 -9999 -9999 -9999 -9999 -9999 -9999 -9999 -9999 -9999 -9999 -9999 -9999 -9999 -9999 -9999 -9999 -9999 -9999 -9999 -9999 -9999 -9999 -9999
7.66 7.40 6.96 7.13 7.29 6.84 7.34 6.91 6.83 7.27 6.78 7.18 7.19 7.29 6.82 7.00 7.50 7.53 7.22 7.38 7.40 6.90 7.63 7.45 7.43 7.59 7.18 7.72 6.91 7.03 6.77 7.68 6.93 7.34 6.77 6.80 7.40 7.32 6.77 7.12 7.05 7.34 7.72 6.75 7.72 7.67 6.81 6.85 7.13 7.61 7.50 7.49 6.87 7.16 7.17 7.63 7.11 7.22 6.83 6.91 7.06 7.49 6.89 7.63 7.45 7.57 7.59 6.83 7.17 7.43 7.53 7.29 7.74 7.13 7.60 7.28 7.75 6.90 7.30 7.13 7.67 6.82 7.59 7.13 7.53 7.74 7.36 7.36 7.70 6.85 7.26 7.63 7.66 7.04 7.36 7.04 7.53 6.77 6.84 6.79 7.67 6.93 7.03 7.10 7.59 7.09 7.18 7.43 7.19 6.88 7.29 7.14 6.80 7.39 7.48 7.15 6.88 7.44 7.34 7.65 7.69 6.81 7.34 7.66 7.01 7.19 7.09 6.75 7.21 7.18 7.39 7.56 7.52 7.04 7.09 6.78 7.54 7.16 7.29 7.09 6.76 7.57 7.52 7.40 7.52 7.67 7.56 7.18 7.58 7.22 7.61 6.77 7.57 7.13 6.94 7.03 6.97 7.18 7.18 6.96 7.28 7.07 7.32 7.44 7.37 6.85 7.41 7.01 6.84 7.55 7.74 7.29 7.64 7.19 -9999 -9999 -9999 -9999 -9999 -9999 -9999 -9999 -9999 -9999 -9999 -9999 -9999 -9999 -9999 -9999 -9999 -9999 -9999 -9999 -9999 -9999 -9999 -9999 -9999 -9999 -9999 -9999 -9999 -9999 -9999 -9999 -9999 -9999 -9999 -9999 -9999 -9999 -9999 -9999 -9999
7.16 7.23 7.64 7.47 6.77 7.28 6.96 6.89 7.23 7.31 7.64 6.92 7.16 7.65 7.33 7.72 7.02 7.20 7.62 7.49 7.02 7.38 7.34 7.35 6.83 6.88 7.61 7.31 6.99 6.97 7.69 7.38 7.11 7.70 7.38 7.01 7.57 6.86 7.14 7.36 6.79 7.38 6.80 7.21 6.96 6.78 7.47 7.03 6.94 6.75 6.87 7.62 7.37 7.26 6.78 7.32 7.57 7.39 7.14 7.09 7.66 6.96 7.41 7.11 7.41 7.34 7.37 7.65 6.78 6.83 7.56 7.00 7.54 7.00 7.69 6.89 7.27 7.58 6.82 7.62 7.44 6.85 6.95 7.49 7.54 7.69 7.22 6.87 6.97 6.82 7.64 7.66 6.82 7.57 7.56 7.64 6.85 7.42 7.61 7.01 7.49 7.17 7.15 7.15 6.96 7.32 7.72 7.25 7.29 7.01 7.67 7.54 7.11 6.94 7.18 7.62 6.97 7.54 7.67 7.09 7.12 7.33 7.11 6.87 7.06 7.29 7.26 6.99 6.80 7.58 7.37 7.44 7.55 7.36 6.81 7.43 7.69 7.29 7.04 6.89 7.19 6.94 7.36 6.83 6.80 6.97 7.19 7.37 7.18 7.00 7.37 7.50 7.47 6.87 7.43 7.01 7.42 7.12 6.75 7.66 6.77 7.34 7.55 7.41 7.38 7.09 7.18 6.85 7.41 7.38 7.62 7.15 7.47 7.69 -9999 -9999 -9999 -9999 -9999 -9999 -9999 -9999 -9999 -9999 -9999 -9999 -9999 -9999 -9999 -9999 -9999 -9999 -9999 -9999 -9999 -9999 -9999 -9999 -9999 -9999 -9999 -9999 -9999 -9999 -9999 -9999 -9999 -9999 -9999 -9999 -9999 -9999 -9999 -9999 -9999
7.29 7.40 7.23 7.40 7.01 7.68 7.39 7.68 7.62 6.90 6.87 7.02 7.70 7.03 7.03 7.46 6.91 7.28 7.73 7.40 6.99 7.17 7.01 7.48 7.47 7.13 7.58 7.43 7.36 7.50 6.99 6.93 7.72 7.55 6.80 7.53 7.26 7.39 7.57 7.69 7.36 7.16 7.74 7.70 6.98 7.69 6.86 6.81 7.26 7.48 7.27 7.20 6.88 7.06 7.22 7.28 7.00 7.42 7.70 6.90 6.77 7.17 7.37 7.59 6.98 7.74 7.34 6.96 7.32 7.59 7.68 6.80 7.25 6.83 7.45 7.59 7.70 6.89 7.19 7.50 7.26 7.30 7.41 7.11 7.69 7.00 6.86 6.89 6.83 7.02 7.67 6.82 7.48 7.61 6.93 7.75 7.41 7.01 7.36 7.30 6.91 7.36 6.76 6.98 7.25 7.73 7.04 7.72 7.59 6.79 6.93 6.77 7.22 7.75 6.78 7.38 7.34 7.24 7.27 7.39 7.04 7.30 6.98 7.53 7.07 7.70 7.38 7.04 7.08 6.80 7.33 6.94 6.87 6.85 7.67 7.41 7.32 7.46 6.83 7.55 7.45 6.85 7.63 6.95 7.11 7.55 7.51 7.03 7.13 6.95 6.84 7.53 6.98 7.18 7.00 7.57 6.79 6.75 7.33 7.63 6.88 7.70 7.68 7.04 7.53 7.47 6.79 7.31 7.23 7.18 7.19 6.76 7.53 7.09 6.98 -9999 -9999 -9999 -9999 -9999 -9999 -9999 -9999 -9999 -9999 -9999 -9999 -9999 -9999 -9999 -9999 -9999 -9999 -9999 -9999 -9999 -9999 -9999 -9999 -9999 -9999 -9999 -9999 -9999 -9999 -9999 -9999 -9999 -9999 -9999 -9999 -9999 -9999 -9999 -9999
6.78 7.48 7.63 7.64 6.85 6.76 7.00 7.00 7.20 7.42 7.17 7.16 7.47 7.09 7.17 7.41 7.61 7.10 7.00 7.29 7.26 7.71 7.03 6.96 7.69 7.47 7.45 7.49 7.75 7.00 7.61 7.44 7.62 6.96 7.13 7.42 7.16 6.92 7.62 7.41 7.69 7.36 7.61 7.37 7.42 7.31 7.19 7.00 6.81 7.30 7.61 7.64 7.52 7.07 7.16 7.18 7.75 7.41 6.94 7.37 7.42 7.50 7.14 6.82 7.04 6.93 7.05 7.69 7.73 7.17 6.96 7.74 6.89 7.51 7.19 7.53 6.85 7.56 7.04 6.92 6.77 7.15 7.16 6.88 7.31 7.34 7.73 7.72 7.46 7.71 7.25 7.23 6.88 7.39 7.34 7.07 7.69 6.92 7.45 6.85 7.74 7.29 7.06 6.85 6.81 7.00 6.83 7.34 7.56 7.44 7.25 7.69 6.82 7.33 7.41 7.21 6.78 7.49 6.93 7.15 7.21 6.89 6.91 6.87 7.56 7.27 6.87 6.81 7.61 7.56 7.41 7.31 7.57 7.58 6.91 7.02 7.09 7.24 6.84 7.36 7.26 6.98 7.14 7.47 7.09 7.46 7.21 7.37 7.29 7.75 6.77 7.13 7.65 6.86 7.14 7.46 7.62 7.13 7.08 7.41 7.00 7.58 7.24 7.43 7.19 7.60 7.38 6.89 7.33 7.51 7.50 6.75 7.33 7.63 6.87 -9999 -9999 -9999 -9999 -9999 -9999 -9999 -9999 -9999 -9999 -9999 -9999 -9999 -9999 -9999 -9999 -9999 -9999 -9999 -9999 -9999 -9999 -9999 -9999 -9999 -9999 -9999 -9999 -9999 -9999 -9999 -9999 -9999 -9999 -9999 -9999 -9999 -9999 -9999 -9999
7.16 6.93 7.06 6.87 7.61 7.39 6.94 6.80 7.51 7.36 7.40 7.25 7.33 7.52 7.08 6.87 6.87 7.20 7.60 7.28 7.58 6.84 7.66 7.54 7.37 7.73 7.29 7.21 7.19 7.41 6.76 7.31 7.74 7.47 6.84 7.33 6.82 6.77 7.14 6.98 6.76 7.54 6.98 6.96 6.82 7.68 7.27 7.39 7.56 7.47 7.38 6.90 6.91 7.18 7.13 7.65 7.34 7.65 7.08 7.25 7.52 7.69 7.47 6.88 7.59 7.20 6.83 6.96 7.54 7.26 6.98 7.34 6.98 7.43 7.00 7.70 7.73 7.70 7.22 7.18 7.23 7.73 6.90 6.75 6.84 7.61 7.40 7.18 7.71 7.61 7.15 7.65 7.42 6.82 6.93 6.78 7.38 6.87 7.04 7.44 7.63 7.12 7.70 7.02 7.45 7.19 7.51 6.87 7.13 6.88 7.11 7.16 6.86 6.94 7.13 6.94 7.31 7.16 7.36 6.87 7.28 7.67 7.62 7.01 7.47 7.13 6.89 7.58 6.90 7.59 6.99 7.52 7.14 7.36 7.75 7.23 7.21 7.24 7.32 7.38 7.30 7.35 7.32 6.93 6.93 7.68 7.62 6.81 7.28 7.38 7.75 7.72 7.26 6.96 7.06 7.62 6.78 7.66 7.35 7.49 7.29 7.13 7.42 7.17 7.08 6.90 7.36 7.46 7.07 7.11 7.17 7.67 7.22 6.96 6.97 -9999 -9999 -9999 -9999 -9999 -9999 -9999 -9999 -9999 -9999 -9999 -9999 -9999 -9999 -9999 -9999 -9999 -9999 -9999 -9999 -9999 -9999 -9999 -9999 -9999 -9999 -9999 -9999 -9999 -9999 -9999 -9999 -9999 -9999 -9999 -9999 -9999 -9999 -9999 -9999
7.20 6.92 6.93 7.02 7.45 7.47 7.11 6.87 7.41 7.42 7.38 7.42 7.61 7.57 7.27 6.76 7.04 7.72 7.59 6.95 7.74 7.03 6.79 7.66 7.45 7.02 7.29 7.49 7.32 7.17 7.71 7.22 7.38 6.89 6.95 7.72 7.67 7.25 7.19 7.16 7.75 6.95 7.61 7.13 7.44 7.65 7.63 7.11 7.40 7.74 7.45 7.24 6.89 6.78 7.74 7.56 7.22 7.56 7.29 6.88 7.69 7.52 7.25 7.30 7.63 7.64 7.09 7.56 7.50 7.65 7.38 6.83 6.77 7.17 7.26 7.30 7.10 6.86 7.46 7.61 7.25 6.75 6.94 7.57 6.95 7.23 6.76 7.23 7.63 6.86 6.94 7.44 7.36 7.33 6.97 6.84 7.14 7.28 7.30 7.05 7.33 7.42 6.88 7.05 6.82 6.91 7.75 6.97 6.92 7.29 6.91 6.77 7.23 7.54 6.80 7.58 7.68 7.22 7.11 7.09 7.68 6.92 7.56 7.36 7.51 7.17 7.42 7.56 7.22 7.36 7.11 6.77 7.57 7.71 7.39 7.10 7.69 7.39 7.71 7.59 7.24 7.21 6.95 7.54 7.63 7.07 7.63 6.85 7.15 6.80 7.22 7.39 7.50 7.46 7.68 7.08 7.59 6.94 7.38 7.39 7.28 6.99 7.29 6.97 7.29 7.02 6.77 7.56 7.62 7.00 6.75 7.15 6.79 7.39 7.49 -9999 -9999 -9999 -9999 -9999 -9999 -9999 -9999 -9999 -9999 -9999 -9999 -9999 -9999 -9999 -9999 -9999 -9999 -9999 -9999 -9999 -9999 -9999 -9999 -9999 -9999 -9999 -9999 -9999 -9999 -9999 -9999 -9999 -9999 -9999 -9999 -9999 -9999 -9999 -9999
7.69 7.33 7.33 7.01 7.41 7.23 7.28 7.73 7.02 7.74 6.90 7.63 7.55 6.95 7.14 7.41 6.98 7.71 7.43 6.98 7.17 7.54 7.26 7.10 7.23 7.01 7.47 7.49 7.21 7.48 6.94 7.43 7.35 6.94 7.01 6.79 7.29 7.39 7.15 7.39 7.56 7.22 7.18 7.64 7.46 7.00 6.82 7.18 7.43 6.81 7.40 7.70 7.08 7.68 7.60 7.52 7.33 7.10 6.92 7.14 7.04 7.46 7.08 6.80 7.67 7.37 7.52 7.10 7.64 6.89 6.86 7.49 7.64 6.91 7.62 7.53 7.19 7.71 7.56 6.86 7.53 7.44 7.17 7.40 6.79 7.68 7.53 7.50 7.12 6.81 7.50 6.79 7.65 7.09 7.41 7.25 7.09 7.18 6.82 7.20 7.68 6.81 6.90 7.32 6.76 7.16 7.17 7.28 7.35 7.52 7.68 7.58 6.77 7.28 7.61 7.32 7.06 7.20 7.49 7.44 7.11 7.13 7.66 7.09 6.90 7.31 6.93 7.67 7.62 7.00 7.27 7.73 6.96 6.99 7.60 7.43 6.93 7.26 7.75 7.26 7.03 6.96 7.15 6.90 6.76 7.29 7.57 6.80 7.22 7.01 6.97 6.98 6.93 7.39 6.84 6.88 6.78 7.48 7.31 7.21 7.31 7.69 7.23 7.09 6.93 7.07 7.63 7.74 7.75 7.34 7.02 6.89 7.12 7.73 6.97 -9999 -9999 -9999 -9999 -9999 -9999 -9999 -9999 -9999 -9999 -9999 -9999 -9999 -9999 -9999 -9999 -9999 -9999 -9999 -9999 -9999 -9999 -9999 -9999 -9999 -9999 -9999 -9999 -9999 -9999 -9999 -9999 -9999 -9999 -9999 -9999 -9999 -9999 -9999 -9999
7.37 7.54 6.90 7.29 7.50 7.74 7.18 7.04 7.26 6.89 7.17 7.57 7.45 7.62 7.42 7.71 7.17 6.85 7.07 7.45 7.38 7.49 7.37 7.16 6.99 7.70 7.71 6.85 7.19 7.70 6.91 6.94 7.03 7.13 7.05 6.96 7.10 7.51 7.00 7.37 7.68 7.10 7.50 7.00 7.30 7.67 7.27 7.38 7.55 7.35 7.25 6.99 7.22 7.02 7.06 7.04 6.98 7.50 7.60 6.96 7.20 7.28 7.40 7.40 7.33 7.00 7.11 7.54 7.53 6.83 7.51 7.03 6.97 7.26 7.69 7.48 6.98 7.02 6.79 7.21 7.11 7.48 6.92 7.18 7.25 7.25 7.50 7.34 7.74 7.20 7.18 7.52 7.73 7.46 7.18 7.63 7.38 6.78 7.23 7.23 7.57 7.32 7.41 7.26 7.49 7.01 6.86 7.57 7.17 7.69 7.03 7.19 6.87 7.24 7.22 6.87 7.49 7.40 7.21 6.83 6.91 7.52 7.64 7.03 6.95 7.25 7.10 7.45 7.10 7.31 7.17 7.22 7.74 7.51 7.40 7.20 7.17 7.24 7.59 7.28 6.87 7.50 7.52 7.33 7.74 6.77 7.74 7.01 7.41 6.78 6.90 6.96 7.54 7.58 7.05 7.05 6.83 6.75 6.79 7.15 7.42 7.51 7.02 7.65 7.58 6.82 7.04 6.92 7.24 7.47 6.88 7.10 7.15 7.75 7.59 -9999 -9999 -9999 -9999 -9999 -9999 -9999 -9999 -9999 -9999 -9999 -9999 -9999 -9999 -9999 -9999 -9999 -9999 -9999 -9999 -9999 -9999 -9999 -9999 -9999 -9999 -9999 -9999 -9999 -9999 -9999 -9999 -9999 -9999 -9999 -9999 -9999 -9999 -9999 -9999
7.44 6.89 7.62 7.74 7.75 6.88 7.11 7.06 7.56 6.79 7.67 7.00 7.45 7.55 7.05 6.97 7.58 6.78 7.30 7.23 7.34 7.38 7.66 7.16 7.48 7.74 7.38 7.38 6.80 6.98 6.79 7.53 7.68 7.70 7.61 7.23 6.85 7.24 6.76 7.73 7.71 6.81 7.21 7.47 7.16 7.17 6.94 7.18 7.30 6.93 7.17 7.39 7.18 7.54 7.61 6.81 7.68 7.67 6.94 7.53 7.08 7.55 7.20 7.13 7.12 7.54 7.01 7.55 7.21 7.33 7.42 7.28 7.29 7.63 7.39 7.52 6.83 6.78 7.36 7.17 7.58 7.06 7.18 7.18 6.98 7.70 7.17 6.93 6.88 6.84 7.54 7.67 7.37 7.32 6.76 7.73 7.74 7.22 7.51 7.45 7.26 7.04 7.26 7.10 7.28 7.09 7.66 7.46 7.58 7.19 6.79 7.09 7.35 7.62 7.28 6.92 6.77 6.99 7.45 7.34 7.25 6.77 7.75 7.61 7.72 7.44 6.99 7.21 7.09 7.70 6.96 7.50 6.97 7.27 7.06 7.73 7.16 7.66 7.21 7.59 6.93 7.15 7.59 7.42 7.34 7.58 6.89 7.44 7.75 7.50 6.97 7.31 7.34 6.98 6.80 7.20 6.89 7.30 7.35 7.50 7.27 7.40 7.50 7.59 7.20 7.47 6.76 6.78 7.00 7.43 7.49 7.33 7.65 7.02 7.36 -9999 -9999 -9999 -9999 -9999 -9999 -9999 -9999 -9999 -9999 -9999 -9999 -9999 -9999 -9999 -9999 -9999 -9999 -9999 -9999 -9999 -9999 -9999 -9999 -9999 -9999 -9999 -9999 -9999 -9999 -9999 -9999 -9999 -9999 -9999 -9999 -9999 -9999 -9999 -9999
7.50 7.29 7.57 7.68 6.76 7.17 7.16 7.51 7.31 6.96 7.09 7.60 6.95 7.12 7.35 7.55 7.09 7.56 7.14 7.51 7.09 7.68 6.85 7.66 7.05 7.14 7.36 7.16 6.79 7.38 7.26 6.77 6.91 7.05 7.65 6.87 7.16 6.87 6.76 7.56 7.06 7.50 6.89 7.01 7.13 7.05 7.68 7.70 7.00 7.06 7.62 7.18 7.51 6.93 7.49 7.34 7.19 7.65 7.01 7.37 6.87 7.51 7.26 6.92 6.89 7.41 7.69 7.14 6.82 7.60 7.61 7.42 7.17 7.41 7.37 6.83 7.14 7.08 7.11 7.08 7.27 7.18 7.53 7.07 6.95 6.91 6.95 7.35 7.74 7.22 7.63 7.14 6.78 6.88 6.82 7.17 7.72 6.94 6.84 7.17 7.51 7.38 7.31 7.32 7.52 7.47 7.17 6.81 7.17 7.05 7.33 7.07 7.33 6.82 7.33 7.43 7.04 7.58 7.17 7.21 6.88 7.61 7.59 7.58 7.25 7.70 7.23 7.21 6.98 7.52 6.92 7.69 7.47 7.55 6.79 6.87 7.59 7.52 7.36 6.77 7.18 7.23 7.66 7.45 6.93 6.99 7.29 6.86 7.06 7.19 7.63 7.51 6.92 7.06 7.49 7.26 7.47 7.73 7.53 6.89 7.40 6.95 7.30 6.85 7.08 7.30 7.65 7.50 6.80 7.28 7.60 7.34 7.74 7.67 6.91 7.38 -9999 -9999 -9999 -9999 -9999 -9999 -9999 -9999 -9999 -9999 -9999 -9999 -9999 -9999 -9999 -9999 -9999 -9999 -9999 -9999 -9999 -9999 -9999 -9999 -9999 -9999 -9999 -9999 -9999 -9999 -9999 -9999 -9999 -9999 -9999 -9999 -9999 -9999 -9999
7.46 7.39 7.53 7.54 7.40 7.11 6.92 6.93 7.41 7.19 7.60 7.16 7.55 7.69 7.43 7.32 7.49 7.15 7.48 7.74 7.66 6.95 7.48 7.60 7.64 7.09 7.24 6.98 7.19 7.63 7.31 7.56 7.71 7.22 7.51 7.40 7.00 7.37 7.60 7.58 7.17 6.83 6.78 6.98 7.73 7.26 6.80 7.37 7.07 7.60 6.89 7.49 7.39 6.91 6.89 7.20 6.79 7.54 7.08 6.96 7.16 7.50 6.79 6.79 7.42 6.89 7.73 7.38 7.71 6.99 7.47 6.87 7.52 7.66 7.25 7.61 7.38 7.70 7.54 7.65 6.89 7.29 6.85 7.23 6.77 7.28 7.73 6.82 7.51 7.52 6.92 7.04 7.63 7.34 7.29 6.86 7.67 6.95 7.57 7.08 7.55 7.69 7.49 6.81 7.53 7.23 6.96 7.14 7.30 7.71 7.32 7.57 7.59 7.42 7.38 7.29 7.05 7.00 6.85 6.79 6.98 6.87 7.70 7.68 7.18 7.18 7.22 7.19 7.00 6.75 7.34 7.36 7.73 7.17 6.82 6.84 7.57 6.86 6.96 7.11 6.94 7.47 7.01 7.37 7.47 7.06 7.36 7.34 7.69 6.76 7.10 7.48 7.26 7.58 7.02 7.35 7.38 6.87 7.49 6.77 6.91 7.61 7.37 7.29 7.32 7.75 6.80 7.21 6.94 7.05 7.59 7.00 6.78 7.41 6.89 7.54 -9999 -9999 -9999 -9999 -9999 -9999 -9999 -9999 -9999 -9999 -9999 -9999 -9999 -9999 -9999 -9999 -9999 -9999 -9999 -9999 -9999 -9999 -9999 -9999 -9999 -9999 -9999 -9999 -9999 -9999 -9999 -9999 -9999 -9999 -9999 -9999 -9999 -9999 -9999
7.19 7.45 7.18 7.26 7.63 7.60 7.32 7.52 7.65 7.35 7.47 7.58 7.61 6.84 6.87 6.82 7.31 7.28 7.24 7.72 7.33 7.44 7.09 7.14 7.49 6.92 7.65 7.04 7.53 7.48 6.89 7.54 6.95 6.95 7.57 7.50 6.84 6.80 7.03 6.93 6.99 7.12 6.79 7.47 7.33 7.13 6.97 7.24 7.58 6.92 7.70 6.99 7.36 7.65 6.91 7.53 7.36 7.59 6.86 7.64 7.55 6.90 7.43 6.91 7.48 7.69 7.10 7.32 6.90 7.72 6.78 6.93 7.58 7.41 7.02 7.56 7.41 7.11 7.45 7.19 7.15 6.79 6.75 7.32 7.42 7.14 6.98 6.82 7.34 7.59 7.74 6.79 6.76 7.49 7.09 7.51 7.61 7.21 7.19 6.80 6.91 7.72 7.06 6.93 7.52 6.81 7.63 7.36 6.89 6.91 7.67 7.27 7.18 7.03 6.82 7.42 6.94 7.25 7.26 7.09 7.31 7.23 7.01 7.15 6.81 7.54 7.49 7.55 7.14 7.68 7.15 7.32 6.80 7.35 7.61 6.94 7.69 7.15 7.20 7.59 7.19 6.81 7.31 7.24 7.61 7.00 7.13 7.73 7.32 7.11 7.67 7.08 7.63 6.88 6.99 7.73 6.98 7.68 6.92 7.36 6.95 7.23 7.46 7.11 6.77 7.11 7.38 7.00 6.79 7.33 7.34 -9999 -9999 -9999 -9999 -9999 -9999 -9999 -9999 -9999 -9999 -9999 -9999 -9999 -9999 -9999 -9999 -9999 -9999 -9999 -9999 -9999 -9999 -9999 -9999 -9999 -9999 -9999 -9999 -9999 -9999 -9999 -9999 -9999 -9999 -9999 -9999 -9999 -9999 -9999 -9999 -9999 -9999 -9999 -9999
7.25 7.59 7.09 7.54 7.00 7.44 7.12 7.44 7.10 7.26 7.05 7.21 6.78 6.91 6.80 7.28 6.99 7.48 6.98 7.65 6.96 7.22 6.86 7.23 7.57 7.20 7.43 7.06 7.58 6.84 7.42 7.03 7.02 7.33 7.14 7.27 7.58 7.40 7.58 7.16 6.80 7.52 7.00 7.59 6.93 7.47 7.45 7.49 6.99 7.54 7.65 7.73 7.34 7.57 7.02 7.71 7.59 6.81 7.21 7.27 7.34 7.27 7.04 6.87 7.21 6.96 7.67 7.63 7.29 7.45 7.02 7.31 7.10 6.99 7.06 7.20 7.56 7.33 6.85 7.01 7.10 7.43 7.28 7.29 7.44 7.59 7.61 6.84 6.88 7.42 6.80 6.89 7.05 7.58 7.08 6.89 7.71 7.59 6.91 7.30 7.22 7.04 7.01 7.46 7.36 6.81 6.99 7.40 6.83 7.25 7.63 7.23 6.77 7.59 7.66 6.76 7.16 7.51 6.76 6.95 7.74 7.39 7.02 7.10 7.72 7.27 6.79 7.17 6.90 7.59 7.64 7.28 6.82 7.36 6.78 7.04 6.97 7.09 7.10 7.55 7.09 6.81 6.99 7.43 7.19 7.08 6.91 7.53 6.97 7.18 7.30 7.12 7.38 7.01 7.40 7.00 6.78 6.85 6.87 7.41 7.05 6.90 7.10 7.71 -9999 -9999 -9999 -9999 -9999 -9999 -9999 -9999 -9999 -9999 -9999 -9999 -9999 -9999 -9999 -9999 -9999 -9999 -9999 -9999 -9999 -9999 -9999 -9999 -9999 -9999 -9999 -9999 -9999 -9999 -9999 -9999 -9999 -9999 -9999 -9999 -9999 -9999 -9999 -9999 -9999 -9999 -9999 -9999 -9999 -9999 -9999 -9999 -9999 -9999 -9999
6.89 6.86 6.92 7.04 7.74 7.15 6.90 7.07 7.41 7.60 7.06 6.78 6.97 7.29 7.01 6.76 7.32 7.16 7.51 7.62 7.44 7.41 6.93 7.08 7.24 7.06 7.50 7.31 6.91 6.98 6.89 7.01 6.76 6.80 6.95 6.96 7.05 7.27 6.86 7.67 7.23 6.96 7.48 7.60 6.97 7.19 7.19 7.37 7.29 7.40 7.18 7.67 7.31 7.30 7.18 7.14 7.49 7.31 7.71 7.34 6.76 7.30 7.59 7.22 7.29 7.50 7.57 7.16 7.70 6.89 7.36 7.35 7.47 6.79 7.28 7.04 6.86 7.59 7.16 7.54 7.20 6.84 7.09 7.64 7.46 6.95 7.22 7.62 6.89 7.52 7.68 6.77 7.27 7.36 7.49 7.48 7.45 6.93 7.68 6.78 6.85 7.46 7.31 7.59 7.70 7.12 6.94 7.21 7.18 7.31 6.89 7.75 7.51 7.50 7.14 6.89 7.51 7.51 7.35 7.02 7.23 7.11 7.19 7.05 7.61 7.32 7.19 7.25 7.39 7.24 6.77 7.06 7.56 7.22 6.94 7.51 7.63 7.68 7.05 6.96 7.71 7.27 7.40 7.69 7.34 6.95 7.32 7.01 7.57 7.36 6.88 7.25 6.90 7.45 7.70 7.16 -9999 -9999 -9999 -9999 -9999 -9999 -9999 -9999 -9999 -9999 -9999 -9999 -9999 -9999 -9999 -9999 -9999 -9999 -9999 -9999 -9999 -9999 -9999 -9999 -9999 -9999 -9999 -9999 -9999 -9999 -9999 -9999 -9999 -9999 -9999 -9999 -9999 -9999 -9999 -9999 -9999 -9999 -9999 -9999 -9999 -9999 -9999 -9999 -9999 -9999 -9999 -9999 -9999 -9999 -9999 -9999 -9999 -9999 -9999
7.23 7.50 7.49 6.90 6.92 7.15 7.67 7.54 6.75 7.72 7.00 7.03 7.24 7.67 6.76 6.90 6.89 7.19 6.89 6.89 6.85 7.64 6.96 7.31 7.23 7.23 7.43 7.04 7.30 7.06 6.92 7.63 7.23 7.70 7.14 6.80 6.94 6.76 6.90 6.95 7.39 7.49 7.09 6.86 7.45 6.78 6.94 7.01 7.20 7.54 7.57 7.65 7.15 7.11 7.48 7.52 6.92 7.59 7.71 7.74 7.41 7.24 7.59 7.20 7.23 7.50 7.07 7.33 6.88 6.83 7.08 7.71 7.26 7.22 7.36 7.18 7.46 7.06 7.65 7.32 7.58 7.10 6.81 7.56 7.17 7.67 7.56 6.88 7.71 7.04 6.92 7.36 6.88 6.78 7.63 7.65 7.18 7.43 6.76 7.35 7.12 6.96 7.65 7.21 7.13 7.57 7.56 6.83 7.50 6.83 7.31 6.81 7.44 6.75 7.05 6.90 7.33 7.10 7.07 6.85 7.26 7.50 6.98 7.56 7.31 7.42 7.05 6.82 6.78 7.50 7.32 6.90 7.53 7.26 7.50 6.76 7.51 7.62 7.25 7.09 7.42 7.56 7.45 7.36 7.01 7.25 7.21 6.82 6.85 -9999 -9999 -9999 -9999 -9999 -9999 -9999 -9999 -9999 -9999 -9999 -9999 -9999 -9999 -9999 -9999 -9999 -9999 -9999 -9999 -9999 -9999 -9999 -9999 -9999 -9999 -9999 -9999 -9999 -9999 -9999 -9999 -9999 -9999 -9999 -9999 -9999 -9999 -9999 -9999 -9999 -9999 -9999 -9999 -9999 -9999 -9999 -9999 -9999 -9999 -9999 -9999 -9999 -9999 -9999 -9999 -9999 -9999 -9999 -9999 -9999 -9999 -9999 -9999 -9999 -9999
7.58 7.42 7.46 7.19 7.01 7.59 7.72 7.18 7.37 7.18 7.04 7.27 7.47 6.98 6.96 7.74 7.69 7.15 7.66 6.84 6.83 7.02 7.71 7.49 7.58 7.49 7.20 6.84 7.49 7.23 6.94 7.13 7.08 6.86 6.84 7.65 6.96 7.39 7.40 7.11 7.41 7.02 7.08 7.63 7.59 6.98 7.56 7.09 7.49 7.62 6.99 6.78 7.66 7.32 6.85 7.62 7.24 6.80 7.26 6.76 7.60 7.17 6.93 7.14 6.78 7.50 7.41 7.10 7.33 6.78 7.16 7.09 7.51 7.41 7.42 7.13 7.24 7.20 6.86 7.55 7.37 7.48 7.40 7.03 7.49 6.88 6.79 7.16 7.30 6.79 7.13 7.52 7.36 6.76 7.05 6.98 6.90 7.47 6.85 7.52 6.83 7.71 7.63 7.28 7.02 6.90 7.09 7.46 7.06 6.97 7.13 6.80 6.83 7.44 6.83 7.11 7.40 7.06 7.47 6.80 7.51 6.81 7.61 7.37 7.58 7.63 7.62 7.32 7.24 7.55 7.44 6.99 7.53 7.66 7.36 6.77 7.14 7.05 7.25 7.48 7.59 7.07 6.91 7.18 -9999 -9999 -9999 -9999 -9999 -9999 -9999 -9999 -9999 -9999 -9999 -9999 -9999 -9999 -9999 -9999 -9999 -9999 -9999 -9999 -9999 -9999 -9999 -9999 -9999 -9999 -9999 -9999 -9999 -9999 -9999 -9999 -9999 -9999 -9999 -9999 -9999 -9999 -9999 -9999 -9999 -9999 -9999 -9999 -9999 -9999 -9999 -9999 -9999 -9999 -9999 -9999 -9999 -9999 -9999 -9999 -9999 -9999 -9999 -9999 -9999 -9999 -9999 -9999 -9999 -9999 -9999 -9999 -9999 -9999 -9999
7.00 7.32 7.32 7.28 7.11 6.95 7.72 6.77 7.55 7.48 7.08 6.92 7.22 7.40 7.43 7.68 7.52 7.48 6.85 7.39 7.21 6.86 7.11 6.96 6.80 7.71 7.62 7.61 6.77 6.90 7.38 7.51 7.35 7.07 6.78 7.13 7.51 7.73 7.32 7.39 7.53 7.17 7.75 7.20 6.80 6.81 7.34 7.41 7.60 7.58 7.09 6.79 7.26 6.98 7.50 7.44 7.70 7.51 7.29 6.80 7.09 7.32 6.78 7.67 7.64 6.96 7.31 7.52 7.27 7.17 7.15 7.55 7.52 6.80 7.68 7.62 7.53 7.38 7.36 6.86 7.23 7.36 6.79 7.45 7.60 6.99 7.71 7.50 7.23 6.93 6.89 7.18 7.18 7.15 7.55 6.89 7.69 7.75 7.44 7.58 7.18 7.47 7.70 7.10 7.66 7.65 7.12 6.83 7.52 7.16 7.21 7.43 7.65 7.11 6.79 7.15 7.67 7.59 7.35 6.86 7.42 7.13 7.07 7.28 7.41 7.27 7.01 7.66 7.06 7.45 7.55 7.51 6.92 7.70 7.25 7.00 7.50 7.05 7.67 7.07 6.83 7.45 7.58 7.08 -9999 -9999 -9999 -9999 -9999 -9999 -9999 -9999 -9999 -9999 -9999 -9999 -9999 -9999 -9999 -9999 -9999 -9999 -9999 -9999 -9999 -9999 -9999 -9999 -9999 -9999 -9999 -9999 -9999 -9999 -9999 -9999 -9999 -9999 -9999 -9999 -9999 -9999 -9999 -9999 -9999 -9999 -9999 -9999 -9999 -9999 -9999 -9999 -9999 -9999 -9999 -9999 -9999 -9999 -9999 -9999 -9999 -9999 -9999 -9999 -9999 -9999 -9999 -9999 -9999 -9999 -9999 -9999 -9999 -9999 -9999
7.04 7.05 6.90 6.91 7.48 6.75 7.53 6.81 6.85 7.71 7.46 7.43 7.11 7.03 7.43 7.10 7.28 7.63 7.09 7.44 7.38 7.40 7.43 7.15 6.91 6.79 7.29 7.19 7.18 7.18 6.92 7.47 6.89 7.09 7.62 7.27 7.46 6.91 7.36 7.35 7.24 6.99 6.93 6.77 7.65 6.90 7.41 6.93 7.24 6.85 6.98 7.23 7.09 7.03 7.05 7.58 7.30 7.58 7.19 7.65 7.53 7.33 7.23 7.16 7.43 7.29 7.35 7.65 7.24 7.34 7.46 6.76 7.25 7.43 7.03 7.40 7.13 7.65 7.34 7.72 7.34 6.77 7.40 7.58 7.03 6.89 6.92 7.16 7.49 6.94 7.53 7.13 7.59 7.26 6.99 7.13 7.64 7.61 6.81 7.13 6.78 7.20 7.52 7.58 6.85 7.00 7.66 6.77 7.53 7.55 7.33 6.94 7.43 7.24 7.21 6.98 7.06 7.15 7.28 7.62 7.09 7.27 7.72 6.85 6.79 6.87 7.75 7.72 7.06 6.96 7.58 7.60 7.07 7.64 7.22 6.78 7.14 6.80 7.55 7.75 7.45 6.94 7.28 7.04 -9999 -9999 -9999 -9999 -9999 -9999 -9999 -9999 -9999 -9999 -9999 -9999 -9999 -9999 -9999 -9999 -9999 -9999 -9999 -9999 -9999 -9999 -9999 -9999 -9999 -9999 -9999 -9999 -9999 -9999 -9999 -9999 -9999 -9999 -9999 -9999 -9999 -9999 -9999 -9999 -9999 -9999 -9999 -9999 -9999 -9999 -9999 -9999 -9999 -9999 -9999 -9999 -9999 -9999 -9999 -9999 -9999 -9999 -9999 -9999 -9999 -9999 -9999 -9999 -9999 -9999 -9999 -9999 -9999 -9999 -9999
7.53 6.87 6.82 7.49 7.19 6.92 7.34 6.98 6.83 7.56 6.87 6.89 6.97 7.00 7.11 7.07 7.54 7.05 7.67 7.45 7.20 7.20 7.17 7.46 7.55 7.02 7.24 7.70 6.81 6.98 7.48 6.78 7.26 7.74 7.74 7.31 7.40 7.05 7.19 6.99 7.35 7.18 7.21 7.24 7.49 6.90 7.69 7.37 7.71 7.40 7.55 7.70 6.83 7.57 7.75 7.63 7.18 7.72 7.49 6.90 6.81 7.61 7.49 7.54 7.12 7.64 7.67 7.59 7.62 7.59 6.90 6.92 6.96 7.48 7.68 7.55 6.83 7.47 7.47 7.50 7.05 7.49 7.35 7.25 7.20 7.32 6.75 7.17 7.58 7.30 7.48 7.10 6.93 6.78 7.16 7.73 7.06 7.63 6.98 7.13 7.71 7.42 7.12 7.64 7.10 7.64 7.58 7.38 7.54 7.57 6.83 7.33 7.09 7.51 6.76 7.41 7.09 7.56 7.06 6.85 7.43 7.58 7.44 7.42 7.42 7.74 7.39 7.56 7.63 7.25 7.46 7.23 7.57 7.58 7.16 6.82 7.18 7.13 6.89 6.88 6.91 6.91 7.52 6.97 -9999 -9999 -9999 -9999 -9999 -9999 -9999 -9999 -9999 -9999 -9999 -9999 -9999 -9999 -9999 -9999 -9999 -9999 -9999 -9999 -9999 -9999 -9999 -9999 -9999 -9999 -9999 -9999 -9999 -9999 -9999 -9999 -9999 -9999 -9999 -9999 -9999 -9999 -9999 -9999 -9999 -9999 -9999 -9999 -9999 -9999 -9999 -9999 -9999 -9999 -9999 -9999 -9999 -9999 -9999 -9999 -9999 -9999 -9999 -9999 -9999 -9999 -9999 -9999 -9999 -9999 -9999 -9999 -9999 -9999 -9999
7.34 7.05 7.52 7.49 7.47 7.14 6.95 7.74 7.34 6.76 7.68 7.33 7.43 7.65 6.98 7.41 6.87 7.12 7.07 7.26 6.76 7.06 7.52 7.06 7.28 7.20 6.90 6.93 7.48 6.80 7.36 6.91 6.87 6.83 6.80 7.45 7.56 7.66 7.15 7.09 6.99 7.59 7.64 6.76 7.59 7.31 6.84 7.25 6.87 7.11 7.02 6.95 6.94 7.64 7.02 7.05 7.68 7.23 7.67 7.47 6.90 7.52 7.00 7.74 7.68 6.81 6.86 7.44 6.87 6.98 7.56 7.26 7.69 7.57 6.96 6.95 7.60 7.20 7.43 7.45 7.61 7.53 7.04 7.48 7.74 6.91 7.19 6.96 7.14 7.11 7.59 7.61 7.73 7.30 6.76 7.29 7.22 7.51 7.27 7.23 7.36 7.55 7.32 6.95 6.83 7.71 7.44 7.73 7.06 7.04 7.16 7.56 7.19 7.46 7.72 7.37 7.47 7.71 7.41 7.36 6.91 7.12 7.45 7.58 7.04 7.55 6.81 7.09 7.34 7.03 7.35 7.66 7.18 7.45 7.20 7.34 7.15 6.86 7.57 7.60 7.62 7.69 7.45 7.28 -9999 -9999 -9999 -9999 -9999 -9999 -9999 -9999 -9999 -9999 -9999 -9999 -9999 -9999 -9999 -9999 -9999 -9999 -9999 -9999 -9999 -9999 -9999 -9999 -9999 -9999 -9999 -9999 -9999 -9999 -9999 -9999 -9999 -9999 -9999 -9999 -9999 -9999 -9999 -9999 -9999 -9999 -9999 -9999 -9999 -9999 -9999 -9999 -9999 -9999 -9999 -9999 -9999 -9999 -9999 -9999 -9999 -9999 -9999 -9999 -9999 -9999 -9999 -9999 -9999 -9999 -9999 -9999 -9999 -9999 -9999
7.64 6.89 7.15 7.57 7.09 7.41 6.90 7.28 7.72 7.01 6.79 7.69 6.97 7.49 7.32 7.70 7.36 7.43 7.31 7.54 6.90 7.52 7.22 6.81 7.35 6.82 7.20 6.89 6.84 7.03 7.01 7.20 6.89 6.76 7.57 7.60 7.46 7.21 7.39 7.23 7.70 7.09 6.75 7.37 7.31 6.80 7.22 7.16 7.55 7.26 7.28 7.49 7.35 7.42 7.17 6.85 7.62 7.06 7.70 7.38 7.05 7.07 7.36 7.17 7.16 7.28 7.48 7.44 7.37 7.64 7.64 7.48 6.88 7.29 7.06 7.29 7.59 7.11 7.65 7.67 7.04 7.47 7.07 7.62 7.09 7.45 7.10 7.50 7.00 7.75 7.05 7.46 7.39 7.70 7.22 7.10 6.88 6.99 7.40 7.31 6.78 6.77 7.09 7.06 6.77 7.01 7.48 6.85 7.28 7.50 6.78 7.32 6.78 7.13 7.20 7.25 6.89 7.38 6.96 7.20 7.67 7.59 7.04 6.96 7.25 6.89 7.45 7.51 7.12 7.25 6.87 7.47 6.91 7.18 7.15 6.86 7.02 7.69 7.23 7.25 7.15 7.06 7.69 7.39 7.18 -9999 -9999 -9999 -9999 -9999 -9999 -9999 -9999 -9999 -9999 -9999 -9999 -9999 -9999 -9999 -9999 -9999 -9999 -9999 -9999 -9999 -9999 -9999 -9999 -9999 -9999 -9999 -9999 -9999 -9999 -9999 -9999 -9999 -9999 -9999 -9999 -9999 -9999 -9999 -9999 -9999 -9999 -9999 -9999 -9999 -9999 -9999 -9999 -9999 -9999 -9999 -9999 -9999 -9999 -9999 -9999 -9999 -9999 -9999 -9999 -9999 -9999 -9999 -9999 -9999 -9999 -9999 -9999 -9999 -9999
6.76 7.32 7.49 7.14 7.18 7.58 7.14 7.58 7.05 6.92 6.95 7.12 6.88 7.14 7.10 7.34 6.92 7.29 7.43 7.48 7.57 6.99 7.74 7.67 6.94 7.73 7.41 7.53 7.18 7.45 7.34 7.56 7.33 7.75 7.20 7.23 6.93 6.97 6.97 7.15 7.51 7.08 6.78 7.54 7.29 7.70 7.32 7.46 7.50 6.85 6.92 7.74 7.04 7.00 7.24 7.37 7.01 7.06 7.64 7.47 7.51 6.97 7.22 7.46 7.46 7.24 7.41 7.23 7.71 7.18 6.91 7.33 7.52 7.37 7.46 6.82 7.53 6.91 7.07 7.11 7.24 7.14 6.94 6.82 6.76 7.18 7.40 7.42 7.39 7.58 6.80 7.11 7.53 7.23 7.24 7.72 6.88 7.69 7.45 7.18 7.66 6.81 7.16 6.95 7.60 7.00 7.09 7.56 6.97 7.15 6.84 6.94 7.43 6.76 6.94 6.92 6.95 7.49 7.21 7.28 7.46 6.88 7.23 7.36 6.87 7.13 7.45 7.15 7.60 6.87 7.10 7.59 7.14 6.93 7.09 7.14 7.05 7.51 7.63 7.33 6.94 7.19 7.31 6.98 7.67 -9999 -9999 -9999 -9999 -9999 -9999 -9999 -9999 -9999 -9999 -9999 -9999 -9999 -9999 -9999 -9999 -9999 -9999 -9999 -9999 -9999 -9999 -9999 -9999 -9999 -9999 -9999 -9999 -9999 -9999 -9999 -9999 -9999 -9999 -9999 -9999 -9999 -9999 -9999 -9999 -9999 -9999 -9999 -9999 -9999 -9999 -9999 -9999 -9999 -9999 -9999 -9999 -9999 -9999 -9999 -9999 -9999 -9999 -9999 -9999 -9999 -9999 -9999 -9999 -9999 -9999 -9999 -9999 -9999 -9999
7.07 7.30 7.00 6.98 7.10 7.26 7.67 7.28 7.05 7.59 7.70 7.63 6.90 6.94 7.71 7.47 7.22 7.37 7.24 7.50 6.90 7.23 7.53 7.51 6.97 7.41 6.79 7.27 7.16 7.26 7.47 7.71 7.50 7.30 6.94 6.98 6.89 7.59 7.49 7.57 7.40 6.92 7.27 7.00 6.93 7.68 7.25 7.47 7.49 6.90 7.56 7.25 7.54 7.72 7.02 7.24 7.62 7.44 6.92 7.51 7.52 7.73 7.74 7.17 7.07 7.10 6.76 6.77 7.29 7.16 7.31 7.09 7.48 6.85 7.32 6.90 7.51 7.27 7.26 6.77 7.34 6.88 6.98 7.52 7.40 7.13 6.95 7.54 6.83 7.74 7.15 6.91 7.44 7.37 6.99 7.42 7.46 7.19 6.95 7.12 7.46 6.92 7.64 7.56 7.74 7.30 7.72 7.36 7.02 6.92 6.99 6.76 7.26 7.58 7.17 7.45 7.44 7.20 6.80 7.73 7.51 6.89 7.30 7.53 7.61 7.31 6.83 7.08 7.09 7.64 7.39 7.28 7.65 7.40 7.56 7.12 7.33 7.07 7.11 7.64 6.97 6.99 7.10 7.10 7.53 -9999 -9999 -9999 -9999 -9999 -9999 -9999 -9999 -9999 -9999 -9999 -9999 -9999 -9999 -9999 -9999 -9999 -9999 -9999 -9999 -9999 -9999 -9999 -9999 -9999 -9999 -9999 -9999 -9999 -9999 -9999 -9999 -9999 -9999 -9999 -9999 -9999 -9999 -9999 -9999 -9999 -9999 -9999 -9999 -9999 -9999 -9999 -9999 -9999 -9999 -9999 -9999 -9999 -9999 -9999 -9999 -9999 -9999 -9999 -9999 -9999 -9999 -9999 -9999 -9999 -9999 -9999 -9999 -9999 -9999
7.55 7.27 7.59 7.32 7.31 6.97 7.00 7.66 7.66 6.86 6.93 6.90 6.93 7.58 6.80 7.50 7.50 6.95 7.74 6.90 7.48 7.20 7.56 7.09 6.93 7.28 7.53 7.55 7.56 7.17 6.81 7.49 7.14 7.29 7.12 7.12 7.03 7.36 7.29 6.95 7.41 6.77 6.91 7.39 7.01 7.07 7.49 7.60 7.12 7.71 7.29 7.12 6.90 7.69 7.19 7.43 7.10 7.05 7.01 7.12 6.95 7.63 6.78 7.02 7.39 7.47 7.56 7.28 7.43 6.86 7.08 7.64 7.40 7.62 6.92 6.77 6.84 7.18 6.91 6.80 7.71 6.75 6.78 7.29 7.28 7.01 7.33 7.49 6.86 7.32 6.92 7.23 7.64 6.94 7.62 7.72 6.88 7.54 7.55 7.08 7.57 7.22 7.25 6.86 6.80 6.94 7.54 7.35 7.02 7.66 7.52 6.95 6.76 7.16 7.60 7.21 7.68 7.75 7.68 7.01 7.14 7.13 7.33 7.50 7.11 6.77 6.76 6.76 7.11 7.11 7.61 7.03 7.75 6.91 7.40 6.85 7.65 7.68 6.86 6.98 7.66 7.28 7.48 7.46 7.33 -9999 -9999 -9999 -9999 -9999 -9999 -9999 -9999 -9999 -9999 -9999 -9999 -9999 -9999 -9999 -9999 -9999 -9999 -9999 -9999 -9999 -9999 -9999 -9999 -9999 -9999 -9999 -9999 -9999 -9999 -9999 -9999 -9999 -9999 -9999 -9999 -9999 -9999 -9999 -9999 -9999 -9999 -9999 -9999 -9999 -9999 -9999 -9999 -9999 -9999 -9999 -9999 -9999 -9999 -9999 -9999 -9999 -9999 -9999 -9999 -9999 -9999 -9999 -9999 -9999 -9999 -9999 -9999 -9999 -9999
7.33 6.75 7.63 7.29 7.73 6.87 7.58 7.28 7.37 7.16 6.95 7.11 6.88 7.36 7.43 7.17 6.79 7.22 7.33 7.66 6.81 7.63 6.79 7.13 7.25 7.06 7.26 6.76 7.38 7.61 7.00 6.84 6.96 7.23 7.59 7.41 7.43 7.62 7.70 7.01 7.40 7.62 7.36 6.91 6.84 6.84 6.80 7.09 7.35 7.20 7.67 6.96 7.09 7.03 6.76 6.88 7.13 7.30 7.64 6.76 7.65 6.95 6.85 7.65 7.41 6.99 6.83 7.48 6.75 6.99 7.16 7.71 7.11 7.23 6.82 7.30 7.70 7.48 7.32 7.18 7.55 7.29 7.62 6.85 7.69 7.22 7.37 7.47 6.99 7.56 7.23 7.02 7.56 7.47 7.63 7.66 7.14 7.55 7.51 7.70 7.34 7.50 6.97 7.11 7.37 6.79 6.76 6.85 6.99 7.72 7.37 7.10 7.59 7.02 6.82 7.61 7.58 7.46 7.57 6.93 7.59 6.95 7.16 7.29 7.00 6.76 7.51 6.82 7.05 7.57 7.01 7.44 7.07 7.32 7.53 6.96 7.55 7.38 6.89 7.69 7.15 7.12 7.02 7.05 7.17 -9999 -9999 -9999 -9999 -9999 -9999 -9999 -9999 -9999 -9999 -9999 -9999 -9999 -9999 -9999 -9999 -9999 -9999 -9999 -9999 -9999 -9999 -9999 -9999 -9999 -9999 -9999 -9999 -9999 -9999 -9999 -9999 -9999 -9999 -9999 -9999 -9999 -9999 -9999 -9999 -9999 -9999 -9999 -9999 -9999 -9999 -9999 -9999 -9999 -9999 -9999 -9999 -9999 -9999 -9999 -9999 -9999 -9999 -9999 -9999 -9999 -9999 -9999 -9999 -9999 -9999 -9999 -9999 -9999 -9999
7.21 7.14 7.61 7.28 7.10 7.17 7.68 7.29 7.69 7.29 7.70 7.10 7.32 7.11 7.56 7.02 7.26 6.87 7.29 7.66 7.02 7.47 7.46 7.05 6.76 7.20 7.53 7.49 7.36 6.77 6.81 7.51 7.61 6.98 7.70 7.59 7.04 6.86 6.95 7.21 7.73 6.86 7.55 7.31 7.74 7.08 7.17 7.28 6.94 7.51 7.61 7.20 7.15 7.03 7.23 7.61 6.93 6.92 7.00 7.53 7.11 7.20 7.38 7.41 6.96 7.23 6.96 7.67 7.48 7.41 6.89 7.65 7.26 6.88 7.62 7.22 7.35 7.74 7.52 7.13 7.49 7.10 7.37 7.55 7.67 7.75 7.30 7.47 7.50 6.81 7.52 7.05 7.47 6.87 7.57 7.66 6.77 6.98 6.96 7.44 7.47 7.31 7.68 7.03 6.81 6.89 7.13 7.59 6.79 7.59 7.08 7.64 7.70 7.52 6.91 7.61 7.69 7.25 7.38 7.51 6.97 6.90 7.64 7.41 7.50 7.62 7.14 7.52 7.21 7.21 7.07 7.47 7.15 7.68 6.88 6.92 7.12 7.30 7.29 7.32 7.58 6.97 7.62 6.88 7.21 -9999 -9999 -9999 -9999 -9999 -9999 -9999 -9999 -9999 -9999 -9999 -9999 -9999 -9999 -9999 -9999 -9999 -9999 -9999 -9999 -9999 -9999 -9999 -9999 -9999 -9999 -9999 -9999 -9999 -9999 -9999 -9999 -9999 -9999 -9999 -9999 -9999 -9999 -9999 -9999 -9999 -9999 -9999 -9999 -9999 -9999 -9999 -9999 -9999 -9999 -9999 -9999 -9999 -9999 -9999 -9999 -9999 -9999 -9999 -9999 -9999 -9999 -9999 -9999 -9999 -9999 -9999 -9999 -9999 -9999
6.84 6.96 7.27 7.20 7.68 6.92 7.19 7.28 7.44 7.55 7.32 7.12 6.81 7.13 7.24 7.40 7.15 6.80 7.54 6.93 7.59 6.91 7.05 6.75 6.86 7.58 7.21 7.10 7.27 6.88 7.09 7.43 7.68 7.37 7.71 7.48 7.46 6.83 7.27 6.94 7.06 6.80 7.73 6.88 6.77 7.43 7.71 7.09 7.54 7.40 7.05 7.53 7.59 6.95 7.56 7.71 7.17 7.24 7.72 7.05 7.50 7.38 6.92 7.66 7.20 7.58 6.91 7.33 7.10 7.14 7.46 7.14 7.45 7.48 7.40 7.73 7.35 6.81 7.10 7.74 7.03 7.21 7.07 7.24 7.69 7.13 7.39 7.00 7.52 7.69 7.17 7.04 7.03 7.49 7.20 7.68 7.49 7.37 7.64 7.28 7.11 7.01 7.19 7.71 7.72 7.04 6.91 7.68 6.87 7.06 7.38 7.06 7.50 7.46 7.28 7.62 7.10 6.89 7.63 7.37 7.62 7.31 6.82 6.94 7.01 7.09 7.49 7.60 7.40 7.52 6.91 7.60 7.22 7.71 7.72 7.52 7.11 7.18 7.52 6.93 6.90 6.94 7.36 7.71 -9999 -9999 -9999 -9999 -9999 -9999 -9999 -9999 -9999 -9999 -9999 -9999 -9999 -9999 -9999 -9999 -9999 -9999 -9999 -9999 -9999 -9999 -9999 -9999 -9999 -9999 -9999 -9999 -9999 -9999 -9999 -9999 -9999 -9999 -9999 -9999 -9999 -9999 -9999 -9999 -9999 -9999 -9999 -9999 -9999 -9999 -9999 -9999 -9999 -9999 -9999 -9999 -9999 -9999 -9999 -9999 -9999 -9999 -9999 -9999 -9999 -9999 -9999 -9999 -9999 -9999 -9999 -9999 -9999 -9999 -9999
6.80 7.47 7.04 7.73 6.76 7.29 6.87 6.80 7.11 6.97 7.36 7.26 6.95 7.30 7.42 7.48 7.56 7.04 7.56 7.47 7.50 7.54 7.44 7.06 7.19 6.91 7.35 7.00 7.16 7.59 7.42 6.98 6.90 7.09 7.65 7.53 7.56 7.69 7.27 7.74 7.32 6.82 7.59 7.38 7.44 7.45 7.34 7.26 7.06 7.46 7.14 6.95 7.12 7.49 7.12 7.37 7.13 6.98 7.64 7.71 7.23 7.50 7.32 6.81 7.53 7.21 6.96 6.85 7.75 7.38 7.37 7.38 7.11 7.58 7.51 6.92 6.82 7.75 7.18 7.13 7.69 7.15 7.25 6.77 7.46 6.88 7.45 7.01 7.20 7.50 7.03 6.98 7.06 6.79 7.59 7.04 7.22 6.99 7.55 7.10 7.46 7.35 7.43 6.86 7.36 7.19 7.42 7.23 7.27 7.64 7.05 6.99 7.37 7.35 7.62 7.75 7.47 7.26 6.76 6.97 7.51 7.30 7.11 7.17 7.64 6.99 7.44 7.26 7.68 7.67 7.71 6.88 7.42 6.91 7.38 6.81 -9999 -9999 -9999 -9999 -9999 -9999 -9999 -9999 -9999 -9999 -9999 -9999 -9999 -9999 -9999 -9999 -9999 -9999 -9999 -9999 -9999 -9999 -9999 -9999 -9999 -9999 -9999 -9999 -9999 -9999 -9999 -9999 -9999 -9999 -9999 -9999 -9999 -9999 -9999 -9999 -9999 -9999 -9999 -9999 -9999 -9999 -9999 -9999 -9999 -9999 -9999 -9999 -9999 -9999 -9999 -9999 -9999 -9999 -9999 -9999 -9999 -9999 -9999 -9999 -9999 -9999 -9999 -9999 -9999 -9999 -9999 -9999 -9999 -9999 -9999 -9999 -9999 -9999 -9999
6.78 6.87 7.67 6.82 7.10 7.58 7.60 6.77 7.20 7.38 6.87 7.73 7.25 7.30 7.08 7.01 7.02 7.67 7.63 7.02 6.95 6.94 6.89 7.55 7.68 7.08 7.39 7.20 7.29 7.30 7.68 6.85 7.65 7.17 7.49 6.94 6.83 6.92 7.20 7.69 7.13 7.47 7.64 7.69 6.88 6.76 7.50 7.63 7.25 7.64 7.58 7.72 7.49 7.18 7.50 6.85 7.20 7.71 7.75 6.80 6.96 7.33 7.61 7.63 7.53 7.35 6.84 7.32 7.14 6.76 7.27 6.85 6.94 7.58 7.18 6.81 7.12 7.57 7.10 7.23 6.90 7.69 7.51 7.33 7.64 7.35 7.53 7.06 7.51 7.48 7.36 6.87 7.20 6.77 7.26 7.31 7.51 7.21 6.88 7.01 7.33 7.12 7.33 7.68 6.78 7.37 6.80 7.64 7.30 7.02 6.80 6.79 7.08 6.95 6.77 7.13 6.92 6.99 7.30 6.81 7.34 7.68 7.02 7.29 7.59 6.95 7.73 7.48 7.15 -9999 -9999 -9999 -9999 -9999 -9999 -9999 -9999 -9999 -9999 -9999 -9999 -9999 -9999 -9999 -9999 -9999 -9999 -9999 -9999 -9999 -9999 -9999 -9999 -9999 -9999 -9999 -9999 -9999 -9999 -9999 -9999 -9999 -9999 -9999 -9999 -9999 -9999 -9999 -9999 -9999 -9999 -9999 -9999 -9999 -9999 -9999 -9999 -9999 -9999 -9999 -9999 -9999 -9999 -9999 -9999 -9999 -9999 -9999 -9999 -9999 -9999 -9999 -9999 -9999 -9999 -9999 -9999 -9999 -9999 -9999 -9999 -9999 -9999 -9999 -9999 -9999 -9999 -9999 -9999 -9999 -9999 -9999 -9999 -9999 -9999
6.90 6.93 7.58 7.55 7.54 7.27 7.43 7.05 7.68 7.01 6.85 6.93 7.29 6.96 7.37 7.27 6.82 7.68 7.51 6.82 7.52 7.42 6.85 6.90 7.67 7.27 7.64 6.88 7.61 6.75 7.68 7.01 6.98 7.72 7.32 7.32 6.93 7.43 7.50 7.61 6.88 7.64 7.25 7.72 7.74 7.42 7.16 6.79 7.62 7.71 6.95 7.66 6.93 7.06 6.95 7.44 7.33 7.17 7.33 7.04 6.75 7.36 6.77 7.25 6.87 7.03 6.89 7.46 7.12 7.59 7.36 6.94 7.10 7.67 7.15 7.28 7.33 7.06 7.16 7.36 7.49 7.54 7.07 7.18 6.83 7.60 6.92 7.63 6.86 7.36 7.27 7.17 6.92 7.50 7.12 7.55 7.73 7.17 6.84 7.35 7.63 7.53 6.78 7.17 7.56 6.97 6.98 7.73 6.80 6.78 7.27 7.69 7.03 7.38 6.98 7.25 6.86 7.27 7.29 7.41 7.69 -9999 -9999 -9999 -9999 -9999 -9999 -9999 -9999 -9999 -9999 -9999 -9999 -9999 -9999 -9999 -9999 -9999 -9999 -9999 -9999 -9999 -9999 -9999 -9999 -9999 -9999 -9999 -9999 -9999 -9999 -9999 -9999 -9999 -9999 -9999 -9999 -9999 -9999 -9999 -9999 -9999 -9999 -9999 -9999 -9999 -9999 -9999 -9999 -9999 -9999 -9999 -9999 -9999 -9999 -9999 -9999 -9999 -9999 -9999 -9999 -9999 -9999 -9999 -9999 -9999 -9999 -9999 -9999 -9999 -9999 -9999 -9999 -9999 -9999 -9999 -9999 -9999 -9999 -9999 -9999 -9999 -9999 -9999 -9999 -9999 -9999 -9999 -9999 -9999 -9999 -9999 -9999 -9999 -9999
7.71 7.63 6.96 7.21 6.76 7.08 7.45 6.91 7.16 7.23 6.81 7.49 6.88 7.37 6.94 7.16 6.92 6.87 6.94 6.97 6.93 6.85 7.36 7.53 7.63 6.95 7.38 7.13 7.01 7.07 7.43 7.45 7.25 6.89 6.84 7.18 6.97 7.45 7.01 7.74 7.15 6.81 7.03 6.92 7.69 6.82 7.15 7.26 7.29 7.51 7.67 7.64 7.32 7.27 6.96 7.35 6.76 6.90 7.19 7.67 7.30 6.77 7.21 6.79 7.44 6.95 7.68 7.40 6.88 7.08 7.25 6.82 7.25 7.14 7.55 7.35 6.81 7.20 7.17 7.51 7.37 7.59 7.22 6.97 6.98 7.29 7.10 7.18 7.53 7.65 6.79 7.75 7.71 7.43 7.60 7.43 7.11 7.25 6.98 6.87 7.48 7.74 7.35 7.66 7.64 7.39 6.77 7.30 6.90 6.76 6.85 6.80 6.93 7.10 -9999 -9999 -9999 -9999 -9999 -9999 -9999 -9999 -9999 -9999 -9999 -9999 -9999 -9999 -9999 -9999 -9999 -9999 -9999 -9999 -9999 -9999 -9999 -9999 -9999 -9999 -9999 -9999 -9999 -9999 -9999 -9999 -9999 -9999 -9999 -9999 -9999 -9999 -9999 -9999 -9999 -9999 -9999 -9999 -9999 -9999 -9999 -9999 -9999 -9999 -9999 -9999 -9999 -9999 -9999 -9999 -9999 -9999 -9999 -9999 -9999 -9999 -9999 -9999 -9999 -9999 -9999 -9999 -9999 -9999 -9999 -9999 -9999 -9999 -9999 -9999 -9999 -9999 -9999 -9999 -9999 -9999 -9999 -9999 -9999 -9999 -9999 -9999 -9999 -9999 -9999 -9999 -9999 -9999 -9999 -9999 -9999 -9999 -9999 -9999 -9999
7.66 6.88 7.53 6.96 7.62 7.37 6.98 6.88 7.56 7.71 7.66 6.96 7.67 6.89 7.45 7.06 7.61 6.96 7.19 7.41 7.73 6.98 6.85 7.13 6.77 6.82 7.36 7.49 7.75 7.34 7.05 7.55 7.56 7.27 7.44 7.17 7.02 7.45 7.17 6.89 7.24 7.12 7.40 7.43 7.63 7.48 7.11 6.85 7.40 6.77 7.07 7.35 6.98 6.83 7.16 7.25 7.04 7.30 7.36 7.61 6.78 7.59 7.38 7.48 7.14 7.05 7.26 7.73 7.11 6.86 7.74 7.01 7.53 7.40 7.33 7.11 7.48 7.35 7.66 7.30 6.97 7.57 7.12 7.53 7.36 7.29 7.67 6.97 7.32 6.79 7.13 7.07 7.45 7.20 7.44 7.71 7.55 7.54 7.17 7.54 7.13 7.06 7.71 7.07 7.70 7.40 -9999 -9999 -9999 -9999 -9999 -9999 -9999 -9999 -9999 -9999 -9999 -9999 -9999 -9999 -9999 -9999 -9999 -9999 -9999 -9999 -9999 -9999 -9999 -9999 -9999 -9999 -9999 -9999 -9999 -9999 -9999 -9999 -9999 -9999 -9999 -9999 -9999 -9999 -9999 -9999 -9999 -9999 -9999 -9999 -9999 -9999 -9999 -9999 -9999 -9999 -9999 -9999 -9999 -9999 -9999 -9999 -9999 -9999 -9999 -9999 -9999 -9999 -9999 -9999 -9999 -9999 -9999 -9999 -9999 -9999 -9999 -9999 -9999 -9999 -9999 -9999 -9999 -9999 -9999 -9999 -9999 -9999 -9999 -9999 -9999 -9999 -9999 -9999 -9999 -9999 -9999 -9999 -9999 -9999 -9999 -9999 -9999 -9999 -9999 -9999 -9999 -9999 -9999 -9999 -9999 -9999 -9999 -9999 -9999
7.15 7.24 7.18 7.46 7.68 7.01 7.63 7.23 7.22 6.77 7.61 6.93 7.25 7.32 7.69 7.38 7.11 6.81 6.92 7.71 7.45 7.02 7.11 7.40 7.46 7.58 7.49 6.86 7.14 6.87 6.87 7.70 6.78 7.14 6.94 7.59 7.01 7.66 7.35 7.30 7.46 7.46 7.18 7.50 6.96 6.84 7.23 7.23 7.66 7.00 6.80 7.59 6.96 6.89 7.20 6.83 7.68 7.21 7.53 6.80 7.01 7.11 7.52 7.28 6.95 6.94 6.98 7.11 7.41 6.81 7.42 7.28 6.83 6.78 7.23 7.09 7.08 6.89 7.28 7.56 7.47 6.91 7.39 7.63 7.28 6.80 7.58 6.83 7.09 7.28 7.62 7.55 7.22 7.05 7.09 6.76 7.33 7.52 -9999 -9999 -9999 -9999 -9999 -9999 -9999 -9999 -9999 -9999 -9999 -9999 -9999 -9999 -9999 -9999 -9999 -9999 -9999 -9999 -9999 -9999 -9999 -9999 -9999 -9999 -9999 -9999 -9999 -9999 -9999 -9999 -9999 -9999 -9999 -9999 -9999 -9999 -9999 -9999 -9999 -9999 -9999 -9999 -9999 -9999 -9999 -9999 -9999 -9999 -9999 -9999 -9999 -9999 -9999 -9999 -9999 -9999 -9999 -9999 -9999 -9999 -9999 -9999 -9999 -9999 -9999 -9999 -9999 -9999 -9999 -9999 -9999 -9999 -9999 -9999 -9999 -9999 -9999 -9999 -9999 -9999 -9999 -9999 -9999 -9999 -9999 -9999 -9999 -9999 -9999 -9999 -9999 -9999 -9999 -9999 -9999 -9999 -9999 -9999 -9999 -9999 -9999 -9999 -9999 -9999 -9999 -9999 -9999 -9999 -9999 -9999 -9999 -9999 -9999 -9999 -9999
7.56 7.60 6.94 6.82 7.15 6.93 6.83 7.45 7.32 7.71 7.04 6.95 7.58 6.92 7.61 6.75 7.38 7.57 7.50 7.20 7.60 7.19 7.72 7.26 7.52 7.60 7.32 7.73 7.58 6.77 6.95 7.10 6.85 7.03 7.62 7.17 7.43 7.27 6.87 7.38 6.90 6.79 7.63 7.53 7.70 7.73 7.12 7.35 7.57 7.72 7.14 7.08 6.88 7.34 6.91 7.56 7.65 7.56 7.17 7.25 6.95 7.52 7.09 6.92 7.02 6.88 7.13 6.90 7.74 6.87 7.23 7.22 6.85 7.60 6.85 6.94 7.26 6.98 7.71 7.55 7.07 7.34 6.87 7.04 7.64 7.39 7.62 7.32 7.21 7.28 -9999 -9999 -9999 -9999 -9999 -9999 -9999 -9999 -9999 -9999 -9999 -9999 -9999 -9999 -9999 -9999 -9999 -9999 -9999 -9999 -9999 -9999 -9999 -9999 -9999 -9999 -9999 -9999 -9999 -9999 -9999 -9999 -9999 -9999 -9999 -9999 -9999 -9999 -9999 -9999 -9999 -9999 -9999 -9999 -9999 -9999 -9999 -9999 -9999 -9999 -9999 -9999 -9999 -9999 -9999 -9999 -9999 -9999 -9999 -9999 -9999 -9999 -9999 -9999 -9999 -9999 -9999 -9999 -9999 -9999 -9999 -9999 -9999 -9999 -9999 -9999 -9999 -9999 -9999 -9999 -9999 -9999 -9999 -9999 -9999 -9999 -9999 -9999 -9999 -9999 -9999 -9999 -9999 -9999 -9999 -9999 -9999 -9999 -9999 -9999 -9999 -9999 -9999 -9999 -9999 -9999 -9999 -9999 -9999 -9999 -9999 -9999 -9999 -9999 -9999 -9999 -9999 -9999 -9999 -9999 -9999 -9999 -9999 -9999 -9999
7.41 6.80 7.07 6.80 7.18 7.18 7.29 7.33 7.51 7.63 7.52 7.14 7.38 7.39 7.69 7.61 7.63 7.70 7.35 7.36 7.24 6.85 7.12 7.70 7.53 7.32 6.82 7.23 6.92 7.07 7.03 7.09 6.91 7.32 7.61 6.95 7.11 7.50 6.94 6.79 7.48 6.94 6.92 7.49 6.76 7.73 7.02 6.84 6.85 6.88 7.16 7.41 7.11 7.31 7.70 7.31 6.90 7.50 7.63 6.93 7.57 6.79 7.59 7.43 7.62 7.58 7.44 7.31 7.03 7.58 6.93 7.30 7.20 7.18 6.82 7.50 7.37 7.10 7.64 7.71 7.52 6.93 -9999 -9999 -9999 -9999 -9999 -9999 -9999 -9999 -9999 -9999 -9999 -9999 -9999 -9999 -9999 -9999 -9999 -9999 -9999 -9999 -9999 -9999 -9999 -9999 -9999 -9999 -9999 -9999 -9999 -9999 -9999 -9999 -9999 -9999 -9999 -9999 -9999 -9999 -9999 -9999 -9999 -9999 -9999 -9999 -9999 -9999 -9999 -9999 -9999 -9999 -9999 -9999 -9999 -9999 -9999 -9999 -9999 -9999 -9999 -9999 -9999 -9999 -9999 -9999 -9999 -9999 -9999 -9999 -9999 -9999 -9999 -9999 -9999 -9999 -9999 -9999 -9999 -9999 -9999 -9999 -9999 -9999 -9999 -9999 -9999 -9999 -9999 -9999 -9999 -9999 -9999 -9999 -9999 -9999 -9999 -9999 -9999 -9999 -9999 -9999 -9999 -9999 -9999 -9999 -9999 -9999 -9999 -9999 -9999 -9999 -9999 -9999 -9999 -9999 -9999 -9999 -9999 -9999 -9999 -9999 -9999 -9999 -9999 -9999 -9999 -9999 -9999 -9999 -9999 -9999 -9999 -9999 -9999
7.03 6.87 7.20 7.29 7.40 6.87 7.19 7.21 7.30 7.45 7.53 6.78 6.96 7.62 6.98 7.28 7.00 7.20 6.87 7.27 7.33 7.31 7.54 7.44 7.58 7.17 6.86 7.68 7.22 7.46 7.32 6.98 6.85 6.98 7.01 7.75 6.81 6.81 7.23 7.32 7.04 7.06 7.28 7.45 7.02 7.51 6.89 7.44 7.51 7.09 7.05 6.91 7.21 6.93 7.54 7.73 6.94 7.58 7.14 7.56 7.60 7.26 7.02 7.02 7.24 7.20 7.16 6.78 6.79 7.70 7.21 6.98 6.82 7.51 -9999 -9999 -9999 -9999 -9999 -9999 -9999 -9999 -9999 -9999 -9999 -9999 -9999 -9999 -9999 -9999 -9999 -9999 -9999 -9999 -9999 -9999 -9999 -9999 -9999 -9999 -9999 -9999 -9999 -9999 -9999 -9999 -9999 -9999 -9999 -9999 -9999 -9999 -9999 -9999 -9999 -9999 -9999 -9999 -9999 -9999 -9999 -9999 -9999 -9999 -9999 -9999 -9999 -9999 -9999 -9999 -9999 -9999 -9999 -9999 -9999 -9999 -9999 -9999 -9999 -9999 -9999 -9999 -9999 -9999 -9999 -9999 -9999 -9999 -9999 -9999 -9999 -9999 -9999 -9999 -9999 -9999 -9999 -9999 -9999 -9999 -9999 -9999 -9999 -9999 -9999 -9999 -9999 -9999 -9999 -9999 -9999 -9999 -9999 -9999 -9999 -9999 -9999 -9999 -9999 -9999 -9999 -9999 -9999 -9999 -9999 -9999 -9999 -9999 -9999 -9999 -9999 -9999 -9999 -9999 -9999 -9999 -9999 -9999 -9999 -9999 -9999 -9999 -9999 -9999 -9999 -9999 -9999 -9999 -9999 -9999 -9999 -9999 -9999 -9999 -9999
7.12 7.12 6.92 7.48 7.70 7.63 7.46 6.83 6.87 7.18 7.25 6.98 7.39 7.56 7.57 7.03 7.72 7.51 7.69 6.93 7.13 7.37 6.95 7.05 7.28 7.49 7.60 6.86 6.78 6.83 7.37 6.76 7.64 7.30 7.62 7.33 7.29 7.01 6.77 7.06 6.83 7.64 7.68 7.23 7.75 7.71 7.09 6.92 7.20 7.71 7.56 6.88 6.89 7.27 7.03 7.06 7.69 6.88 7.28 7.07 7.70 6.85 7.08 7.35 6.84 6.89 -9999 -9999 -9999 -9999 -9999 -9999 -9999 -9999 -9999 -9999 -9999 -9999 -9999 -9999 -9999 -9999 -9999 -9999 -9999 -9999 -9999 -9999 -9999 -9999 -9999 -9999 -9999 -9999 -9999 -9999 -9999 -9999 -9999 -9999 -9999 -9999 -9999 -9999 -9999 -9999 -9999 -9999 -9999 -9999 -9999 -9999 -9999 -9999 -9999 -9999 -9999 -9999 -9999 -9999 -9999 -9999 -9999 -9999 -9999 -9999 -9999 -9999 -9999 -9999 -9999 -9999 -9999 -9999 -9999 -9999 -9999 -9999 -9999 -9999 -9999 -9999 -9999 -9999 -9999 -9999 -9999 -9999 -9999 -9999 -9999 -9999 -9999 -9999 -9999 -9999 -9999 -9999 -9999 -9999 -9999 -9999 -9999 -9999 -9999 -9999 -9999 -9999 -9999 -9999 -9999 -9999 -9999 -9999 -9999 -9999 -9999 -9999 -9999 -9999 -9999 -9999 -9999 -9999 -9999 -9999 -9999 -9999 -9999 -9999 -9999 -9999 -9999 -9999 -9999 -9999 -9999 -9999 -9999 -9999 -9999 -9999 -9999 -9999 -9999 -9999 -9999 -9999 -9999 -9999 -9999 -9999 -9999 -9999 -9999
7.38 7.61 7.30 6.93 7.72 7.52 7.24 7.08 7.05 7.66 7.71 7.33 7.44 7.38 7.05 6.86 7.69 7.36 6.88 7.01 6.94 7.27 7.43 6.79 7.61 7.43 6.84 7.05 7.57 7.46 7.25 6.98 7.43 7.01 7.27 6.81 7.07 7.32 7.04 6.86 7.07 7.58 6.88 7.66 6.77 7.58 6.89 7.70 7.39 7.01 7.28 7.40 7.03 7.62 7.74 7.10 6.83 -9999 -9999 -9999 -9999 -9999 -9999 -9999 -9999 -9999 -9999 -9999 -9999 -9999 -9999 -9999 -9999 -9999 -9999 -9999 -9999 -9999 -9999 -9999 -9999 -9999 -9999 -9999 -9999 -9999 -9999 -9999 -9999 -9999 -9999 -9999 -9999 -9999 -9999 -9999 -9999 -9999 -9999 -9999 -9999 -9999 -9999 -9999 -9999 -9999 -9999 -9999 -9999 -9999 -9999 -9999 -9999 -9999 -9999 -9999 -9999 -9999 -9999 -9999 -9999 -9999 -9999 -9999 -9999 -9999 -9999 -9999 -9999 -9999 -9999 -9999 -9999 -9999 -9999 -9999 -9999 -9999 -9999 -9999 -9999 -9999 -9999 -9999 -9999 -9999 -9999 -9999 -9999 -9999 -9999 -9999 -9999 -9999 -9999 -9999 -9999 -9999 -9999 -9999 -9999 -9999 -9999 -9999 -9999 -9999 -9999 -9999 -9999 -9999 -9999 -9999 -9999 -9999 -9999 -9999 -9999 -9999 -9999 -9999 -9999 -9999 -9999 -9999 -9999 -9999 -9999 -9999 -9999 -9999 -9999 -9999 -9999 -9999 -9999 -9999 -9999 -9999 -9999 -9999 -9999 -9999 -9999 -9999 -9999 -9999 -9999 -9999 -9999 -9999 -9999 -9999 -9999 -9999 -9999
7.61 7.17 7.19 7.37 7.66 7.27 7.70 6.93 6.87 6.88 7.51 7.09 6.84 7.02 7.46 7.65 7.14 6.80 7.41 7.31 7.57 7.53 7.52 7.42 6.82 6.88 6.92 7.39 7.53 7.56 7.29 7.68 7.36 7.47 6.90 7.46 7.45 6.92 7.43 7.18 6.93 7.35 7.67 7.46 6.97 7.20 7.02 7.13 7.33 -9999 -9999 -9999 -9999 -9999 -9999 -9999 -9999 -9999 -9999 -9999 -9999 -9999 -9999 -9999 -9999 -9999 -9999 -9999 -9999 -9999 -9999 -9999 -9999 -9999 -9999 -9999 -9999 -9999 -9999 -9999 -9999 -9999 -9999 -9999 -9999 -9999 -9999 -9999 -9999 -9999 -9999 -9999 -9999 -9999 -9999 -9999 -9999 -9999 -9999 -9999 -9999 -9999 -9999 -9999 -9999 -9999 -9999 -9999 -9999 -9999 -9999 -9999 -9999 -9999 -9999 -9999 -9999 -9999 -9999 -9999 -9999 -9999 -9999 -9999 -9999 -9999 -9999 -9999 -9999 -9999 -9999 -9999 -9999 -9999 -9999 -9999 -9999 -9999 -9999 -9999 -9999 -9999 -9999 -9999 -9999 -9999 -9999 -9999 -9999 -9999 -9999 -9999 -9999 -9999 -9999 -9999 -9999 -9999 -9999 -9999 -9999 -9999 -9999 -9999 -9999 -9999 -9999 -9999 -9999 -9999 -9999 -9999 -9999 -9999 -9999 -9999 -9999 -9999 -9999 -9999 -9999 -9999 -9999 -9999 -9999 -9999 -9999 -9999 -9999 -9999 -9999 -9999 -9999 -9999 -9999 -9999 -9999 -9999 -9999 -9999 -9999 -9999 -9999 -9999 -9999 -9999 -9999 -9999 -9999 -9999 -9999 -9999 -9999 -9999 -9999
7.30 7.38 7.31 6.79 6.75 7.12 7.61 7.06 7.17 7.73 7.44 7.73 6.91 7.30 6.81 7.03 7.02 6.90 7.39 7.13 7.30 7.04 7.46 6.94 6.75 7.37 7.64 6.98 7.51 7.27 7.28 7.01 6.98 7.45 7.68 7.34 7.63 7.19 7.20 6.82 -9999 -9999 -9999 -9999 -9999 -9999 -9999 -9999 -9999 -9999 -9999 -9999 -9999 -9999 -9999 -9999 -9999 -9999 -9999 -9999 -9999 -9999 -9999 -9999 -9999 -9999 -9999 -9999 -9999 -9999 -9999 -9999 -9999 -9999 -9999 -9999 -9999 -9999 -9999 -9999 -9999 -9999 -9999 -9999 -9999 -9999 -9999 -9999 -9999 -9999 -9999 -9999 -9999 -9999 -9999 -9999 -9999 -9999 -9999 -9999 -9999 -9999 -9999 -9999 -9999 -9999 -9999 -9999 -9999 -9999 -9999 -9999 -9999 -9999 -9999 -9999 -9999 -9999 -9999 -9999 -9999 -9999 -9999 -9999 -9999 -9999 -9999 -9999 -9999 -9999 -9999 -9999 -9999 -9999 -9999 -9999 -9999 -9999 -9999 -9999 -9999 -9999 -9999 -9999 -9999 -9999 -9999 -9999 -9999 -9999 -9999 -9999 -9999 -9999 -9999 -9999 -9999 -9999 -9999 -9999 -9999 -9999 -9999 -9999 -9999 -9999 -9999 -9999 -9999 -9999 -9999 -9999 -9999 -9999 -9999 -9999 -9999 -9999 -9999 -9999 -9999 -9999 -9999 -9999 -9999 -9999 -9999 -9999 -9999 -9999 -9999 -9999 -9999 -9999 -9999 -9999 -9999 -9999 -9999 -9999 -9999 -9999 -9999 -9999 -9999 -9999 -9999 -9999 -9999 -9999 -9999 -9999 -9999 -9999 -9999
7.33 7.11 7.67 6.94 7.69 7.33 7.00 7.52 7.30 6.79 7.44 7.48 7.03 6.94 7.17 7.21 6.92 7.69 7.39 7.58 7.05 7.01 7.20 7.69 7.29 7.56 7.13 7.32 7.75 7.72 7.65 -9999 -9999 -9999 -9999 -9999 -9999 -9999 -9999 -9999 -9999 -9999 -9999 -9999 -9999 -9999 -9999 -9999 -9999 -9999 -9999 -9999 -9999 -9999 -9999 -9999 -9999 -9999 -9999 -9999 -9999 -9999 -9999 -9999 -9999 -9999 -9999 -9999 -9999 -9999 -9999 -9999 -9999 -9999 -9999 -9999 -9999 -9999 -9999 -9999 -9999 -9999 -9999 -9999 -9999 -9999 -9999 -9999 -9999 -9999 -9999 -9999 -9999 -9999 -9999 -9999 -9999 -9999 -9999 -9999 -9999 -9999 -9999 -9999 -9999 -9999 -9999 -9999 -9999 -9999 -9999 -9999 -9999 -9999 -9999 -9999 -9999 -9999 -9999 -9999 -9999 -9999 -9999 -9999 -9999 -9999 -9999 -9999 -9999 -9999 -9999 -9999 -9999 -9999 -9999 -9999 -9999 -9999 -9999 -9999 -9999 -9999 -9999 -9999 -9999 -9999 -9999 -9999 -9999 -9999 -9999 -9999 -9999 -9999 -9999 -9999 -9999 -9999 -9999 -9999 -9999 -9999 -9999 -9999 -9999 -9999 -9999 -9999 -9999 -9999 -9999 -9999 -9999 -9999 -9999 -9999 -9999 -9999 -9999 -9999 -9999 -9999 -9999 -9999 -9999 -9999 -9999 -9999 -9999 -9999 -9999 -9999 -9999 -9999 -9999 -9999 -9999 -9999 -9999 -9999 -9999 -9999 -9999 -9999 -9999 -9999 -9999 -9999 -9999 -9999 -9999 -9999 -9999 -9999 -9999
7.34 7.33 7.58 7.61 6.97 6.85 7.72 7.67 7.41 7.41 7.26 7.44 7.67 7.57 7.33 6.94 7.10 6.89 7.15 7.30 6.99 7.10 -9999 -9999 -9999 -9999 -9999 -9999 -9999 -9999 -9999 -9999 -9999 -9999 -9999 -9999 -9999 -9999 -9999 -9999 -9999 -9999 -9999 -9999 -9999 -9999 -9999 -9999 -9999 -9999 -9999 -9999 -9999 -9999 -9999 -9999 -9999 -9999 -9999 -9999 -9999 -9999 -9999 -9999 -9999 -9999 -9999 -9999 -9999 -9999 -9999 -9999 -9999 -9999 -9999 -9999 -9999 -9999 -9999 -9999 -9999 -9999 -9999 -9999 -9999 -9999 -9999 -9999 -9999 -9999 -9999 -9999 -9999 -9999 -9999 -9999 -9999 -9999 -9999 -9999 -9999 -9999 -9999 -9999 -9999 -9999 -9999 -9999 -9999 -9999 -9999 -9999 -9999 -9999 -9999 -9999 -9999 -9999 -9999 -9999 -9999 -9999 -9999 -9999 -9999 -9999 -9999 -9999 -9999 -9999 -9999 -9999 -9999 -9999 -9999 -9999 -9999 -9999 -9999 -9999 -9999 -9999 -9999 -9999 -9999 -9999 -9999 -9999 -9999 -9999 -9999 -9999 -9999 -9999 -9999 -9999 -9999 -9999 -9999 -9999 -9999 -9999 -9999 -9999 -9999 -9999 -9999 -9999 -9999 -9999 -9999 -9999 -9999 -9999 -9999 -9999 -9999 -9999 -9999 -9999 -9999 -9999 -9999 -9999 -9999 -9999 -9999 -9999 -9999 -9999 -9999 -9999 -9999 -9999 -9999 -9999 -9999 -9999 -9999 -9999 -9999 -9999 -9999 -9999 -9999 -9999 -9999 -9999 -9999 -9999 -9999 -9999 -9999 -9999 -9999
7.15 6.92 7.26 7.74 7.36 7.06 6.78 6.99 7.12 7.24 7.60 7.24 6.95 -9999 -9999 -9999 -9999 -9999 -9999 -9999 -9999 -9999 -9999 -9999 -9999 -9999 -9999 -9999 -9999 -9999 -9999 -9999 -9999 -9999 -9999 -9999 -9999 -9999 -9999 -9999 -9999 -9999 -9999 -9999 -9999 -9999 -9999 -9999 -9999 -9999 -9999 -9999 -9999 -9999 -9999 -9999 -9999 -9999 -9999 -9999 -9999 -9999 -9999 -9999 -9999 -9999 -9999 -9999 -9999 -9999 -9999 -9999 -9999 -9999 -9999 -9999 -9999 -9999 -9999 -9999 -9999 -9999 -9999 -9999 -9999 -9999 -9999 -9999 -9999 -9999 -9999 -9999 -9999 -9999 -9999 -9999 -9999 -9999 -9999 -9999 -9999 -9999 -9999 -9999 -9999 -9999 -9999 -9999 -9999 -9999 -9999 -9999 -9999 -9999 -9999 -9999 -9999 -9999 -9999 -9999 -9999 -9999 -9999 -9999 -9999 -9999 -9999 -9999 -9999 -9999 -9999 -9999 -9999 -9999 -9999 -9999 -9999 -9999 -9999 -9999 -9999 -9999 -9999 -9999 -9999 -9999 -9999 -9999 -9999 -9999 -9999 -9999 -9999 -9999 -9999 -9999 -9999 -9999 -9999 -9999 -9999 -9999 -9999 -9999 -9999 -9999 -9999 -9999 -9999 -9999 -9999 -9999 -9999 -9999 -9999 -9999 -9999 -9999 -9999 -9999 -9999 -9999 -9999 -9999 -9999 -9999 -9999 -9999 -9999 -9999 -9999 -9999 -9999 -9999 -9999 -9999 -9999 -9999 -9999 -9999 -9999 -9999 -9999 -9999 -9999 -9999 -9999 -9999 -9999 -9999 -9999 -9999 -9999 -9999 -9999
7.04 7.63 7.66 -9999 -9999 -9999 -9999 -9999 -9999 -9999 -9999 -9999 -9999 -9999 -9999 -9999 -9999 -9999 -9999 -9999 -9999 -9999 -9999 -9999 -9999 -9999 -9999 -9999 -9999 -9999 -9999 -9999 -9999 -9999 -9999 -9999 -9999 -9999 -9999 -9999 -9999 -9999 -9999 -9999 -9999 -9999 -9999 -9999 -9999 -9999 -9999 -9999 -9999 -9999 -9999 -9999 -9999 -9999 -9999 -9999 -9999 -9999 -9999 -9999 -9999 -9999 -9999 -9999 -9999 -9999 -9999 -9999 -9999 -9999 -9999 -9999 -9999 -9999 -9999 -9999 -9999 -9999 -9999 -9999 -9999 -9999 -9999 -9999 -9999 -9999 -9999 -9999 -9999 -9999 -9999 -9999 -9999 -9999 -9999 -9999 -9999 -9999 -9999 -9999 -9999 -9999 -9999 -9999 -9999 -9999 -9999 -9999 -9999 -9999 -9999 -9999 -9999 -9999 -9999 -9999 -9999 -9999 -9999 -9999 -9999 -9999 -9999 -9999 -9999 -9999 -9999 -9999 -9999 -9999 -9999 -9999 -9999 -9999 -9999 -9999 -9999 -9999 -9999 -9999 -9999 -9999 -9999 -9999 -9999 -9999 -9999 -9999 -9999 -9999 -9999 -9999 -9999 -9999 -9999 -9999 -9999 -9999 -9999 -9999 -9999 -9999 -9999 -9999 -9999 -9999 -9999 -9999 -9999 -9999 -9999 -9999 -9999 -9999 -9999 -9999 -9999 -9999 -9999 -9999 -9999 -9999 -9999 -9999 -9999 -9999 -9999 -9999 -9999 -9999 -9999 -9999 -9999 -9999 -9999 -9999 -9999 -9999 -9999 -9999 -9999 -9999 -9999 -9999 -9999 -9999 -9999 -9999 -9999 -9999 -9999
-9999 -9999 -9999 -9999 -9999 -9999 -9999 -9999 -9999 -9999 -9999 -9999 -9999 -9999 -9999 -9999 -9999 -9999 -9999 -9999 -9999 -9999 -9999 -9999 -9999 -9999 -9999 -9999 -9999 -9999 -9999 -9999 -9999 -9999 -9999 -9999 -9999 -9999 -9999 -9999 -9999 -9999 -9999 -9999 -9999 -9999 -9999 -9999 -9999 -9999 -9999 -9999 -9999 -9999 -9999 -9999 -9999 -9999 -9999 -9999 -9999 -9999 -9999 -9999 -9999 -9999 -9999 -9999 -9999 -9999 -9999 -9999 -9999 -9999 -9999 -9999 -9999 -9999 -9999 -9999 -9999 -9999 -9999 -9999 -9999 -9999 -9999 -9999 -9999 -9999 -9999 -9999 -9999 -9999 -9999 -9999 -9999 -9999 -9999 -9999 -9999 -9999 -9999 -9999 -9999 -9999 -9999 -9999 -9999 -9999 -9999 -9999 -9999 -9999 -9999 -9999 -9999 -9999 -9999 -9999 -9999 -9999 -9999 -9999 -9999 -9999 -9999 -9999 -9999 -9999 -9999 -9999 -9999 -9999 -9999 -9999 -9999 -9999 -9999 -9999 -9999 -9999 -9999 -9999 -9999 -9999 -9999 -9999 -9999 -9999 -9999 -9999 -9999 -9999 -9999 -9999 -9999 -9999 -9999 -9999 -9999 -9999 -9999 -9999 -9999 -9999 -9999 -9999 -9999 -9999 -9999 -9999 -9999 -9999 -9999 -9999 -9999 -9999 -9999 -9999 -9999 -9999 -9999 -9999 -9999 -9999 -9999 -9999 -9999 -9999 -9999 -9999 -9999 -9999 -9999 -9999 -9999 -9999 -9999 -9999 -9999 -9999 -9999 -9999 -9999 -9999 -9999 -9999 -9999 -9999 -9999 -9999 -9999 -9999 -9999
-9999 -9999 -9999 -9999 -9999 -9999 -9999 -9999 -9999 -9999 -9999 -9999 -9999 -9999 -9999 -9999 -9999 -9999 -9999 -9999 -9999 -9999 -9999 -9999 -9999 -9999 -9999 -9999 -9999 -9999 -9999 -9999 -9999 -9999 -9999 -9999 -9999 -9999 -9999 -9999 -9999 -9999 -9999 -9999 -9999 -9999 -9999 -9999 -9999 -9999 -9999 -9999 -9999 -9999 -9999 -9999 -9999 -9999 -9999 -9999 -9999 -9999 -9999 -9999 -9999 -9999 -9999 -9999 -9999 -9999 -9999 -9999 -9999 -9999 -9999 -9999 -9999 -9999 -9999 -9999 -9999 -9999 -9999 -9999 -9999 -9999 -9999 -9999 -9999 -9999 -9999 -9999 -9999 -9999 -9999 -9999 -9999 -9999 -9999 -9999 -9999 -9999 -9999 -9999 -9999 -9999 -9999 -9999 -9999 -9999 -9999 -9999 -9999 -9999 -9999 -9999 -9999 -9999 -9999 -9999 -9999 -9999 -9999 -9999 -9999 -9999 -9999 -9999 -9999 -9999 -9999 -9999 -9999 -9999 -9999 -9999 -9999 -9999 -9999 -9999 -9999 -9999 -9999 -9999 -9999 -9999 -9999 -9999 -9999 -9999 -9999 -9999 -9999 -9999 -9999 -9999 -9999 -9999 -9999 -9999 -9999 -9999 -9999 -9999 -9999 -9999 -9999 -9999 -9999 -9999 -9999 -9999 -9999 -9999 -9999 -9999 -9999 -9999 -9999 -9999 -9999 -9999 -9999 -9999 -9999 -9999 -9999 -9999 -9999 -9999 -9999 -9999 -9999 -9999 -9999 -9999 -9999 -9999 -9999 -9999 -9999 -9999 -9999 -9999 -9999 -9999 -9999 -9999 -9999 -9999 -9999 -9999 -9999 -9999 -9999
-9999 -9999 -9999 -9999 -9999 -9999 -9999 -9999 -9999 -9999 -9999 -9999 -9999 -9999 -9999 -9999 -9999 -9999 -9999 -9999 -9999 -9999 -9999 -9999 -9999 -9999 -9999 -9999 -9999 -9999 -9999 -9999 -9999 -9999 -9999 -9999 -9999 -9999 -9999 -9999 -9999 -9999 -9999 -9999 -9999 -9999 -9999 -9999 -9999 -9999 -9999 -9999 -9999 -9999 -9999 -9999 -9999 -9999 -9999 -9999 -9999 -9999 -9999 -9999 -9999 -9999 -9999 -9999 -9999 -9999 -9999 -9999 -9999 -9999 -9999 -9999 -9999 -9999 -9999 -9999 -9999 -9999 -9999 -9999 -9999 -9999 -9999 -9999 -9999 -9999 -9999 -9999 -9999 -9999 -9999 -9999 -9999 -9999 -9999 -9999 -9999 -9999 -9999 -9999 -9999 -9999 -9999 -9999 -9999 -9999 -9999 -9999 -9999 -9999 -9999 -9999 -9999 -9999 -9999 -9999 -9999 -9999 -9999 -9999 -9999 -9999 -9999 -9999 -9999 -9999 -9999 -9999 -9999 -9999 -9999 -9999 -9999 -9999 -9999 -9999 -9999 -9999 -9999 -9999 -9999 -9999 -9999 -9999 -9999 -9999 -9999 -9999 -9999 -9999 -9999 -9999 -9999 -9999 -9999 -9999 -9999 -9999 -9999 -9999 -9999 -9999 -9999 -9999 -9999 -9999 -9999 -9999 -9999 -9999 -9999 -9999 -9999 -9999 -9999 -9999 -9999 -9999 -9999 -9999 -9999 -9999 -9999 -9999 -9999 -9999 -9999 -9999 -9999 -9999 -9999 -9999 -9999 -9999 -9999 -9999 -9999 -9999 -9999 -9999 -9999 -9999 -9999 -9999 -9999 -9999 -9999 -9999 -9999 -9999 -9999
-9999 -9999 -9999 -9999 -9999 -9999 -9999 -9999 -9999 -9999 -9999 -9999 -9999 -9999 -9999 -9999 -9999 -9999 -9999 -9999 -9999 -9999 -9999 -9999 -9999 -9999 -9999 -9999 -9999 -9999 -9999 -9999 -9999 -9999 -9999 -9999 -9999 -9999 -9999 -9999 -9999 -9999 -9999 -9999 -9999 -9999 -9999 -9999 -9999 -9999 -9999 -9999 -9999 -9999 -9999 -9999 -9999 -9999 -9999 -9999 -9999 -9999 -9999 -9999 -9999 -9999 -9999 -9999 -9999 -9999 -9999 -9999 -9999 -9999 -9999 -9999 -9999 -9999 -9999 -9999 -9999 -9999 -9999 -9999 -9999 -9999 -9999 -9999 -9999 -9999 -9999 -9999 -9999 -9999 -9999 -9999 -9999 -9999 -9999 -9999 -9999 -9999 -9999 -9999 -9999 -9999 -9999 -9999 -9999 -9999 -9999 -9999 -9999 -9999 -9999 -9999 -9999 -9999 -9999 -9999 -9999 -9999 -9999 -9999 -9999 -9999 -9999 -9999 -9999 -9999 -9999 -9999 -9999 -9999 -9999 -9999 -9999 -9999 -9999 -9999 -9999 -9999 -9999 -9999 -9999 -9999 -9999 -9999 -9999 -9999 -9999 -9999 -9999 -9999 -9999 -9999 -9999 -9999 -9999 -9999 -9999 -9999 -9999 -9999 -9999 -9999 -9999 -9999 -9999 -9999 -9999 -9999 -9999 -9999 -9999 -9999 -9999 -9999 -9999 -9999 -9999 -9999 -9999 -9999 -9999 -9999 -9999 -9999 -9999 -9999 -9999 -9999 -9999 -9999 -9999 -9999 -9999 -9999 -9999 -9999 -9999 -9999 -9999 -9999 -9999 -9999 -9999 -9999 -9999 -9999 -9999 -9999 -9999 -9999 -9999
-9999 -9999 -9999 -9999 -9999 -9999 -9999 -9999 -9999 -9999 -9999 -9999 -9999 -9999 -9999 -9999 -9999 -9999 -9999 -9999 -9999 -9999 -9999 -9999 -9999 -9999 -9999 -9999 -9999 -9999 -9999 -9999 -9999 -9999 -9999 -9999 -9999 -9999 -9999 -9999 -9999 -9999 -9999 -9999 -9999 -9999 -9999 -9999 -9999 -9999 -9999 -9999 -9999 -9999 -9999 -9999 -9999 -9999 -9999 -9999 -9999 -9999 -9999 -9999 -9999 -9999 -9999 -9999 -9999 -9999 -9999 -9999 -9999 -9999 -9999 -9999 -9999 -9999 -9999 -9999 -9999 -9999 -9999 -9999 -9999 -9999 -9999 -9999 -9999 -9999 -9999 -9999 -9999 -9999 -9999 -9999 -9999 -9999 -9999 -9999 -9999 -9999 -9999 -9999 -9999 -9999 -9999 -9999 -9999 -9999 -9999 -9999 -9999 -9999 -9999 -9999 -9999 -9999 -9999 -9999 -9999 -9999 -9999 -9999 -9999 -9999 -9999 -9999 -9999 -9999 -9999 -9999 -9999 -9999 -9999 -9999 -9999 -9999 -9999 -9999 -9999 -9999 -9999 -9999 -9999 -9999 -9999 -9999 -9999 -9999 -9999 -9999 -9999 -9999 -9999 -9999 -9999 -9999 -9999 -9999 -9999 -9999 -9999 -9999 -9999 -9999 -9999 -9999 -9999 -9999 -9999 -9999 -9999 -9999 -9999 -9999 -9999 -9999 -9999 -9999 -9999 -9999 -9999 -9999 -9999 -9999 -9999 -9999 -9999 -9999 -9999 -9999 -9999 -9999 -9999 -9999 -9999 -9999 -9999 -9999 -9999 -9999 -9999 -9999 -9999 -9999 -9999 -9999 -9999 -9999 -9999 -9999 -9999 -9999 -9999
-9999 -9999 -9999 -9999 -9999 -9999 -9999 -9999 -9999 -9999 -9999 -9999 -9999 -9999 -9999 -9999 -9999 -9999 -9999 -9999 -9999 -9999 -9999 -9999 -9999 -9999 -9999 -9999 -9999 -9999 -9999 -9999 -9999 -9999 -9999 -9999 -9999 -9999 -9999 -9999 -9999 -9999 -9999 -9999 -9999 -9999 -9999 -9999 -9999 -9999 -9999 -9999 -9999 -9999 -9999 -9999 -9999 -9999 -9999 -9999 -9999 -9999 -9999 -9999 -9999 -9999 -9999 -9999 -9999 -9999 -9999 -9999 -9999 -9999 -9999 -9999 -9999 -9999 -9999 -9999 -9999 -9999 -9999 -9999 -9999 -9999 -9999 -9999 -9999 -9999 -9999 -9999 -9999 -9999 -9999 -9999 -9999 -9999 -9999 -9999 -9999 -9999 -9999 -9999 -9999 -9999 -9999 -9999 -9999 -9999 -9999 -9999 -9999 -9999 -9999 -9999 -9999 -9999 -9999 -9999 -9999 -9999 -9999 -9999 -9999 -9999 -9999 -9999 -9999 -9999 -9999 -9999 -9999 -9999 -9999 -9999 -9999 -9999 -9999 -9999 -9999 -9999 -9999 -9999 -9999 -9999 -9999 -9999 -9999 -9999 -9999 -9999 -9999 -9999 -9999 -9999 -9999 -9999 -9999 -9999 -9999 -9999 -9999 -9999 -9999 -9999 -9999 -9999 -9999 -9999 -9999 -9999 -9999 -9999 -9999 -9999 -9999 -9999 -9999 -9999 -9999 -9999 -9999 -9999 -9999 -9999 -9999 -9999 -9999 -9999 -9999 -9999 -9999 -9999 -9999 -9999 -9999 -9999 -9999 -9999 -9999 -9999 -9999 -9999 -9999 -9999 -9999 -9999 -9999 -9999 -9999 -9999 -9999 -9999 -9999
-9999 -9999 -9999 -9999 -9999 -9999 -9999 -9999 -9999 -9999 -9999 -9999 -9999 -9999 -9999 -9999 -9999 -9999 -9999 -9999 -9999 -9999 -9999 -9999 -9999 -9999 -9999 -9999 -9999 -9999 -9999 -9999 -9999 -9999 -9999 -9999 -9999 -9999 -9999 -9999 -9999 -9999 -9999 -9999 -9999 -9999 -9999 -9999 -9999 -9999 -9999 -9999 -9999 -9999 -9999 -9999 -9999 -9999 -9999 -9999 -9999 -9999 -9999 -9999 -9999 -9999 -9999 -9999 -9999 -9999 -9999 -9999 -9999 -9999 -9999 -9999 -9999 -9999 -9999 -9999 -9999 -9999 -9999 -9999 -9999 -9999 -9999 -9999 -9999 -9999 -9999 -9999 -9999 -9999 -9999 -9999 -9999 -9999 -9999 -9999 -9999 -9999 -9999 -9999 -9999 -9999 -9999 -9999 -9999 -9999 -9999 -9999 -9999 -9999 -9999 -9999 -9999 -9999 -9999 -9999 -9999 -9999 -9999 -9999 -9999 -9999 -9999 -9999 -9999 -9999 -9999 -9999 -9999 -9999 -9999 -9999 -9999 -9999 -9999 -9999 -9999 -9999 -9999 -9999 -9999 -9999 -9999 -9999 -9999 -9999 -9999 -9999 -9999 -9999 -9999 -9999 -9999 -9999 -9999 -9999 -9999 -9999 -9999 -9999 -9999 -9999 -9999 -9999 -9999 -9999 -9999 -9999 -9999 -9999 -9999 -9999 -9999 -9999 -9999 -9999 -9999 -9999 -9999 -9999 -9999 -9999 -9999 -9999 -9999 -9999 -9999 -9999 -9999 -9999 -9999 -9999 -9999 -9999 -9999 -9999 -9999 -9999 -9999 -9999 -9999 -9999 -9999 -9999 -9999 -9999 -9999 -9999 -9999 -9999 -9999
-9999 -9999 -9999 -9999 -9999 -9999 -9999 -9999 -9999 -9999 -9999 -9999 -9999 -9999 -9999 -9999 -9999 -9999 -9999 -9999 -9999 -9999 -9999 -9999 -9999 -9999 -9999 -9999 -9999 -9999 -9999 -9999 -9999 -9999 -9999 -9999 -9999 -9999 -9999 -9999 -9999 -9999 -9999 -9999 -9999 -9999 -9999 -9999 -9999 -9999 -9999 -9999 -9999 -9999 -9999 -9999 -9999 -9999 -9999 -9999 -9999 -9999 -9999 -9999 -9999 -9999 -9999 -9999 -9999 -9999 -9999 -9999 -9999 -9999 -9999 -9999 -9999 -9999 -9999 -9999 -9999 -9999 -9999 -9999 -9999 -9999 -9999 -9999 -9999 -9999 -9999 -9999 -9999 -9999 -9999 -9999 -9999 -9999 -9999 -9999 -9999 -9999 -9999 -9999 -9999 -9999 -9999 -9999 -9999 -9999 -9999 -9999 -9999 -9999 -9999 -9999 -9999 -9999 -9999 -9999 -9999 -9999 -9999 -9999 -9999 -9999 -9999 -9999 -9999 -9999 -9999 -9999 -9999 -9999 -9999 -9999 -9999 -9999 -9999 -9999 -9999 -9999 -9999 -9999 -9999 -9999 -9999 -9999 -9999 -9999 -9999 -9999 -9999 -9999 -9999 -9999 -9999 -9999 -9999 -9999 -9999 -9999 -9999 -9999 -9999 -9999 -9999 -9999 -9999 -9999 -9999 -9999 -9999 -9999 -9999 -9999 -9999 -9999 -9999 -9999 -9999 -9999 -9999 -9999 -9999 -9999 -9999 -9999 -9999 -9999 -9999 -9999 -9999 -9999 -9999 -9999 -9999 -9999 -9999 -9999 -9999 -9999 -9999 -9999 -9999 -9999 -9999 -9999 -9999 -9999 -9999 -9999 -9999 -9999 -9999
-9999 -9999 -9999 -9999 -9999 -9999 -9999 -9999 -9999 -9999 -9999 -9999 -9999 -9999 -9999 -9999 -9999 -9999 -9999 -9999 -9999 -9999 -9999 -9999 -9999 -9999 -9999 -9999 -9999 -9999 -9999 -9999 -9999 -9999 -9999 -9999 -9999 -9999 -9999 -9999 -9999 -9999 -9999 -9999 -9999 -9999 -9999 -9999 -9999 -9999 -9999 -9999 -9999 -9999 -9999 -9999 -9999 -9999 -9999 -9999 -9999 -9999 -9999 -9999 -9999 -9999 -9999 -9999 -9999 -9999 -9999 -9999 -9999 -9999 -9999 -9999 -9999 -9999 -9999 -9999 -9999 -9999 -9999 -9999 -9999 -9999 -9999 -9999 -9999 -9999 -9999 -9999 -9999 -9999 -9999 -9999 -9999 -9999 -9999 -9999 -9999 -9999 -9999 -9999 -9999 -9999 -9999 -9999 -9999 -9999 -9999 -9999 -9999 -9999 -9999 -9999 -9999 -9999 -9999 -9999 -9999 -9999 -9999 -9999 -9999 -9999 -9999 -9999 -9999 -9999 -9999 -9999 -9999 -9999 -9999 -9999 -9999 -9999 -9999 -9999 -9999 -9999 -9999 -9999 -9999 -9999 -9999 -9999 -9999 -9999 -9999 -9999 -9999 -9999 -9999 -9999 -9999 -9999 -9999 -9999 -9999 -9999 -9999 -9999 -9999 -9999 -9999 -9999 -9999 -9999 -9999 -9999 -9999 -9999 -9999 -9999 -9999 -9999 -9999 -9999 -9999 -9999 -9999 -9999 -9999 -9999 -9999 -9999 -9999 -9999 -9999 -9999 -9999 -9999 -9999 -9999 -9999 -9999 -9999 -9999 -9999 -9999 -9999 -9999 -9999 -9999 -9999 -9999 -9999 -9999 -9999 -9999 -9999 -9999 -9999
-9999 -9999 -9999 -9999 -9999 -9999 -9999 -9999 -9999 -9999 -9999 -9999 -9999 -9999 -9999 -9999 -9999 -9999 -9999 -9999 -9999 -9999 -9999 -9999 -9999 -9999 -9999 -9999 -9999 -9999 -9999 -9999 -9999 -9999 -9999 -9999 -9999 -9999 -9999 -9999 -9999 -9999 -9999 -9999 -9999 -9999 -9999 -9999 -9999 -9999 -9999 -9999 -9999 -9999 -9999 -9999 -9999 -9999 -9999 -9999 -9999 -9999 -9999 -9999 -9999 -9999 -9999 -9999 -9999 -9999 -9999 -9999 -9999 -9999 -9999 -9999 -9999 -9999 -9999 -9999 -9999 -9999 -9999 -9999 -9999 -9999 -9999 -9999 -9999 -9999 -9999 -9999 -9999 -9999 -9999 -9999 -9999 -9999 -9999 -9999 -9999 -9999 -9999 -9999 -9999 -9999 -9999 -9999 -9999 -9999 -9999 -9999 -9999 -9999 -9999 -9999 -9999 -9999 -9999 -9999 -9999 -9999 -9999 -9999 -9999 -9999 -9999 -9999 -9999 -9999 -9999 -9999 -9999 -9999 -9999 -9999 -9999 -9999 -9999 -9999 -9999 -9999 -9999 -9999 -9999 -9999 -9999 -9999 -9999 -9999 -9999 -9999 -9999 -9999 -9999 -9999 -9999 -9999 -9999 -9999 -9999 -9999 -9999 -9999 -9999 -9999 -9999 -9999 -9999 -9999 -9999 -9999 -9999 -9999 -9999 -9999 -9999 -9999 -9999 -9999 -9999 -9999 -9999 -9999 -9999 -9999 -9999 -9999 -9999 -9999 -9999 -9999 -9999 -9999 -9999 -9999 -9999 -9999 -9999 -9999 -9999 -9999 -9999 -9999 -9999 -9999 -9999 -9999 -9999 -9999 -9999 -9999 -9999 -9999 -9999
-9999 -9999 -9999 -9999 -9999 -9999 -9999 -9999 -9999 -9999 -9999 -9999 -9999 -9999 -9999 -9999 -9999 -9999 -9999 -9999 -9999 -9999 -9999 -9999 -9999 -9999 -9999 -9999 -9999 -9999 -9999 -9999 -9999 -9999 -9999 -9999 -9999 -9999 -9999 -9999 -9999 -9999 -9999 -9999 -9999 -9999 -9999 -9999 -9999 -9999 -9999 -9999 -9999 -9999 -9999 -9999 -9999 -9999 -9999 -9999 -9999 -9999 -9999 -9999 -9999 -9999 -9999 -9999 -9999 -9999 -9999 -9999 -9999 -9999 -9999 -9999 -9999 -9999 -9999 -9999 -9999 -9999 -9999 -9999 -9999 -9999 -9999 -9999 -9999 -9999 -9999 -9999 -9999 -9999 -9999 -9999 -9999 -9999 -9999 -9999 -9999 -9999 -9999 -9999 -9999 -9999 -9999 -9999 -9999 -9999 -9999 -9999 -9999 -9999 -9999 -9999 -9999 -9999 -9999 -9999 -9999 -9999 -9999 -9999 -9999 -9999 -9999 -9999 -9999 -9999 -9999 -9999 -9999 -9999 -9999 -9999 -9999 -9999 -9999 -9999 -9999 -9999 -9999 -9999 -9999 -9999 -9999 -9999 -9999 -9999 -9999 -9999 -9999 -9999 -9999 -9999 -9999 -9999 -9999 -9999 -9999 -9999 -9999 -9999 -9999 -9999 -9999 -9999 -9999 -9999 -9999 -9999 -9999 -9999 -9999 -9999 -9999 -9999 -9999 -9999 -9999 -9999 -9999 -9999 -9999 -9999 -9999 -9999 -9999 -9999 -9999 -9999 -9999 -9999 -9999 -9999 -9999 -9999 -9999 -9999 -9999 -9999 -9999 -9999 -9999 -9999 -9999 -9999 -9999 -9999 -9999 -9999 -9999 -9999 -9999
-9999 -9999 -9999 -9999 -9999 -9999 -9999 -9999 -9999 -9999 -9999 -9999 -9999 -9999 -9999 -9999 -9999 -9999 -9999 -9999 -9999 -9999 -9999 -9999 -9999 -9999 -9999 -9999 -9999 -9999 -9999 -9999 -9999 -9999 -9999 -9999 -9999 -9999 -9999 -9999 -9999 -9999 -9999 -9999 -9999 -9999 -9999 -9999 -9999 -9999 -9999 -9999 -9999 -9999 -9999 -9999 -9999 -9999 -9999 -9999 -9999 -9999 -9999 -9999 -9999 -9999 -9999 -9999 -9999 -9999 -9999 -9999 -9999 -9999 -9999 -9999 -9999 -9999 -9999 -9999 -9999 -9999 -9999 -9999 -9999 -9999 -9999 -9999 -9999 -9999 -9999 -9999 -9999 -9999 -9999 -9999 -9999 -9999 -9999 -9999 -9999 -9999 -9999 -9999 -9999 -9999 -9999 -9999 -9999 -9999 -9999 -9999 -9999 -9999 -9999 -9999 -9999 -9999 -9999 -9999 -9999 -9999 -9999 -9999 -9999 -9999 -9999 -9999 -9999 -9999 -9999 -9999 -9999 -9999 -9999 -9999 -9999 -9999 -9999 -9999 -9999 -9999 -9999 -9999 -9999 -9999 -9999 -9999 -9999 -9999 -9999 -9999 -9999 -9999 -9999 -9999 -9999 -9999 -9999 -9999 -9999 -9999 -9999 -9999 -9999 -9999 -9999 -9999 -9999 -9999 -9999 -9999 -9999 -9999 -9999 -9999 -9999 -9999 -9999 -9999 -9999 -9999 -9999 -9999 -9999 -9999 -9999 -9999 -9999 -9999 -9999 -9999 -9999 -9999 -9999 -9999 -9999 -9999 -9999 -9999 -9999 -9999 -9999 -9999 -9999 -9999 -9999 -9999 -9999 -9999 -9999 -9999 -9999 -9999 -9999
-9999 -9999 -9999 -9999 -9999 -9999 -9999 -9999 -9999 -9999 -9999 -9999 -9999 -9999 -9999 -9999 -9999 -9999 -9999 -9999 -9999 -9999 -9999 -9999 -9999 -9999 -9999 -9999 -9999 -9999 -9999 -9999 -9999 -9999 -9999 -9999 -9999 -9999 -9999 -9999 -9999 -9999 -9999 -9999 -9999 -9999 -9999 -9999 -9999 -9999 -9999 -9999 -9999 -9999 -9999 -9999 -9999 -9999 -9999 -9999 -9999 -9999 -9999 -9999 -9999 -9999 -9999 -9999 -9999 -9999 -9999 -9999 -9999 -9999 -9999 -9999 -9999 -9999 -9999 -9999 -9999 -9999 -9999 -9999 -9999 -9999 -9999 -9999 -9999 -9999 -9999 -9999 -9999 -9999 -9999 -9999 -9999 -9999 -9999 -9999 -9999 -9999 -9999 -9999 -9999 -9999 -9999 -9999 -9999 -9999 -9999 -9999 -9999 -9999 -9999 -9999 -9999 -9999 -9999 -9999 -9999 -9999 -9999 -9999 -9999 -9999 -9999 -9999 -9999 -9999 -9999 -9999 -9999 -9999 -9999 -9999 -9999 -9999 -9999 -9999 -9999 -9999 -9999 -9999 -9999 -9999 -9999 -9999 -9999 -9999 -9999 -9999 -9999 -9999 -9999 -9999 -9999 -9999 -9999 -9999 -9999 -9999 -9999 -9999 -9999 -9999 -9999 -9999 -9999 -9999 -9999 -9999 -9999 -9999 -9999 -9999 -9999 -9999 -9999 -9999 -9999 -9999 -9999 -9999 -9999 -9999 -9999 -9999 -9999 -9999 -9999 -9999 -9999 -9999 -9999 -9999 -9999 -9999 -9999 -9999 -9999 -9999 -9999 -9999 -9999 -9999 -9999 -9999 -9999 -9999 -9999 -9999 -9999 -9999 -9999
-9999 -9999 -9999 -9999 -9999 -9999 -9999 -9999 -9999 -9999 -9999 -9999 -9999 -9999 -9999 -9999 -9999 -9999 -9999 -9999 -9999 -9999 -9999 -9999 -9999 -9999 -9999 -9999 -9999 -9999 -9999 -9999 -9999 -9999 -9999 -9999 -9999 -9999 -9999 -9999 -9999 -9999 -9999 -9999 -9999 -9999 -9999 -9999 -9999 -9999 -9999 -9999 -9999 -9999 -9999 -9999 -9999 -9999 -9999 -9999 -9999 -9999 -9999 -9999 -9999 -9999 -9999 -9999 -9999 -9999 -9999 -9999 -9999 -9999 -9999 -9999 -9999 -9999 -9999 -9999 -9999 -9999 -9999 -9999 -9999 -9999 -9999 -9999 -9999 -9999 -9999 -9999 -9999 -9999 -9999 -9999 -9999 -9999 -9999 -9999 -9999 -9999 -9999 -9999 -9999 -9999 -9999 -9999 -9999 -9999 -9999 -9999 -9999 -9999 -9999 -9999 -9999 -9999 -9999 -9999 -9999 -9999 -9999 -9999 -9999 -9999 -9999 -9999 -9999 -9999 -9999 -9999 -9999 -9999 -9999 -9999 -9999 -9999 -9999 -9999 -9999 -9999 -9999 -9999 -9999 -9999 -9999 -9999 -9999 -9999 -9999 -9999 -9999 -9999 -9999 -9999 -9999 -9999 -9999 -9999 -9999 -9999 -9999 -9999 -9999 -9999 -9999 -9999 -9999 -9999 -9999 -9999 -9999 -9999 -9999 -9999 -9999 -9999 -9999 -9999 -9999 -9999 -9999 -9999 -9999 -9999 -9999 -9999 -9999 -9999 -9999 -9999 -9999 -9999 -9999 -9999 -9999 -9999 -9999 -9999 -9999 -9999 -9999 -9999 -9999 -9999 -9999 -9999 -9999 -9999 -9999 -9999 -9999 -9999 -9999
-9999 -9999 -9999 -9999 -9999 -9999 -9999 -9999 -9999 -9999 -9999 -9999 -9999 -9999 -9999 -9999 -9999 -9999 -9999 -9999 -9999 -9999 -9999 -9999 -9999 -9999 -9999 -9999 -9999 -9999 -9999 -9999 -9999 -9999 -9999 -9999 -9999 -9999 -9999 -9999 -9999 -9999 -9999 -9999 -9999 -9999 -9999 -9999 -9999 -9999 -9999 -9999 -9999 -9999 -9999 -9999 -9999 -9999 -9999 -9999 -9999 -9999 -9999 -9999 -9999 -9999 -9999 -9999 -9999 -9999 -9999 -9999 -9999 -9999 -9999 -9999 -9999 -9999 -9999 -9999 -9999 -9999 -9999 -9999 -9999 -9999 -9999 -9999 -9999 -9999 -9999 -9999 -9999 -9999 -9999 -9999 -9999 -9999 -9999 -9999 -9999 -9999 -9999 -9999 -9999 -9999 -9999 -9999 -9999 -9999 -9999 -9999 -9999 -9999 -9999 -9999 -9999 -9999 -9999 -9999 -9999 -9999 -9999 -9999 -9999 -9999 -9999 -9999 -9999 -9999 -9999 -9999 -9999 -9999 -9999 -9999 -9999 -9999 -9999 -9999 -9999 -9999 -9999 -9999 -9999 -9999 -9999 -9999 -9999 -9999 -9999 -9999 -9999 -9999 -9999 -9999 -9999 -9999 -9999 -9999 -9999 -9999 -9999 -9999 -9999 -9999 -9999 -9999 -9999 -9999 -9999 -9999 -9999 -9999 -9999 -9999 -9999 -9999 -9999 -9999 -9999 -9999 -9999 -9999 -9999 -9999 -9999 -9999 -9999 -9999 -9999 -9999 -9999 -9999 -9999 -9999 -9999 -9999 -9999 -9999 -9999 -9999 -9999 -9999 -9999 -9999 -9999 -9999 -9999 -9999 -9999 -9999 -9999 -9999 -9999
-9999 -9999 -9999 -9999 -9999 -9999 -9999 -9999 -9999 -9999 -9999 -9999 -9999 -9999 -9999 -9999 -9999 -9999 -9999 -9999 -9999 -9999 -9999 -9999 -9999 -9999 -9999 -9999 -9999 -9999 -9999 -9999 -9999 -9999 -9999 -9999 -9999 -9999 -9999 -9999 -9999 -9999 -9999 -9999 -9999 -9999 -9999 -9999 -9999 -9999 -9999 -9999 -9999 -9999 -9999 -9999 -9999 -9999 -9999 -9999 -9999 -9999 -9999 -9999 -9999 -9999 -9999 -9999 -9999 -9999 -9999 -9999 -9999 -9999 -9999 -9999 -9999 -9999 -9999 -9999 -9999 -9999 -9999 -9999 -9999 -9999 -9999 -9999 -9999 -9999 -9999 -9999 -9999 -9999 -9999 -9999 -9999 -9999 -9999 -9999 -9999 -9999 -9999 -9999 -9999 -9999 -9999 -9999 -9999 -9999 -9999 -9999 -9999 -9999 -9999 -9999 -9999 -9999 -9999 -9999 -9999 -9999 -9999 -9999 -9999 -9999 -9999 -9999 -9999 -9999 -9999 -9999 -9999 -9999 -9999 -9999 -9999 -9999 -9999 -9999 -9999 -9999 -9999 -9999 -9999 -9999 -9999 -9999 -9999 -9999 -9999 -9999 -9999 -9999 -9999 -9999 -9999 -9999 -9999 -9999 -9999 -9999 -9999 -9999 -9999 -9999 -9999 -9999 -9999 -9999 -9999 -9999 -9999 -9999 -9999 -9999 -9999 -9999 -9999 -9999 -9999 -9999 -9999 -9999 -9999 -9999 -9999 -9999 -9999 -9999 -9999 -9999 -9999 -9999 -9999 -9999 -9999 -9999 -9999 -9999 -9999 -9999 -9999 -9999 -9999 -9999 -9999 -9999 -9999 -9999 -9999 -9999 -9999 -9999 -9999
-9999 -9999 -9999 -9999 -9999 -9999 -9999 -9999 -9999 -9999 -9999 -9999 -9999 -9999 -9999 -9999 -9999 -9999 -9999 -9999 -9999 -9999 -9999 -9999 -9999 -9999 -9999 -9999 -9999 -9999 -9999 -9999 -9999 -9999 -9999 -9999 -9999 -9999 -9999 -9999 -9999 -9999 -9999 -9999 -9999 -9999 -9999 -9999 -9999 -9999 -9999 -9999 -9999 -9999 -9999 -9999 -9999 -9999 -9999 -9999 -9999 -9999 -9999 -9999 -9999 -9999 -9999 -9999 -9999 -9999 -9999 -9999 -9999 -9999 -9999 -9999 -9999 -9999 -9999 -9999 -9999 -9999 -9999 -9999 -9999 -9999 -9999 -9999 -9999 -9999 -9999 -9999 -9999 -9999 -9999 -9999 -9999 -9999 -9999 -9999 -9999 -9999 -9999 -9999 -9999 -9999 -9999 -9999 -9999 -9999 -9999 -9999 -9999 -9999 -9999 -9999 -9999 -9999 -9999 -9999 -9999 -9999 -9999 -9999 -9999 -9999 -9999 -9999 -9999 -9999 -9999 -9999 -9999 -9999 -9999 -9999 -9999 -9999 -9999 -9999 -9999 -9999 -9999 -9999 -9999 -9999 -9999 -9999 -9999 -9999 -9999 -9999 -9999 -9999 -9999 -9999 -9999 -9999 -9999 -9999 -9999 -9999 -9999 -9999 -9999 -9999 -9999 -9999 -9999 -9999 -9999 -9999 -9999 -9999 -9999 -9999 -9999 -9999 -9999 -9999 -9999 -9999 -9999 -9999 -9999 -9999 -9999 -9999 -9999 -9999 -9999 -9999 -9999 -9999 -9999 -9999 -9999 -9999 -9999 -9999 -9999 -9999 -9999 -9999 -9999 -9999 -9999 -9999 -9999 -9999 -9999 -9999 -9999 -9999 -9999
-9999 -9999 -9999 -9999 -9999 -9999 -9999 -9999 -9999 -9999 -9999 -9999 -9999 -9999 -9999 -9999 -9999 -9999 -9999 -9999 -9999 -9999 -9999 -9999 -9999 -9999 -9999 -9999 -9999 -9999 -9999 -9999 -9999 -9999 -9999 -9999 -9999 -9999 -9999 -9999 -9999 -9999 -9999 -9999 -9999 -9999 -9999 -9999 -9999 -9999 -9999 -9999 -9999 -9999 -9999 -9999 -9999 -9999 -9999 -9999 -9999 -9999 -9999 -9999 -9999 -9999 -9999 -9999 -9999 -9999 -9999 -9999 -9999 -9999 -9999 -9999 -9999 -9999 -9999 -9999 -9999 -9999 -9999 -9999 -9999 -9999 -9999 -9999 -9999 -9999 -9999 -9999 -9999 -9999 -9999 -9999 -9999 -9999 -9999 -9999 -9999 -9999 -9999 -9999 -9999 -9999 -9999 -9999 -9999 -9999 -9999 -9999 -9999 -9999 -9999 -9999 -9999 -9999 -9999 -9999 -9999 -9999 -9999 -9999 -9999 -9999 -9999 -9999 -9999 -9999 -9999 -9999 -9999 -9999 -9999 -9999 -9999 -9999 -9999 -9999 -9999 -9999 -9999 -9999 -9999 -9999 -9999 -9999 -9999 -9999 -9999 -9999 -9999 -9999 -9999 -9999 -9999 -9999 -9999 -9999 -9999 -9999 -9999 -9999 -9999 -9999 -9999 -9999 -9999 -9999 -9999 -9999 -9999 -9999 -9999 -9999 -9999 -9999 -9999 -9999 -9999 -9999 -9999 -9999 -9999 -9999 -9999 -9999 -9999 -9999 -9999 -9999 -9999 -9999 -9999 -9999 -9999 -9999 -9999 -9999 -9999 -9999 -9999 -9999 -9999 -9999 -9999 -9999 -9999 -9999 -9999 -9999 -9999 -9999 -9999
-9999 -9999 -9999 -9999 -9999 -9999 -9999 -9999 -9999 -9999 -9999 -9999 -9999 -9999 -9999 -9999 -9999 -9999 -9999 -9999 -9999 -9999 -9999 -9999 -9999 -9999 -9999 -9999 -9999 -9999 -9999 -9999 -9999 -9999 -9999 -9999 -9999 -9999 -9999 -9999 -9999 -9999 -9999 -9999 -9999 -9999 -9999 -9999 -9999 -9999 -9999 -9999 -9999 -9999 -9999 -9999 -9999 -9999 -9999 -9999 -9999 -9999 -9999 -9999 -9999 -9999 -9999 -9999 -9999 -9999 -9999 -9999 -9999 -9999 -9999 -9999 -9999 -9999 -9999 -9999 -9999 -9999 -9999 -9999 -9999 -9999 -9999 -9999 -9999 -9999 -9999 -9999 -9999 -9999 -9999 -9999 -9999 -9999 -9999 -9999 -9999 -9999 -9999 -9999 -9999 -9999 -9999 -9999 -9999 -9999 -9999 -9999 -9999 -9999 -9999 -9999 -9999 -9999 -9999 -9999 -9999 -9999 -9999 -9999 -9999 -9999 -9999 -9999 -9999 -9999 -9999 -9999 -9999 -9999 -9999 -9999 -9999 -9999 -9999 -9999 -9999 -9999 -9999 -9999 -9999 -9999 -9999 -9999 -9999 -9999 -9999 -9999 -9999 -9999 -9999 -9999 -9999 -9999 -9999 -9999 -9999 -9999 -9999 -9999 -9999 -9999 -9999 -9999 -9999 -9999 -9999 -9999 -9999 -9999 -9999 -9999 -9999 -9999 -9999 -9999 -9999 -9999 -9999 -9999 -9999 -9999 -9999 -9999 -9999 -9999 -9999 -9999 -9999 -9999 -9999 -9999 -9999 -9999 -9999 -9999 -9999 -9999 -9999 -9999 -9999 -9999 -9999 -9999 -9999 -9999 -9999 -9999 -9999 -9999 -9999
-9999 -9999 -9999 -9999 -9999 -9999 -9999 -9999 -9999 -9999 -9999 -9999 -9999 -9999 -9999 -9999 -9999 -9999 -9999 -9999 -9999 -9999 -9999 -9999 -9999 -9999 -9999 -9999 -9999 -9999 -9999 -9999 -9999 -9999 -9999 -9999 -9999 -9999 -9999 -9999 -9999 -9999 -9999 -9999 -9999 -9999 -9999 -9999 -9999 -9999 -9999 -9999 -9999 -9999 -9999 -9999 -9999 -9999 -9999 -9999 -9999 -9999 -9999 -9999 -9999 -9999 -9999 -9999 -9999 -9999 -9999 -9999 -9999 -9999 -9999 -9999 -9999 -9999 -9999 -9999 -9999 -9999 -9999 -9999 -9999 -9999 -9999 -9999 -9999 -9999 -9999 -9999 -9999 -9999 -9999 -9999 -9999 -9999 -9999 -9999 -9999 -9999 -9999 -9999 -9999 -9999 -9999 -9999 -9999 -9999 -9999 -9999 -9999 -9999 -9999 -9999 -9999 -9999 -9999 -9999 -9999 -9999 -9999 -9999 -9999 -9999 -9999 -9999 -9999 -9999 -9999 -9999 -9999 -9999 -9999 -9999 -9999 -9999 -9999 -9999 -9999 -9999 -9999 -9999 -9999 -9999 -9999 -9999 -9999 -9999 -9999 -9999 -9999 -9999 -9999 -9999 -9999 -9999 -9999 -9999 -9999 -9999 -9999 -9999 -9999 -9999 -9999 -9999 -9999 -9999 -9999 -9999 -9999 -9999 -9999 -9999 -9999 -9999 -9999 -9999 -9999 -9999 -9999 -9999 -9999 -9999 -9999 -9999 -9999 -9999 -9999 -9999 -9999 -9999 -9999 -9999 -9999 -9999 -9999 -9999 -9999 -9999 -9999 -9999 -9999 -9999 -9999 -9999 -9999 -9999 -9999 -9999 -9999 -9999 -9999
-9999 -9999 -9999 -9999 -9999 -9999 -9999 -9999 -9999 -9999 -9999 -9999 -9999 -9999 -9999 -9999 -9999 -9999 -9999 -9999 -9999 -9999 -9999 -9999 -9999 -9999 -9999 -9999 -9999 -9999 -9999 -9999 -9999 -9999 -9999 -9999 -9999 -9999 -9999 -9999 -9999 -9999 -9999 -9999 -9999 -9999 -9999 -9999 -9999 -9999 -9999 -9999 -9999 -9999 -9999 -9999 -9999 -9999 -9999 -9999 -9999 -9999 -9999 -9999 -9999 -9999 -9999 -9999 -9999 -9999 -9999 -9999 -9999 -9999 -9999 -9999 -9999 -9999 -9999 -9999 -9999 -9999 -9999 -9999 -9999 -9999 -9999 -9999 -9999 -9999 -9999 -9999 -9999 -9999 -9999 -9999 -9999 -9999 -9999 -9999 -9999 -9999 -9999 -9999 -9999 -9999 -9999 -9999 -9999 -9999 -9999 -9999 -9999 -9999 -9999 -9999 -9999 -9999 -9999 -9999 -9999 -9999 -9999 -9999 -9999 -9999 -9999 -9999 -9999 -9999 -9999 -9999 -9999 -9999 -9999 -9999 -9999 -9999 -9999 -9999 -9999 -9999 -9999 -9999 -9999 -9999 -9999 -9999 -9999 -9999 -9999 -9999 -9999 -9999 -9999 -9999 -9999 -9999 -9999 -9999 -9999 -9999 -9999 -9999 -9999 -9999 -9999 -9999 -9999 -9999 -9999 -9999 -9999 -9999 -9999 -9999 -9999 -9999 -9999 -9999 -9999 -9999 -9999 -9999 -9999 -9999 -9999 -9999 -9999 -9999 -9999 -9999 -9999 -9999 -9999 -9999 -9999 -9999 -9999 -9999 -9999 -9999 -9999 -9999 -9999 -9999 -9999 -9999 -9999 -9999 -9999 -9999 -9999 -9999 -9999
-9999 -9999 -9999 -9999 -9999 -9999 -9999 -9999 -9999 -9999 -9999 -9999 -9999 -9999 -9999 -9999 -9999 -9999 -9999 -9999 -9999 -9999 -9999 -9999 -9999 -9999 -9999 -9999 -9999 -9999 -9999 -9999 -9999 -9999 -9999 -9999 -9999 -9999 -9999 -9999 -9999 -9999 -9999 -9999 -9999 -9999 -9999 -9999 -9999 -9999 -9999 -9999 -9999 -9999 -9999 -9999 -9999 -9999 -9999 -9999 -9999 -9999 -9999 -9999 -9999 -9999 -9999 -9999 -9999 -9999 -9999 -9999 -9999 -9999 -9999 -9999 -9999 -9999 -9999 -9999 -9999 -9999 -9999 -9999 -9999 -9999 -9999 -9999 -9999 -9999 -9999 -9999 -9999 -9999 -9999 -9999 -9999 -9999 -9999 -9999 -9999 -9999 -9999 -9999 -9999 -9999 -9999 -9999 -9999 -9999 -9999 -9999 -9999 -9999 -9999 -9999 -9999 -9999 -9999 -9999 -9999 -9999 -9999 -9999 -9999 -9999 -9999 -9999 -9999 -9999 -9999 -9999 -9999 -9999 -9999 -9999 -9999 -9999 -9999 -9999 -9999 -9999 -9999 -9999 -9999 -9999 -9999 -9999 -9999 -9999 -9999 -9999 -9999 -9999 -9999 -9999 -9999 -9999 -9999 -9999 -9999 -9999 -9999 -9999 -9999 -9999 -9999 -9999 -9999 -9999 -9999 -9999 -9999 -9999 -9999 -9999 -9999 -9999 -9999 -9999 -9999 -9999 -9999 -9999 -9999 -9999 -9999 -9999 -9999 -9999 -9999 -9999 -9999 -9999 -9999 -9999 -9999 -9999 -9999 -9999 -9999 -9999 -9999 -9999 -9999 -9999 -9999 -9999 -9999 -9999 -9999 -9999 -9999 -9999 -9999
-9999 -9999 -9999 -9999 -9999 -9999 -9999 -9999 -9999 -9999 -9999 -9999 -9999 -9999 -9999 -9999 -9999 -9999 -9999 -9999 -9999 -9999 -9999 -9999 -9999 -9999 -9999 -9999 -9999 -9999 -9999 -9999 -9999 -9999 -9999 -9999 -9999 -9999 -9999 -9999 -9999 -9999 -9999 -9999 -9999 -9999 -9999 -9999 -9999 -9999 -9999 -9999 -9999 -9999 -9999 -9999 -9999 -9999 -9999 -9999 -9999 -9999 -9999 -9999 -9999 -9999 -9999 -9999 -9999 -9999 -9999 -9999 -9999 -9999 -9999 -9999 -9999 -9999 -9999 -9999 -9999 -9999 -9999 -9999 -9999 -9999 -9999 -9999 -9999 -9999 -9999 -9999 -9999 -9999 -9999 -9999 -9999 -9999 -9999 -9999 -9999 -9999 -9999 -9999 -9999 -9999 -9999 -9999 -9999 -9999 -9999 -9999 -9999 -9999 -9999 -9999 -9999 -9999 -9999 -9999 -9999 -9999 -9999 -9999 -9999 -9999 -9999 -9999 -9999 -9999 -9999 -9999 -9999 -9999 -9999 -9999 -9999 -9999 -9999 -9999 -9999 -9999 -9999 -9999 -9999 -9999 -9999 -9999 -9999 -9999 -9999 -9999 -9999 -9999 -9999 -9999 -9999 -9999 -9999 -9999 -9999 -9999 -9999 -9999 -9999 -9999 -9999 -9999 -9999 -9999 -9999 -9999 -9999 -9999 -9999 -9999 -9999 -9999 -9999 -9999 -9999 -9999 -9999 -9999 -9999 -9999 -9999 -9999 -9999 -9999 -9999 -9999 -9999 -9999 -9999 -9999 -9999 -9999 -9999 -9999 -9999 -9999 -9999 -9999 -9999 -9999 -9999 -9999 -9999 -9999 -9999 -9999 -9999 -9999 -9999
-9999 -9999 -9999 -9999 -9999 -9999 -9999 -9999 -9999 -9999 -9999 -9999 -9999 -9999 -9999 -9999 -9999 -9999 -9999 -9999 -9999 -9999 -9999 -9999 -9999 -9999 -9999 -9999 -9999 -9999 -9999 -9999 -9999 -9999 -9999 -9999 -9999 -9999 -9999 -9999 -9999 -9999 -9999 -9999 -9999 -9999 -9999 -9999 -9999 -9999 -9999 -9999 -9999 -9999 -9999 -9999 -9999 -9999 -9999 -9999 -9999 -9999 -9999 -9999 -9999 -9999 -9999 -9999 -9999 -9999 -9999 -9999 -9999 -9999 -9999 -9999 -9999 -9999 -9999 -9999 -9999 -9999 -9999 -9999 -9999 -9999 -9999 -9999 -9999 -9999 -9999 -9999 -9999 -9999 -9999 -9999 -9999 -9999 -9999 -9999 -9999 -9999 -9999 -9999 -9999 -9999 -9999 -9999 -9999 -9999 -9999 -9999 -9999 -9999 -9999 -9999 -9999 -9999 -9999 -9999 -9999 -9999 -9999 -9999 -9999 -9999 -9999 -9999 -9999 -9999 -9999 -9999 -9999 -9999 -9999 -9999 -9999 -9999 -9999 -9999 -9999 -9999 -9999 -9999 -9999 -9999 -9999 -9999 -9999 -9999 -9999 -9999 -9999 -9999 -9999 -9999 -9999 -9999 -9999 -9999 -9999 -9999 -9999 -9999 -9999 -9999 -9999 -9999 -9999 -9999 -9999 -9999 -9999 -9999 -9999 -9999 -9999 -9999 -9999 -9999 -9999 -9999 -9999 -9999 -9999 -9999 -9999 -9999 -9999 -9999 -9999 -9999 -9999 -9999 -9999 -9999 -9999 -9999 -9999 -9999 -9999 -9999 -9999 -9999 -9999 -9999 -9999 -9999 -9999 -9999 -9999 -9999 -9999 -9999 -9999
-9999 -9999 -9999 -9999 -9999 -9999 -9999 -9999 -9999 -9999 -9999 -9999 -9999 -9999 -9999 -9999 -9999 -9999 -9999 -9999 -9999 -9999 -9999 -9999 -9999 -9999 -9999 -9999 -9999 -9999 -9999 -9999 -9999 -9999 -9999 -9999 -9999 -9999 -9999 -9999 -9999 -9999 -9999 -9999 -9999 -9999 -9999 -9999 -9999 -9999 -9999 -9999 -9999 -9999 -9999 -9999 -9999 -9999 -9999 -9999 -9999 -9999 -9999 -9999 -9999 -9999 -9999 -9999 -9999 -9999 -9999 -9999 -9999 -9999 -9999 -9999 -9999 -9999 -9999 -9999 -9999 -9999 -9999 -9999 -9999 -9999 -9999 -9999 -9999 -9999 -9999 -9999 -9999 -9999 -9999 -9999 -9999 -9999 -9999 -9999 -9999 -9999 -9999 -9999 -9999 -9999 -9999 -9999 -9999 -9999 -9999 -9999 -9999 -9999 -9999 -9999 -9999 -9999 -9999 -9999 -9999 -9999 -9999 -9999 -9999 -9999 -9999 -9999 -9999 -9999 -9999 -9999 -9999 -9999 -9999 -9999 -9999 -9999 -9999 -9999 -9999 -9999 -9999 -9999 -9999 -9999 -9999 -9999 -9999 -9999 -9999 -9999 -9999 -9999 -9999 -9999 -9999 -9999 -9999 -9999 -9999 -9999 -9999 -9999 -9999 -9999 -9999 -9999 -9999 -9999 -9999 -9999 -9999 -9999 -9999 -9999 -9999 -9999 -9999 -9999 -9999 -9999 -9999 -9999 -9999 -9999 -9999 -9999 -9999 -9999 -9999 -9999 -9999 -9999 -9999 -9999 -9999 -9999 -9999 -9999 -9999 -9999 -9999 -9999 -9999 -9999 -9999 -9999 -9999 -9999 -9999 -9999 -9999 -9999 -9999
-9999 -9999 -9999 -9999 -9999 -9999 -9999 -9999 -9999 -9999 -9999 -9999 -9999 -9999 -9999 -9999 -9999 -9999 -9999 -9999 -9999 -9999 -9999 -9999 -9999 -9999 -9999 -9999 -9999 -9999 -9999 -9999 -9999 -9999 -9999 -9999 -9999 -9999 -9999 -9999 -9999 -9999 -9999 -9999 -9999 -9999 -9999 -9999 -9999 -9999 -9999 -9999 -9999 -9999 -9999 -9999 -9999 -9999 -9999 -9999 -9999 -9999 -9999 -9999 -9999 -9999 -9999 -9999 -9999 -9999 -9999 -9999 -9999 -9999 -9999 -9999 -9999 -9999 -9999 -9999 -9999 -9999 -9999 -9999 -9999 -9999 -9999 -9999 -9999 -9999 -9999 -9999 -9999 -9999 -9999 -9999 -9999 -9999 -9999 -9999 -9999 -9999 -9999 -9999 -9999 -9999 -9999 -9999 -9999 -9999 -9999 -9999 -9999 -9999 -9999 -9999 -9999 -9999 -9999 -9999 -9999 -9999 -9999 -9999 -9999 -9999 -9999 -9999 -9999 -9999 -9999 -9999 -9999 -9999 -9999 -9999 -9999 -9999 -9999 -9999 -9999 -9999 -9999 -9999 -9999 -9999 -9999 -9999 -9999 -9999 -9999 -9999 -9999 -9999 -9999 -9999 -9999 -9999 -9999 -9999 -9999 -9999 -9999 -9999 -9999 -9999 -9999 -9999 -9999 -9999 -9999 -9999 -9999 -9999 -9999 -9999 -9999 -9999 -9999 -9999 -9999 -9999 -9999 -9999 -9999 -9999 -9999 -9999 -9999 -9999 -9999 -9999 -9999 -9999 -9999 -9999 -9999 -9999 -9999 -9999 -9999 -9999 -9999 -9999 -9999 -9999 -9999 -9999 -9999 -9999 -9999 -9999 -9999 -9999 -9999
-9999 -9999 -9999 -9999 -9999 -9999 -9999 -9999 -9999 -9999 -9999 -9999 -9999 -9999 -9999 -9999 -9999 -9999 -9999 -9999 -9999 -9999 -9999 -9999 -9999 -9999 -9999 -9999 -9999 -9999 -9999 -9999 -9999 -9999 -9999 -9999 -9999 -9999 -9999 -9999 -9999 -9999 -9999 -9999 -9999 -9999 -9999 -9999 -9999 -9999 -9999 -9999 -9999 -9999 -9999 -9999 -9999 -9999 -9999 -9999 -9999 -9999 -9999 -9999 -9999 -9999 -9999 -9999 -9999 -9999 -9999 -9999 -9999 -9999 -9999 -9999 -9999 -9999 -9999 -9999 -9999 -9999 -9999 -9999 -9999 -9999 -9999 -9999 -9999 -9999 -9999 -9999 -9999 -9999 -9999 -9999 -9999 -9999 -9999 -9999 -9999 -9999 -9999 -9999 -9999 -9999 -9999 -9999 -9999 -9999 -9999 -9999 -9999 -9999 -9999 -9999 -9999 -9999 -9999 -9999 -9999 -9999 -9999 -9999 -9999 -9999 -9999 -9999 -9999 -9999 -9999 -9999 -9999 -9999 -9999 -9999 -9999 -9999 -9999 -9999 -9999 -9999 -9999 -9999 -9999 -9999 -9999 -9999 -9999 -9999 -9999 -9999 -9999 -9999 -9999 -9999 -9999 -9999 -9999 -9999 -9999 -9999 -9999 -9999 -9999 -9999 -9999 -9999 -9999 -9999 -9999 -9999 -9999 -9999 -9999 -9999 -9999 -9999 -9999 -9999 -9999 -9999 -9999 -9999 -9999 -9999 -9999 -9999 -9999 -9999 -9999 -9999 -9999 -9999 -9999 -9999 -9999 -9999 -9999 -9999 -9999 -9999 -9999 -9999 -9999 -9999 -9999 -9999 -9999 -9999 -9999 -9999 -9999 -9999 -9999
-9999 -9999 -9999 -9999 -9999 -9999 -9999 -9999 -9999 -9999 -9999 -9999 -9999 -9999 -9999 -9999 -9999 -9999 -9999 -9999 -9999 -9999 -9999 -9999 -9999 -9999 -9999 -9999 -9999 -9999 -9999 -9999 -9999 -9999 -9999 -9999 -9999 -9999 -9999 -9999 -9999 -9999 -9999 -9999 -9999 -9999 -9999 -9999 -9999 -9999 -9999 -9999 -9999 -9999 -9999 -9999 -9999 -9999 -9999 -9999 -9999 -9999 -9999 -9999 -9999 -9999 -9999 -9999 -9999 -9999 -9999 -9999 -9999 -9999 -9999 -9999 -9999 -9999 -9999 -9999 -9999 -9999 -9999 -9999 -9999 -9999 -9999 -9999 -9999 -9999 -9999 -9999 -9999 -9999 -9999 -9999 -9999 -9999 -9999 -9999 -9999 -9999 -9999 -9999 -9999 -9999 -9999 -9999 -9999 -9999 -9999 -9999 -9999 -9999 -9999 -9999 -9999 -9999 -9999 -9999 -9999 -9999 -9999 -9999 -9999 -9999 -9999 -9999 -9999 -9999 -9999 -9999 -9999 -9999 -9999 -9999 -9999 -9999 -9999 -9999 -9999 -9999 -9999 -9999 -9999 -9999 -9999 -9999 -9999 -9999 -9999 -9999 -9999 -9999 -9999 -9999 -9999 -9999 -9999 -9999 -9999 -9999 -9999 -9999 -9999 -9999 -9999 -9999 -9999 -9999 -9999 -9999 -9999 -9999 -9999 -9999 -9999 -9999 -9999 -9999 -9999 -9999 -9999 -9999 -9999 -9999 -9999 -9999 -9999 -9999 -9999 -9999 -9999 -9999 -9999 -9999 -9999 -9999 -9999 -9999 -9999 -9999 -9999 -9999 -9999 -9999 -9999 -9999 -9999 -9999 -9999 -9999 -9999 -9999 -9999
-9999 -9999 -9999 -9999 -9999 -9999 -9999 -9999 -9999 -9999 -9999 -9999 -9999 -9999 -9999 -9999 -9999 -9999 -9999 -9999 -9999 -9999 -9999 -9999 -9999 -9999 -9999 -9999 -9999 -9999 -9999 -9999 -9999 -9999 -9999 -9999 -9999 -9999 -9999 -9999 -9999 -9999 -9999 -9999 -9999 -9999 -9999 -9999 -9999 -9999 -9999 -9999 -9999 -9999 -9999 -9999 -9999 -9999 -9999 -9999 -9999 -9999 -9999 -9999 -9999 -9999 -9999 -9999 -9999 -9999 -9999 -9999 -9999 -9999 -9999 -9999 -9999 -9999 -9999 -9999 -9999 -9999 -9999 -9999 -9999 -9999 -9999 -9999 -9999 -9999 -9999 -9999 -9999 -9999 -9999 -9999 -9999 -9999 -9999 -9999 -9999 -9999 -9999 -9999 -9999 -9999 -9999 -9999 -9999 -9999 -9999 -9999 -9999 -9999 -9999 -9999 -9999 -9999 -9999 -9999 -9999 -9999 -9999 -9999 -9999 -9999 -9999 -9999 -9999 -9999 -9999 -9999 -9999 -9999 -9999 -9999 -9999 -9999 -9999 -9999 -9999 -9999 -9999 -9999 -9999 -9999 -9999 -9999 -9999 -9999 -9999 -9999 -9999 -9999 -9999 -9999 -9999 -9999 -9999 -9999 -9999 -9999 -9999 -9999 -9999 -9999 -9999 -9999 -9999 -9999 -9999 -9999 -9999 -9999 -9999 -9999 -9999 -9999 -9999 -9999 -9999 -9999 -9999 -9999 -9999 -9999 -9999 -9999 -9999 -9999 -9999 -9999 -9999 -9999 -9999 -9999 -9999 -9999 -9999 -9999 -9999 -9999 -9999 -9999 -9999 -9999 -9999 -9999 -9999 -9999 -9999 -9999 -9999 -9999 -9999
-9999 -9999 -9999 -9999 -9999 -9999 -9999 -9999 -9999 -9999 -9999 -9999 -9999 -9999 -9999 -9999 -9999 -9999 -9999 -9999 -9999 -9999 -9999 -9999 -9999 -9999 -9999 -9999 -9999 -9999 -9999 -9999 -9999 -9999 -9999 -9999 -9999 -9999 -9999 -9999 -9999 -9999 -9999 -9999 -9999 -9999 -9999 -9999 -9999 -9999 -9999 -9999 -9999 -9999 -9999 -9999 -9999 -9999 -9999 -9999 -9999 -9999 -9999 -9999 -9999 -9999 -9999 -9999 -9999 -9999 -9999 -9999 -9999 -9999 -9999 -9999 -9999 -9999 -9999 -9999 -9999 -9999 -9999 -9999 -9999 -9999 -9999 -9999 -9999 -9999 -9999 -9999 -9999 -9999 -9999 -9999 -9999 -9999 -9999 -9999 -9999 -9999 -9999 -9999 -9999 -9999 -9999 -9999 -9999 -9999 -9999 -9999 -9999 -9999 -9999 -9999 -9999 -9999 -9999 -9999 -9999 -9999 -9999 -9999 -9999 -9999 -9999 -9999 -9999 -9999 -9999 -9999 -9999 -9999 -9999 -9999 -9999 -9999 -9999 -9999 -9999 -9999 -9999 -9999 -9999 -9999 -9999 -9999 -9999 -9999 -9999 -9999 -9999 -9999 -9999 -9999 -9999 -9999 -9999 -9999 -9999 -9999 -9999 -9999 -9999 -9999 -9999 -9999 -9999 -9999 -9999 -9999 -9999 -9999 -9999 -9999 -9999 -9999 -9999 -9999 -9999 -9999 -9999 -9999 -9999 -9999 -9999 -9999 -9999 -9999 -9999 -9999 -9999 -9999 -9999 -9999 -9999 -9999 -9999 -9999 -9999 -9999 -9999 -9999 -9999 -9999 -9999 -9999 -9999 -9999 -9999 -9999 -9999 -9999 -9999
-9999 -9999 -9999 -9999 -9999 -9999 -9999 -9999 -9999 -9999 -9999 -9999 -9999 -9999 -9999 -9999 -9999 -9999 -9999 -9999 -9999 -9999 -9999 -9999 -9999 -9999 -9999 -9999 -9999 -9999 -9999 -9999 -9999 -9999 -9999 -9999 -9999 -9999 -9999 -9999 -9999 -9999 -9999 -9999 -9999 -9999 -9999 -9999 -9999 -9999 -9999 -9999 -9999 -9999 -9999 -9999 -9999 -9999 -9999 -9999 -9999 -9999 -9999 -9999 -9999 -9999 -9999 -9999 -9999 -9999 -9999 -9999 -9999 -9999 -9999 -9999 -9999 -9999 -9999 -9999 -9999 -9999 -9999 -9999 -9999 -9999 -9999 -9999 -9999 -9999 -9999 -9999 -9999 -9999 -9999 -9999 -9999 -9999 -9999 -9999 -9999 -9999 -9999 -9999 -9999 -9999 -9999 -9999 -9999 -9999 -9999 -9999 -9999 -9999 -9999 -9999 -9999 -9999 -9999 -9999 -9999 -9999 -9999 -9999 -9999 -9999 -9999 -9999 -9999 -9999 -9999 -9999 -9999 -9999 -9999 -9999 -9999 -9999 -9999 -9999 -9999 -9999 -9999 -9999 -9999 -9999 -9999 -9999 -9999 -9999 -9999 -9999 -9999 -9999 -9999 -9999 -9999 -9999 -9999 -9999 -9999 -9999 -9999 -9999 -9999 -9999 -9999 -9999 -9999 -9999 -9999 -9999 -9999 -9999 -9999 -9999 -9999 -9999 -9999 -9999 -9999 -9999 -9999 -9999 -9999 -9999 -9999 -9999 -9999 -9999 -9999 -9999 -9999 -9999 -9999 -9999 -9999 -9999 -9999 -9999 -9999 -9999 -9999 -9999 -9999 -9999 -9999 -9999 -9999 -9999 -9999 -9999 -9999 -9999 -9999
-9999 -9999 -9999 -9999 -9999 -9999 -9999 -9999 -9999 -9999 -9999 -9999 -9999 -9999 -9999 -9999 -9999 -9999 -9999 -9999 -9999 -9999 -9999 -9999 -9999 -9999 -9999 -9999 -9999 -9999 -9999 -9999 -9999 -9999 -9999 -9999 -9999 -9999 -9999 -9999 -9999 -9999 -9999 -9999 -9999 -9999 -9999 -9999 -9999 -9999 -9999 -9999 -9999 -9999 -9999 -9999 -9999 -9999 -9999 -9999 -9999 -9999 -9999 -9999 -9999 -9999 -9999 -9999 -9999 -9999 -9999 -9999 -9999 -9999 -9999 -9999 -9999 -9999 -9999 -9999 -9999 -9999 -9999 -9999 -9999 -9999 -9999 -9999 -9999 -9999 -9999 -9999 -9999 -9999 -9999 -9999 -9999 -9999 -9999 -9999 -9999 -9999 -9999 -9999 -9999 -9999 -9999 -9999 -9999 -9999 -9999 -9999 -9999 -9999 -9999 -9999 -9999 -9999 -9999 -9999 -9999 -9999 -9999 -9999 -9999 -9999 -9999 -9999 -9999 -9999 -9999 -9999 -9999 -9999 -9999 -9999 -9999 -9999 -9999 -9999 -9999 -9999 -9999 -9999 -9999 -9999 -9999 -9999 -9999 -9999 -9999 -9999 -9999 -9999 -9999 -9999 -9999 -9999 -9999 -9999 -9999 -9999 -9999 -9999 -9999 -9999 -9999 -9999 -9999 -9999 -9999 -9999 -9999 -9999 -9999 -9999 -9999 -9999 -9999 -9999 -9999 -9999 -9999 -9999 -9999 -9999 -9999 -9999 -9999 -9999 -9999 -9999 -9999 -9999 -9999 -9999 -9999 -9999 -9999 -9999 -9999 -9999 -9999 -9999 -9999 -9999 -9999 -9999 -9999 -9999 -9999 -9999 -9999 -9999 -9999
-9999 -9999 -9999 -9999 -9999 -9999 -9999 -9999 -9999 -9999 -9999 -9999 -9999 -9999 -9999 -9999 -9999 -9999 -9999 -9999 -9999 -9999 -9999 -9999 -9999 -9999 -9999 -9999 -9999 -9999 -9999 -9999 -9999 -9999 -9999 -9999 -9999 -9999 -9999 -9999 -9999 -9999 -9999 -9999 -9999 -9999 -9999 -9999 -9999 -9999 -9999 -9999 -9999 -9999 -9999 -9999 -9999 -9999 -9999 -9999 -9999 -9999 -9999 -9999 -9999 -9999 -9999 -9999 -9999 -9999 -9999 -9999 -9999 -9999 -9999 -9999 -9999 -9999 -9999 -9999 -9999 -9999 -9999 -9999 -9999 -9999 -9999 -9999 -9999 -9999 -9999 -9999 -9999 -9999 -9999 -9999 -9999 -9999 -9999 -9999 -9999 -9999 -9999 -9999 -9999 -9999 -9999 -9999 -9999 -9999 -9999 -9999 -9999 -9999 -9999 -9999 -9999 -9999 -9999 -9999 -9999 -9999 -9999 -9999 -9999 -9999 -9999 -9999 -9999 -9999 -9999 -9999 -9999 -9999 -9999 -9999 -9999 -9999 -9999 -9999 -9999 -9999 -9999 -9999 -9999 -9999 -9999 -9999 -9999 -9999 -9999 -9999 -9999 -9999 -9999 -9999 -9999 -9999 -9999 -9999 -9999 -9999 -9999 -9999 -9999 -9999 -9999 -9999 -9999 -9999 -9999 -9999 -9999 -9999 -9999 -9999 -9999 -9999 -9999 -9999 -9999 -9999 -9999 -9999 -9999 -9999 -9999 -9999 -9999 -9999 -9999 -9999 -9999 -9999 -9999 -9999 -9999 -9999 -9999 -9999 -9999 -9999 -9999 -9999 -9999 -9999 -9999 -9999 -9999 -9999 -9999 -9999 -9999 -9999 -9999
-9999 -9999 -9999 -9999 -9999 -9999 -9999 -9999 -9999 -9999 -9999 -9999 -9999 -9999 -9999 -9999 -9999 -9999 -9999 -9999 -9999 -9999 -9999 -9999 -9999 -9999 -9999 -9999 -9999 -9999 -9999 -9999 -9999 -9999 -9999 -9999 -9999 -9999 -9999 -9999 -9999 -9999 -9999 -9999 -9999 -9999 -9999 -9999 -9999 -9999 -9999 -9999 -9999 -9999 -9999 -9999 -9999 -9999 -9999 -9999 -9999 -9999 -9999 -9999 -9999 -9999 -9999 -9999 -9999 -9999 -9999 -9999 -9999 -9999 -9999 -9999 -9999 -9999 -9999 -9999 -9999 -9999 -9999 -9999 -9999 -9999 -9999 -9999 -9999 -9999 -9999 -9999 -9999 -9999 -9999 -9999 -9999 -9999 -9999 -9999 -9999 -9999 -9999 -9999 -9999 -9999 -9999 -9999 -9999 -9999 -9999 -9999 -9999 -9999 -9999 -9999 -9999 -9999 -9999 -9999 -9999 -9999 -9999 -9999 -9999 -9999 -9999 -9999 -9999 -9999 -9999 -9999 -9999 -9999 -9999 -9999 -9999 -9999 -9999 -9999 -9999 -9999 -9999 -9999 -9999 -9999 -9999 -9999 -9999 -9999 -9999 -9999 -9999 -9999 -9999 -9999 -9999 -9999 -9999 -9999 -9999 -9999 -9999 -9999 -9999 -9999 -9999 -9999 -9999 -9999 -9999 -9999 -9999 -9999 -9999 -9999 -9999 -9999 -9999 -9999 -9999 -9999 -9999 -9999 -9999 -9999 -9999 -9999 -9999 -9999 -9999 -9999 -9999 -9999 -9999 -9999 -9999 -9999 -9999 -9999 -9999 -9999 -9999 -9999 -9999 -9999 -9999 -9999 -9999 -9999 -9999 -9999 -9999 -9999 -9999
