NCOLS 215
NROWS 375
XLLCORNER 4809000
YLLCORNER 3480000
CELLSIZE 1000
NODATA_value -9999
8.35 7.89 8.14 7.91 7.54 7.67 7.48 7.53 8.39 8.30 7.65 8.22 8.07 7.89 8.15 7.91 7.50 7.69 8.27 7.94 8.40 8.14 7.59 7.81 7.75 8.16 8.14 7.76 8.37 7.56 7.66 8.30 8.13 7.66 8.39 8.38 8.13 8.13 7.88 8.28 8.16 7.85 7.57 8.08 7.44 8.33 7.90 8.11 7.87 7.69 8.20 7.95 8.35 7.44 8.05 7.51 8.04 8.21 7.75 7.92 7.78 8.40 8.34 8.32 8.24 7.59 8.33 8.10 7.76 8.19 7.83 7.60 8.35 8.19 8.23 8.18 7.99 8.18 7.69 8.39 7.97 7.58 7.99 7.54 8.33 7.58 7.47 7.80 8.03 8.17 8.04 7.83 7.52 7.63 7.61 7.72 8.05 7.97 7.63 7.66 7.56 7.58 7.98 7.61 7.53 7.77 8.32 8.24 7.77 8.42 7.67 7.52 7.75 8.05 7.68 7.61 8.25 7.60 8.38 7.94 7.56 7.93 7.99 7.94 7.88 8.32 7.85 8.04 7.66 7.94 8.26 7.58 7.80 7.54 8.31 7.62 7.64 7.75 8.18 7.75 7.73 8.23 8.28 7.58 7.65 7.60 8.02 7.65 7.57 8.24 7.87 7.49 8.27 8.37 7.84 8.40 7.57 8.17 7.68 7.97 7.69 8.12 7.80 8.33 7.81 7.66 7.67 7.74 8.09 8.06 8.17 8.01 8.23 -9999 -9999 -9999 -9999 -9999 -9999 -9999 -9999 -9999 -9999 -9999 -9999 -9999 -9999 -9999 -9999 -9999 -9999 -9999 -9999 -9999 -9999 -9999 -9999 -9999 -9999 -9999 -9999 -9999 -9999 -9999 -9999 -9999 -9999 -9999 -9999 -9999 -9999 -9999 -9999 -9999 -9999
7.98 7.76 7.57 7.94 8.39 7.53 8.26 8.03 8.15 8.12 8.24 8.42 7.95 7.64 7.80 8.09 8.33 8.30 8.14 8.35 8.28 8.05 8.43 7.52 7.78 8.27 7.84 7.92 7.94 7.58 7.80 8.43 7.64 8.02 8.10 8.43 7.70 7.63 7.93 8.08 7.66 7.53 8.14 7.85 7.83 7.95 7.75 8.20 7.75 7.67 8.10 8.08 8.34 8.00 7.78 8.39 8.10 7.69 7.50 8.17 7.55 7.95 8.15 8.01 7.87 8.25 8.40 7.50 8.14 7.71 7.94 7.99 7.68 7.62 8.42 8.38 7.56 7.48 7.70 8.21 7.46 7.99 8.18 7.46 7.72 7.76 7.69 7.58 7.70 8.39 7.79 8.34 8.12 7.99 7.49 7.81 8.40 7.80 7.87 8.28 8.31 8.18 7.44 8.43 7.53 8.20 7.93 7.92 8.00 8.16 7.90 8.22 7.84 8.06 8.05 8.13 7.99 8.10 8.00 8.24 8.27 8.00 7.83 7.61 8.21 7.58 7.58 8.34 7.63 7.68 8.09 7.73 8.25 8.41 8.14 7.69 7.93 8.23 7.51 8.37 8.34 8.27 7.67 8.23 7.85 8.41 7.65 7.78 8.23 7.49 8.27 8.12 8.12 8.21 8.14 7.87 8.06 8.39 8.09 7.45 7.73 7.88 7.73 7.88 7.68 7.61 7.64 8.11 8.43 7.59 7.56 7.77 8.03 -9999 -9999 -9999 -9999 -9999 -9999 -9999 -9999 -9999 -9999 -9999 -9999 -9999 -9999 -9999 -9999 -9999 -9999 -9999 -9999 -9999 -9999 -9999 -9999 -9999 -9999 -9999 -9999 -9999 -9999 -9999 -9999 -9999 -9999 -9999 -9999 -9999 -9999 -9999 -9999 -9999 -9999
7.53 7.96 8.08 7.84 7.62 7.95 7.58 7.82 7.86 7.59 7.72 8.29 7.81 7.59 8.40 7.79 7.67 7.54 8.41 7.97 7.66 7.54 7.59 7.65 7.94 7.88 7.60 7.64 7.67 8.11 8.11 7.67 7.57 8.31 7.52 8.41 7.79 7.98 8.07 7.80 7.49 8.38 7.62 7.72 7.63 8.38 7.63 7.76 8.24 7.50 7.59 8.06 7.94 7.74 8.03 8.28 7.52 8.41 7.64 7.82 7.91 8.01 7.59 8.19 7.86 8.32 8.01 7.63 8.29 8.36 8.38 7.56 7.98 8.28 8.37 7.56 7.88 8.32 8.20 7.90 7.67 7.47 7.70 8.34 7.51 8.01 8.29 8.27 7.80 8.05 8.18 7.62 8.12 7.92 8.41 8.00 8.38 8.03 8.14 7.91 8.39 7.56 7.93 7.54 7.96 8.34 8.22 7.80 8.30 7.98 7.52 8.07 8.30 7.74 8.21 8.12 7.61 8.36 8.27 8.33 7.98 8.11 7.72 7.69 7.47 7.69 8.22 7.77 8.08 7.78 7.61 7.70 7.89 7.96 7.46 7.91 7.70 7.64 7.60 7.66 8.29 8.00 7.62 7.78 7.50 7.56 7.79 8.00 7.56 7.75 8.33 8.14 8.32 7.45 8.15 7.96 8.40 8.05 7.63 7.76 8.27 7.64 8.21 8.17 8.27 8.17 8.09 7.65 7.78 8.09 8.19 8.04 8.39 -9999 -9999 -9999 -9999 -9999 -9999 -9999 -9999 -9999 -9999 -9999 -9999 -9999 -9999 -9999 -9999 -9999 -9999 -9999 -9999 -9999 -9999 -9999 -9999 -9999 -9999 -9999 -9999 -9999 -9999 -9999 -9999 -9999 -9999 -9999 -9999 -9999 -9999 -9999 -9999 -9999 -9999
7.63 7.47 7.60 7.84 8.21 8.41 8.13 8.35 8.33 7.82 7.85 7.98 7.58 7.71 7.56 7.45 8.32 8.05 8.37 8.26 8.14 8.04 7.87 8.13 7.64 7.60 7.99 8.20 7.77 7.70 7.54 8.43 7.46 7.66 8.32 7.59 8.08 7.48 7.58 7.81 8.40 7.52 7.74 8.10 8.04 7.65 8.19 8.21 8.28 7.91 7.96 8.11 8.18 7.51 7.99 8.36 8.37 8.11 7.72 7.76 7.88 7.98 8.04 8.25 8.14 8.20 8.36 7.92 7.97 8.33 8.11 8.20 8.18 8.18 8.33 7.57 7.44 7.71 8.16 7.92 7.76 8.28 7.57 8.28 7.69 7.49 7.88 7.65 7.62 7.63 8.36 8.01 7.93 7.78 7.98 7.47 7.79 8.19 8.35 8.07 8.09 8.20 7.90 7.95 8.08 7.59 8.04 8.21 8.04 7.50 7.53 7.59 8.06 7.94 7.89 7.83 8.30 8.32 7.86 7.89 8.23 7.81 7.97 8.16 7.65 7.86 7.92 8.17 7.95 7.71 8.32 7.56 7.52 7.46 8.38 7.76 7.99 7.51 7.48 8.19 8.07 8.38 7.57 7.96 8.24 8.38 8.38 7.59 7.46 7.79 7.79 7.52 7.94 7.60 7.69 8.43 8.05 7.54 7.66 7.46 7.77 7.73 8.17 8.32 7.52 8.23 8.23 8.20 7.94 7.61 8.29 7.57 8.18 -9999 -9999 -9999 -9999 -9999 -9999 -9999 -9999 -9999 -9999 -9999 -9999 -9999 -9999 -9999 -9999 -9999 -9999 -9999 -9999 -9999 -9999 -9999 -9999 -9999 -9999 -9999 -9999 -9999 -9999 -9999 -9999 -9999 -9999 -9999 -9999 -9999 -9999 -9999 -9999 -9999 -9999
8.31 7.88 8.14 8.41 8.23 7.78 8.20 7.50 7.94 8.07 7.77 8.41 8.33 7.96 7.50 7.56 8.37 7.52 7.50 7.66 7.61 8.41 8.40 8.00 8.35 8.08 7.81 8.37 7.73 7.64 7.81 7.98 7.56 8.32 8.15 8.05 8.36 7.70 7.74 7.59 8.24 8.32 8.24 7.85 7.80 7.47 7.79 7.65 7.75 7.58 8.18 7.98 8.41 8.26 7.81 7.93 8.13 7.78 7.61 7.83 8.38 7.51 7.67 7.96 7.48 7.88 7.73 7.59 7.55 8.14 8.01 7.74 8.10 7.61 7.67 8.34 8.29 7.44 7.78 8.38 7.46 7.94 7.73 8.26 7.83 8.35 8.39 8.00 8.12 7.75 7.89 8.08 7.56 7.93 8.01 8.39 8.23 8.28 7.60 7.93 7.45 7.74 7.87 7.80 7.63 7.68 7.85 8.20 8.03 8.08 7.92 7.51 7.46 7.49 8.37 7.65 7.68 8.27 7.66 7.92 7.54 7.66 7.53 7.97 8.29 8.43 8.31 7.96 7.64 7.88 7.95 7.65 8.20 8.22 7.89 8.31 8.38 8.43 8.16 8.21 8.36 7.56 8.24 8.38 7.65 7.50 7.90 7.93 7.47 8.04 7.46 8.15 8.15 7.97 7.98 7.62 8.27 8.11 8.08 7.44 8.09 7.55 8.23 8.39 8.23 7.88 7.51 8.21 8.37 7.87 7.52 8.30 7.67 -9999 -9999 -9999 -9999 -9999 -9999 -9999 -9999 -9999 -9999 -9999 -9999 -9999 -9999 -9999 -9999 -9999 -9999 -9999 -9999 -9999 -9999 -9999 -9999 -9999 -9999 -9999 -9999 -9999 -9999 -9999 -9999 -9999 -9999 -9999 -9999 -9999 -9999 -9999 -9999 -9999 -9999
7.44 8.04 7.56 7.96 7.87 7.62 8.05 7.72 8.13 7.95 8.00 7.51 7.98 8.12 7.99 8.01 8.03 7.91 7.77 7.58 7.91 7.79 8.41 7.62 8.25 8.31 8.17 7.99 8.42 7.51 8.08 8.39 8.22 7.86 8.06 8.09 8.38 7.53 8.24 7.74 7.82 8.05 7.96 7.70 7.49 7.54 7.67 7.80 8.15 7.63 8.07 8.20 8.16 7.88 7.87 7.99 8.21 7.91 7.55 7.93 7.69 7.68 8.20 7.81 7.74 7.64 8.14 7.56 8.33 8.43 8.41 7.84 8.42 7.96 8.19 7.96 8.35 8.28 7.80 7.64 7.56 8.34 7.91 7.69 7.61 7.79 7.79 7.70 8.09 8.38 7.45 8.22 8.35 8.35 7.87 7.48 7.86 8.24 8.21 7.79 7.60 7.88 8.38 7.82 7.54 8.09 8.00 8.17 7.95 7.55 7.76 7.94 7.97 7.64 7.95 7.60 7.55 7.63 7.74 7.56 8.11 7.58 7.49 7.83 7.91 7.88 8.40 8.30 8.32 7.91 8.24 7.82 8.40 8.33 8.25 7.66 8.36 7.72 8.42 7.87 7.73 7.84 7.68 8.11 7.44 7.45 8.10 8.39 7.48 7.46 8.16 8.15 7.97 7.70 8.12 7.92 8.30 7.95 8.18 7.75 7.86 8.20 7.65 8.28 7.48 7.69 7.50 8.09 7.54 8.23 7.70 8.11 8.19 7.93 -9999 -9999 -9999 -9999 -9999 -9999 -9999 -9999 -9999 -9999 -9999 -9999 -9999 -9999 -9999 -9999 -9999 -9999 -9999 -9999 -9999 -9999 -9999 -9999 -9999 -9999 -9999 -9999 -9999 -9999 -9999 -9999 -9999 -9999 -9999 -9999 -9999 -9999 -9999 -9999 -9999
7.90 7.75 7.96 8.24 7.94 7.99 8.24 8.07 7.69 7.65 8.19 7.56 7.78 8.10 8.01 7.64 7.57 7.64 8.27 8.05 7.68 7.55 7.81 8.10 7.77 7.75 8.02 7.51 8.37 7.75 7.91 7.47 8.27 7.50 8.14 7.84 8.26 8.32 7.63 7.78 7.93 7.63 8.02 8.36 8.04 7.66 8.33 7.46 8.30 8.18 7.83 7.48 7.89 8.39 7.94 7.70 7.72 8.05 8.23 7.48 7.54 7.71 7.74 8.01 8.23 8.35 7.82 8.33 8.30 8.13 8.38 7.78 7.97 7.68 8.00 8.01 7.77 7.45 8.38 8.33 7.49 8.02 7.52 8.29 7.92 7.46 8.39 8.26 7.82 8.11 7.66 8.41 8.41 7.54 7.91 7.69 7.74 7.91 7.83 8.34 7.77 7.84 8.11 7.46 7.94 8.32 7.82 8.36 7.85 7.59 8.32 7.99 8.37 8.23 7.62 8.02 8.21 8.27 7.92 8.04 8.23 8.21 8.42 8.05 8.15 7.87 7.58 7.52 7.88 7.66 7.67 8.41 8.40 7.76 7.87 7.59 8.36 8.29 7.74 7.57 7.48 7.79 8.19 7.74 8.15 8.27 8.10 7.59 7.52 8.31 8.27 7.45 8.37 7.85 7.70 8.27 7.87 7.78 7.53 8.43 7.67 7.80 7.52 7.68 8.42 8.06 7.89 7.73 7.49 7.81 7.62 8.19 8.39 7.82 -9999 -9999 -9999 -9999 -9999 -9999 -9999 -9999 -9999 -9999 -9999 -9999 -9999 -9999 -9999 -9999 -9999 -9999 -9999 -9999 -9999 -9999 -9999 -9999 -9999 -9999 -9999 -9999 -9999 -9999 -9999 -9999 -9999 -9999 -9999 -9999 -9999 -9999 -9999 -9999 -9999
7.72 8.16 8.25 7.44 8.02 7.74 7.73 7.77 8.01 8.08 7.50 7.58 7.52 8.15 8.13 8.35 8.39 7.60 7.44 7.70 8.15 7.73 7.61 8.31 7.48 8.22 7.76 7.97 7.69 7.56 7.86 7.53 7.74 8.13 8.38 7.71 7.98 7.56 8.36 7.97 8.04 8.07 8.23 7.77 7.44 8.25 7.83 7.86 8.15 7.47 8.21 7.78 7.47 7.58 8.33 8.33 8.15 7.71 8.37 7.94 7.62 7.72 7.75 8.39 7.63 7.88 7.43 7.86 7.67 7.52 7.62 7.98 7.81 7.80 7.73 8.01 7.91 7.96 7.70 7.90 7.84 8.32 7.94 7.58 7.63 8.34 8.02 8.16 7.69 8.39 8.23 8.27 7.61 7.85 7.81 7.53 8.34 7.84 7.65 8.21 8.02 7.53 7.95 7.91 7.68 7.63 8.33 7.85 8.24 8.16 8.06 7.69 7.87 8.19 8.17 8.11 8.00 8.05 7.71 7.77 7.46 7.92 8.07 7.45 8.42 8.05 7.58 8.21 7.77 7.91 7.52 7.90 8.01 7.51 7.58 8.12 7.99 8.33 8.11 8.34 7.96 8.17 8.32 7.59 7.71 7.91 7.92 7.88 8.14 8.07 7.50 7.94 7.92 8.18 7.80 7.44 7.63 7.75 8.37 7.93 8.14 8.12 7.52 7.63 8.13 7.68 7.99 7.64 7.94 8.27 7.76 7.98 7.74 7.65 -9999 -9999 -9999 -9999 -9999 -9999 -9999 -9999 -9999 -9999 -9999 -9999 -9999 -9999 -9999 -9999 -9999 -9999 -9999 -9999 -9999 -9999 -9999 -9999 -9999 -9999 -9999 -9999 -9999 -9999 -9999 -9999 -9999 -9999 -9999 -9999 -9999 -9999 -9999 -9999 -9999
7.57 7.85 8.25 8.20 7.99 8.14 7.84 7.59 7.59 8.02 7.96 7.87 8.40 7.46 7.91 7.93 8.22 8.43 7.66 8.37 7.48 8.11 8.07 7.91 7.47 7.49 7.57 7.99 8.21 7.71 7.75 8.12 8.20 7.64 7.97 8.07 7.73 8.09 8.23 7.83 7.70 7.78 8.40 7.76 7.79 7.57 8.12 8.35 8.19 7.84 7.53 7.60 8.29 8.11 7.45 7.78 7.63 7.80 8.22 8.04 7.51 8.21 7.47 7.84 7.55 8.36 7.63 8.31 8.29 8.03 8.34 7.53 7.76 8.02 7.96 7.83 7.95 7.48 7.66 8.16 7.88 8.27 8.12 8.15 8.01 7.97 8.20 8.29 7.99 8.25 7.55 7.94 8.25 7.92 7.63 8.23 7.71 8.36 7.74 7.67 8.20 7.69 7.66 7.96 7.72 8.27 7.93 7.54 7.83 8.11 8.32 7.52 7.63 7.94 8.30 8.09 8.17 7.45 8.24 8.34 8.08 8.25 8.33 8.19 7.70 7.80 7.67 7.93 8.33 7.64 7.73 7.52 8.34 7.55 7.80 7.44 8.15 8.08 7.80 7.60 8.08 8.26 8.06 7.73 7.62 7.80 7.87 7.50 7.76 8.23 8.17 7.69 8.00 8.10 8.32 8.39 7.79 8.07 7.68 7.46 8.20 7.74 7.67 7.89 7.83 8.01 7.81 7.47 7.93 8.32 8.27 7.66 7.82 7.82 -9999 -9999 -9999 -9999 -9999 -9999 -9999 -9999 -9999 -9999 -9999 -9999 -9999 -9999 -9999 -9999 -9999 -9999 -9999 -9999 -9999 -9999 -9999 -9999 -9999 -9999 -9999 -9999 -9999 -9999 -9999 -9999 -9999 -9999 -9999 -9999 -9999 -9999 -9999 -9999 -9999
8.38 7.84 7.75 7.67 8.17 7.61 7.97 7.95 8.38 7.74 8.11 7.58 8.36 7.86 7.54 7.86 8.38 7.98 7.48 8.34 8.15 7.57 7.71 8.04 8.41 7.97 8.15 7.47 8.36 7.49 7.95 7.76 8.22 7.72 8.15 8.38 7.98 7.56 7.72 8.42 7.66 8.34 8.11 7.57 7.85 7.88 7.51 7.58 8.13 7.56 8.26 7.71 8.25 7.45 7.87 8.37 8.16 8.14 7.84 8.02 7.60 7.71 7.93 8.36 8.34 7.78 8.09 7.65 8.07 8.24 8.23 7.70 8.05 8.20 7.71 7.45 8.38 8.19 7.57 8.01 7.58 8.34 7.56 7.60 8.41 7.54 7.52 7.72 7.76 8.34 7.71 7.90 8.02 7.63 7.55 7.88 8.36 8.14 8.13 7.50 7.71 7.68 8.31 7.95 8.10 7.86 8.20 8.26 8.17 7.97 8.19 8.10 8.00 7.47 8.32 8.10 7.46 7.75 8.37 8.12 8.39 7.69 7.45 8.30 7.50 7.55 7.46 7.97 8.15 7.59 7.83 8.41 7.45 8.43 8.04 7.87 8.00 7.99 8.24 7.44 8.08 7.76 7.44 7.83 7.45 7.94 7.53 7.63 8.35 8.18 7.66 7.91 7.94 7.65 7.58 8.15 8.02 7.59 7.63 8.06 8.39 8.19 7.73 7.49 7.59 7.55 7.81 7.91 8.41 7.68 7.52 8.11 8.30 8.06 -9999 -9999 -9999 -9999 -9999 -9999 -9999 -9999 -9999 -9999 -9999 -9999 -9999 -9999 -9999 -9999 -9999 -9999 -9999 -9999 -9999 -9999 -9999 -9999 -9999 -9999 -9999 -9999 -9999 -9999 -9999 -9999 -9999 -9999 -9999 -9999 -9999 -9999 -9999 -9999 -9999
7.61 8.28 7.75 7.51 8.08 7.51 8.34 7.61 7.90 7.57 8.16 7.48 8.09 7.56 7.76 7.75 7.91 8.17 7.68 7.88 7.98 8.12 7.44 8.08 8.32 8.41 7.74 8.36 8.04 7.56 7.62 7.99 7.78 7.96 8.05 8.05 8.37 7.53 7.56 8.35 8.16 7.87 7.84 8.39 7.59 7.57 8.15 7.61 8.37 8.33 8.13 8.16 8.21 7.56 7.68 7.83 8.36 8.36 8.23 7.93 7.64 7.93 7.92 8.24 8.37 7.98 8.07 8.35 7.69 7.90 8.14 8.35 8.36 8.38 8.36 8.05 7.97 8.33 8.12 7.64 7.46 7.95 7.51 7.89 8.34 8.26 8.34 7.56 7.88 8.01 8.42 7.97 7.60 7.74 8.09 8.36 8.18 8.37 8.15 7.68 8.04 7.55 8.05 7.93 8.01 8.07 7.91 8.38 7.59 7.96 7.62 8.00 8.40 8.10 7.70 8.25 7.88 7.92 7.85 7.51 7.83 7.89 7.54 8.40 7.69 7.90 7.57 7.78 7.88 7.69 7.49 7.47 7.87 7.55 8.25 7.48 7.85 7.93 7.66 7.65 8.08 8.31 7.67 7.81 7.84 7.86 7.47 7.84 8.24 7.67 7.75 7.79 8.16 7.59 8.29 7.86 8.36 7.68 7.68 7.71 7.53 8.35 7.49 8.22 7.78 7.59 8.22 7.84 8.25 7.78 7.49 7.75 7.79 7.62 -9999 -9999 -9999 -9999 -9999 -9999 -9999 -9999 -9999 -9999 -9999 -9999 -9999 -9999 -9999 -9999 -9999 -9999 -9999 -9999 -9999 -9999 -9999 -9999 -9999 -9999 -9999 -9999 -9999 -9999 -9999 -9999 -9999 -9999 -9999 -9999 -9999 -9999 -9999 -9999 -9999
7.99 7.47 7.75 8.01 8.21 8.32 8.03 8.36 8.02 7.68 8.37 8.13 8.12 7.52 7.80 7.56 8.43 7.59 7.53 8.24 8.39 7.82 8.05 7.54 7.84 7.70 8.21 8.12 7.63 7.64 7.99 8.23 7.69 8.33 7.55 7.82 7.47 8.03 8.06 8.16 7.97 7.66 7.56 7.99 8.03 8.05 8.16 7.51 8.35 7.71 8.19 8.29 7.80 7.56 7.92 8.13 7.80 7.84 7.51 7.86 7.80 8.29 7.80 7.52 8.15 7.99 7.75 7.63 8.02 8.24 8.40 7.89 7.60 8.22 8.09 8.09 8.16 7.69 7.75 7.45 7.57 7.60 7.72 8.04 7.98 8.40 8.16 7.69 7.61 7.85 7.86 7.55 8.35 8.04 8.05 8.31 7.66 8.11 7.46 8.29 7.57 8.41 8.31 7.85 7.88 7.47 7.85 7.73 8.06 7.85 7.65 7.89 8.38 8.31 8.14 7.57 8.17 8.13 8.33 7.79 7.45 7.83 8.36 7.47 8.01 7.53 7.87 8.09 8.11 7.64 8.04 7.89 8.33 8.19 8.39 7.91 8.32 8.32 8.36 8.11 8.23 7.46 8.18 7.84 7.74 7.49 7.68 7.67 7.61 7.71 7.49 7.78 7.72 8.03 8.38 7.79 7.88 7.66 8.19 7.73 7.86 7.56 7.63 8.34 7.44 8.17 7.82 8.06 8.25 8.36 7.57 8.23 7.65 7.65 7.58 -9999 -9999 -9999 -9999 -9999 -9999 -9999 -9999 -9999 -9999 -9999 -9999 -9999 -9999 -9999 -9999 -9999 -9999 -9999 -9999 -9999 -9999 -9999 -9999 -9999 -9999 -9999 -9999 -9999 -9999 -9999 -9999 -9999 -9999 -9999 -9999 -9999 -9999 -9999 -9999
8.38 8.04 7.53 8.06 7.46 8.31 7.52 7.75 7.49 7.62 8.17 7.44 7.74 7.94 7.74 7.49 7.75 7.99 7.74 8.29 7.78 8.24 7.75 8.18 8.03 8.38 8.43 7.59 7.90 7.67 8.27 7.60 8.04 7.52 7.96 8.22 7.86 7.63 8.38 8.16 8.25 8.17 7.61 7.77 7.86 8.20 8.00 8.12 8.30 7.57 8.07 8.07 8.13 7.67 8.38 8.34 8.32 8.04 8.24 8.31 8.16 8.42 7.64 8.34 7.66 8.37 7.83 8.18 7.59 7.60 8.32 7.60 7.46 8.00 7.75 7.62 7.75 7.94 7.60 8.34 7.88 8.17 7.56 8.36 7.47 7.87 8.27 8.37 7.60 8.16 8.09 7.64 8.38 7.85 8.38 8.31 8.03 8.15 7.72 7.49 7.61 7.58 7.69 7.89 7.94 8.25 7.65 7.92 7.98 8.02 8.00 8.29 7.75 7.82 7.78 8.34 8.13 7.58 7.64 7.69 7.63 7.46 7.66 7.57 7.49 8.06 8.26 7.64 7.88 7.98 8.20 8.00 8.25 7.60 7.74 7.67 7.89 8.37 8.14 8.17 7.85 8.04 7.58 7.64 8.23 7.71 7.98 7.91 8.02 7.70 7.51 8.08 8.18 7.46 8.02 8.40 7.77 8.16 8.27 7.74 8.38 7.72 7.93 7.68 8.42 7.63 8.30 8.35 8.15 7.46 7.71 7.92 7.67 7.56 8.21 -9999 -9999 -9999 -9999 -9999 -9999 -9999 -9999 -9999 -9999 -9999 -9999 -9999 -9999 -9999 -9999 -9999 -9999 -9999 -9999 -9999 -9999 -9999 -9999 -9999 -9999 -9999 -9999 -9999 -9999 -9999 -9999 -9999 -9999 -9999 -9999 -9999 -9999 -9999 -9999
8.27 7.55 7.97 8.25 8.23 7.77 8.24 8.08 7.82 8.37 7.98 7.76 7.47 8.12 7.87 7.79 7.44 8.32 7.52 8.18 8.18 8.10 7.83 7.90 8.33 8.11 7.51 7.93 8.02 7.88 8.20 7.98 8.13 8.42 8.00 8.18 7.69 7.83 8.37 8.09 8.27 7.48 8.13 8.07 7.65 7.49 7.80 7.43 8.05 7.74 7.90 8.41 7.59 7.45 8.34 7.99 7.81 8.35 7.98 7.45 7.61 7.64 7.68 7.44 7.55 7.98 7.82 8.12 8.05 7.80 8.27 7.66 7.99 7.89 8.19 7.67 8.30 8.10 7.62 7.61 7.53 7.98 7.87 7.51 7.52 7.62 8.07 7.53 7.59 7.70 8.27 8.26 7.92 7.82 7.99 7.59 7.71 8.12 7.96 8.27 8.17 8.12 7.97 7.57 7.83 7.63 8.08 7.58 8.12 8.30 8.31 7.47 7.49 7.49 7.71 8.35 7.92 8.31 7.94 8.07 8.24 7.90 8.15 7.73 8.42 7.88 7.56 8.28 7.91 7.48 8.43 7.91 8.18 8.05 7.80 7.71 7.89 8.01 7.94 7.60 8.04 8.20 7.90 7.75 8.36 7.44 7.91 7.50 8.14 8.08 8.03 8.19 7.78 8.42 7.81 7.86 7.59 7.63 8.14 8.11 7.59 8.23 8.12 8.19 7.87 8.08 8.36 8.17 7.79 7.79 8.36 8.16 7.77 7.51 7.71 -9999 -9999 -9999 -9999 -9999 -9999 -9999 -9999 -9999 -9999 -9999 -9999 -9999 -9999 -9999 -9999 -9999 -9999 -9999 -9999 -9999 -9999 -9999 -9999 -9999 -9999 -9999 -9999 -9999 -9999 -9999 -9999 -9999 -9999 -9999 -9999 -9999 -9999 -9999 -9999
8.22 8.20 7.91 8.43 7.70 8.18 8.02 7.47 7.94 7.92 7.51 8.31 8.16 8.00 8.27 8.03 8.38 7.86 7.80 7.85 7.87 8.26 8.11 8.37 8.29 7.89 8.06 8.27 8.07 8.14 7.97 8.01 7.67 7.59 8.13 8.22 7.57 7.78 7.79 7.50 7.51 7.49 8.17 7.83 7.71 7.58 7.59 7.53 7.56 8.32 7.66 8.41 8.32 8.01 8.01 7.93 8.39 7.65 7.45 8.30 8.43 8.14 7.67 7.65 7.86 7.93 8.34 8.05 8.05 7.59 8.42 8.37 8.06 7.83 7.72 8.02 8.40 8.37 7.52 7.55 7.61 7.59 8.28 7.48 7.79 7.58 7.77 8.18 7.86 8.01 8.42 7.89 8.15 8.29 8.18 7.55 8.12 8.21 7.69 8.07 7.81 8.13 8.10 7.47 7.73 8.22 7.59 7.96 8.27 7.66 7.83 7.63 8.23 7.78 7.58 8.21 8.38 7.66 7.97 8.08 7.44 8.18 8.18 8.15 7.58 7.94 7.61 8.27 7.57 7.64 7.56 8.34 8.08 8.25 7.48 8.32 8.34 8.20 7.94 8.05 7.73 8.11 7.64 8.39 8.08 7.71 7.60 8.40 7.93 7.52 7.84 7.64 7.54 7.82 8.30 7.48 8.29 7.89 8.28 7.77 7.59 7.85 8.37 7.62 7.80 8.35 7.84 7.91 8.21 7.60 8.27 8.15 8.11 7.93 8.25 -9999 -9999 -9999 -9999 -9999 -9999 -9999 -9999 -9999 -9999 -9999 -9999 -9999 -9999 -9999 -9999 -9999 -9999 -9999 -9999 -9999 -9999 -9999 -9999 -9999 -9999 -9999 -9999 -9999 -9999 -9999 -9999 -9999 -9999 -9999 -9999 -9999 -9999 -9999 -9999
7.45 7.79 8.11 8.22 7.49 7.78 7.94 7.85 7.93 7.61 7.66 7.47 7.75 7.79 8.37 8.37 7.83 8.36 8.05 8.33 7.71 7.47 8.39 8.04 8.14 7.66 7.68 7.91 7.62 7.59 7.77 8.13 7.89 7.48 7.65 7.81 7.49 7.53 7.64 7.86 8.22 7.93 7.83 7.57 7.60 7.73 7.77 8.01 7.71 7.62 8.07 7.57 8.23 8.26 7.49 8.22 7.47 8.03 7.58 7.95 7.76 7.65 7.81 8.36 8.09 7.77 8.27 7.52 7.53 7.87 7.73 8.09 7.98 7.62 8.28 8.01 8.20 7.62 7.60 7.46 7.96 8.28 8.15 8.04 8.26 7.56 7.59 7.98 7.84 7.69 8.25 7.74 7.96 8.28 7.98 7.54 7.83 7.45 8.04 7.74 7.84 8.12 8.27 8.34 7.71 8.35 7.91 7.52 7.48 7.85 7.84 7.78 8.37 8.22 7.98 7.91 7.65 8.09 8.19 7.65 8.20 7.45 8.09 7.71 7.83 7.91 7.66 8.24 7.88 7.98 8.21 7.80 8.10 7.84 7.69 7.69 8.24 8.09 8.06 7.62 8.39 7.85 7.99 7.56 8.05 8.11 7.79 8.30 7.44 8.00 8.18 7.63 8.27 7.96 7.45 8.04 7.60 7.76 7.88 7.92 8.30 8.16 8.39 8.24 8.00 7.69 7.45 8.37 8.25 8.21 7.80 8.33 8.12 7.94 8.36 -9999 -9999 -9999 -9999 -9999 -9999 -9999 -9999 -9999 -9999 -9999 -9999 -9999 -9999 -9999 -9999 -9999 -9999 -9999 -9999 -9999 -9999 -9999 -9999 -9999 -9999 -9999 -9999 -9999 -9999 -9999 -9999 -9999 -9999 -9999 -9999 -9999 -9999 -9999 -9999
7.84 7.70 8.31 7.90 7.60 8.35 8.17 8.05 7.88 7.99 8.17 7.49 7.74 7.47 7.56 7.91 7.85 7.68 7.62 7.80 8.33 8.06 8.26 7.95 8.09 7.75 8.33 7.51 7.95 8.28 7.99 7.97 7.76 7.92 8.40 8.38 7.56 7.46 7.94 7.71 8.26 7.58 7.50 7.45 8.05 8.12 8.09 7.71 8.11 7.60 7.71 8.34 8.07 7.70 8.24 8.02 7.80 8.18 7.90 8.32 8.06 8.00 7.90 8.01 8.28 7.64 8.03 7.59 8.09 8.32 7.46 7.93 8.31 7.53 8.00 7.47 7.88 8.39 7.64 7.54 8.19 8.41 8.38 8.29 7.61 7.64 8.28 8.31 8.29 8.04 7.68 7.87 7.52 8.08 7.76 8.41 7.87 8.41 8.28 8.18 8.32 7.75 7.45 8.30 8.21 8.28 8.23 8.18 7.45 8.21 7.88 8.39 8.22 8.17 7.51 7.97 8.26 8.08 8.37 8.21 7.72 8.20 7.79 7.81 7.86 7.75 7.46 7.69 8.34 8.33 7.83 8.05 8.22 7.88 8.12 7.93 8.20 7.89 8.05 7.62 8.38 8.24 7.61 8.17 7.83 7.96 8.23 8.16 8.11 8.39 8.13 7.65 8.07 8.41 8.01 8.40 7.44 7.71 8.41 8.13 7.90 7.56 7.91 8.42 7.96 7.70 7.85 8.13 7.47 7.72 7.66 7.85 7.84 7.44 8.23 -9999 -9999 -9999 -9999 -9999 -9999 -9999 -9999 -9999 -9999 -9999 -9999 -9999 -9999 -9999 -9999 -9999 -9999 -9999 -9999 -9999 -9999 -9999 -9999 -9999 -9999 -9999 -9999 -9999 -9999 -9999 -9999 -9999 -9999 -9999 -9999 -9999 -9999 -9999 -9999
8.31 8.10 8.11 7.68 7.85 7.99 8.29 7.96 7.67 7.84 8.18 8.23 7.63 8.39 8.15 8.17 7.88 7.76 7.97 7.57 8.04 7.45 7.50 7.47 7.53 7.65 7.96 7.86 7.99 7.79 8.10 7.68 8.15 8.02 7.73 8.08 7.95 8.09 7.67 7.65 8.04 8.06 7.82 8.23 7.97 7.72 7.79 7.99 7.80 7.73 7.88 7.82 7.68 8.09 7.92 7.65 7.94 7.96 7.54 7.83 7.89 8.04 8.03 7.99 7.48 8.41 8.02 7.78 7.87 8.01 8.28 8.37 7.89 7.50 7.86 8.43 7.72 7.64 7.69 8.13 8.20 8.41 8.00 8.32 7.98 7.48 8.33 8.42 7.84 8.17 7.75 7.54 8.34 7.94 8.18 7.47 8.43 7.66 7.86 8.39 7.86 7.85 8.07 7.73 7.93 8.31 8.27 8.41 7.86 8.27 7.92 7.96 7.81 8.14 8.20 7.53 7.45 8.09 8.14 7.86 8.17 7.45 7.83 8.07 7.58 7.92 7.74 8.28 7.45 7.94 8.00 8.41 8.31 7.56 7.90 7.83 8.38 8.39 7.75 7.64 8.23 8.29 7.77 8.35 8.06 7.93 7.78 8.13 7.85 8.32 8.34 8.01 7.52 7.68 8.43 7.58 8.10 7.92 7.46 7.48 7.88 7.82 7.89 7.96 8.01 7.53 7.94 8.42 8.16 7.78 7.63 8.43 8.19 7.70 7.56 7.83 -9999 -9999 -9999 -9999 -9999 -9999 -9999 -9999 -9999 -9999 -9999 -9999 -9999 -9999 -9999 -9999 -9999 -9999 -9999 -9999 -9999 -9999 -9999 -9999 -9999 -9999 -9999 -9999 -9999 -9999 -9999 -9999 -9999 -9999 -9999 -9999 -9999 -9999 -9999
8.28 7.49 7.58 8.07 8.16 8.31 7.64 7.44 7.81 8.01 7.79 8.02 8.06 8.21 7.47 8.08 7.90 7.65 7.50 7.44 7.56 7.69 7.89 8.40 7.90 7.61 7.99 8.12 8.33 8.09 7.90 7.46 7.78 7.82 7.80 7.87 7.89 7.48 8.41 7.84 8.00 8.36 7.73 8.35 7.48 8.37 7.45 8.15 7.92 7.97 7.86 7.91 7.96 7.63 8.07 7.78 7.81 8.08 8.00 8.34 8.04 7.47 7.83 7.88 8.39 8.26 8.07 7.80 8.16 8.23 8.25 7.62 7.88 7.81 8.18 7.54 7.85 8.21 7.57 8.03 8.34 8.15 8.37 7.81 8.13 8.28 7.56 7.68 7.62 7.51 7.87 8.17 7.49 7.75 7.98 7.98 8.36 8.19 8.28 7.80 7.73 7.67 7.66 8.25 7.53 8.02 7.75 8.13 7.52 8.12 7.96 7.74 7.69 7.86 7.93 8.05 7.69 7.94 7.96 7.75 7.66 7.92 7.46 7.88 8.05 8.43 8.06 8.35 8.27 7.79 8.43 8.19 8.13 8.42 8.42 8.04 8.28 7.61 8.24 8.20 8.18 7.54 8.12 7.63 8.10 8.14 8.04 8.01 7.89 7.61 7.52 8.06 7.75 8.26 7.44 8.17 8.43 7.96 7.90 7.61 8.16 8.30 7.61 7.99 7.93 7.64 7.68 8.09 8.37 8.40 7.59 8.32 8.38 7.58 7.91 7.82 -9999 -9999 -9999 -9999 -9999 -9999 -9999 -9999 -9999 -9999 -9999 -9999 -9999 -9999 -9999 -9999 -9999 -9999 -9999 -9999 -9999 -9999 -9999 -9999 -9999 -9999 -9999 -9999 -9999 -9999 -9999 -9999 -9999 -9999 -9999 -9999 -9999 -9999 -9999
7.78 7.66 7.91 7.65 7.92 7.93 8.27 8.21 7.49 8.19 8.41 8.02 8.21 7.76 7.85 8.04 8.29 8.14 7.65 8.31 8.29 7.62 7.99 7.85 7.55 8.21 7.83 7.63 7.86 7.48 8.12 7.44 7.69 7.73 7.74 7.83 8.39 8.33 8.39 8.04 8.30 8.05 7.48 7.87 8.19 7.93 8.18 8.35 7.53 8.11 7.58 8.41 8.21 7.75 8.25 7.57 8.03 8.37 7.63 7.81 7.68 7.80 8.37 8.11 7.90 8.07 8.23 7.50 7.69 8.00 7.92 8.10 7.61 7.62 8.39 8.05 7.79 7.65 7.74 8.31 7.76 7.92 8.13 7.85 7.75 8.17 8.07 7.51 8.09 7.45 7.92 8.21 7.78 8.29 8.09 8.37 7.60 8.08 7.47 7.98 8.30 7.73 7.89 7.69 7.78 8.26 8.30 7.67 8.37 8.39 7.89 8.00 7.59 8.12 7.63 8.38 7.73 7.82 8.10 8.22 7.46 7.50 8.10 7.93 8.14 7.67 7.85 8.41 8.25 8.03 8.28 8.21 7.73 7.71 8.34 8.10 8.10 8.17 7.47 8.27 7.59 7.95 7.86 7.46 7.97 8.08 8.07 8.14 8.29 7.48 8.23 8.33 8.12 7.73 8.20 7.50 8.15 7.58 7.83 8.09 8.27 7.94 8.41 8.31 8.14 8.42 7.93 7.45 8.14 7.43 8.09 7.68 8.05 7.61 8.05 7.64 -9999 -9999 -9999 -9999 -9999 -9999 -9999 -9999 -9999 -9999 -9999 -9999 -9999 -9999 -9999 -9999 -9999 -9999 -9999 -9999 -9999 -9999 -9999 -9999 -9999 -9999 -9999 -9999 -9999 -9999 -9999 -9999 -9999 -9999 -9999 -9999 -9999 -9999 -9999
7.72 8.33 8.21 7.64 7.80 7.61 7.98 7.62 8.06 8.11 8.39 7.77 7.80 7.71 8.24 7.67 8.03 8.32 7.90 7.47 7.94 7.78 7.98 8.43 7.55 7.54 7.84 7.58 7.80 7.96 8.27 7.82 8.21 7.63 7.67 7.90 8.05 7.55 8.18 7.49 7.74 8.29 7.61 8.00 7.49 7.79 7.95 7.70 8.09 8.37 7.63 8.28 7.82 7.71 7.47 7.43 7.68 7.73 7.97 8.41 7.58 7.63 7.78 8.39 8.09 7.62 7.60 7.75 7.68 7.45 7.97 7.97 8.34 8.00 8.07 8.29 7.86 7.92 7.69 7.63 7.99 7.60 7.47 8.30 7.84 7.54 7.48 8.18 8.38 7.95 7.47 7.69 7.69 7.61 8.21 7.68 8.24 7.55 8.22 8.26 7.83 8.29 8.21 8.31 8.36 7.55 7.60 7.58 7.52 8.04 8.12 7.81 8.43 7.49 7.75 7.90 8.00 8.14 8.07 7.52 7.52 7.74 7.57 7.89 7.47 7.55 7.56 8.29 7.64 8.40 7.55 7.55 8.24 8.04 8.04 7.71 7.77 8.18 8.09 8.27 8.35 7.77 8.11 8.14 8.29 7.77 8.19 8.12 8.16 8.00 7.66 7.51 7.48 7.58 8.24 7.73 8.30 7.97 7.55 7.97 7.90 7.49 8.06 8.40 8.17 8.13 7.69 8.15 7.62 8.33 8.23 7.98 7.79 8.21 8.13 8.00 -9999 -9999 -9999 -9999 -9999 -9999 -9999 -9999 -9999 -9999 -9999 -9999 -9999 -9999 -9999 -9999 -9999 -9999 -9999 -9999 -9999 -9999 -9999 -9999 -9999 -9999 -9999 -9999 -9999 -9999 -9999 -9999 -9999 -9999 -9999 -9999 -9999 -9999 -9999
7.64 7.72 7.60 8.05 7.69 8.43 7.53 7.51 7.72 7.50 7.82 8.08 7.61 8.30 7.77 7.65 8.02 8.28 8.42 7.52 8.25 8.18 7.49 7.44 7.62 8.23 8.29 8.37 7.45 8.30 7.50 8.38 8.06 8.43 8.30 8.03 8.29 7.51 7.73 7.90 8.38 8.35 7.76 8.33 7.93 8.29 7.53 8.41 8.05 8.06 8.18 8.14 7.74 8.27 8.38 8.23 7.82 7.50 7.83 7.96 8.23 7.86 7.92 7.48 8.24 7.63 8.32 8.28 8.38 7.58 8.43 7.57 8.34 7.61 7.63 7.78 8.33 8.38 7.63 8.35 8.24 7.88 8.06 7.74 7.51 7.96 8.42 8.13 7.66 7.56 7.57 8.30 7.93 7.85 7.64 7.97 8.14 8.06 8.41 7.73 8.12 8.32 8.12 7.63 8.39 7.81 8.33 7.61 8.37 7.68 8.42 8.39 7.61 7.69 8.23 7.85 7.90 8.38 7.91 8.25 7.65 7.60 7.98 7.81 8.26 7.66 7.74 7.73 8.42 7.99 8.33 7.89 8.24 8.38 7.64 8.21 7.73 8.17 7.51 8.04 8.30 8.28 7.78 8.14 8.15 7.87 7.57 8.35 8.08 8.29 7.84 8.39 7.94 8.15 8.30 8.06 8.37 7.70 8.11 7.82 7.82 7.76 7.89 7.45 7.64 7.50 7.86 7.98 7.54 8.08 7.89 7.73 7.94 8.03 7.96 7.74 -9999 -9999 -9999 -9999 -9999 -9999 -9999 -9999 -9999 -9999 -9999 -9999 -9999 -9999 -9999 -9999 -9999 -9999 -9999 -9999 -9999 -9999 -9999 -9999 -9999 -9999 -9999 -9999 -9999 -9999 -9999 -9999 -9999 -9999 -9999 -9999 -9999 -9999 -9999
7.87 7.78 7.54 7.45 7.87 7.94 7.51 7.95 8.09 7.93 8.32 7.50 7.90 7.88 7.82 8.37 7.47 7.74 7.94 8.06 8.09 7.76 7.60 8.03 8.23 8.06 7.44 7.96 8.28 7.73 8.37 8.34 7.68 8.05 7.88 8.30 7.79 7.87 8.35 8.39 8.12 7.56 7.88 8.16 7.53 7.63 8.03 7.90 8.12 7.86 7.72 8.00 7.80 8.21 7.70 8.23 8.39 7.94 7.75 7.66 7.98 8.36 8.34 7.85 7.45 7.67 8.04 8.32 8.11 7.95 7.49 8.02 7.66 8.23 7.46 7.74 7.49 7.56 7.89 8.17 7.47 8.41 7.55 7.52 7.54 7.73 7.94 8.00 7.53 7.54 8.22 7.56 8.21 7.99 8.15 8.37 7.45 8.38 7.46 7.84 8.25 7.54 7.45 7.52 7.67 8.34 7.63 7.61 7.83 8.28 7.73 7.49 7.71 7.66 7.74 7.62 7.65 7.91 8.07 7.88 8.03 7.57 8.00 7.97 8.05 7.91 8.28 7.95 7.99 7.91 8.24 7.56 7.64 8.21 8.25 7.57 7.48 7.60 7.58 7.96 7.83 7.70 7.81 7.59 8.34 7.73 7.65 8.19 8.18 7.44 7.77 7.47 7.60 8.05 7.66 7.52 7.59 7.57 7.63 8.11 7.60 8.10 7.86 7.57 7.59 7.44 8.22 8.04 8.42 7.96 8.15 7.77 7.81 8.37 8.32 7.92 -9999 -9999 -9999 -9999 -9999 -9999 -9999 -9999 -9999 -9999 -9999 -9999 -9999 -9999 -9999 -9999 -9999 -9999 -9999 -9999 -9999 -9999 -9999 -9999 -9999 -9999 -9999 -9999 -9999 -9999 -9999 -9999 -9999 -9999 -9999 -9999 -9999 -9999 -9999
7.65 7.78 7.87 8.25 7.94 8.00 7.87 8.33 7.72 7.72 8.38 8.38 8.43 8.41 7.78 8.06 8.33 7.46 8.06 8.08 7.45 8.28 8.17 8.36 7.73 7.69 7.53 7.94 7.58 8.19 7.92 7.85 8.09 7.77 7.62 8.35 8.30 8.07 7.45 8.05 8.40 7.80 8.29 8.04 8.28 7.72 8.24 7.72 7.93 8.39 7.94 8.08 7.97 8.41 7.87 7.58 7.69 7.65 7.78 7.73 8.17 7.77 7.97 7.53 7.44 7.98 7.76 8.40 7.95 7.61 8.12 7.58 8.07 7.84 8.20 8.38 7.58 8.32 8.07 8.34 7.48 8.17 7.67 8.27 8.21 8.10 7.43 7.75 8.28 7.91 8.10 8.33 7.50 8.17 8.23 8.22 8.30 8.22 7.94 7.85 8.30 7.80 8.35 8.36 7.46 8.33 7.93 8.28 8.26 8.08 7.49 7.91 8.39 7.76 8.10 8.04 7.82 8.16 7.52 7.50 8.42 7.95 7.76 8.12 8.14 7.52 8.37 8.14 7.58 7.85 7.78 7.92 7.96 8.17 7.63 7.91 8.30 8.26 8.19 8.17 7.53 8.33 8.05 8.00 7.83 8.26 7.61 7.72 7.75 7.59 8.04 7.89 7.70 8.33 7.98 7.92 8.40 8.01 8.38 7.47 8.22 8.04 7.87 8.33 8.40 8.16 7.85 7.85 7.99 7.67 8.13 8.25 8.25 7.76 7.64 7.73 -9999 -9999 -9999 -9999 -9999 -9999 -9999 -9999 -9999 -9999 -9999 -9999 -9999 -9999 -9999 -9999 -9999 -9999 -9999 -9999 -9999 -9999 -9999 -9999 -9999 -9999 -9999 -9999 -9999 -9999 -9999 -9999 -9999 -9999 -9999 -9999 -9999 -9999 -9999
7.73 8.24 7.66 8.13 7.57 7.62 8.25 7.83 7.70 7.57 8.01 7.78 7.47 7.91 8.17 7.49 7.58 7.95 8.30 8.05 7.45 8.42 7.83 8.26 8.17 8.22 7.57 8.01 7.96 8.01 7.88 8.04 8.40 8.11 7.43 7.44 7.48 8.39 8.14 8.42 7.92 8.27 8.20 7.49 7.68 7.95 8.17 8.06 8.22 8.28 7.77 7.77 7.50 8.07 7.69 8.18 7.68 7.54 7.70 8.11 7.49 8.42 7.45 8.21 7.97 7.71 8.05 8.15 8.17 7.55 8.41 8.36 8.17 7.74 8.41 8.08 7.70 7.68 7.56 8.30 7.49 8.04 8.15 8.09 8.19 8.36 7.49 7.79 7.60 7.94 7.70 8.19 7.51 7.94 7.48 8.41 7.69 7.77 8.01 8.05 8.11 8.42 8.10 7.99 7.80 7.77 8.27 7.97 8.02 8.00 7.65 7.77 7.56 7.45 8.07 7.69 8.22 7.59 8.25 8.37 8.19 8.01 7.64 8.15 8.33 8.07 7.99 8.24 7.46 8.23 8.22 8.22 7.99 8.09 8.20 7.80 8.38 8.29 7.59 7.74 7.87 7.63 8.00 7.61 8.23 7.60 8.22 7.51 7.68 8.23 7.55 8.31 7.64 7.93 8.03 8.06 8.27 8.02 7.50 7.90 7.64 8.04 8.39 8.22 8.05 7.86 7.83 8.40 8.04 8.19 8.15 7.96 7.91 7.98 7.93 7.97 8.41 -9999 -9999 -9999 -9999 -9999 -9999 -9999 -9999 -9999 -9999 -9999 -9999 -9999 -9999 -9999 -9999 -9999 -9999 -9999 -9999 -9999 -9999 -9999 -9999 -9999 -9999 -9999 -9999 -9999 -9999 -9999 -9999 -9999 -9999 -9999 -9999 -9999 -9999
7.58 8.31 8.32 7.68 7.65 7.73 7.84 8.07 8.27 7.60 7.46 7.97 7.45 7.90 7.55 7.66 8.03 7.73 8.32 8.14 8.28 8.39 7.99 7.73 7.53 8.17 8.40 8.20 8.17 8.14 8.09 7.95 7.52 7.84 8.31 7.79 8.38 7.77 7.76 7.76 8.03 7.74 8.30 8.10 8.00 8.39 7.78 7.44 8.40 8.13 8.08 7.59 7.91 7.91 7.66 7.98 8.18 7.55 7.76 8.20 8.29 8.06 8.07 8.31 7.67 8.17 7.97 7.64 8.41 8.05 7.91 7.60 7.58 8.27 7.69 7.73 7.82 8.17 7.62 7.65 7.47 7.67 7.91 7.79 7.51 7.85 7.57 7.66 7.72 7.99 8.02 8.11 7.66 8.40 7.56 8.20 8.26 7.98 8.01 7.99 7.69 7.55 8.36 8.11 7.61 8.30 8.40 8.12 7.68 7.50 7.78 8.10 7.95 8.10 7.48 8.17 8.02 7.67 7.82 8.20 7.70 8.16 8.01 7.84 8.28 7.45 8.29 7.89 7.64 8.19 7.52 7.92 8.24 7.57 8.41 7.61 7.93 7.80 8.08 7.96 7.98 8.29 8.21 7.59 7.47 8.08 7.58 8.24 7.83 8.15 8.33 7.79 8.16 8.13 7.58 7.97 8.24 7.68 7.81 7.79 7.69 8.31 7.69 7.55 8.30 7.80 7.83 7.91 7.74 8.10 8.16 7.68 7.62 7.48 8.03 7.96 8.08 -9999 -9999 -9999 -9999 -9999 -9999 -9999 -9999 -9999 -9999 -9999 -9999 -9999 -9999 -9999 -9999 -9999 -9999 -9999 -9999 -9999 -9999 -9999 -9999 -9999 -9999 -9999 -9999 -9999 -9999 -9999 -9999 -9999 -9999 -9999 -9999 -9999 -9999
7.59 8.31 7.53 7.45 7.46 7.72 8.26 7.46 8.30 7.87 8.21 7.55 7.62 7.89 8.26 7.77 8.17 7.72 8.13 7.78 8.15 7.95 7.89 8.29 8.14 7.64 7.44 7.74 8.41 7.87 7.82 7.84 8.21 8.20 7.75 7.71 8.02 8.05 7.65 7.64 8.10 7.72 7.66 7.53 8.01 7.85 7.48 8.40 8.36 7.75 7.79 7.72 7.50 8.39 8.10 8.09 8.26 7.59 8.02 8.34 7.79 7.91 7.82 8.34 7.74 7.63 8.39 8.30 7.56 7.48 7.76 8.38 8.26 7.69 8.38 8.27 8.15 7.62 7.98 8.40 7.84 7.77 7.95 8.43 7.83 8.29 7.86 8.09 7.96 8.28 7.78 7.53 8.03 7.93 7.76 8.35 8.17 8.25 7.58 8.30 7.57 7.78 7.91 8.35 7.89 7.72 8.31 7.66 8.36 7.89 7.72 8.33 8.22 7.51 8.16 7.82 8.05 8.35 7.60 8.08 7.78 8.29 7.74 8.32 7.46 7.69 8.23 8.07 8.41 8.36 7.81 8.26 8.27 7.51 7.77 8.01 7.50 8.12 8.20 7.46 8.19 7.53 8.42 8.17 7.48 7.95 7.64 8.02 8.32 8.18 8.02 7.84 7.65 8.43 7.47 8.20 8.43 8.42 8.08 7.66 7.80 7.62 8.29 7.48 7.53 7.81 8.05 8.41 8.17 7.78 7.91 8.29 8.31 7.81 7.81 7.82 7.78 -9999 -9999 -9999 -9999 -9999 -9999 -9999 -9999 -9999 -9999 -9999 -9999 -9999 -9999 -9999 -9999 -9999 -9999 -9999 -9999 -9999 -9999 -9999 -9999 -9999 -9999 -9999 -9999 -9999 -9999 -9999 -9999 -9999 -9999 -9999 -9999 -9999 -9999
8.37 8.26 7.99 8.33 7.78 8.38 7.94 7.72 8.21 7.68 7.44 8.37 7.90 8.40 8.17 7.97 8.36 7.72 8.32 7.51 8.16 7.77 8.17 7.51 7.74 8.35 8.16 8.17 8.18 7.66 7.78 7.96 7.87 8.32 8.43 8.34 7.89 8.27 7.67 8.25 7.72 8.08 8.17 8.39 7.53 7.60 7.78 8.19 7.96 8.17 7.54 8.38 7.61 7.65 8.31 8.24 8.39 7.91 8.13 7.87 8.14 8.02 7.66 8.41 7.60 8.23 8.27 8.21 7.85 8.01 7.52 7.54 8.00 7.47 8.34 7.67 7.89 8.27 8.39 7.67 8.22 7.76 7.52 8.03 8.15 7.96 7.96 8.27 7.92 7.45 8.33 7.63 7.68 8.21 7.81 7.85 7.61 7.74 8.27 8.15 7.76 8.28 8.02 7.56 7.46 7.91 8.35 7.64 8.37 7.44 8.37 7.66 8.42 7.74 8.32 7.72 7.90 8.35 8.37 8.33 8.08 7.87 7.98 7.94 7.65 8.40 8.26 8.28 8.25 8.40 7.70 7.64 7.49 7.76 7.99 8.04 8.26 7.70 7.94 8.18 8.06 8.10 8.17 7.44 8.32 7.54 7.77 8.21 8.36 7.64 8.27 8.22 8.42 7.56 8.40 8.31 8.08 8.37 7.89 8.12 7.76 8.41 8.28 7.53 8.01 8.03 7.72 8.00 7.91 8.18 8.33 7.55 8.07 7.62 7.56 7.51 8.00 -9999 -9999 -9999 -9999 -9999 -9999 -9999 -9999 -9999 -9999 -9999 -9999 -9999 -9999 -9999 -9999 -9999 -9999 -9999 -9999 -9999 -9999 -9999 -9999 -9999 -9999 -9999 -9999 -9999 -9999 -9999 -9999 -9999 -9999 -9999 -9999 -9999 -9999
7.44 8.29 7.49 8.07 8.39 7.74 8.29 7.46 7.62 7.95 7.44 8.10 7.54 7.63 8.20 7.78 8.03 7.59 7.67 8.02 7.91 8.33 7.99 7.53 7.82 8.22 7.92 7.75 7.83 7.61 8.28 7.87 7.47 7.97 8.27 8.19 7.96 8.14 8.19 7.95 8.00 8.42 8.17 7.65 8.35 7.82 7.52 7.89 8.09 7.63 7.90 7.92 7.94 8.42 8.16 7.85 7.65 7.58 7.76 7.79 8.03 7.74 7.65 7.94 7.54 7.90 8.33 8.32 7.64 8.07 7.53 7.88 7.96 8.29 7.62 7.68 7.96 8.26 7.48 7.67 8.31 7.75 8.13 7.55 8.31 8.11 7.65 8.16 8.19 7.84 8.00 8.04 7.53 8.04 7.61 8.27 7.99 7.95 8.20 8.42 7.54 8.39 7.60 8.35 8.30 7.76 7.58 7.91 7.80 7.57 8.02 7.91 8.39 7.88 8.12 8.15 7.96 8.34 7.68 8.28 7.77 7.77 8.20 8.01 7.74 7.64 8.02 7.99 8.10 7.59 8.32 8.29 8.24 7.91 8.16 7.82 7.66 7.79 8.33 7.49 8.33 8.07 7.76 7.72 8.36 8.30 7.65 7.57 7.70 7.83 7.48 8.36 7.99 7.62 8.25 7.48 7.45 8.16 7.62 7.65 7.47 7.44 7.68 8.14 8.38 7.83 7.49 7.87 8.24 8.38 7.59 8.25 8.40 7.81 8.11 7.50 7.49 -9999 -9999 -9999 -9999 -9999 -9999 -9999 -9999 -9999 -9999 -9999 -9999 -9999 -9999 -9999 -9999 -9999 -9999 -9999 -9999 -9999 -9999 -9999 -9999 -9999 -9999 -9999 -9999 -9999 -9999 -9999 -9999 -9999 -9999 -9999 -9999 -9999 -9999
8.36 7.58 8.33 7.50 7.81 8.16 7.96 8.17 7.94 7.75 8.21 7.74 7.82 7.78 7.61 7.56 7.72 7.55 8.31 7.76 8.20 7.60 8.07 7.86 7.84 8.15 7.84 7.57 7.44 8.02 7.76 7.81 8.30 8.15 7.51 8.12 8.00 8.22 8.04 7.47 7.55 7.68 8.32 8.37 8.03 7.84 7.86 7.71 8.42 7.52 7.61 7.88 7.87 8.33 7.61 7.95 8.33 7.72 7.46 7.96 8.36 7.81 7.54 7.75 7.73 8.01 8.18 8.11 7.88 7.52 7.82 7.46 8.36 8.39 8.30 7.87 8.28 8.30 7.93 8.25 8.13 7.84 7.72 8.38 7.87 8.19 7.48 7.89 8.34 7.59 7.69 7.85 7.94 7.48 7.61 8.35 8.20 7.66 8.20 7.93 8.00 8.11 7.54 7.70 7.96 7.59 8.29 7.75 8.13 8.35 8.43 8.14 7.43 8.05 7.92 7.94 8.39 7.63 7.63 8.29 8.15 7.54 8.21 8.03 7.56 7.84 7.52 7.55 8.36 7.70 7.96 7.96 7.79 7.98 8.13 8.06 8.36 8.42 7.76 7.71 8.23 7.63 8.22 7.46 8.30 8.02 8.35 7.87 7.64 8.25 8.02 8.25 7.81 7.85 7.63 7.94 7.65 7.93 7.46 8.38 7.63 7.85 8.12 8.12 7.66 8.25 7.52 8.06 8.14 7.61 7.89 7.88 7.90 8.29 7.96 8.34 8.11 -9999 -9999 -9999 -9999 -9999 -9999 -9999 -9999 -9999 -9999 -9999 -9999 -9999 -9999 -9999 -9999 -9999 -9999 -9999 -9999 -9999 -9999 -9999 -9999 -9999 -9999 -9999 -9999 -9999 -9999 -9999 -9999 -9999 -9999 -9999 -9999 -9999 -9999
8.09 8.30 7.90 7.94 8.41 8.39 8.23 7.80 7.91 8.24 8.06 8.07 8.10 8.38 7.52 8.13 7.67 7.81 7.84 8.12 8.07 7.61 7.96 8.16 7.99 8.43 8.27 8.20 8.06 7.74 8.28 7.71 7.55 7.54 7.66 8.24 8.06 7.60 7.87 8.37 8.12 7.78 7.47 7.69 7.92 7.51 8.42 7.68 7.55 8.41 8.10 7.74 8.11 8.26 7.55 7.59 7.94 7.82 8.41 7.99 7.86 7.91 8.33 8.14 8.31 7.77 8.17 8.38 7.95 8.43 8.24 7.45 7.83 7.89 8.39 7.87 7.96 8.03 7.90 7.96 7.52 7.88 7.44 7.90 8.02 8.26 8.36 8.30 7.75 7.75 8.38 8.21 7.97 7.77 8.00 7.77 8.15 7.47 8.16 7.57 7.69 8.18 7.79 7.77 7.59 8.30 7.46 8.05 7.81 8.02 7.71 8.02 7.59 8.25 7.50 8.06 7.67 7.92 8.27 8.30 7.91 7.94 7.52 7.47 8.20 8.04 8.28 8.39 7.45 7.57 7.52 7.86 8.20 8.32 7.59 7.83 7.50 8.13 7.55 8.31 7.60 7.96 7.70 7.77 7.82 8.35 8.27 8.02 7.73 7.58 7.97 8.02 7.81 8.20 8.13 7.47 8.31 8.08 7.68 7.51 8.24 8.30 7.68 8.40 7.59 8.14 8.02 7.96 7.59 8.23 7.51 7.68 8.41 7.43 7.53 8.37 8.19 8.11 -9999 -9999 -9999 -9999 -9999 -9999 -9999 -9999 -9999 -9999 -9999 -9999 -9999 -9999 -9999 -9999 -9999 -9999 -9999 -9999 -9999 -9999 -9999 -9999 -9999 -9999 -9999 -9999 -9999 -9999 -9999 -9999 -9999 -9999 -9999 -9999 -9999
8.30 7.97 8.25 8.32 7.68 8.14 7.46 7.45 7.73 7.45 8.20 7.62 7.82 7.74 7.68 7.54 8.01 7.75 7.97 8.10 8.14 8.05 8.26 8.42 7.49 8.08 7.71 8.39 7.60 8.24 7.84 8.40 7.95 7.67 7.87 8.20 7.52 8.04 8.29 7.95 7.48 7.86 8.38 7.94 8.39 7.62 7.54 8.03 7.64 7.97 8.27 8.25 8.43 8.01 7.61 8.30 7.98 7.81 7.79 7.60 8.16 7.45 7.44 7.73 8.11 7.74 7.59 7.69 7.75 7.87 8.36 7.54 7.86 8.18 8.23 8.33 7.47 7.85 7.61 7.85 8.35 8.17 7.84 8.29 8.35 8.38 7.68 8.23 7.55 7.67 7.70 8.03 7.49 8.07 7.91 8.08 7.69 8.00 7.91 8.05 7.78 8.11 8.29 7.67 8.15 7.53 8.19 8.04 7.91 8.12 7.88 7.96 8.30 8.10 7.57 7.74 7.62 7.50 8.16 8.28 7.56 8.03 8.42 7.82 7.71 7.85 7.88 7.97 7.48 7.61 7.65 7.91 7.62 8.31 7.77 7.51 7.87 7.72 7.45 7.84 8.12 8.29 7.71 7.62 7.99 7.77 7.64 8.19 8.06 7.45 7.81 7.94 7.57 8.17 8.38 8.24 8.29 8.07 7.65 7.64 7.71 7.85 7.51 8.11 7.50 7.83 8.40 8.08 7.76 7.79 8.02 8.05 7.47 8.42 7.46 7.98 8.36 7.51 -9999 -9999 -9999 -9999 -9999 -9999 -9999 -9999 -9999 -9999 -9999 -9999 -9999 -9999 -9999 -9999 -9999 -9999 -9999 -9999 -9999 -9999 -9999 -9999 -9999 -9999 -9999 -9999 -9999 -9999 -9999 -9999 -9999 -9999 -9999 -9999 -9999
8.10 8.07 8.36 7.49 7.64 7.85 7.46 8.29 8.22 7.51 8.35 7.88 7.59 7.53 7.97 8.00 8.18 8.40 8.33 8.13 7.67 7.58 7.58 7.51 7.79 8.17 7.47 8.12 7.66 7.67 8.16 8.17 7.44 8.01 8.19 8.43 8.30 8.06 7.60 8.38 8.32 8.41 8.39 8.12 8.42 8.24 7.66 7.81 7.75 7.61 8.16 7.56 8.08 7.59 7.89 8.12 8.10 8.33 8.01 7.93 7.86 7.54 7.45 7.83 8.23 8.29 7.90 7.56 7.71 8.13 7.66 7.57 8.05 8.14 8.19 7.54 8.15 8.43 7.54 7.62 8.19 8.29 7.74 8.06 7.48 7.94 7.56 7.53 8.34 7.53 7.60 8.10 7.73 7.83 7.72 8.03 7.84 7.46 7.79 8.11 8.16 7.85 7.77 7.61 7.82 8.20 8.28 8.06 8.36 8.39 8.34 7.92 8.09 7.66 7.45 7.78 7.51 8.02 7.55 8.40 8.38 8.15 8.13 8.22 7.58 7.90 8.43 7.73 8.16 7.85 7.97 7.50 7.82 7.49 8.26 8.20 7.89 7.74 7.59 7.91 7.83 8.42 7.81 7.85 7.44 7.49 8.09 8.42 7.51 7.46 8.29 8.08 7.93 7.93 7.95 8.10 7.68 7.89 8.34 8.14 8.32 7.80 8.04 7.76 7.86 7.45 7.80 7.92 8.38 7.61 7.46 8.13 7.56 7.76 7.51 7.48 7.52 7.60 -9999 -9999 -9999 -9999 -9999 -9999 -9999 -9999 -9999 -9999 -9999 -9999 -9999 -9999 -9999 -9999 -9999 -9999 -9999 -9999 -9999 -9999 -9999 -9999 -9999 -9999 -9999 -9999 -9999 -9999 -9999 -9999 -9999 -9999 -9999 -9999 -9999
7.68 8.36 8.05 8.27 7.66 8.04 7.92 7.74 7.45 8.10 7.77 7.71 8.13 7.90 8.42 8.22 7.58 7.84 8.39 7.79 8.11 8.21 8.36 7.46 7.92 7.72 7.55 7.48 7.72 7.90 7.46 7.80 7.57 8.35 8.09 8.17 7.96 7.82 7.69 7.51 7.48 8.16 7.58 7.45 7.99 7.55 7.55 7.53 8.40 7.45 7.88 8.29 7.56 7.49 7.72 7.70 7.59 8.16 7.77 8.35 8.26 8.13 7.82 8.25 7.97 7.63 8.15 8.22 7.58 8.35 7.84 7.46 7.77 7.71 8.27 7.70 8.14 7.96 7.63 7.66 8.32 8.04 8.32 8.15 7.83 8.13 8.23 7.98 8.05 8.12 7.57 7.62 7.65 7.66 8.21 8.42 7.89 7.99 7.69 7.58 7.85 8.40 7.50 7.96 7.70 8.16 8.34 8.00 7.84 8.36 8.36 7.93 7.66 7.85 8.15 8.37 7.67 7.81 8.16 8.14 7.62 7.57 7.98 7.80 7.74 8.30 7.78 7.55 8.05 7.73 8.23 7.75 7.90 7.97 8.31 7.51 8.26 7.88 8.03 7.74 8.42 8.14 8.13 7.99 7.99 7.85 7.84 7.52 7.54 7.64 7.95 8.33 7.95 8.27 8.38 7.65 7.91 8.10 8.21 8.34 8.07 8.01 8.27 7.64 7.54 8.25 8.03 7.98 7.65 7.44 7.98 7.45 7.44 8.42 8.19 8.13 8.24 8.02 -9999 -9999 -9999 -9999 -9999 -9999 -9999 -9999 -9999 -9999 -9999 -9999 -9999 -9999 -9999 -9999 -9999 -9999 -9999 -9999 -9999 -9999 -9999 -9999 -9999 -9999 -9999 -9999 -9999 -9999 -9999 -9999 -9999 -9999 -9999 -9999 -9999
7.43 7.84 7.57 7.86 7.62 7.43 8.30 7.85 7.54 7.86 7.71 8.13 7.46 7.83 7.62 7.55 7.69 7.80 8.40 8.20 7.75 8.28 8.09 7.93 7.50 7.84 8.04 7.61 7.63 8.03 8.26 8.15 8.32 7.72 7.69 7.86 7.49 7.87 8.20 8.31 8.32 8.11 8.02 7.62 7.94 8.20 8.11 7.82 7.80 8.36 7.63 7.83 7.44 7.93 7.63 7.79 7.90 8.08 8.13 7.60 8.22 8.05 7.72 7.68 7.89 8.21 8.00 7.85 8.28 7.65 7.66 7.67 8.32 8.15 7.49 7.92 8.36 7.88 7.52 7.71 7.82 8.07 7.56 7.44 7.65 7.58 8.43 7.63 7.97 8.02 8.16 8.03 8.41 7.69 7.99 7.45 8.03 7.51 7.44 8.16 8.04 7.80 8.07 8.34 7.89 7.50 7.56 7.77 7.49 8.06 8.24 7.73 7.65 7.53 7.70 8.40 8.39 8.32 8.41 8.42 7.88 7.49 7.47 7.86 7.51 8.36 8.06 8.07 8.23 8.33 8.07 8.14 7.79 8.05 8.26 8.34 7.43 7.92 7.99 7.94 8.25 8.17 7.94 8.04 7.69 7.80 7.48 8.09 7.74 7.85 7.60 7.70 8.06 8.32 8.14 7.85 8.02 7.51 7.90 7.68 7.76 7.72 8.12 7.68 7.52 7.90 7.71 8.36 7.57 7.85 8.03 8.23 7.97 8.06 8.30 7.63 8.19 7.75 -9999 -9999 -9999 -9999 -9999 -9999 -9999 -9999 -9999 -9999 -9999 -9999 -9999 -9999 -9999 -9999 -9999 -9999 -9999 -9999 -9999 -9999 -9999 -9999 -9999 -9999 -9999 -9999 -9999 -9999 -9999 -9999 -9999 -9999 -9999 -9999 -9999
8.25 7.55 8.01 7.91 8.24 7.98 8.03 7.51 8.27 8.22 7.59 8.21 7.73 8.14 7.78 8.18 8.36 8.42 7.82 8.39 7.58 7.61 8.34 8.10 7.93 8.14 8.22 8.29 8.08 7.99 8.35 7.96 8.05 7.86 8.28 7.94 8.39 8.42 7.69 7.73 8.06 8.33 8.21 8.36 7.66 7.74 7.74 7.44 7.65 8.39 7.72 8.09 8.13 7.75 7.90 8.23 7.62 8.06 7.89 7.46 7.67 7.92 7.84 8.28 8.38 7.83 8.28 8.15 7.53 7.52 7.70 8.14 8.20 8.29 7.44 7.56 8.08 7.69 8.24 8.43 8.32 7.72 8.29 8.22 8.00 8.18 7.48 7.74 8.35 8.07 7.45 8.33 7.59 7.47 7.88 7.92 8.26 8.10 7.50 7.67 8.42 7.63 8.19 7.68 8.14 7.92 8.38 8.07 8.26 7.92 7.68 8.14 7.90 8.18 8.30 8.24 7.99 7.54 8.19 8.11 7.56 8.06 7.84 7.49 8.03 8.35 8.18 8.13 7.86 7.50 7.50 8.27 8.27 7.80 8.34 7.72 7.74 8.22 8.19 7.70 8.37 8.42 7.88 7.66 7.67 8.11 8.29 8.38 8.11 7.57 7.47 7.67 8.18 7.76 8.07 7.63 7.46 7.79 8.41 8.16 7.60 8.43 8.05 8.29 8.07 7.80 7.90 7.83 7.47 8.04 8.04 7.75 7.58 7.91 7.57 7.68 8.38 8.26 -9999 -9999 -9999 -9999 -9999 -9999 -9999 -9999 -9999 -9999 -9999 -9999 -9999 -9999 -9999 -9999 -9999 -9999 -9999 -9999 -9999 -9999 -9999 -9999 -9999 -9999 -9999 -9999 -9999 -9999 -9999 -9999 -9999 -9999 -9999 -9999 -9999
8.41 8.32 7.97 8.23 7.94 8.00 8.18 8.22 7.63 8.23 7.66 7.49 7.53 7.63 7.64 7.88 7.49 7.57 7.72 8.33 8.25 8.17 7.56 8.21 8.23 7.62 8.19 7.88 8.34 7.68 8.24 8.24 7.77 7.68 8.37 7.55 7.89 7.54 8.08 7.70 7.84 7.62 8.12 7.90 7.92 8.37 8.39 8.43 7.87 7.87 8.29 7.90 7.62 7.73 7.73 7.74 7.54 7.88 7.71 8.04 8.18 8.30 8.23 7.68 7.85 7.52 7.75 8.22 7.76 7.97 7.86 8.40 7.53 7.95 7.64 7.67 8.22 8.41 7.61 8.10 7.93 8.33 8.00 7.96 8.21 8.13 8.01 7.48 7.95 8.40 7.77 8.24 8.05 8.13 7.82 7.91 7.58 8.33 7.75 8.20 7.66 7.65 7.62 8.41 8.23 7.88 7.45 8.38 7.60 7.64 8.12 7.48 8.01 7.57 8.33 7.87 7.66 8.25 8.17 7.76 7.58 7.65 8.09 8.29 8.13 8.38 7.79 7.56 7.76 8.16 8.04 8.25 8.42 8.34 8.06 7.75 7.53 7.92 8.32 7.63 7.50 7.89 7.61 7.50 7.64 7.98 7.53 7.87 7.80 8.25 7.51 7.61 8.16 8.24 8.25 7.87 7.46 8.37 7.70 8.04 8.28 8.10 8.09 7.66 7.45 8.29 8.32 8.16 7.47 7.56 7.83 8.29 8.32 7.82 8.17 8.31 8.20 7.47 8.38 -9999 -9999 -9999 -9999 -9999 -9999 -9999 -9999 -9999 -9999 -9999 -9999 -9999 -9999 -9999 -9999 -9999 -9999 -9999 -9999 -9999 -9999 -9999 -9999 -9999 -9999 -9999 -9999 -9999 -9999 -9999 -9999 -9999 -9999 -9999 -9999
7.79 7.94 7.73 8.33 7.66 8.42 8.01 8.17 8.36 8.16 8.40 7.89 7.53 7.92 7.71 7.83 8.30 8.37 7.57 7.71 7.93 7.60 7.62 7.94 8.41 8.02 7.85 7.79 7.46 8.40 8.22 8.11 7.97 7.46 8.41 8.08 7.90 8.00 8.02 7.72 7.79 7.88 8.24 7.97 7.96 7.87 7.83 8.30 8.22 7.90 7.63 7.64 7.50 7.66 7.46 7.53 8.02 7.56 8.15 7.63 8.01 8.13 7.93 8.25 7.64 7.51 8.19 7.44 7.50 8.13 8.28 8.02 7.80 7.69 7.86 7.57 7.72 8.43 8.15 7.79 8.14 8.21 7.56 7.53 7.62 8.09 7.77 7.78 8.12 8.42 7.70 8.35 7.99 7.83 7.90 7.46 8.43 8.42 8.28 8.26 8.43 7.81 8.30 7.77 7.45 7.65 8.14 7.62 8.24 8.40 8.03 8.24 7.95 8.32 8.39 7.55 7.92 8.25 8.26 7.75 7.44 8.30 7.60 8.29 7.82 8.02 7.67 7.47 7.78 8.11 7.73 7.49 8.37 7.62 7.47 7.50 8.03 7.66 8.37 8.41 7.98 7.53 7.60 7.92 7.92 8.05 8.05 8.14 8.22 8.41 7.47 8.17 7.97 8.41 8.08 7.56 7.52 7.58 7.64 7.84 7.70 7.71 8.23 7.57 7.62 8.42 8.17 8.27 8.04 7.82 8.13 7.53 8.18 8.33 8.18 7.78 7.60 7.66 7.46 -9999 -9999 -9999 -9999 -9999 -9999 -9999 -9999 -9999 -9999 -9999 -9999 -9999 -9999 -9999 -9999 -9999 -9999 -9999 -9999 -9999 -9999 -9999 -9999 -9999 -9999 -9999 -9999 -9999 -9999 -9999 -9999 -9999 -9999 -9999 -9999
8.10 7.64 8.00 8.39 8.30 8.34 7.48 8.07 7.53 8.23 7.55 8.14 8.19 7.45 8.31 8.08 8.03 8.15 7.59 8.11 8.19 8.08 7.96 7.81 7.81 7.68 7.47 7.47 8.07 8.03 7.81 7.68 8.14 8.33 7.61 7.83 8.18 8.36 7.88 7.50 7.93 7.56 7.51 8.09 7.95 7.94 7.87 7.52 8.21 7.50 8.34 7.80 7.58 7.66 8.04 7.80 8.38 7.99 8.19 7.48 7.45 7.67 7.47 7.89 7.61 8.39 8.31 8.34 7.48 8.16 7.88 7.46 8.18 7.80 7.94 8.38 7.46 7.54 8.29 7.92 7.77 7.92 8.27 7.97 8.35 8.03 7.56 8.08 8.27 8.06 8.42 7.85 7.99 7.48 8.00 7.77 8.42 8.14 7.99 7.80 7.78 7.65 8.34 7.85 8.10 8.21 7.67 8.42 8.10 8.29 7.57 8.11 7.81 8.18 8.04 7.62 7.91 8.00 8.31 8.10 7.92 8.24 7.45 7.76 7.80 8.22 7.66 8.10 7.50 7.85 7.43 7.89 8.21 7.96 7.75 8.01 7.78 8.38 7.81 8.36 8.30 8.42 8.09 7.79 7.76 7.51 7.70 7.83 8.26 8.08 7.83 7.64 8.38 7.74 7.62 7.83 7.96 7.81 8.35 8.28 7.86 8.13 7.91 7.76 7.47 7.96 7.76 7.95 7.74 7.49 7.76 7.89 8.28 7.64 7.48 7.55 7.93 8.00 8.00 -9999 -9999 -9999 -9999 -9999 -9999 -9999 -9999 -9999 -9999 -9999 -9999 -9999 -9999 -9999 -9999 -9999 -9999 -9999 -9999 -9999 -9999 -9999 -9999 -9999 -9999 -9999 -9999 -9999 -9999 -9999 -9999 -9999 -9999 -9999 -9999
7.87 7.49 7.61 8.27 7.97 7.95 8.11 8.01 7.59 8.37 8.04 7.50 8.34 7.78 7.75 8.02 7.73 7.61 7.43 8.35 8.28 7.82 7.49 7.83 7.62 8.15 8.19 7.81 7.44 7.73 7.85 8.23 8.05 7.51 7.70 7.72 8.26 7.77 7.69 7.90 7.95 8.03 7.55 8.10 7.89 8.16 7.71 7.61 7.83 7.66 8.21 8.35 8.23 7.48 8.19 7.56 8.09 7.69 8.23 8.08 7.46 7.91 7.54 7.68 8.17 8.09 7.79 7.52 7.48 8.39 8.42 7.46 7.53 7.47 8.43 7.65 8.14 8.27 8.09 8.02 8.32 7.58 7.65 8.37 8.05 7.98 8.17 7.89 7.73 8.26 7.58 8.43 8.14 8.09 8.13 8.16 8.28 8.37 7.58 8.22 8.10 7.87 8.34 8.33 7.61 8.10 8.40 7.52 7.66 7.92 8.32 7.71 7.91 7.83 8.00 8.17 7.78 7.56 8.24 8.42 7.69 8.18 7.87 8.27 8.11 8.35 7.88 8.31 8.18 7.55 7.45 8.14 8.09 8.05 7.94 8.21 7.51 8.01 7.94 7.70 8.29 7.81 8.06 8.00 8.01 8.23 7.51 7.98 8.05 8.18 7.49 8.04 8.17 7.53 7.60 7.80 8.21 7.48 7.93 7.65 7.72 7.70 7.70 7.62 7.56 7.93 8.40 7.92 8.01 8.17 7.77 7.84 8.21 8.42 7.52 7.45 7.92 8.38 7.91 -9999 -9999 -9999 -9999 -9999 -9999 -9999 -9999 -9999 -9999 -9999 -9999 -9999 -9999 -9999 -9999 -9999 -9999 -9999 -9999 -9999 -9999 -9999 -9999 -9999 -9999 -9999 -9999 -9999 -9999 -9999 -9999 -9999 -9999 -9999 -9999
8.29 7.52 7.78 8.37 8.36 7.94 8.08 7.45 7.65 8.15 8.31 7.54 8.34 7.54 8.20 7.66 8.16 7.74 7.70 8.00 7.70 7.77 8.27 7.95 8.23 7.47 7.87 8.17 8.23 8.37 8.31 8.37 8.39 8.33 8.23 7.92 7.93 7.90 8.27 8.39 7.96 7.85 8.35 8.20 8.21 8.40 8.01 7.75 7.88 7.74 7.88 7.92 7.93 7.47 7.46 8.37 7.46 8.42 7.51 7.65 7.73 8.23 7.75 8.21 8.13 7.90 7.81 7.53 7.98 7.50 7.86 8.19 7.78 7.63 8.43 8.41 7.78 7.60 7.49 7.61 7.54 7.76 8.30 8.07 8.30 7.99 7.66 8.13 7.72 8.37 8.36 7.55 7.50 7.79 7.49 7.85 8.11 7.94 7.97 7.59 8.01 7.70 7.90 8.28 7.90 8.07 7.61 7.43 8.20 7.62 7.50 7.70 7.77 7.56 7.76 8.07 7.48 7.82 8.21 7.97 8.18 7.79 7.70 7.82 7.86 8.19 7.78 8.30 7.73 7.97 8.12 8.21 7.53 8.07 7.67 7.92 7.55 7.76 8.31 7.95 7.82 8.25 8.31 7.72 7.82 7.52 7.67 8.20 7.44 8.03 7.61 8.24 7.81 7.65 7.76 7.62 7.78 8.09 7.64 7.69 7.89 8.42 7.57 8.10 8.07 7.84 7.54 7.93 8.31 7.94 7.94 8.31 7.78 7.77 7.99 7.88 8.04 7.59 7.86 -9999 -9999 -9999 -9999 -9999 -9999 -9999 -9999 -9999 -9999 -9999 -9999 -9999 -9999 -9999 -9999 -9999 -9999 -9999 -9999 -9999 -9999 -9999 -9999 -9999 -9999 -9999 -9999 -9999 -9999 -9999 -9999 -9999 -9999 -9999 -9999
7.98 8.07 8.29 7.51 7.74 7.65 7.80 7.83 7.98 7.82 8.29 7.65 8.06 7.85 7.73 8.30 7.62 7.99 7.94 8.42 7.45 7.87 7.70 7.60 8.07 8.37 7.81 8.33 7.48 7.61 8.06 8.25 8.11 7.76 7.74 7.83 8.00 7.64 8.17 7.47 8.32 8.11 8.09 7.78 7.89 7.73 8.36 7.55 8.34 7.45 8.34 7.58 8.00 7.71 8.29 8.28 7.88 7.77 8.24 8.20 7.50 7.87 8.05 7.73 7.87 8.19 8.39 7.69 7.61 8.18 7.70 8.16 8.09 7.99 8.23 7.64 7.54 7.66 7.70 7.61 8.09 7.86 7.87 8.21 7.71 7.54 7.79 7.60 8.06 7.76 7.84 8.40 7.48 8.01 8.28 7.97 7.46 7.75 8.24 7.51 8.16 7.86 7.60 8.30 8.29 7.44 7.79 7.70 8.14 7.83 7.91 7.47 8.06 7.47 7.64 8.01 7.56 7.43 8.27 8.42 8.08 7.98 7.48 8.33 7.95 8.22 7.91 8.34 8.16 8.24 8.25 7.92 7.82 8.04 8.37 7.82 7.61 7.69 7.44 8.23 7.81 8.14 7.54 7.77 7.83 8.23 7.73 8.22 8.32 8.22 8.19 8.35 7.50 8.14 8.36 7.75 8.38 8.21 8.31 7.87 8.35 7.99 7.50 7.98 7.64 8.31 7.74 8.06 7.49 8.06 7.64 8.29 7.63 8.07 8.35 7.71 8.27 8.31 8.32 -9999 -9999 -9999 -9999 -9999 -9999 -9999 -9999 -9999 -9999 -9999 -9999 -9999 -9999 -9999 -9999 -9999 -9999 -9999 -9999 -9999 -9999 -9999 -9999 -9999 -9999 -9999 -9999 -9999 -9999 -9999 -9999 -9999 -9999 -9999 -9999
7.76 8.27 8.12 7.64 7.99 8.42 8.31 7.68 8.27 7.93 7.49 7.75 8.28 8.19 8.29 8.32 7.90 8.01 7.61 7.65 7.77 8.16 7.77 7.48 7.64 7.46 8.38 7.56 8.41 8.31 8.43 8.06 7.74 8.16 7.67 8.37 8.15 8.33 7.95 8.11 8.04 8.11 8.37 7.48 7.47 8.34 8.23 7.45 7.70 7.56 7.75 8.15 8.29 8.31 8.35 7.82 7.80 7.70 7.73 8.07 8.02 8.22 7.66 7.78 7.95 7.48 7.94 7.82 7.71 7.85 8.23 7.62 8.21 7.69 8.17 7.81 8.12 7.93 7.75 7.93 8.41 7.59 7.83 7.59 8.17 8.27 7.54 7.78 7.57 8.18 8.16 7.70 7.58 8.28 8.22 8.28 7.50 7.49 7.49 8.07 8.33 7.85 7.89 8.27 8.04 7.67 7.93 7.58 7.66 7.51 8.21 8.40 8.10 7.54 8.37 8.00 7.97 8.25 8.31 7.62 7.88 8.29 8.00 7.72 7.78 8.42 7.83 8.37 8.21 7.63 7.62 8.14 8.15 8.16 7.73 7.88 8.28 7.98 7.54 7.88 7.46 8.24 8.10 7.44 8.42 7.61 8.43 7.57 7.65 8.02 7.96 8.22 7.76 8.13 8.23 7.76 7.91 7.62 7.62 7.84 7.70 8.42 7.61 8.26 8.12 7.50 8.04 7.71 8.28 8.17 7.76 7.86 7.95 7.90 7.59 7.93 7.82 7.55 8.33 8.09 -9999 -9999 -9999 -9999 -9999 -9999 -9999 -9999 -9999 -9999 -9999 -9999 -9999 -9999 -9999 -9999 -9999 -9999 -9999 -9999 -9999 -9999 -9999 -9999 -9999 -9999 -9999 -9999 -9999 -9999 -9999 -9999 -9999 -9999 -9999
7.96 7.94 7.53 7.87 8.01 8.29 8.04 7.55 7.54 8.11 8.08 8.09 7.62 8.03 7.49 8.08 8.00 8.37 8.21 7.57 7.57 7.82 7.92 8.17 8.19 8.01 7.55 7.77 7.76 7.89 8.31 7.50 8.34 7.68 7.69 8.23 7.70 7.87 7.91 7.97 7.74 7.71 8.08 7.54 7.49 8.22 8.41 7.65 8.39 7.89 7.92 8.35 7.53 7.47 7.80 7.75 7.84 7.83 8.08 8.10 7.98 8.43 7.52 7.76 8.43 8.28 7.85 7.54 8.02 7.84 7.98 7.94 7.46 8.16 8.09 7.77 8.12 8.41 7.81 8.06 8.25 7.64 7.50 7.63 8.02 7.84 8.07 8.09 7.79 8.33 8.30 8.07 8.34 8.01 8.37 8.10 7.93 7.53 7.59 7.96 7.86 8.39 8.01 8.31 8.28 7.68 8.04 8.34 8.09 8.07 8.29 7.58 8.07 8.27 7.48 8.31 7.90 7.71 7.69 8.01 7.67 8.20 7.59 8.05 7.74 8.20 7.93 7.82 7.89 7.54 7.48 7.84 7.54 7.86 7.79 8.17 8.05 8.08 7.79 8.20 8.37 7.59 7.54 8.36 8.06 8.16 7.57 7.99 8.09 7.89 7.59 8.29 8.28 8.39 7.86 8.37 7.45 8.31 7.91 7.91 7.50 8.00 8.27 7.82 7.98 7.54 7.90 7.61 8.29 8.20 8.39 7.44 7.93 7.78 7.68 8.33 8.23 7.71 7.69 7.59 -9999 -9999 -9999 -9999 -9999 -9999 -9999 -9999 -9999 -9999 -9999 -9999 -9999 -9999 -9999 -9999 -9999 -9999 -9999 -9999 -9999 -9999 -9999 -9999 -9999 -9999 -9999 -9999 -9999 -9999 -9999 -9999 -9999 -9999 -9999
8.29 7.46 8.36 8.31 7.85 7.82 8.29 7.90 7.68 8.18 8.36 7.60 8.24 7.43 8.16 7.98 8.40 7.66 8.40 7.60 7.57 7.63 7.56 7.49 8.15 8.37 8.37 7.87 8.13 8.08 7.69 8.15 8.08 8.43 8.28 8.37 7.50 8.31 7.68 8.13 7.87 7.92 8.13 8.06 7.59 7.89 7.93 8.28 7.82 7.52 7.93 8.35 8.42 8.17 7.98 7.99 8.16 7.68 8.07 7.50 8.24 8.40 7.69 7.78 8.43 7.64 7.52 8.02 7.78 8.31 8.08 7.93 8.18 8.28 7.88 8.01 8.20 7.66 7.67 7.84 8.25 7.50 7.44 7.97 7.78 8.18 7.95 7.56 7.55 7.72 7.84 8.19 8.23 8.27 7.71 7.72 7.79 7.90 7.93 7.46 7.93 8.11 7.54 7.66 8.16 8.01 8.25 7.92 7.93 8.04 7.45 8.33 8.13 7.78 8.05 7.47 8.24 8.10 8.35 8.38 7.82 8.18 7.71 8.37 7.64 7.55 7.75 8.11 7.79 7.46 8.10 8.15 7.83 7.65 8.26 8.05 8.39 7.93 7.74 7.60 7.93 7.84 7.62 8.19 7.94 7.92 8.35 8.12 7.54 7.67 7.49 8.08 8.19 7.82 7.61 7.83 8.31 7.86 7.76 8.09 8.31 7.99 7.97 8.27 7.90 8.04 7.47 7.54 7.97 7.59 7.71 7.99 8.36 8.19 7.75 8.04 7.67 8.32 7.83 7.94 -9999 -9999 -9999 -9999 -9999 -9999 -9999 -9999 -9999 -9999 -9999 -9999 -9999 -9999 -9999 -9999 -9999 -9999 -9999 -9999 -9999 -9999 -9999 -9999 -9999 -9999 -9999 -9999 -9999 -9999 -9999 -9999 -9999 -9999 -9999
7.48 7.85 7.57 7.69 8.00 7.53 7.60 7.72 8.10 7.90 7.85 7.55 7.72 7.79 8.14 7.48 8.21 8.00 7.60 7.78 8.42 7.54 8.06 7.90 7.79 7.73 7.92 7.86 7.54 8.32 8.15 7.64 8.05 7.55 7.53 8.12 8.32 8.15 7.85 8.01 7.74 8.02 7.63 7.48 7.82 7.62 8.21 7.57 7.73 7.74 7.91 8.36 7.77 8.42 7.87 8.23 8.20 8.24 8.16 7.58 7.71 8.05 7.54 7.74 7.50 8.01 8.03 8.10 8.33 8.10 7.48 7.56 7.76 7.56 7.82 7.91 8.37 7.58 8.24 8.06 7.49 8.25 7.59 8.04 8.19 8.08 7.86 8.20 7.70 8.16 8.12 8.25 7.61 8.29 8.38 7.87 7.70 8.15 7.95 8.16 8.11 8.36 8.20 8.22 7.60 7.54 7.74 8.09 8.41 7.87 7.95 7.52 8.10 7.55 8.23 8.37 8.30 8.06 7.68 7.78 7.77 8.36 7.52 8.38 7.49 7.99 8.04 7.95 7.91 7.47 8.25 7.55 7.70 7.66 8.17 7.44 7.46 8.36 8.11 7.89 7.69 7.76 7.99 7.67 8.26 7.99 8.11 8.25 7.94 8.09 7.72 7.72 7.56 7.80 7.91 7.66 7.93 7.73 8.25 7.79 8.25 8.27 7.74 7.51 8.34 7.73 8.13 8.31 7.84 7.49 8.36 7.98 8.29 7.44 7.82 8.38 7.50 7.95 8.18 8.11 -9999 -9999 -9999 -9999 -9999 -9999 -9999 -9999 -9999 -9999 -9999 -9999 -9999 -9999 -9999 -9999 -9999 -9999 -9999 -9999 -9999 -9999 -9999 -9999 -9999 -9999 -9999 -9999 -9999 -9999 -9999 -9999 -9999 -9999 -9999
8.35 7.95 7.62 7.44 8.41 7.51 8.33 8.42 8.09 8.02 7.87 7.85 8.27 7.53 7.94 7.83 7.82 8.06 8.08 7.71 7.82 8.08 8.05 7.63 7.80 7.74 8.22 8.03 8.07 7.57 7.59 7.66 8.34 7.52 8.23 7.51 7.45 7.65 7.56 7.94 7.99 8.25 7.95 7.66 7.78 7.97 8.10 8.18 7.62 7.85 8.38 8.33 8.31 7.90 8.19 7.52 7.68 7.96 7.45 7.68 8.11 8.27 8.20 7.88 7.60 7.56 8.28 8.30 8.07 8.13 7.93 7.53 7.62 7.45 7.55 7.53 8.29 7.69 7.55 7.67 7.54 7.58 7.55 8.24 7.54 7.78 7.49 8.26 7.48 7.51 7.84 8.19 8.20 7.48 7.46 7.62 7.88 7.73 8.13 8.09 8.09 8.42 7.58 8.24 7.70 7.49 8.10 8.23 7.73 8.28 8.06 8.19 8.26 7.54 7.99 7.44 7.46 7.50 8.32 8.42 7.94 8.23 7.49 8.00 7.82 7.98 8.29 7.92 7.99 7.79 8.01 8.40 8.00 7.78 7.80 7.71 8.37 7.54 7.52 8.42 8.16 8.19 7.76 8.21 8.05 7.82 8.02 8.05 8.10 8.05 8.02 7.83 7.69 7.93 7.99 8.03 7.94 7.82 7.93 7.95 7.95 7.44 7.98 7.80 7.67 8.21 7.76 8.03 8.07 8.28 7.83 7.96 7.44 8.38 7.85 7.61 7.57 8.24 8.35 8.11 -9999 -9999 -9999 -9999 -9999 -9999 -9999 -9999 -9999 -9999 -9999 -9999 -9999 -9999 -9999 -9999 -9999 -9999 -9999 -9999 -9999 -9999 -9999 -9999 -9999 -9999 -9999 -9999 -9999 -9999 -9999 -9999 -9999 -9999 -9999
8.05 8.33 8.03 7.50 7.79 8.09 8.16 7.44 7.66 8.22 7.91 7.87 7.75 7.72 7.93 7.94 7.94 7.84 7.48 7.47 7.88 8.35 7.68 8.03 8.30 8.19 8.38 7.86 7.44 7.66 7.95 8.29 7.87 7.60 7.54 8.35 7.79 7.79 7.93 7.86 8.27 8.06 8.33 8.27 7.59 7.62 7.77 8.14 7.78 7.49 8.43 8.36 8.00 7.73 7.50 7.93 8.32 7.89 7.72 8.08 7.55 7.65 7.69 8.07 7.74 8.42 8.41 8.02 8.25 7.43 7.74 7.72 7.59 8.21 8.11 8.07 8.42 8.08 7.51 7.62 7.58 8.21 7.65 7.81 7.49 8.01 8.11 7.89 7.96 7.64 8.42 7.64 8.00 8.12 8.25 8.19 7.51 7.61 8.22 8.37 7.64 7.98 8.10 7.78 7.68 7.91 7.68 7.66 8.35 7.96 7.84 8.11 8.14 8.11 8.27 8.40 8.40 8.26 7.65 7.76 7.73 8.21 7.45 8.41 7.65 7.49 7.54 7.48 8.04 8.04 8.34 7.54 7.85 7.57 8.43 7.87 8.39 8.15 7.56 8.05 8.12 7.88 7.54 7.49 8.30 7.75 7.69 7.73 7.78 8.28 7.80 7.65 8.32 8.20 8.33 7.67 7.47 8.28 7.68 7.54 8.31 7.44 7.46 7.60 7.84 7.89 7.54 7.62 7.99 7.90 8.37 7.86 7.63 8.04 7.91 8.09 8.32 8.27 7.69 8.32 -9999 -9999 -9999 -9999 -9999 -9999 -9999 -9999 -9999 -9999 -9999 -9999 -9999 -9999 -9999 -9999 -9999 -9999 -9999 -9999 -9999 -9999 -9999 -9999 -9999 -9999 -9999 -9999 -9999 -9999 -9999 -9999 -9999 -9999 -9999
8.00 7.56 8.36 7.56 8.34 7.62 7.59 8.42 8.35 8.23 7.75 8.14 8.21 7.67 8.06 7.89 7.96 8.25 7.92 7.66 7.84 7.67 7.72 8.17 8.19 7.52 8.21 7.77 8.02 7.44 8.26 7.67 7.59 7.84 8.41 7.63 7.53 8.32 8.13 8.00 8.28 7.89 8.02 8.37 8.28 7.65 7.85 7.57 7.47 8.30 8.00 8.02 8.10 7.51 8.14 8.32 7.73 8.18 8.06 8.36 8.03 7.53 8.20 7.92 7.90 7.89 7.60 8.30 7.92 7.51 8.34 7.50 7.74 7.58 7.67 8.21 7.49 7.98 7.55 7.45 7.59 7.55 7.65 8.36 7.61 7.44 7.85 7.93 7.53 7.51 7.43 8.03 8.01 7.83 8.22 7.92 7.75 8.33 7.63 8.31 8.22 8.11 8.14 7.94 7.57 7.87 7.50 7.93 7.87 7.90 7.82 7.50 7.76 8.05 8.08 7.83 7.45 8.36 8.41 8.33 7.85 7.44 8.26 7.51 7.78 7.99 7.86 7.76 7.65 7.97 7.48 8.10 7.95 8.02 8.06 7.71 7.92 7.77 8.25 7.60 7.74 7.98 8.32 7.93 8.11 8.33 8.22 8.26 7.74 7.70 8.17 7.55 7.70 8.05 7.69 7.65 7.82 7.83 8.31 7.80 8.29 7.65 8.41 7.63 7.96 7.82 7.59 8.19 8.21 7.90 8.17 7.86 8.18 8.37 8.20 7.48 7.55 7.51 7.43 8.09 -9999 -9999 -9999 -9999 -9999 -9999 -9999 -9999 -9999 -9999 -9999 -9999 -9999 -9999 -9999 -9999 -9999 -9999 -9999 -9999 -9999 -9999 -9999 -9999 -9999 -9999 -9999 -9999 -9999 -9999 -9999 -9999 -9999 -9999 -9999
8.17 8.29 7.67 7.85 8.38 7.46 7.88 7.49 7.70 7.66 7.47 7.66 8.42 8.29 7.79 8.09 7.84 8.12 7.49 8.12 8.08 8.02 8.33 7.51 7.92 7.88 7.74 8.14 8.39 7.92 8.24 7.51 8.40 7.77 7.65 7.68 8.24 8.10 7.57 7.99 7.62 7.56 7.49 7.74 8.23 8.00 7.49 7.96 7.51 8.04 7.50 8.31 8.34 7.92 7.50 7.61 8.32 7.49 8.34 7.64 7.55 7.44 7.98 7.54 7.72 7.79 7.97 8.20 8.19 7.92 7.97 8.38 7.98 8.16 8.03 8.06 7.78 8.25 7.97 7.94 7.56 8.03 8.09 7.84 8.26 8.13 8.36 7.47 7.60 7.82 7.68 7.62 8.18 8.25 7.47 7.48 8.00 7.63 7.48 7.98 8.23 8.31 7.53 8.10 8.10 8.00 7.56 8.26 8.18 7.69 8.26 7.53 7.92 8.05 8.17 7.81 7.65 8.30 7.78 7.87 8.17 7.66 7.70 7.49 7.53 8.21 8.27 7.69 8.02 7.66 8.21 7.45 8.20 8.10 8.13 7.78 8.10 7.97 7.61 8.40 8.06 7.55 8.02 7.88 8.33 8.12 8.16 8.21 8.40 8.01 7.70 7.57 7.94 8.08 8.32 7.50 8.20 7.73 7.79 7.56 8.01 8.12 8.23 7.47 8.03 8.14 8.41 7.97 7.46 7.95 8.31 7.52 8.32 7.88 8.32 8.23 7.90 8.39 8.01 7.57 8.40 -9999 -9999 -9999 -9999 -9999 -9999 -9999 -9999 -9999 -9999 -9999 -9999 -9999 -9999 -9999 -9999 -9999 -9999 -9999 -9999 -9999 -9999 -9999 -9999 -9999 -9999 -9999 -9999 -9999 -9999 -9999 -9999 -9999 -9999
7.58 8.32 8.36 8.34 8.20 8.33 8.27 7.85 7.74 8.31 7.53 7.52 7.58 7.91 7.47 8.41 7.64 7.60 8.17 8.43 7.73 7.45 7.87 7.50 8.15 7.67 8.05 7.50 7.91 7.56 8.27 7.79 7.65 7.86 8.20 8.10 8.11 7.62 7.61 7.87 7.95 7.84 7.72 7.61 8.23 7.84 7.76 8.04 7.80 8.17 7.99 8.41 8.09 7.80 7.57 7.94 8.09 8.40 7.98 8.29 8.34 7.84 7.90 8.07 7.78 7.70 7.49 8.25 8.24 7.95 8.37 8.15 8.03 8.40 7.55 7.96 7.72 8.36 8.29 7.65 7.74 7.85 7.88 7.63 8.27 7.63 7.51 8.11 7.52 7.78 8.11 7.67 8.31 7.81 8.14 8.00 7.87 8.15 7.78 7.53 8.17 7.59 8.35 8.39 7.43 8.01 7.64 7.68 7.61 7.81 7.82 8.10 7.46 8.32 8.31 8.37 8.38 8.41 8.05 7.92 7.50 7.77 7.98 8.00 7.67 7.69 7.73 7.46 8.27 7.84 7.53 8.15 8.09 8.29 8.23 8.12 7.45 8.11 7.59 8.18 8.17 7.68 8.42 8.27 7.85 7.58 8.05 8.25 7.71 7.81 7.95 7.83 8.05 8.07 8.02 7.99 7.67 8.38 8.08 7.74 7.68 8.24 8.15 7.74 8.38 8.37 7.69 7.60 7.85 8.39 8.16 8.16 7.99 7.65 7.43 7.70 8.28 7.62 7.97 7.93 8.31 -9999 -9999 -9999 -9999 -9999 -9999 -9999 -9999 -9999 -9999 -9999 -9999 -9999 -9999 -9999 -9999 -9999 -9999 -9999 -9999 -9999 -9999 -9999 -9999 -9999 -9999 -9999 -9999 -9999 -9999 -9999 -9999 -9999 -9999
7.97 8.33 7.50 8.23 8.42 8.42 7.46 8.29 7.57 7.68 8.04 7.56 7.83 7.70 7.87 8.23 7.94 8.18 7.44 8.19 8.13 8.02 7.80 8.01 7.75 7.84 7.94 8.06 7.63 7.64 8.23 7.68 8.30 8.11 7.58 8.04 8.35 8.35 8.27 7.57 7.76 7.65 7.54 7.63 8.39 7.85 8.22 7.68 7.92 7.56 8.42 7.67 7.96 7.62 7.51 8.20 8.36 7.54 8.34 8.30 7.58 7.78 7.62 7.90 7.64 7.59 7.70 8.37 7.55 8.13 7.90 7.81 8.20 7.56 7.59 7.87 7.71 7.95 8.22 8.07 7.63 8.05 7.65 8.21 7.48 8.42 8.39 7.61 7.71 7.93 7.52 8.39 7.79 8.02 8.28 7.96 8.33 8.38 7.87 7.88 8.09 8.25 7.65 7.88 7.81 8.18 7.51 7.79 7.77 8.04 8.04 7.64 8.04 7.53 7.96 7.44 8.01 7.91 7.56 7.75 8.15 7.52 8.25 7.63 7.66 7.86 7.73 7.99 8.17 7.79 7.75 7.97 8.15 7.45 7.65 7.95 8.43 8.27 8.26 7.60 8.29 8.32 8.40 7.94 8.42 8.04 7.46 8.20 8.23 7.95 7.74 8.35 8.26 8.38 7.98 8.39 8.14 8.08 8.22 8.11 8.20 7.58 8.07 7.52 7.44 7.48 8.27 7.47 7.68 7.91 7.74 8.18 7.55 7.73 8.34 8.43 7.90 8.25 7.50 8.14 7.49 -9999 -9999 -9999 -9999 -9999 -9999 -9999 -9999 -9999 -9999 -9999 -9999 -9999 -9999 -9999 -9999 -9999 -9999 -9999 -9999 -9999 -9999 -9999 -9999 -9999 -9999 -9999 -9999 -9999 -9999 -9999 -9999 -9999 -9999
7.80 7.97 8.28 7.64 8.21 7.47 7.50 8.12 8.35 7.73 8.01 8.35 7.66 7.89 8.04 7.86 7.92 8.01 7.46 8.07 7.64 7.66 7.44 7.47 8.01 8.07 7.88 7.87 8.15 7.72 8.27 8.02 7.83 7.56 7.63 8.04 7.79 7.66 7.50 7.61 8.02 7.83 7.63 7.73 7.82 8.11 8.06 7.61 8.20 8.27 8.28 7.89 8.39 7.47 7.68 7.97 7.59 8.39 7.88 7.51 7.84 7.77 8.04 7.81 8.03 7.56 8.04 7.59 7.96 7.57 8.27 7.71 7.67 7.74 7.95 8.36 8.21 8.11 8.22 8.40 7.82 7.91 7.98 7.59 8.42 7.72 7.64 7.97 8.16 8.36 7.88 7.96 7.70 8.01 7.55 8.40 8.15 8.25 7.70 7.92 8.13 8.19 7.67 7.83 7.90 7.53 7.72 8.34 8.02 8.14 7.76 7.94 8.06 8.17 8.33 7.57 7.56 8.09 7.65 8.08 7.97 8.06 7.78 7.47 8.41 7.51 7.57 8.34 7.55 7.66 8.22 7.70 8.29 8.04 7.97 7.47 7.83 7.87 8.22 7.62 7.54 7.73 7.49 7.73 7.72 7.87 7.67 8.36 7.59 7.52 8.40 7.54 8.04 7.67 7.78 7.96 8.10 8.06 7.65 8.33 7.54 7.72 8.35 8.06 8.35 7.72 8.31 8.31 8.43 8.05 7.83 8.19 7.48 7.72 7.82 7.89 7.80 8.37 7.69 7.68 8.42 -9999 -9999 -9999 -9999 -9999 -9999 -9999 -9999 -9999 -9999 -9999 -9999 -9999 -9999 -9999 -9999 -9999 -9999 -9999 -9999 -9999 -9999 -9999 -9999 -9999 -9999 -9999 -9999 -9999 -9999 -9999 -9999 -9999 -9999
8.37 7.85 8.37 8.28 7.48 8.28 7.98 7.91 8.30 8.17 7.98 7.59 7.71 8.05 7.69 8.41 7.93 7.49 7.53 8.31 8.04 8.10 7.64 8.06 7.60 7.92 7.94 8.04 8.13 7.62 7.63 8.13 7.44 8.10 8.02 8.00 8.02 7.70 8.36 7.61 7.96 7.83 7.76 8.30 8.23 7.61 7.61 7.92 7.60 8.01 8.04 8.23 8.43 7.60 7.52 7.97 8.33 7.73 8.38 7.71 7.59 7.87 7.71 7.52 8.27 8.24 7.87 8.25 7.51 7.44 7.63 7.78 7.69 8.12 7.69 7.64 8.41 8.19 7.70 7.77 7.87 8.25 8.33 7.64 7.96 8.07 8.35 8.28 8.15 8.33 7.75 7.96 7.49 7.48 7.78 7.49 7.61 8.12 8.19 7.78 8.05 7.95 8.25 8.00 8.21 8.30 8.02 7.99 7.82 8.09 7.52 8.21 7.97 8.00 7.46 8.43 7.61 8.01 8.18 8.01 7.79 8.30 8.16 7.61 7.59 8.00 7.88 7.77 7.71 7.47 7.54 8.37 7.53 8.35 7.53 7.97 7.46 7.98 8.06 7.72 8.00 7.97 7.46 8.29 8.23 8.22 8.18 8.15 7.45 7.49 8.03 8.08 7.44 8.16 8.33 8.32 7.64 8.09 8.12 7.84 7.58 7.44 8.03 7.94 8.41 7.44 7.80 7.72 7.61 8.16 7.58 7.53 7.50 8.37 7.46 8.38 8.33 8.08 8.40 7.67 8.29 -9999 -9999 -9999 -9999 -9999 -9999 -9999 -9999 -9999 -9999 -9999 -9999 -9999 -9999 -9999 -9999 -9999 -9999 -9999 -9999 -9999 -9999 -9999 -9999 -9999 -9999 -9999 -9999 -9999 -9999 -9999 -9999 -9999 -9999
8.07 8.16 8.35 8.30 8.14 7.51 7.91 7.58 7.91 7.80 7.57 7.93 7.50 7.56 7.76 8.08 7.69 7.93 8.18 7.71 7.47 8.42 7.88 7.44 7.81 8.37 8.13 7.90 8.25 7.77 8.03 8.36 7.51 7.59 7.87 8.00 8.24 7.62 7.98 8.37 8.20 8.07 7.96 7.67 8.05 7.67 7.62 7.87 7.73 8.39 8.04 8.23 7.98 7.88 7.80 8.38 7.72 8.23 7.72 7.61 8.20 8.27 8.05 7.52 8.22 7.68 7.45 7.82 7.87 7.91 7.72 8.27 8.20 7.93 7.99 8.21 7.68 8.18 8.37 7.43 7.75 8.01 8.17 7.45 7.85 8.32 7.55 7.60 7.80 8.05 7.49 7.46 7.81 7.70 8.07 7.87 7.91 7.73 8.37 8.24 7.56 7.59 8.21 8.18 8.04 7.59 8.04 7.81 7.66 8.35 8.21 8.14 7.45 8.17 7.85 8.43 7.90 7.82 7.90 7.59 7.96 8.01 7.83 8.28 8.28 7.57 8.22 8.13 7.81 8.17 8.16 8.32 7.49 8.36 7.74 7.66 8.11 7.82 8.11 7.95 8.42 8.00 8.37 7.70 8.27 7.76 7.65 7.88 7.60 8.07 7.73 7.99 7.69 7.75 8.18 7.56 7.73 7.77 7.93 7.58 8.32 8.34 8.28 8.33 8.08 7.96 7.85 8.42 8.40 7.52 7.58 8.16 7.48 7.84 7.61 7.85 8.35 7.65 7.50 7.76 7.54 -9999 -9999 -9999 -9999 -9999 -9999 -9999 -9999 -9999 -9999 -9999 -9999 -9999 -9999 -9999 -9999 -9999 -9999 -9999 -9999 -9999 -9999 -9999 -9999 -9999 -9999 -9999 -9999 -9999 -9999 -9999 -9999 -9999 -9999
7.48 7.58 7.90 7.64 7.84 7.71 8.29 8.43 7.69 8.17 8.09 7.87 7.48 8.41 7.85 8.23 7.49 7.45 7.69 7.95 8.34 7.99 7.47 7.59 7.94 8.24 8.19 8.12 7.59 8.39 8.06 8.33 7.62 8.14 7.74 8.19 7.72 8.35 7.77 7.63 8.24 7.48 7.67 7.56 7.62 7.91 7.86 7.99 8.24 7.73 7.44 8.27 8.38 7.74 7.70 8.20 8.31 8.25 7.96 8.01 8.17 7.72 7.68 7.45 8.41 8.36 7.61 8.35 7.62 8.03 7.47 8.25 7.54 8.02 8.14 8.35 7.83 7.51 7.55 8.30 8.08 8.16 7.86 7.84 7.89 7.69 7.81 7.81 8.35 8.40 7.48 7.86 7.93 7.85 8.36 7.64 8.02 7.85 7.47 8.15 7.95 7.93 8.03 8.42 7.54 7.82 7.45 7.77 8.31 8.02 7.80 7.71 8.38 8.34 7.83 7.76 8.40 7.49 7.89 8.26 8.39 7.63 7.98 8.05 7.98 7.91 7.45 8.33 8.39 7.94 8.16 8.34 8.09 8.03 7.62 8.29 7.79 8.18 8.27 7.67 7.90 8.05 7.83 8.18 7.67 8.01 7.55 7.97 8.38 8.04 7.56 8.27 7.70 7.72 7.48 8.33 8.29 7.93 7.59 8.30 8.36 8.11 8.17 7.52 8.04 7.49 7.91 7.54 7.84 8.02 8.14 8.02 7.43 7.48 8.09 8.17 7.59 8.12 8.05 8.10 8.40 8.41 -9999 -9999 -9999 -9999 -9999 -9999 -9999 -9999 -9999 -9999 -9999 -9999 -9999 -9999 -9999 -9999 -9999 -9999 -9999 -9999 -9999 -9999 -9999 -9999 -9999 -9999 -9999 -9999 -9999 -9999 -9999 -9999 -9999
7.98 8.13 8.33 8.37 8.13 8.29 7.82 7.73 7.69 8.26 7.78 8.33 7.59 8.26 8.22 7.55 7.96 8.39 7.50 8.06 7.69 7.85 7.93 8.01 7.85 7.54 7.58 7.93 7.93 7.49 7.49 8.05 8.16 7.65 8.35 8.06 7.51 8.24 8.38 8.40 8.03 7.99 7.97 7.82 7.79 8.34 8.30 7.82 8.14 8.30 7.95 8.20 7.59 7.96 8.26 8.30 7.86 7.56 7.96 8.30 8.18 7.96 7.79 8.31 8.33 8.43 8.24 7.59 8.23 7.94 8.10 8.17 7.52 7.68 8.41 7.50 7.46 7.47 7.89 8.36 8.09 8.17 7.70 8.30 8.19 7.60 8.03 8.13 7.54 8.42 8.27 7.45 8.25 8.11 8.05 7.67 8.21 7.82 8.19 7.83 7.95 8.30 7.53 7.44 8.06 7.87 7.85 7.84 8.10 8.12 7.89 7.55 7.62 8.00 7.56 8.21 7.72 8.20 7.75 7.60 7.64 7.78 8.31 7.82 7.75 8.26 7.91 7.97 7.53 8.41 8.36 8.05 8.14 7.84 7.47 8.25 7.59 8.40 7.83 8.13 7.75 7.97 8.09 7.54 8.24 7.80 7.94 7.87 7.89 7.90 7.57 7.61 8.38 7.45 7.65 8.20 7.93 8.27 8.35 7.55 8.06 8.23 8.21 8.14 7.89 8.05 8.08 8.31 8.41 7.66 7.97 8.24 8.06 7.55 8.41 8.27 8.34 7.56 8.24 7.59 7.74 8.08 -9999 -9999 -9999 -9999 -9999 -9999 -9999 -9999 -9999 -9999 -9999 -9999 -9999 -9999 -9999 -9999 -9999 -9999 -9999 -9999 -9999 -9999 -9999 -9999 -9999 -9999 -9999 -9999 -9999 -9999 -9999 -9999 -9999
7.90 7.83 8.12 8.26 8.18 7.47 8.04 8.32 7.53 7.56 8.33 8.24 8.14 8.08 7.51 8.04 7.86 8.16 7.92 7.88 7.95 7.59 7.48 7.79 8.30 7.72 7.78 7.64 8.42 8.25 7.50 8.01 7.47 7.82 7.99 7.96 8.07 8.09 8.08 7.79 8.00 8.09 8.38 7.96 7.79 7.67 8.40 7.92 8.41 8.29 7.86 7.59 7.54 7.86 7.60 7.46 7.83 7.85 7.91 7.67 7.48 7.66 7.93 8.24 7.68 7.64 8.37 7.89 7.88 7.88 7.52 8.13 7.62 8.17 7.66 7.86 7.56 7.76 8.14 7.46 8.24 8.00 7.46 8.31 8.24 7.61 7.93 8.33 8.38 7.84 7.86 7.79 8.06 7.54 7.70 8.32 8.01 7.83 7.59 8.35 7.66 8.17 7.59 7.61 7.45 7.63 7.86 8.23 8.07 7.51 7.63 8.30 8.39 7.87 8.27 8.02 8.27 8.42 7.45 8.05 7.64 7.75 8.14 7.81 8.12 8.00 8.15 8.30 7.71 8.25 8.23 7.79 7.82 8.14 8.26 7.49 7.91 7.72 8.08 8.17 7.57 8.24 8.09 8.12 8.19 8.36 7.65 7.85 8.32 7.54 8.23 7.97 8.02 7.59 7.92 7.71 7.88 7.58 7.62 7.77 7.59 8.27 7.75 8.21 8.34 7.85 8.37 8.27 8.24 7.94 8.43 8.05 7.76 8.38 7.84 7.98 7.52 7.60 7.75 7.50 7.60 7.57 -9999 -9999 -9999 -9999 -9999 -9999 -9999 -9999 -9999 -9999 -9999 -9999 -9999 -9999 -9999 -9999 -9999 -9999 -9999 -9999 -9999 -9999 -9999 -9999 -9999 -9999 -9999 -9999 -9999 -9999 -9999 -9999 -9999
7.86 7.72 7.52 7.88 7.94 7.71 8.37 7.58 7.58 7.53 7.76 7.44 7.68 7.95 7.80 7.55 8.05 7.73 7.50 8.37 7.63 7.93 8.22 8.28 8.23 7.76 8.02 7.63 7.62 8.03 7.67 7.71 7.60 8.36 8.43 7.64 7.98 7.83 7.80 7.57 8.35 8.09 7.66 7.99 8.06 8.08 7.66 8.40 8.43 7.56 7.62 7.72 7.58 8.25 8.17 7.93 7.73 7.58 8.42 7.43 7.54 8.20 7.50 7.59 7.69 7.44 7.64 7.81 8.29 8.30 7.63 7.69 8.19 7.50 8.05 7.97 8.32 8.32 8.36 8.22 8.26 7.44 8.16 8.08 8.10 7.97 7.86 7.94 8.38 8.12 8.38 7.85 8.14 7.88 8.38 7.78 8.26 8.17 8.19 7.58 7.61 8.11 7.94 7.82 8.30 8.29 8.03 7.53 8.33 8.29 7.73 7.82 7.98 8.37 8.31 8.25 8.27 8.18 7.95 7.87 7.91 7.89 7.48 8.30 8.09 8.20 8.21 8.26 7.63 8.30 8.12 8.09 8.28 8.35 7.45 8.34 7.98 8.24 8.07 7.54 8.04 7.93 8.38 7.74 7.51 8.43 7.49 7.87 8.33 8.23 8.18 8.25 7.76 8.22 8.09 8.42 7.70 7.54 7.76 7.68 8.10 8.33 8.04 7.59 7.49 7.67 7.64 8.03 8.25 7.54 7.64 7.81 7.93 8.35 8.22 7.78 7.83 8.43 7.46 7.85 8.28 7.95 -9999 -9999 -9999 -9999 -9999 -9999 -9999 -9999 -9999 -9999 -9999 -9999 -9999 -9999 -9999 -9999 -9999 -9999 -9999 -9999 -9999 -9999 -9999 -9999 -9999 -9999 -9999 -9999 -9999 -9999 -9999 -9999 -9999
8.19 7.43 8.18 7.80 7.85 8.08 7.98 7.96 7.56 8.16 7.44 8.30 8.14 7.54 8.11 8.32 7.48 7.91 7.92 7.60 8.03 8.38 7.58 8.43 8.36 7.99 7.51 7.88 8.07 8.14 7.54 7.57 7.62 8.31 8.24 7.56 8.34 8.40 8.06 8.01 7.99 7.88 7.74 7.79 8.19 7.71 7.63 7.85 8.27 8.39 7.71 7.93 7.75 7.59 8.22 7.89 7.50 8.11 8.17 7.83 7.78 8.01 7.45 7.59 8.22 7.47 8.28 8.04 7.94 8.26 7.95 7.79 7.83 8.42 7.63 8.36 7.65 8.41 7.60 7.56 8.16 7.76 8.42 7.47 8.29 7.56 8.00 7.96 7.52 8.01 7.49 8.02 8.42 7.71 7.87 8.20 7.89 7.80 8.34 8.11 8.22 8.08 7.86 7.84 7.64 7.88 8.07 7.49 8.38 8.00 8.03 8.13 8.29 7.96 8.36 7.73 7.78 7.84 8.29 8.24 8.14 8.00 8.20 7.71 8.40 7.96 8.40 7.57 8.07 8.25 7.93 7.77 8.03 7.53 7.46 8.35 7.60 8.32 7.73 7.97 7.91 7.51 8.32 8.38 7.49 8.16 8.24 8.22 7.91 7.64 8.10 7.73 8.13 7.64 7.47 7.70 7.82 7.59 7.71 7.70 7.62 8.32 7.91 8.34 8.38 7.49 7.95 7.68 8.22 7.99 7.53 7.45 8.05 7.78 7.51 7.96 7.98 8.42 8.09 7.74 8.12 8.25 -9999 -9999 -9999 -9999 -9999 -9999 -9999 -9999 -9999 -9999 -9999 -9999 -9999 -9999 -9999 -9999 -9999 -9999 -9999 -9999 -9999 -9999 -9999 -9999 -9999 -9999 -9999 -9999 -9999 -9999 -9999 -9999 -9999
8.04 7.76 7.72 8.22 7.70 7.95 8.09 7.56 7.61 8.00 8.22 8.17 8.06 8.28 7.72 7.90 8.32 7.98 8.01 8.12 7.77 7.59 8.23 7.96 7.43 8.25 8.28 8.05 7.90 7.71 7.71 7.88 7.84 7.69 8.32 7.66 8.36 8.23 7.82 7.90 8.41 8.03 7.48 8.39 8.34 7.70 7.53 7.56 7.95 8.40 8.24 7.86 7.67 7.65 8.22 7.78 8.13 8.33 7.99 7.79 7.99 8.10 7.98 7.82 7.72 7.57 8.03 8.27 7.92 7.51 8.23 8.32 7.91 8.24 7.76 7.59 8.19 7.90 7.62 7.76 8.17 8.04 7.53 8.42 8.19 8.17 8.17 7.44 8.28 8.19 8.20 8.41 8.15 8.26 8.22 7.88 7.63 7.58 7.71 8.34 7.45 7.89 7.95 7.64 8.41 8.02 7.70 8.17 7.92 7.46 8.31 7.55 7.95 7.77 8.12 7.96 8.22 8.05 8.27 8.31 8.29 7.45 7.99 8.14 7.49 7.88 7.44 8.22 8.28 8.09 7.72 7.73 7.83 7.79 8.38 8.18 7.80 7.50 7.68 7.78 8.36 8.12 7.99 7.98 8.22 8.25 8.36 7.78 7.98 8.20 7.78 7.82 7.60 7.56 8.22 7.61 7.85 8.18 7.79 8.28 8.34 7.63 8.29 7.57 8.21 7.65 7.62 8.37 8.39 8.36 7.77 7.66 7.52 7.87 7.77 8.30 8.35 7.73 8.17 7.49 7.76 7.80 -9999 -9999 -9999 -9999 -9999 -9999 -9999 -9999 -9999 -9999 -9999 -9999 -9999 -9999 -9999 -9999 -9999 -9999 -9999 -9999 -9999 -9999 -9999 -9999 -9999 -9999 -9999 -9999 -9999 -9999 -9999 -9999 -9999
7.79 8.22 7.96 8.10 7.77 7.44 8.41 7.72 8.11 7.81 8.00 7.68 7.65 7.88 7.93 7.67 7.91 8.24 7.75 8.41 8.40 8.11 8.00 7.60 7.46 8.25 7.64 7.71 8.05 8.16 7.70 7.87 7.89 7.81 8.06 8.05 7.54 8.21 8.21 7.95 7.83 8.02 7.86 7.72 8.09 8.38 8.13 8.43 7.59 7.98 8.27 8.36 7.52 7.69 8.22 8.10 8.29 7.97 8.07 8.23 7.93 8.34 8.06 8.05 7.51 8.36 7.70 8.07 8.04 7.92 7.48 7.86 7.98 7.86 8.16 8.21 7.60 8.03 7.91 7.48 8.43 8.23 7.66 7.84 7.93 7.57 7.57 8.36 7.71 8.03 8.19 7.98 8.36 8.18 7.94 8.17 7.65 7.68 8.01 8.14 7.85 8.26 7.90 8.06 8.06 8.37 7.84 7.94 8.36 8.24 7.78 8.11 8.39 7.76 8.15 8.31 7.75 8.34 7.91 7.83 8.12 8.38 7.72 7.60 7.69 8.33 8.10 7.55 8.20 7.70 8.18 7.71 7.89 7.66 8.30 7.53 7.49 8.29 7.49 8.14 8.38 7.51 7.82 7.76 7.50 7.53 8.12 8.24 7.95 7.65 8.04 7.77 8.04 8.12 8.11 8.05 7.81 8.03 7.58 8.25 8.33 7.85 7.52 7.90 8.35 8.39 7.85 8.10 8.40 8.23 7.76 8.06 7.52 7.55 7.79 7.95 8.39 8.14 7.46 7.56 8.30 7.67 8.07 -9999 -9999 -9999 -9999 -9999 -9999 -9999 -9999 -9999 -9999 -9999 -9999 -9999 -9999 -9999 -9999 -9999 -9999 -9999 -9999 -9999 -9999 -9999 -9999 -9999 -9999 -9999 -9999 -9999 -9999 -9999 -9999
7.95 8.19 7.97 7.44 8.34 8.09 7.92 7.47 8.05 8.12 7.44 7.82 8.36 7.56 8.01 7.68 7.57 8.08 8.28 7.55 7.52 7.51 7.66 7.47 8.12 8.24 8.15 8.20 7.95 7.49 8.28 7.89 8.02 7.47 7.75 7.89 7.99 7.52 7.63 8.39 7.69 8.07 7.97 7.44 8.28 8.31 8.09 7.95 8.17 7.84 7.91 7.63 7.50 7.99 8.21 8.01 8.09 7.73 7.51 8.38 7.50 8.15 8.37 7.89 7.82 7.82 8.28 8.05 7.61 7.60 8.01 7.96 8.08 7.50 7.67 7.62 7.67 7.81 7.69 8.06 8.32 8.01 8.21 8.23 8.24 8.35 7.79 7.88 8.05 7.51 8.00 7.64 7.62 7.89 8.21 8.14 7.60 8.06 7.64 8.33 7.71 8.38 7.59 8.38 7.98 7.70 8.33 7.80 7.61 8.07 7.78 8.42 7.79 7.99 8.12 8.35 8.06 7.63 8.38 8.33 7.72 8.41 7.76 7.52 8.07 7.87 7.94 8.25 8.04 7.80 8.31 8.31 7.87 8.13 7.57 8.01 7.84 8.27 8.40 7.91 7.52 7.72 7.98 7.45 7.77 8.33 8.07 7.62 7.53 8.05 7.73 8.06 8.10 8.24 8.36 8.33 7.79 7.65 8.28 7.51 7.97 8.31 8.27 7.86 8.21 8.09 7.77 8.00 7.51 7.82 7.72 8.20 8.42 8.32 8.12 7.76 7.95 7.75 7.61 7.53 7.53 7.93 7.99 -9999 -9999 -9999 -9999 -9999 -9999 -9999 -9999 -9999 -9999 -9999 -9999 -9999 -9999 -9999 -9999 -9999 -9999 -9999 -9999 -9999 -9999 -9999 -9999 -9999 -9999 -9999 -9999 -9999 -9999 -9999 -9999
7.54 8.36 8.11 8.10 7.89 8.21 7.94 7.93 8.36 8.35 7.65 7.95 8.22 7.88 8.41 8.14 7.71 7.58 7.81 7.66 7.86 7.81 7.90 8.21 8.09 7.77 7.84 7.75 7.77 8.23 8.15 7.58 7.47 7.64 8.42 7.80 8.07 7.65 7.74 7.44 8.30 8.12 8.43 7.84 8.16 8.23 8.01 8.07 7.93 7.57 8.32 7.76 8.21 7.97 7.96 7.60 7.76 8.07 8.09 7.51 8.31 7.74 7.93 8.37 7.60 8.07 8.43 7.91 7.87 8.06 7.90 8.14 7.65 7.59 7.61 7.83 8.33 7.74 8.30 7.69 8.05 8.13 8.09 8.40 8.35 8.34 8.39 7.49 8.42 7.77 7.98 7.83 8.11 7.70 8.00 7.93 8.39 7.87 7.72 8.43 7.76 7.78 7.51 7.73 8.20 7.98 7.95 7.71 8.01 7.58 7.96 7.74 7.97 8.23 7.91 8.07 7.45 7.91 7.98 8.06 8.17 7.62 8.26 7.73 7.69 7.46 8.36 8.39 7.68 7.76 8.31 8.03 7.98 8.14 7.57 8.36 7.54 8.07 7.77 7.76 8.31 8.43 7.75 7.67 8.07 8.10 7.87 8.30 7.60 8.40 7.79 8.10 7.73 7.89 7.97 7.62 7.51 7.94 7.92 7.48 8.07 7.87 8.04 8.17 8.02 7.82 8.03 8.21 7.48 7.79 8.27 7.49 7.50 8.39 8.26 8.01 8.05 8.14 7.85 7.60 7.96 7.98 7.97 -9999 -9999 -9999 -9999 -9999 -9999 -9999 -9999 -9999 -9999 -9999 -9999 -9999 -9999 -9999 -9999 -9999 -9999 -9999 -9999 -9999 -9999 -9999 -9999 -9999 -9999 -9999 -9999 -9999 -9999 -9999 -9999
8.23 7.94 7.69 7.70 8.37 7.47 7.58 8.28 8.38 8.29 8.05 7.61 7.46 7.79 8.07 8.15 8.29 8.40 7.62 7.54 8.14 8.43 8.10 8.22 8.35 7.71 8.19 7.74 8.24 7.53 7.91 8.19 7.88 7.62 7.70 8.10 7.74 7.62 8.41 8.01 8.07 8.14 7.76 7.59 7.67 8.27 8.31 7.78 7.91 8.03 7.45 7.94 7.76 8.15 7.84 7.96 7.75 7.53 7.77 8.23 8.34 8.12 8.18 8.10 8.11 8.33 7.85 7.83 8.24 8.30 7.73 8.31 7.88 7.66 7.97 7.55 7.93 7.95 8.07 8.01 8.38 7.46 8.01 7.88 8.18 7.64 8.05 8.11 7.49 8.15 8.28 7.62 7.46 7.90 7.89 8.23 7.91 7.55 8.05 7.74 7.88 7.73 8.32 7.59 7.56 8.28 7.46 7.53 7.60 8.20 7.44 8.09 7.91 8.32 7.75 7.81 7.98 7.78 7.92 7.54 7.54 8.13 7.83 8.28 8.19 8.23 7.73 7.87 7.53 8.22 8.00 8.26 7.48 8.22 8.36 7.86 7.56 7.87 8.22 8.30 8.30 8.35 7.47 8.14 7.49 8.42 8.01 8.13 8.17 7.77 7.44 7.94 7.82 8.29 7.89 7.89 8.26 8.06 7.81 7.99 8.42 8.13 7.91 7.46 7.71 8.41 8.17 8.15 8.21 7.57 7.66 8.35 7.46 7.98 7.84 7.93 7.53 7.80 8.26 8.21 8.25 7.93 7.67 -9999 -9999 -9999 -9999 -9999 -9999 -9999 -9999 -9999 -9999 -9999 -9999 -9999 -9999 -9999 -9999 -9999 -9999 -9999 -9999 -9999 -9999 -9999 -9999 -9999 -9999 -9999 -9999 -9999 -9999 -9999 -9999
8.27 7.71 7.98 8.33 7.86 8.12 7.85 8.38 8.22 7.67 7.72 8.42 7.64 7.78 8.38 7.62 7.53 8.14 8.13 8.27 8.28 8.42 8.38 8.29 8.35 7.90 7.95 7.55 7.79 7.70 8.03 8.14 7.62 8.21 7.94 7.57 7.77 8.36 7.49 8.16 8.03 8.14 7.70 7.97 7.93 8.19 8.39 7.51 7.54 8.38 7.78 8.31 7.87 7.49 8.39 8.23 8.02 7.84 7.49 7.51 8.42 8.26 7.99 7.79 8.01 7.87 7.85 7.49 8.41 7.65 7.98 8.03 8.25 7.92 7.51 7.85 7.93 7.59 7.66 8.15 8.36 7.66 7.89 8.02 7.97 7.99 8.35 7.97 8.29 7.69 7.99 8.39 8.06 8.25 8.40 8.04 7.95 7.77 8.22 8.11 7.95 7.79 8.25 7.81 7.91 7.67 7.77 7.61 7.88 7.67 7.86 7.77 8.38 8.14 7.53 7.75 7.85 8.29 8.13 7.63 8.03 8.29 8.08 8.41 8.34 7.56 8.17 7.46 7.63 8.09 7.75 7.83 8.16 7.78 8.20 8.18 7.65 8.23 7.74 7.83 7.92 8.12 7.83 8.26 8.19 8.17 8.04 8.00 8.07 8.17 7.91 7.62 7.73 7.90 8.18 8.05 8.20 8.35 8.13 7.91 7.91 8.35 8.43 7.61 8.05 7.88 7.69 7.85 7.56 7.54 8.25 8.00 7.67 8.31 7.74 7.53 7.77 8.28 7.79 8.38 7.49 7.86 8.05 -9999 -9999 -9999 -9999 -9999 -9999 -9999 -9999 -9999 -9999 -9999 -9999 -9999 -9999 -9999 -9999 -9999 -9999 -9999 -9999 -9999 -9999 -9999 -9999 -9999 -9999 -9999 -9999 -9999 -9999 -9999 -9999
8.04 7.54 8.37 8.17 7.78 8.15 7.48 7.52 8.10 7.63 7.49 8.36 7.49 8.17 8.41 8.05 8.43 7.77 8.25 8.13 7.96 7.80 7.82 7.50 7.98 8.34 7.68 7.52 8.01 7.49 7.78 8.03 7.84 7.78 7.98 7.50 7.51 8.38 8.43 7.98 7.68 7.45 7.62 7.65 7.45 8.02 7.45 7.50 7.78 7.70 7.89 8.08 8.11 7.54 7.76 7.59 8.00 8.24 8.13 7.97 7.71 8.35 7.58 7.81 7.99 7.89 7.76 8.18 7.96 8.02 7.47 8.38 8.40 7.84 7.94 8.32 8.33 8.40 7.88 8.29 8.12 7.67 8.26 7.54 8.15 8.22 7.45 8.28 7.90 8.10 8.15 8.42 8.15 8.13 7.82 7.81 7.66 7.52 8.02 7.47 7.83 8.17 8.21 8.29 8.16 7.66 7.68 7.53 7.61 7.62 8.28 7.44 7.48 7.54 8.06 8.27 7.83 8.24 8.27 8.19 7.48 7.81 8.00 7.60 7.52 7.67 7.89 7.53 7.95 8.01 7.72 7.46 7.45 7.60 8.08 7.70 8.23 8.40 7.99 7.50 7.50 7.99 8.31 8.16 8.04 7.60 7.49 8.23 8.13 7.55 8.11 7.65 7.84 8.35 7.48 7.49 8.14 7.83 7.74 7.99 7.57 7.46 7.63 8.27 8.09 7.68 7.60 8.42 8.36 7.57 7.70 7.54 8.09 8.02 8.35 7.48 7.86 8.26 8.08 7.93 8.03 7.48 7.72 -9999 -9999 -9999 -9999 -9999 -9999 -9999 -9999 -9999 -9999 -9999 -9999 -9999 -9999 -9999 -9999 -9999 -9999 -9999 -9999 -9999 -9999 -9999 -9999 -9999 -9999 -9999 -9999 -9999 -9999 -9999 -9999
7.49 8.10 8.02 8.22 8.25 7.99 7.68 8.03 8.02 7.69 8.32 7.51 7.82 7.79 7.53 7.52 7.63 8.37 7.52 8.25 7.72 7.70 7.44 8.25 7.51 7.54 7.56 8.11 7.90 8.03 8.24 7.86 8.35 8.37 8.38 7.90 8.10 7.74 7.52 8.31 7.93 8.14 8.22 7.69 8.20 8.29 8.08 8.32 7.95 8.11 8.39 7.73 8.19 7.92 7.45 8.32 7.48 7.83 8.42 8.24 8.07 7.53 7.93 8.36 8.43 8.11 8.17 7.91 7.73 8.33 7.71 8.29 8.19 7.47 8.19 7.76 7.92 7.87 8.10 7.66 7.71 8.25 8.24 7.52 8.26 7.61 8.02 7.87 8.31 8.23 8.33 7.91 7.81 8.29 8.08 7.93 8.04 7.46 7.66 7.80 7.70 7.44 8.05 8.38 7.97 7.85 7.78 8.19 7.77 8.40 7.62 8.32 8.00 8.06 7.82 8.13 7.72 7.50 8.09 8.28 8.07 7.46 8.10 7.89 7.71 8.07 7.58 7.78 8.14 8.13 8.16 7.93 8.00 7.67 7.64 8.39 8.16 7.52 8.00 7.76 8.04 7.62 7.57 8.32 8.35 7.88 8.00 8.17 8.33 7.45 8.10 7.44 7.70 7.99 7.94 8.27 8.13 8.22 7.74 7.77 7.70 7.97 7.49 8.08 7.57 7.84 7.77 8.10 7.61 8.05 7.83 7.74 8.09 7.60 8.26 8.31 7.50 8.02 7.51 7.68 8.13 7.78 7.73 7.64 -9999 -9999 -9999 -9999 -9999 -9999 -9999 -9999 -9999 -9999 -9999 -9999 -9999 -9999 -9999 -9999 -9999 -9999 -9999 -9999 -9999 -9999 -9999 -9999 -9999 -9999 -9999 -9999 -9999 -9999 -9999
7.84 7.92 8.07 7.84 8.00 7.95 7.57 8.33 7.51 8.06 7.73 7.53 7.82 7.64 8.40 7.51 8.15 7.49 8.24 7.97 8.36 7.49 7.90 8.28 7.63 8.12 7.77 7.85 7.59 7.50 7.98 7.60 8.05 7.58 8.24 7.61 8.30 7.44 8.01 7.84 8.00 7.90 7.76 8.41 8.06 7.72 8.32 7.45 7.71 8.40 7.59 8.15 7.53 8.35 7.78 7.58 7.98 7.67 7.65 7.55 7.61 8.02 7.71 7.60 7.69 7.88 7.99 7.44 7.55 8.31 7.94 7.88 7.65 8.15 8.05 7.69 8.35 7.54 7.76 7.84 8.12 7.44 7.52 8.11 7.46 8.27 8.14 8.04 8.11 7.54 7.97 8.07 8.18 7.67 8.26 7.65 8.32 7.53 8.31 7.72 7.54 7.81 8.41 8.14 8.26 7.89 7.76 7.90 7.68 8.00 7.82 8.30 7.62 8.17 8.03 8.20 8.14 7.67 7.59 8.16 8.05 7.95 7.55 7.46 7.96 8.37 7.74 7.47 8.18 8.33 7.67 8.11 8.34 7.67 7.60 7.84 8.26 7.76 7.87 8.17 8.40 8.19 7.63 7.97 8.42 8.35 7.79 7.65 8.39 8.29 7.98 7.80 7.71 8.13 8.17 8.28 8.23 7.84 8.25 8.22 8.27 7.67 7.61 8.27 8.10 7.97 7.95 8.13 7.53 8.40 7.97 8.42 7.61 8.22 7.85 8.36 7.82 7.56 8.28 8.36 7.69 8.18 7.92 8.09 -9999 -9999 -9999 -9999 -9999 -9999 -9999 -9999 -9999 -9999 -9999 -9999 -9999 -9999 -9999 -9999 -9999 -9999 -9999 -9999 -9999 -9999 -9999 -9999 -9999 -9999 -9999 -9999 -9999 -9999 -9999
7.46 7.45 8.29 7.48 8.42 7.87 8.39 8.00 7.59 7.87 7.99 7.67 8.17 8.39 7.66 8.18 7.58 7.51 8.02 7.72 7.89 8.19 7.61 8.35 8.01 8.33 8.09 8.38 7.72 7.66 8.09 8.36 7.61 8.31 8.36 7.86 8.15 8.21 7.96 7.85 8.28 7.73 7.87 7.86 7.55 8.05 7.60 7.95 7.87 8.34 8.35 7.49 7.97 8.33 7.85 8.02 7.44 7.78 7.93 7.70 7.98 7.90 8.43 8.31 8.28 8.37 7.67 7.86 8.25 8.26 8.16 7.54 7.74 8.23 8.15 8.23 7.65 8.23 8.31 8.22 7.59 7.76 7.67 7.93 7.72 8.39 7.58 7.63 8.05 7.59 7.97 8.24 8.34 8.05 7.90 7.45 8.39 7.54 8.37 8.30 7.90 7.45 7.73 7.67 8.27 8.17 8.26 8.43 8.29 8.35 7.63 7.57 8.05 7.68 8.35 8.31 7.49 8.18 8.29 7.51 8.40 8.21 7.46 8.35 8.40 7.97 7.81 8.29 7.65 8.29 7.64 7.44 8.13 8.00 7.90 7.69 8.01 8.13 7.94 7.52 8.10 7.89 7.74 8.33 8.22 7.58 7.71 7.47 7.80 8.02 7.69 7.83 8.00 8.12 8.34 7.62 8.41 7.46 7.66 8.20 8.05 8.41 7.94 8.25 7.90 7.60 8.17 7.47 7.52 8.22 7.49 8.12 7.84 7.84 8.25 8.27 7.51 7.62 7.95 8.23 7.54 7.89 7.86 7.98 -9999 -9999 -9999 -9999 -9999 -9999 -9999 -9999 -9999 -9999 -9999 -9999 -9999 -9999 -9999 -9999 -9999 -9999 -9999 -9999 -9999 -9999 -9999 -9999 -9999 -9999 -9999 -9999 -9999 -9999 -9999
7.99 7.86 7.53 8.12 8.30 8.40 7.73 8.22 8.05 7.86 7.65 7.51 7.89 8.19 7.54 7.47 8.27 8.07 7.45 8.20 7.95 7.85 7.94 8.03 7.71 7.64 8.26 7.56 8.00 7.79 7.51 8.31 7.47 7.53 8.23 8.27 8.33 7.59 7.83 7.76 8.28 8.37 7.87 7.49 7.98 7.64 7.53 7.60 7.71 8.43 7.98 8.40 8.29 7.98 7.68 7.49 8.37 8.03 8.12 7.75 8.15 8.18 8.24 7.76 7.87 7.68 8.09 8.39 7.61 8.21 7.61 7.55 8.38 7.90 7.77 8.33 8.10 8.23 8.27 7.85 7.95 7.88 7.62 7.44 7.71 7.65 7.55 7.76 7.49 8.01 7.85 7.46 7.86 8.05 8.38 7.87 8.42 7.70 8.09 7.94 7.90 7.65 8.28 7.71 7.95 7.79 8.34 8.06 8.18 8.38 7.72 7.59 7.66 7.51 7.60 8.26 7.88 8.03 8.38 7.91 8.37 8.42 8.18 7.51 8.23 7.68 7.44 7.56 7.45 8.43 7.87 8.27 7.59 8.36 8.01 7.57 8.05 7.66 7.97 7.46 8.11 7.52 7.72 7.65 7.48 8.25 8.23 8.35 7.71 7.91 7.59 7.98 7.79 7.93 8.02 7.98 7.94 7.71 7.94 8.32 8.41 8.23 8.01 7.51 8.19 8.26 8.19 7.59 7.52 7.61 8.28 7.51 8.21 8.28 7.77 7.76 8.13 7.77 7.61 7.93 8.01 7.93 8.01 8.06 -9999 -9999 -9999 -9999 -9999 -9999 -9999 -9999 -9999 -9999 -9999 -9999 -9999 -9999 -9999 -9999 -9999 -9999 -9999 -9999 -9999 -9999 -9999 -9999 -9999 -9999 -9999 -9999 -9999 -9999 -9999
7.74 8.01 8.04 8.17 7.50 7.47 7.76 7.72 7.74 8.40 8.06 8.28 8.38 8.40 7.90 8.20 8.17 8.37 7.63 8.10 8.37 8.09 7.56 8.28 7.67 7.47 7.89 8.37 7.54 7.52 8.31 7.95 8.42 7.87 7.99 8.05 8.04 7.93 7.59 7.95 8.28 8.31 8.17 8.39 7.44 8.03 8.10 8.03 7.81 8.14 8.41 7.82 8.03 7.72 7.67 8.26 8.19 7.77 8.01 8.22 7.87 7.72 8.39 7.97 8.04 7.88 8.43 8.27 8.01 7.60 8.35 7.49 7.51 7.81 7.51 7.72 7.68 7.72 8.35 8.37 8.35 8.31 7.50 7.62 8.29 8.15 7.82 8.07 8.33 8.33 7.91 8.35 8.24 8.18 7.72 8.25 7.50 8.12 7.47 7.68 7.67 7.47 7.81 8.26 8.24 8.18 8.31 8.42 8.31 8.13 7.77 7.69 8.24 7.76 7.72 8.17 7.51 8.19 7.45 7.59 7.93 8.10 8.10 7.95 7.48 7.53 7.67 7.88 8.21 8.36 8.22 7.64 7.49 7.81 8.22 7.67 7.92 7.92 7.70 8.11 8.25 8.06 8.22 7.79 7.72 7.84 8.08 8.40 8.01 7.92 8.19 7.73 7.55 7.70 8.25 7.91 8.24 7.76 8.25 7.66 7.46 7.52 8.25 7.89 7.85 7.73 8.09 8.06 8.39 8.29 8.02 8.11 8.30 8.11 7.97 7.77 8.18 8.24 7.50 7.77 8.16 7.87 7.61 8.10 -9999 -9999 -9999 -9999 -9999 -9999 -9999 -9999 -9999 -9999 -9999 -9999 -9999 -9999 -9999 -9999 -9999 -9999 -9999 -9999 -9999 -9999 -9999 -9999 -9999 -9999 -9999 -9999 -9999 -9999 -9999
7.84 7.66 7.55 8.23 7.63 7.73 7.74 8.09 8.00 7.99 7.82 7.90 8.12 7.59 7.77 8.05 8.43 8.35 7.98 7.95 7.72 7.53 7.71 8.18 7.82 7.46 7.60 7.95 8.32 7.54 7.72 7.91 8.20 7.86 8.31 8.31 7.65 7.56 8.06 8.02 8.02 7.50 8.01 7.98 8.24 7.74 7.71 8.03 8.06 7.71 8.33 8.18 8.42 8.21 7.54 8.03 7.87 8.42 8.04 7.88 8.13 7.50 7.54 7.88 7.56 8.42 7.90 7.53 7.92 8.12 8.14 8.33 7.44 7.56 7.59 7.48 7.71 7.45 8.36 7.69 7.76 8.09 8.42 8.22 7.59 8.15 8.22 7.45 8.30 7.94 7.56 7.70 7.88 8.29 7.60 7.98 8.21 8.36 7.79 8.29 8.33 8.37 7.71 7.53 7.68 7.98 8.11 7.55 8.30 8.06 7.96 7.44 8.29 7.62 7.59 7.80 7.60 7.87 7.54 7.93 8.11 7.66 7.72 7.46 8.15 8.02 8.01 7.47 7.53 8.18 8.36 8.32 8.04 8.06 7.49 7.78 7.89 8.43 8.15 7.82 8.21 7.95 7.84 7.96 7.48 7.54 8.04 7.57 7.69 8.36 7.59 8.17 7.89 7.65 8.27 7.72 7.64 7.92 8.03 7.46 7.61 8.40 7.88 7.93 7.63 8.41 7.76 8.09 8.40 8.24 8.33 7.67 8.21 7.48 7.92 7.46 7.48 7.89 8.17 8.19 7.60 7.91 7.74 7.89 -9999 -9999 -9999 -9999 -9999 -9999 -9999 -9999 -9999 -9999 -9999 -9999 -9999 -9999 -9999 -9999 -9999 -9999 -9999 -9999 -9999 -9999 -9999 -9999 -9999 -9999 -9999 -9999 -9999 -9999 -9999
8.34 7.81 7.53 8.30 7.51 7.73 8.27 7.45 8.09 7.47 7.81 8.09 7.52 7.49 8.29 7.84 8.27 8.12 8.35 7.65 8.14 8.07 8.17 7.95 7.72 7.87 7.76 8.34 8.15 7.44 8.32 7.83 7.53 7.52 7.71 8.17 7.76 7.58 7.68 7.99 8.01 7.81 8.26 8.28 8.19 8.07 8.35 7.50 7.75 8.09 8.41 7.60 8.11 8.26 8.19 8.23 7.81 8.38 7.46 7.62 7.94 7.89 7.60 8.22 7.66 8.18 7.73 7.95 8.34 7.85 8.30 7.86 8.34 7.52 7.46 7.57 7.56 7.59 8.31 7.61 7.57 8.39 7.47 7.53 7.48 8.07 8.04 8.39 8.41 7.52 7.72 8.25 8.08 8.21 7.82 7.95 8.06 7.70 7.87 7.63 7.83 7.51 7.57 7.64 7.96 7.61 7.81 7.91 7.68 7.88 7.52 7.89 8.34 8.19 8.11 8.01 8.42 8.17 8.42 7.52 7.44 8.19 8.13 7.55 7.74 8.24 8.07 7.97 8.22 7.96 8.18 7.63 8.17 7.76 8.04 8.02 7.45 7.53 8.19 8.39 8.10 7.82 8.21 7.85 7.66 8.04 8.34 7.52 8.18 7.88 7.81 7.64 8.29 8.13 7.74 8.29 7.72 7.87 8.00 7.63 8.07 7.82 8.01 8.23 7.80 8.09 8.43 7.87 7.96 8.36 7.61 7.46 7.82 7.81 8.40 8.14 7.55 8.12 8.01 7.73 8.42 8.01 8.34 7.86 -9999 -9999 -9999 -9999 -9999 -9999 -9999 -9999 -9999 -9999 -9999 -9999 -9999 -9999 -9999 -9999 -9999 -9999 -9999 -9999 -9999 -9999 -9999 -9999 -9999 -9999 -9999 -9999 -9999 -9999 -9999
8.04 7.76 7.83 8.00 7.76 7.89 7.99 7.65 8.40 7.78 8.19 8.16 8.36 7.77 7.51 8.30 8.43 7.68 7.60 8.08 7.92 7.81 7.48 7.46 7.92 8.21 8.22 7.73 7.79 7.60 8.04 7.90 7.59 7.77 7.80 7.61 8.17 8.30 7.73 7.74 8.02 8.42 8.15 8.38 7.52 7.93 7.97 8.37 7.98 8.32 8.42 8.18 8.30 8.10 8.35 7.93 7.93 8.00 8.10 7.61 7.99 7.46 8.00 8.37 8.08 8.03 7.92 7.98 7.57 8.01 7.65 7.80 7.84 7.43 8.24 8.32 8.31 8.18 7.48 7.75 7.72 7.59 8.15 7.53 7.89 7.84 7.69 7.55 7.91 7.46 7.75 8.20 8.08 7.66 7.95 7.68 8.36 8.08 8.09 8.25 7.99 7.91 7.66 7.67 8.25 7.80 7.83 7.75 8.29 8.38 7.87 8.22 8.39 7.73 8.12 7.57 8.02 7.72 8.16 8.15 8.42 8.17 7.63 7.99 8.10 7.67 8.43 8.21 7.65 8.09 7.69 7.56 8.13 7.67 8.05 8.35 7.88 8.38 7.74 7.62 7.59 8.19 7.53 7.47 7.52 8.27 7.62 7.50 7.96 7.57 7.91 7.79 8.00 8.32 7.86 8.41 8.41 7.70 7.76 8.29 8.19 8.41 7.77 7.47 7.45 8.43 7.61 8.02 7.58 7.62 7.85 7.58 7.88 8.16 8.26 8.29 8.19 8.15 8.41 8.22 7.54 8.21 7.45 7.84 7.81 -9999 -9999 -9999 -9999 -9999 -9999 -9999 -9999 -9999 -9999 -9999 -9999 -9999 -9999 -9999 -9999 -9999 -9999 -9999 -9999 -9999 -9999 -9999 -9999 -9999 -9999 -9999 -9999 -9999 -9999
7.63 7.96 7.96 8.26 8.20 8.08 7.61 7.87 7.47 7.93 7.60 7.60 8.39 7.51 8.38 7.93 7.50 8.37 8.12 7.95 7.57 8.16 8.12 7.90 7.60 7.90 7.77 7.82 8.30 8.42 8.39 8.08 8.02 8.25 7.74 7.75 8.06 7.92 7.59 8.01 8.19 7.56 8.20 7.60 8.26 7.72 8.29 7.92 8.28 8.39 7.45 8.02 8.35 7.46 7.76 8.05 8.13 8.39 7.53 7.77 7.62 8.36 7.70 7.89 8.21 7.95 7.53 7.78 8.12 7.45 7.84 7.69 8.10 8.13 7.55 8.27 7.45 7.55 8.37 8.24 8.38 8.22 7.56 8.19 7.53 8.13 8.01 8.13 7.88 7.86 8.23 8.03 8.19 8.02 7.96 8.17 7.82 8.34 7.61 7.88 7.98 7.90 7.63 8.01 7.88 8.40 8.19 8.39 7.84 8.19 7.90 8.32 7.87 7.74 7.61 7.58 8.10 8.29 7.78 7.60 7.95 8.43 8.18 7.73 7.68 7.83 8.00 8.19 8.20 7.74 7.79 7.50 8.42 8.31 7.81 8.21 7.69 7.78 8.23 7.55 7.97 8.33 7.72 8.20 7.79 7.80 7.89 7.61 8.32 8.20 7.89 8.20 7.96 7.64 7.53 8.05 7.45 8.41 7.64 7.68 7.72 8.14 8.12 7.69 8.38 7.97 7.94 7.96 8.41 7.97 7.64 8.14 8.01 7.89 8.01 7.71 8.18 8.41 7.43 8.08 7.74 7.76 8.15 8.10 8.31 -9999 -9999 -9999 -9999 -9999 -9999 -9999 -9999 -9999 -9999 -9999 -9999 -9999 -9999 -9999 -9999 -9999 -9999 -9999 -9999 -9999 -9999 -9999 -9999 -9999 -9999 -9999 -9999 -9999 -9999
7.50 7.52 7.97 7.64 8.42 7.51 7.76 8.31 8.01 8.03 7.53 7.93 7.75 7.72 8.14 7.76 7.57 7.99 8.06 8.31 8.15 7.73 7.97 8.26 8.18 7.77 7.64 7.78 8.33 7.64 7.84 7.95 7.90 7.92 7.96 7.75 8.04 7.49 8.16 7.56 8.02 8.23 8.34 8.07 7.74 8.26 7.60 8.22 8.05 7.61 8.42 7.88 8.18 7.64 7.78 7.73 7.87 8.12 7.93 8.09 7.46 8.02 8.15 8.14 8.35 7.71 7.85 7.77 8.09 8.05 7.44 8.03 7.62 8.31 7.63 7.68 8.12 7.93 8.16 8.19 8.24 8.12 8.26 7.93 8.34 8.04 8.06 7.64 8.06 8.14 7.47 7.63 7.72 8.11 8.28 7.49 8.14 7.46 8.14 7.84 7.75 8.43 7.53 8.08 8.31 7.70 7.91 7.67 8.08 7.73 7.46 8.24 7.71 7.90 7.73 7.87 7.50 7.61 7.69 8.29 8.19 8.32 7.52 7.63 7.83 7.81 8.24 7.88 8.28 7.56 7.51 8.03 7.87 8.28 7.50 7.61 8.03 7.80 8.05 8.36 7.61 8.02 8.27 8.18 7.48 7.85 8.41 8.17 7.96 7.81 7.84 8.40 7.99 7.99 7.56 7.80 7.44 7.96 7.77 7.43 7.95 8.38 7.78 8.43 8.33 7.78 8.35 8.31 8.18 7.66 7.84 8.20 7.86 8.15 8.39 8.26 8.39 8.09 8.29 7.59 7.57 7.73 8.33 8.14 7.81 -9999 -9999 -9999 -9999 -9999 -9999 -9999 -9999 -9999 -9999 -9999 -9999 -9999 -9999 -9999 -9999 -9999 -9999 -9999 -9999 -9999 -9999 -9999 -9999 -9999 -9999 -9999 -9999 -9999 -9999
7.63 8.39 8.17 8.14 8.43 8.24 8.25 7.67 8.17 8.40 7.88 7.96 7.82 8.03 7.80 8.43 7.54 7.79 8.00 8.21 7.53 7.47 7.81 7.63 7.74 7.63 7.58 8.31 8.25 7.59 7.80 7.68 8.01 8.15 7.51 8.37 8.14 8.07 7.64 8.19 7.56 7.93 7.48 8.34 8.35 7.85 8.18 7.44 8.42 7.79 8.38 8.09 7.45 7.87 8.28 8.14 7.90 8.26 8.34 7.63 8.19 8.15 8.28 7.49 7.54 8.06 8.34 8.19 8.19 7.75 7.77 7.57 7.84 7.54 8.33 7.81 7.61 8.11 7.71 8.15 7.67 8.27 7.68 7.46 8.38 7.62 7.44 7.55 8.21 8.37 7.94 8.32 7.64 7.86 8.27 7.77 8.40 7.91 8.10 7.70 7.45 8.00 7.67 7.45 8.12 7.78 8.07 7.89 8.42 7.51 8.10 7.73 7.60 8.01 7.52 7.96 8.13 7.93 8.02 8.30 8.20 7.78 8.29 7.51 7.95 8.07 8.18 7.46 7.71 8.12 7.78 8.17 7.71 7.73 7.61 8.03 8.26 8.00 8.30 7.67 8.15 8.13 8.26 7.92 7.95 7.58 7.61 7.73 8.03 7.64 7.52 8.15 8.29 7.88 8.11 7.85 7.54 7.76 8.12 7.77 8.09 7.66 7.44 8.39 7.61 8.02 8.01 7.52 7.65 8.02 8.38 7.96 7.77 7.78 7.98 8.34 7.83 7.71 7.87 8.23 8.15 7.88 8.21 7.70 7.62 -9999 -9999 -9999 -9999 -9999 -9999 -9999 -9999 -9999 -9999 -9999 -9999 -9999 -9999 -9999 -9999 -9999 -9999 -9999 -9999 -9999 -9999 -9999 -9999 -9999 -9999 -9999 -9999 -9999 -9999
8.11 7.64 7.81 8.28 8.18 8.22 7.66 8.14 8.14 7.88 8.13 8.08 7.56 7.88 8.33 7.67 8.29 7.68 7.61 8.20 7.68 7.87 7.90 7.83 7.75 7.46 7.93 7.59 8.34 7.46 8.13 8.27 7.72 7.93 8.35 7.66 7.61 7.55 8.04 8.15 7.94 7.91 7.64 7.78 8.18 7.77 7.76 7.56 7.70 8.02 7.56 8.03 7.66 7.99 7.47 8.31 7.47 8.33 7.71 8.17 7.59 8.16 8.31 7.59 7.71 8.41 8.37 8.43 7.77 7.78 8.26 7.72 7.62 7.61 7.68 7.51 7.71 7.83 8.21 7.99 7.44 7.83 7.94 8.31 7.61 7.53 7.73 8.29 8.17 8.43 8.27 7.58 8.13 8.25 7.48 7.91 8.43 7.49 7.91 8.15 7.79 7.69 7.87 8.08 7.81 8.11 7.89 7.49 7.80 7.66 7.52 8.02 7.51 8.07 8.38 7.68 8.00 7.78 8.30 8.36 8.17 8.15 7.48 8.43 7.96 7.73 8.09 7.91 7.77 7.88 7.89 8.15 7.74 8.25 8.08 7.68 7.92 8.33 7.55 8.24 8.14 8.09 7.84 7.51 7.93 7.70 7.85 7.95 8.24 8.32 7.69 8.05 7.98 7.55 8.33 8.30 7.64 7.72 7.99 7.66 8.31 8.08 8.13 7.65 8.32 7.64 7.49 7.92 7.63 8.42 7.54 7.87 7.62 7.65 8.19 8.23 7.64 7.99 8.18 8.37 8.41 8.09 7.59 7.98 8.25 -9999 -9999 -9999 -9999 -9999 -9999 -9999 -9999 -9999 -9999 -9999 -9999 -9999 -9999 -9999 -9999 -9999 -9999 -9999 -9999 -9999 -9999 -9999 -9999 -9999 -9999 -9999 -9999 -9999 -9999
8.20 7.68 7.50 8.19 8.40 8.00 7.53 8.10 7.51 7.55 8.12 7.91 7.86 7.66 7.58 7.93 8.40 7.76 8.36 7.88 7.64 8.38 7.96 8.31 7.47 7.81 8.19 8.19 7.97 7.85 8.36 7.82 7.94 8.03 7.93 8.26 7.55 7.79 7.84 8.18 7.71 7.88 7.84 8.28 7.92 7.83 8.18 7.67 8.06 7.45 7.98 7.86 7.47 7.86 7.44 7.96 7.50 7.53 8.20 8.18 7.81 7.91 7.62 7.87 7.70 8.22 8.11 7.77 7.76 7.67 8.37 8.19 7.95 7.97 8.12 8.14 7.75 7.74 8.01 7.79 8.28 7.72 7.99 7.90 7.64 7.96 7.47 7.73 8.18 8.11 8.10 8.43 8.39 8.27 7.62 7.75 8.34 7.62 8.38 7.53 8.33 8.13 8.19 7.78 8.22 8.02 7.65 7.76 7.59 7.58 7.60 7.61 8.16 8.34 7.44 7.59 7.81 7.54 7.78 7.82 7.62 7.76 8.42 7.67 8.29 7.45 7.93 7.57 8.08 7.86 7.55 8.15 8.11 8.16 7.73 7.88 7.93 7.91 8.33 7.59 8.20 7.99 7.91 7.58 7.53 7.96 8.43 8.15 7.87 7.91 8.41 8.03 7.81 7.52 7.82 8.26 8.01 7.73 7.82 8.41 8.10 7.67 7.85 8.42 7.62 7.77 8.04 8.04 7.67 7.81 7.60 8.31 7.73 8.33 8.34 7.56 7.44 8.29 8.25 8.19 7.91 7.64 8.42 8.31 8.13 -9999 -9999 -9999 -9999 -9999 -9999 -9999 -9999 -9999 -9999 -9999 -9999 -9999 -9999 -9999 -9999 -9999 -9999 -9999 -9999 -9999 -9999 -9999 -9999 -9999 -9999 -9999 -9999 -9999 -9999
8.20 7.44 7.48 8.38 7.52 8.14 8.36 7.58 8.12 7.77 8.12 8.39 8.04 7.55 8.27 7.81 7.48 8.38 7.53 8.16 8.12 8.32 7.91 8.34 8.43 7.71 8.22 7.78 7.68 7.97 8.36 8.01 7.99 8.29 8.31 8.13 7.65 7.63 8.24 7.99 8.34 7.56 7.97 8.15 8.12 7.74 8.03 7.67 7.86 7.96 7.60 7.48 7.94 7.93 7.56 8.27 7.92 8.31 8.16 7.89 8.36 7.97 7.75 7.80 7.50 8.43 8.30 7.89 8.00 7.88 7.97 8.41 8.43 7.96 7.56 8.11 8.05 8.41 8.10 8.25 7.53 8.39 7.80 7.87 7.89 7.54 7.89 7.88 8.33 7.49 7.50 7.71 7.64 8.34 8.14 7.77 8.30 8.26 7.96 7.76 7.50 7.74 8.41 7.64 8.35 8.04 7.67 7.46 7.90 7.73 7.98 7.84 8.10 7.97 7.55 7.71 7.56 7.99 7.64 7.61 7.78 8.19 7.96 8.33 7.53 7.52 8.06 8.00 8.43 7.62 7.45 7.67 8.37 7.53 8.17 7.62 7.78 8.22 8.05 7.51 7.60 8.23 7.68 8.29 8.38 7.65 7.77 7.83 7.83 8.34 7.94 7.94 8.06 8.31 8.41 7.75 8.18 8.10 8.02 7.79 7.44 8.05 7.60 8.36 8.32 7.80 8.29 8.02 8.27 8.31 8.19 7.77 7.85 7.80 7.48 8.35 8.37 7.80 7.52 7.75 8.37 7.47 8.07 8.00 7.66 8.11 -9999 -9999 -9999 -9999 -9999 -9999 -9999 -9999 -9999 -9999 -9999 -9999 -9999 -9999 -9999 -9999 -9999 -9999 -9999 -9999 -9999 -9999 -9999 -9999 -9999 -9999 -9999 -9999 -9999
8.02 7.56 7.80 8.39 8.05 8.35 7.90 8.18 7.96 7.83 8.37 8.01 7.70 8.03 7.72 7.83 8.23 7.90 7.66 7.45 7.85 8.22 7.93 7.62 7.62 8.33 7.60 8.05 8.28 7.44 7.75 7.50 7.48 7.49 7.53 8.33 7.92 7.52 8.04 7.86 7.90 8.35 8.25 8.30 7.57 8.30 8.15 8.22 8.15 8.37 8.42 7.46 7.68 7.52 8.40 8.20 8.03 7.54 7.91 7.62 7.69 7.74 8.03 7.92 7.59 7.49 7.87 7.77 8.32 7.81 7.86 7.75 8.06 7.66 8.29 8.34 7.47 8.00 7.53 8.42 7.81 7.64 7.90 7.88 8.17 8.24 7.96 8.06 8.19 8.13 8.30 7.63 8.21 8.10 7.55 8.02 7.61 8.41 7.77 8.42 7.44 8.40 7.54 7.43 7.65 7.83 7.60 7.98 7.60 7.69 8.29 7.85 7.68 8.23 7.58 7.63 8.32 8.27 7.85 8.42 7.74 7.51 7.60 7.69 7.70 8.41 8.06 8.08 8.22 8.16 7.73 7.76 8.08 8.35 7.55 7.49 7.53 7.67 7.50 7.58 7.88 7.99 8.40 7.46 8.16 7.82 8.32 8.31 7.44 8.09 8.37 7.66 8.11 7.93 7.92 8.22 8.01 8.43 7.80 7.94 8.08 7.79 7.97 7.50 8.35 8.24 8.04 7.64 8.11 7.50 8.24 7.76 8.03 8.25 8.05 8.01 8.40 7.65 8.05 8.40 8.24 7.59 7.97 7.66 7.71 8.21 -9999 -9999 -9999 -9999 -9999 -9999 -9999 -9999 -9999 -9999 -9999 -9999 -9999 -9999 -9999 -9999 -9999 -9999 -9999 -9999 -9999 -9999 -9999 -9999 -9999 -9999 -9999 -9999 -9999
7.73 7.90 7.62 7.74 7.73 7.80 7.83 7.75 7.89 8.04 8.13 8.32 7.90 8.04 7.43 7.44 8.40 7.73 8.23 8.19 7.86 8.01 7.83 8.07 7.75 7.71 7.76 7.93 7.60 8.24 7.66 7.82 8.36 7.65 7.69 7.56 8.39 8.01 7.54 8.21 7.44 7.85 8.18 7.96 8.29 7.44 8.12 7.58 7.64 7.61 7.84 8.15 8.00 7.78 8.18 7.44 7.90 8.09 8.42 7.87 8.29 8.02 7.46 7.51 7.57 8.16 7.69 7.81 7.48 7.91 7.70 8.24 8.01 7.44 8.04 7.53 8.19 7.96 7.52 8.24 8.34 7.49 7.61 8.11 7.47 7.98 8.15 8.27 7.58 7.71 7.57 7.82 7.59 7.81 7.85 8.10 8.24 7.93 8.03 7.47 8.22 8.36 8.05 7.74 8.28 7.50 8.36 7.57 8.07 7.56 8.10 7.92 7.50 8.22 7.45 8.12 8.20 7.79 7.88 8.30 7.68 8.01 7.74 7.79 8.26 8.40 7.46 8.00 8.16 8.01 7.88 8.01 8.10 8.42 8.09 7.72 7.51 8.20 8.07 8.07 7.67 7.85 7.72 7.53 8.07 7.66 8.28 7.98 8.30 7.60 8.26 7.46 8.29 8.39 7.57 7.84 7.64 8.15 7.88 8.02 7.82 7.78 7.61 8.32 8.40 8.28 8.40 8.15 7.46 7.58 8.31 7.59 7.46 7.59 7.72 8.41 7.99 8.08 8.26 7.72 7.66 8.09 7.51 8.00 7.57 7.61 -9999 -9999 -9999 -9999 -9999 -9999 -9999 -9999 -9999 -9999 -9999 -9999 -9999 -9999 -9999 -9999 -9999 -9999 -9999 -9999 -9999 -9999 -9999 -9999 -9999 -9999 -9999 -9999 -9999
7.72 7.75 8.04 7.64 7.68 7.49 7.61 7.66 7.74 8.15 7.59 7.80 7.78 8.00 7.44 8.02 7.88 8.35 7.65 8.36 7.88 8.28 8.10 7.94 8.33 8.43 8.28 7.69 8.03 8.33 8.26 8.06 8.36 7.83 7.75 7.83 7.48 8.25 8.06 7.56 7.67 7.97 7.75 8.10 8.02 7.91 7.56 7.80 8.33 7.69 7.97 8.09 8.41 7.96 7.53 8.09 7.68 8.04 7.65 7.58 8.17 7.53 7.89 8.36 7.66 8.11 8.21 8.01 8.32 7.92 7.73 8.03 7.64 7.96 8.28 8.18 7.92 8.15 8.23 7.98 8.19 8.22 7.64 8.40 7.64 7.52 8.38 8.10 7.72 7.61 8.25 8.10 7.58 8.33 7.49 7.65 8.06 7.63 7.77 7.83 8.17 8.15 7.46 7.96 7.73 8.30 7.96 8.41 8.29 7.70 7.55 7.98 7.97 8.08 8.24 7.47 7.95 7.80 7.65 7.57 8.14 8.37 8.22 7.74 7.46 7.69 7.86 8.28 7.92 8.35 8.03 8.04 8.04 7.94 7.48 7.50 7.90 7.54 7.52 7.76 7.73 8.20 8.15 7.77 7.64 7.46 7.74 8.15 7.98 8.37 7.53 8.31 8.15 7.47 8.43 8.38 8.05 7.84 7.61 8.05 7.73 7.59 7.72 8.42 7.84 8.01 8.05 8.11 7.67 7.51 7.64 7.44 7.92 7.93 7.85 8.07 7.60 7.50 7.81 7.48 7.59 7.68 7.75 7.65 8.22 7.87 -9999 -9999 -9999 -9999 -9999 -9999 -9999 -9999 -9999 -9999 -9999 -9999 -9999 -9999 -9999 -9999 -9999 -9999 -9999 -9999 -9999 -9999 -9999 -9999 -9999 -9999 -9999 -9999 -9999
8.22 7.89 8.41 8.22 7.44 7.90 8.25 7.78 8.14 7.88 8.03 7.69 7.84 7.82 7.82 7.78 7.99 8.08 8.34 8.25 7.71 8.16 8.41 7.66 7.78 8.06 8.08 8.19 8.40 7.75 7.47 7.97 7.80 7.52 7.48 8.34 8.26 8.11 8.11 8.09 8.01 7.91 7.67 8.10 7.98 7.96 8.42 8.09 7.53 7.47 8.20 7.75 8.21 8.36 7.81 7.84 7.82 7.97 8.27 8.31 8.26 7.79 8.13 8.00 7.78 7.81 7.66 7.60 8.33 8.29 8.13 7.98 7.52 8.13 7.67 8.42 8.19 8.43 7.77 8.42 8.04 7.62 7.76 8.03 7.80 7.74 8.36 7.86 8.25 8.07 7.64 8.17 7.79 8.08 7.52 7.45 7.78 7.51 7.95 8.26 7.85 7.77 8.38 8.05 7.46 8.00 7.76 7.60 7.61 8.34 7.63 7.97 7.85 8.34 8.09 8.03 8.32 7.89 7.61 8.33 7.51 7.92 8.20 7.68 8.10 7.46 8.23 7.50 7.61 8.09 7.62 7.80 8.27 7.59 7.70 7.53 7.54 8.36 8.38 7.89 7.84 7.56 7.76 8.03 8.41 7.63 8.07 8.09 8.06 8.30 8.31 7.89 8.22 7.92 7.73 7.87 7.78 8.03 7.97 7.50 7.60 7.81 8.42 7.99 8.05 7.51 7.83 8.36 7.93 7.94 8.41 8.09 7.68 8.00 8.29 7.53 7.65 7.89 7.69 8.40 8.40 8.42 8.10 7.68 7.98 8.27 -9999 -9999 -9999 -9999 -9999 -9999 -9999 -9999 -9999 -9999 -9999 -9999 -9999 -9999 -9999 -9999 -9999 -9999 -9999 -9999 -9999 -9999 -9999 -9999 -9999 -9999 -9999 -9999 -9999
7.86 7.76 7.84 7.71 7.73 8.33 7.78 7.44 7.90 8.42 7.46 7.71 7.58 7.45 7.52 7.91 8.40 8.00 7.68 8.26 7.98 7.96 8.40 7.79 7.79 8.16 8.39 7.57 7.86 7.90 8.10 8.30 7.92 7.48 7.97 8.20 8.43 8.38 7.94 7.86 7.71 8.16 8.13 7.65 7.63 8.35 8.40 8.25 8.11 8.24 8.34 8.34 8.37 7.45 7.61 7.52 8.30 7.54 7.77 7.81 8.12 8.32 7.51 7.47 7.95 7.84 7.88 7.64 8.18 7.75 8.08 8.32 7.72 7.64 7.76 8.12 8.07 7.63 7.87 8.21 7.95 7.67 7.80 7.53 8.24 7.63 7.87 7.54 7.56 7.82 7.84 8.24 7.55 7.95 8.33 7.69 8.06 8.28 8.02 8.32 7.63 7.87 8.43 7.57 7.79 7.45 8.19 8.30 8.38 7.87 8.37 7.44 8.34 8.36 7.84 7.76 8.37 7.74 8.26 8.05 8.21 7.92 8.17 8.20 7.76 8.13 8.02 8.12 7.76 8.04 7.88 7.77 7.83 8.11 8.35 7.45 7.46 8.31 7.68 7.45 7.69 8.26 7.48 7.96 8.18 8.41 7.65 8.28 8.34 8.17 8.25 8.34 8.33 8.24 7.84 7.73 8.09 7.67 8.16 8.38 8.36 8.03 8.05 7.78 7.57 8.13 7.98 8.24 8.28 8.10 7.59 8.30 8.02 8.24 7.97 7.98 8.06 8.03 7.75 8.38 8.05 8.16 7.61 8.11 8.31 7.95 -9999 -9999 -9999 -9999 -9999 -9999 -9999 -9999 -9999 -9999 -9999 -9999 -9999 -9999 -9999 -9999 -9999 -9999 -9999 -9999 -9999 -9999 -9999 -9999 -9999 -9999 -9999 -9999 -9999
8.36 7.77 8.10 7.66 7.96 8.29 8.01 8.31 7.54 7.64 8.31 7.78 8.07 7.43 7.51 8.36 8.07 8.33 7.79 7.95 8.18 7.74 7.61 7.52 7.48 8.00 7.60 8.28 7.56 7.82 7.54 7.61 7.69 8.28 7.91 8.13 8.29 8.16 7.75 7.60 8.10 8.27 8.20 8.33 8.08 7.47 8.31 7.85 8.31 7.64 7.67 8.38 7.66 7.94 7.50 7.80 7.60 7.77 7.58 7.94 8.03 7.90 8.24 7.73 8.33 7.76 7.56 8.27 8.16 8.30 7.76 7.84 7.58 8.13 7.85 7.72 7.83 8.24 8.40 8.43 8.03 7.77 7.78 7.52 7.64 7.59 8.12 7.78 8.30 8.36 7.75 7.70 8.11 7.87 7.72 7.55 8.01 7.97 8.00 7.91 7.92 7.66 8.10 8.40 7.72 7.89 7.61 8.01 7.99 8.23 7.66 8.00 8.22 8.22 7.46 8.20 7.62 7.61 7.98 8.07 7.78 7.89 7.66 8.22 8.23 7.44 7.55 8.19 7.50 8.12 8.13 7.76 7.43 8.28 8.27 7.99 8.04 8.10 7.99 8.28 7.73 8.11 7.44 8.29 8.15 7.66 7.60 7.97 8.43 7.69 8.19 7.90 7.60 8.35 7.97 7.76 8.40 8.40 8.26 7.56 7.79 8.26 7.47 8.16 7.70 8.14 8.08 8.03 7.95 7.81 8.10 8.22 8.23 7.63 7.49 7.81 8.11 7.96 8.29 7.46 7.79 7.84 7.65 7.91 8.25 7.74 7.49 -9999 -9999 -9999 -9999 -9999 -9999 -9999 -9999 -9999 -9999 -9999 -9999 -9999 -9999 -9999 -9999 -9999 -9999 -9999 -9999 -9999 -9999 -9999 -9999 -9999 -9999 -9999 -9999
7.50 7.56 7.87 7.51 7.68 8.26 8.21 8.26 7.82 7.97 8.14 8.04 7.59 8.19 8.31 7.46 8.24 7.48 7.45 8.19 8.19 7.88 8.23 7.46 8.43 7.69 7.74 8.19 7.45 7.62 7.96 8.21 7.97 8.07 7.71 7.97 8.24 7.48 8.11 7.86 8.24 7.50 7.50 7.81 8.14 8.02 7.77 7.59 8.16 7.54 7.68 7.61 7.69 7.95 7.51 8.13 8.03 7.68 8.40 8.29 8.38 8.01 8.29 7.54 8.26 7.75 7.90 8.02 8.20 8.26 8.27 8.35 8.33 7.96 8.32 7.86 8.38 7.67 8.14 8.37 8.04 7.81 7.68 8.39 7.44 8.13 8.07 8.27 7.59 7.65 7.47 7.60 7.90 8.05 8.19 8.13 8.09 7.53 7.65 7.68 8.23 8.32 8.15 7.94 7.62 7.89 8.06 8.10 8.37 8.17 8.05 8.33 7.50 8.34 7.77 8.36 7.65 8.23 8.26 8.25 7.94 7.48 8.34 7.79 7.97 8.17 7.63 7.84 8.22 8.30 7.74 7.70 8.20 8.31 8.18 8.30 8.30 8.06 7.98 7.59 7.95 7.80 8.30 7.46 7.92 7.85 8.00 8.12 7.93 8.34 8.34 8.07 7.90 8.05 7.94 8.38 8.01 7.83 7.51 7.76 7.94 8.14 8.04 8.29 7.44 7.89 8.04 8.06 8.04 7.93 7.84 8.18 8.11 7.86 7.62 8.26 7.58 7.88 7.82 7.73 8.40 7.84 8.38 8.27 8.19 8.06 7.66 -9999 -9999 -9999 -9999 -9999 -9999 -9999 -9999 -9999 -9999 -9999 -9999 -9999 -9999 -9999 -9999 -9999 -9999 -9999 -9999 -9999 -9999 -9999 -9999 -9999 -9999 -9999 -9999
7.93 7.46 7.97 7.55 7.71 7.62 7.60 8.12 7.88 8.42 7.66 7.99 7.86 7.43 8.21 7.89 7.54 7.94 8.09 8.06 7.89 8.34 7.85 8.28 7.51 8.10 8.33 7.90 8.33 7.43 8.11 8.41 7.93 7.87 7.51 8.18 7.87 8.31 7.72 8.01 8.13 7.60 7.56 8.43 8.17 7.50 8.36 7.72 7.86 7.56 7.65 7.63 8.34 8.41 8.42 7.52 7.66 8.23 7.89 7.86 7.96 8.38 8.40 7.98 8.42 7.53 8.20 8.03 7.71 7.53 8.00 7.48 8.19 8.31 7.88 7.92 7.76 8.08 8.04 7.98 7.46 7.70 7.70 8.43 7.95 8.08 7.88 8.23 8.12 7.79 7.53 8.21 8.27 7.61 7.49 8.41 7.52 7.46 7.73 7.82 7.67 8.43 8.02 7.71 8.43 7.81 8.22 8.41 7.50 7.61 8.38 8.04 7.65 8.26 7.74 8.42 8.18 8.22 7.55 7.86 7.55 8.28 7.81 7.56 7.59 8.08 8.24 8.10 7.50 7.82 7.44 8.13 8.17 7.94 8.42 7.84 7.76 7.97 8.25 7.75 7.75 7.48 8.20 7.86 7.59 8.30 7.79 8.15 8.25 7.71 7.62 7.57 7.50 7.64 8.21 7.84 7.86 7.88 7.93 7.93 7.58 7.87 7.62 7.52 8.19 8.02 7.44 7.53 8.24 7.90 7.87 7.76 7.81 8.31 8.42 8.31 7.45 8.16 7.94 8.34 8.03 7.66 7.57 7.55 7.72 7.56 7.95 -9999 -9999 -9999 -9999 -9999 -9999 -9999 -9999 -9999 -9999 -9999 -9999 -9999 -9999 -9999 -9999 -9999 -9999 -9999 -9999 -9999 -9999 -9999 -9999 -9999 -9999 -9999 -9999
7.70 7.84 8.14 7.94 7.77 8.33 7.88 8.38 7.81 7.96 8.14 7.93 7.69 7.70 8.20 7.54 8.28 7.54 8.23 8.18 7.58 8.27 8.10 7.69 8.41 8.35 7.71 8.42 8.03 8.41 7.88 8.15 7.82 8.40 7.60 8.10 8.14 7.81 8.41 8.39 7.54 7.85 7.91 8.30 8.26 8.21 8.04 8.25 7.97 8.23 7.99 7.87 7.98 8.21 7.62 8.05 7.58 7.90 7.46 8.20 8.21 8.17 7.79 7.92 7.88 7.66 7.66 8.43 8.30 7.60 8.15 7.83 7.65 8.07 7.75 7.78 7.90 7.94 7.83 7.95 7.62 8.43 7.85 7.67 8.30 7.97 7.93 7.91 7.43 8.01 8.35 7.73 8.27 7.92 7.93 7.79 7.77 7.84 8.19 8.43 7.52 8.18 8.14 8.41 7.75 8.33 7.87 7.91 7.92 7.85 8.00 7.74 7.90 7.83 7.80 7.60 7.73 8.25 7.83 8.42 7.48 7.50 7.87 8.36 7.55 8.18 7.96 7.63 7.46 8.30 8.16 8.22 7.58 7.53 8.09 7.62 8.22 8.30 8.17 8.37 8.31 7.56 8.34 7.61 8.39 7.44 8.41 7.87 7.63 7.64 7.78 7.82 7.93 7.67 8.03 7.73 8.10 8.24 8.11 8.19 8.02 8.41 7.46 8.25 7.67 8.00 8.18 8.05 8.13 8.07 7.55 7.56 7.80 7.85 7.44 8.31 7.60 8.43 7.56 7.46 8.30 8.15 8.40 8.22 7.53 8.03 8.11 -9999 -9999 -9999 -9999 -9999 -9999 -9999 -9999 -9999 -9999 -9999 -9999 -9999 -9999 -9999 -9999 -9999 -9999 -9999 -9999 -9999 -9999 -9999 -9999 -9999 -9999 -9999 -9999
8.25 7.73 7.47 7.90 8.26 8.09 8.23 8.29 7.58 8.19 8.40 7.83 8.28 8.37 8.00 8.07 7.59 7.52 7.59 7.70 8.35 8.02 7.99 7.86 8.12 7.97 7.65 7.67 8.36 8.16 8.01 7.57 8.00 7.92 7.83 7.90 7.85 8.38 7.56 8.00 7.63 7.53 7.47 7.58 7.79 7.83 8.07 7.76 7.68 8.02 8.16 7.73 8.07 8.09 8.38 8.43 7.45 8.14 7.53 8.41 8.09 8.06 7.61 8.19 8.22 7.81 7.77 7.53 8.29 8.08 7.74 8.37 7.46 7.95 7.44 7.86 7.95 8.21 7.55 8.40 7.62 8.19 8.23 7.59 8.05 8.28 7.98 8.27 7.95 7.70 7.68 8.11 7.64 8.28 7.62 7.61 8.15 8.12 8.26 8.27 7.96 7.68 8.01 8.31 7.99 8.35 8.37 7.73 7.81 7.93 7.57 7.55 7.54 7.66 8.23 7.54 7.59 7.65 7.46 7.61 7.82 7.71 8.28 8.21 7.77 8.02 8.31 8.11 7.94 7.83 8.07 7.58 8.00 7.51 7.63 7.60 7.59 7.84 7.59 7.63 7.84 8.08 7.86 7.68 7.60 8.13 8.41 7.45 7.82 7.94 8.38 8.02 8.20 7.57 8.28 7.67 8.04 8.39 7.93 8.43 7.94 7.72 8.12 8.17 7.73 7.72 8.05 8.42 8.07 8.11 7.89 8.40 7.47 7.63 7.62 7.97 8.08 8.20 7.56 8.03 7.77 8.31 8.06 7.98 8.03 8.12 8.26 -9999 -9999 -9999 -9999 -9999 -9999 -9999 -9999 -9999 -9999 -9999 -9999 -9999 -9999 -9999 -9999 -9999 -9999 -9999 -9999 -9999 -9999 -9999 -9999 -9999 -9999 -9999 -9999
8.20 7.80 7.59 8.29 7.76 7.45 7.85 8.29 8.18 7.75 8.03 8.26 8.15 7.85 7.81 8.08 8.18 7.83 7.75 7.77 7.84 8.24 8.17 8.40 8.21 7.57 7.68 7.45 7.80 7.82 7.96 8.36 8.32 7.64 7.50 8.34 8.43 8.33 8.01 8.08 7.87 8.36 8.12 8.30 8.32 8.18 8.34 7.51 7.80 7.84 7.46 7.50 7.53 7.81 8.16 8.00 7.82 8.21 8.09 7.79 7.55 8.42 7.54 7.78 7.73 7.46 7.53 8.25 8.12 7.84 8.05 7.45 7.83 8.20 7.92 7.84 7.94 8.01 7.71 7.51 8.07 7.51 7.70 8.13 7.78 7.50 8.31 7.65 8.17 8.39 8.20 7.80 7.98 7.48 8.20 8.31 8.08 7.69 8.04 8.07 8.29 7.93 7.81 7.61 7.61 8.38 7.96 8.06 8.30 8.16 7.78 8.09 7.85 8.23 8.09 7.47 8.35 8.09 8.16 8.36 7.72 8.06 8.13 7.99 7.71 7.61 7.81 7.96 8.43 7.90 8.17 7.60 7.54 8.26 8.42 8.21 7.72 7.58 7.48 8.43 7.56 7.96 7.60 8.27 7.96 8.02 8.39 8.19 7.80 7.72 8.13 7.88 7.81 7.69 7.55 8.15 8.37 7.90 7.98 7.95 7.97 7.63 7.90 7.55 8.14 8.37 8.12 7.66 7.80 8.00 7.79 7.72 7.64 7.87 7.89 7.56 7.65 8.41 7.78 7.96 7.61 7.83 7.89 8.36 8.08 8.37 8.15 -9999 -9999 -9999 -9999 -9999 -9999 -9999 -9999 -9999 -9999 -9999 -9999 -9999 -9999 -9999 -9999 -9999 -9999 -9999 -9999 -9999 -9999 -9999 -9999 -9999 -9999 -9999 -9999
7.79 8.06 8.29 8.23 7.74 8.35 7.70 8.33 8.29 8.39 7.63 8.04 8.20 7.79 7.88 8.03 8.12 7.46 8.21 7.46 7.82 8.32 7.83 8.17 7.51 8.18 7.91 7.81 8.12 7.59 8.31 8.27 8.00 7.59 7.88 8.13 7.63 8.31 7.91 7.47 8.07 8.36 7.51 7.82 8.16 7.87 7.99 8.32 7.51 8.08 7.72 7.94 8.29 7.48 7.79 8.17 7.96 7.68 8.15 8.01 8.19 7.86 7.89 7.46 7.62 7.50 7.96 7.96 7.57 7.78 8.24 8.22 7.73 8.34 7.72 7.71 7.73 8.27 8.07 8.17 7.44 8.05 7.85 8.18 8.36 8.18 8.07 8.43 7.62 8.36 8.31 7.49 7.44 7.83 8.31 8.24 8.04 8.25 8.28 7.97 8.00 7.88 8.17 8.11 7.45 8.41 8.34 8.35 7.69 8.03 7.54 7.44 8.09 8.12 7.90 7.47 8.14 8.05 8.39 8.10 7.61 8.38 8.39 7.46 7.99 7.72 8.30 8.08 7.80 8.36 8.40 7.54 8.34 7.67 8.37 8.10 7.84 8.17 7.95 7.90 7.67 7.93 7.68 7.49 7.93 7.73 7.96 8.42 7.48 7.45 8.06 7.75 8.17 7.93 8.28 7.89 7.62 7.53 7.75 7.66 7.83 7.73 8.36 7.80 8.04 8.19 8.06 7.91 7.45 7.65 7.91 7.58 7.86 8.28 8.03 8.07 8.14 8.31 8.09 7.60 7.94 8.39 7.47 8.18 8.33 7.56 7.77 8.17 -9999 -9999 -9999 -9999 -9999 -9999 -9999 -9999 -9999 -9999 -9999 -9999 -9999 -9999 -9999 -9999 -9999 -9999 -9999 -9999 -9999 -9999 -9999 -9999 -9999 -9999 -9999
7.99 8.15 8.10 7.54 8.37 7.58 7.65 8.33 7.65 8.24 7.48 8.13 8.39 8.26 7.45 7.54 7.97 8.13 8.04 7.59 7.74 8.19 8.22 7.58 7.84 7.47 8.10 7.84 8.32 8.24 8.16 8.17 7.96 8.37 7.80 8.38 8.24 8.14 7.77 7.88 7.81 7.58 7.87 7.49 7.46 8.42 8.11 7.94 7.61 7.55 8.26 7.45 7.72 7.96 8.02 8.38 7.58 8.38 8.11 7.99 8.10 8.21 8.19 8.00 8.42 8.08 7.90 8.35 8.32 8.29 8.35 7.90 7.97 8.41 8.09 7.81 7.81 8.17 7.49 8.30 8.41 7.91 7.59 7.67 7.52 8.26 8.33 7.53 7.52 7.44 7.88 8.01 8.29 7.63 7.69 8.20 8.15 8.36 7.82 7.45 8.32 7.95 8.13 7.82 7.58 8.31 7.61 8.16 7.76 8.35 7.73 7.46 8.41 7.81 8.23 8.36 7.65 8.08 7.97 7.94 7.99 8.10 8.01 8.25 7.68 7.45 8.27 8.09 7.50 7.72 8.08 7.89 7.54 7.68 8.10 7.61 7.47 7.76 8.20 7.69 8.19 7.46 8.19 8.24 8.19 7.55 8.31 7.92 8.31 8.27 8.07 7.76 8.18 8.42 8.14 8.09 8.02 8.21 8.39 8.19 7.71 8.05 7.70 7.89 8.22 7.53 7.57 7.55 8.18 7.65 8.04 7.49 7.66 7.56 7.55 7.90 7.81 8.38 7.66 7.54 7.68 7.90 7.85 7.45 7.70 8.05 8.16 8.28 -9999 -9999 -9999 -9999 -9999 -9999 -9999 -9999 -9999 -9999 -9999 -9999 -9999 -9999 -9999 -9999 -9999 -9999 -9999 -9999 -9999 -9999 -9999 -9999 -9999 -9999 -9999
8.04 8.41 7.54 7.90 8.16 7.75 8.01 8.34 7.49 8.03 8.39 7.95 7.77 8.33 7.45 8.02 8.08 8.12 7.97 7.73 8.21 8.20 8.00 8.10 8.17 7.75 7.83 8.19 8.12 7.63 7.56 7.49 7.64 7.70 8.09 8.30 8.18 7.98 7.59 7.57 7.86 8.16 8.08 7.69 8.33 8.35 7.63 8.38 8.11 8.08 7.51 7.71 7.59 7.48 7.76 7.51 7.78 8.24 7.70 8.03 8.13 8.27 7.53 7.82 8.23 8.16 8.42 7.94 8.28 8.05 7.49 7.54 8.39 7.55 7.59 8.17 7.67 7.88 8.07 7.46 7.71 7.73 7.86 7.56 7.91 7.88 7.95 8.40 7.74 7.90 7.62 8.31 7.82 7.51 7.76 8.40 7.87 8.07 7.95 7.50 7.84 8.43 7.46 8.18 8.32 7.89 8.03 7.91 7.44 8.11 8.24 7.77 8.14 8.12 7.83 8.13 8.18 7.54 7.87 7.83 8.23 7.88 8.12 7.91 7.93 8.41 8.35 7.88 7.95 7.92 7.67 8.40 8.04 8.25 8.23 7.59 7.71 8.02 8.16 8.23 7.57 7.89 8.35 7.89 7.50 7.62 8.02 7.47 8.03 7.87 7.48 8.21 8.07 8.16 8.04 8.08 7.49 7.53 7.96 8.32 8.41 8.13 7.83 8.12 7.71 7.63 8.17 7.53 8.43 7.71 7.84 7.69 8.06 8.38 8.37 7.54 7.89 7.59 7.62 7.79 8.19 7.70 7.84 7.94 7.57 8.10 8.08 7.57 -9999 -9999 -9999 -9999 -9999 -9999 -9999 -9999 -9999 -9999 -9999 -9999 -9999 -9999 -9999 -9999 -9999 -9999 -9999 -9999 -9999 -9999 -9999 -9999 -9999 -9999 -9999
8.27 8.05 8.42 7.73 8.07 7.95 7.59 7.64 7.81 8.29 8.01 7.71 7.76 8.26 7.64 7.50 7.46 7.78 7.66 8.42 8.18 8.42 7.58 7.79 7.95 7.93 8.41 8.28 7.69 8.03 7.80 8.13 8.04 8.11 7.98 8.41 8.13 7.84 8.17 8.43 7.47 8.43 8.26 8.13 7.97 8.31 8.08 7.66 7.57 8.26 7.63 7.65 7.84 8.15 8.38 7.77 7.73 8.43 7.75 7.48 7.66 7.85 7.65 7.46 7.43 8.43 7.90 7.68 8.40 8.31 7.52 8.24 7.77 8.34 7.49 7.91 7.89 8.37 7.91 8.07 8.23 7.93 7.67 7.84 7.44 8.39 7.80 7.60 8.42 8.00 8.06 7.73 8.13 7.50 8.02 8.13 7.66 8.40 7.77 8.37 8.15 8.00 8.14 8.22 7.67 8.25 7.59 8.05 8.00 7.48 8.26 7.62 7.66 7.46 8.41 7.85 7.61 7.75 7.88 7.64 7.44 7.60 8.43 8.12 7.93 8.41 7.67 8.33 8.00 8.19 8.04 7.73 8.36 8.28 7.54 7.89 7.82 8.01 8.23 8.01 7.88 8.14 8.28 7.67 8.40 8.05 7.67 8.29 8.10 8.31 7.66 8.23 7.58 7.71 8.24 8.16 8.17 7.95 8.40 7.79 7.72 8.12 8.12 7.44 7.59 8.36 7.77 7.60 7.46 7.71 7.55 7.97 8.04 8.03 7.87 7.60 7.59 8.39 8.13 8.20 7.79 7.66 7.98 7.77 8.18 7.80 7.50 8.39 -9999 -9999 -9999 -9999 -9999 -9999 -9999 -9999 -9999 -9999 -9999 -9999 -9999 -9999 -9999 -9999 -9999 -9999 -9999 -9999 -9999 -9999 -9999 -9999 -9999 -9999 -9999
7.67 8.34 7.92 8.02 7.59 7.74 8.39 7.74 7.92 8.22 7.97 8.08 7.47 7.85 7.70 7.87 8.27 8.10 8.42 7.81 7.47 7.58 8.27 8.37 8.37 8.19 7.94 7.60 7.83 8.08 7.58 7.53 7.65 7.93 7.82 7.44 8.29 7.67 8.35 7.78 7.96 7.80 8.43 8.37 7.61 8.12 7.63 7.44 7.64 8.11 8.09 8.32 7.70 8.18 7.52 7.50 7.77 8.34 7.96 8.03 7.79 7.66 7.66 7.74 7.96 8.16 7.85 8.19 8.04 8.40 7.72 7.66 7.48 8.35 7.65 8.25 8.15 7.98 8.42 7.55 8.11 7.81 7.76 8.00 7.76 7.87 8.16 7.56 8.03 7.87 7.55 7.62 7.66 8.19 8.00 7.96 8.18 8.33 8.00 8.43 8.22 7.72 7.91 7.95 7.57 8.35 7.43 7.79 7.87 8.24 8.08 7.89 7.54 8.31 7.53 8.26 8.31 7.57 8.06 8.27 7.77 7.78 7.89 7.72 8.06 8.28 7.98 7.69 7.74 7.81 8.11 7.83 7.56 8.19 7.95 7.86 7.88 7.48 7.65 7.92 7.69 7.67 7.89 7.53 7.54 8.15 8.17 7.51 7.85 7.45 7.48 7.82 7.94 7.82 7.60 7.69 7.51 8.12 7.79 7.64 7.44 7.82 7.78 8.07 7.84 8.00 8.39 8.39 7.95 7.95 8.20 7.92 8.25 7.91 7.47 8.00 8.07 7.55 7.71 8.24 7.82 7.97 8.24 7.67 7.69 7.67 7.53 7.51 -9999 -9999 -9999 -9999 -9999 -9999 -9999 -9999 -9999 -9999 -9999 -9999 -9999 -9999 -9999 -9999 -9999 -9999 -9999 -9999 -9999 -9999 -9999 -9999 -9999 -9999 -9999
7.80 8.38 7.73 7.94 8.25 7.98 8.20 8.01 8.41 7.58 7.66 7.94 8.01 7.81 8.05 7.57 7.51 7.47 7.52 7.98 7.86 8.09 8.18 7.58 7.74 8.14 7.87 8.15 7.86 8.04 7.74 7.69 8.21 7.91 7.61 7.85 7.73 7.68 8.29 8.43 7.50 8.23 7.67 7.73 7.91 7.55 8.29 8.13 7.69 8.04 8.38 8.26 8.28 8.42 8.05 8.05 8.07 7.76 8.41 8.39 7.69 7.53 8.06 8.35 7.63 8.09 7.86 7.87 8.34 7.60 7.68 7.99 8.11 8.32 7.76 7.51 8.43 7.88 7.46 7.68 8.14 8.27 7.65 7.93 7.88 8.25 7.85 8.02 7.47 8.42 8.14 7.92 8.12 7.56 8.16 7.84 7.48 8.18 8.40 8.35 7.96 8.25 8.34 7.47 7.70 8.41 7.87 8.33 8.08 8.00 8.05 7.96 7.58 7.57 8.21 7.57 7.98 7.69 7.60 7.61 8.10 7.90 7.81 8.26 7.91 7.77 7.87 8.07 7.87 7.48 8.15 7.57 8.07 7.64 8.31 8.28 7.55 8.07 7.71 7.51 8.06 7.69 7.92 7.66 7.91 8.29 7.68 7.98 7.92 8.09 7.51 7.56 7.54 7.88 8.11 7.67 7.96 8.40 7.46 8.34 8.39 7.69 7.89 7.69 8.27 8.21 8.23 8.20 8.10 7.54 8.23 7.74 8.35 8.17 8.05 8.30 7.78 7.74 8.42 8.13 8.27 8.39 7.65 8.24 8.23 7.96 8.18 8.24 -9999 -9999 -9999 -9999 -9999 -9999 -9999 -9999 -9999 -9999 -9999 -9999 -9999 -9999 -9999 -9999 -9999 -9999 -9999 -9999 -9999 -9999 -9999 -9999 -9999 -9999 -9999
8.30 7.57 7.50 8.40 8.20 7.76 7.94 7.56 8.20 7.81 8.27 8.35 8.31 7.49 8.10 7.65 8.41 8.26 8.05 7.72 7.91 7.74 8.00 7.54 7.59 7.44 8.12 8.31 7.94 8.33 8.14 7.81 7.63 8.06 7.86 8.29 7.45 8.19 7.98 8.06 7.91 7.48 7.63 7.92 8.31 7.87 7.87 7.86 7.99 7.50 7.87 8.01 7.95 8.32 8.02 8.06 7.83 7.73 8.19 7.57 7.82 7.46 8.26 7.70 7.70 7.58 8.40 7.78 8.42 7.53 7.74 8.32 8.05 8.18 8.09 8.21 7.97 8.02 8.24 7.68 8.15 7.86 7.76 7.70 7.96 7.96 8.32 8.22 8.11 8.23 7.69 8.21 8.21 8.02 8.02 8.18 8.06 7.64 7.71 7.94 7.95 8.09 8.29 8.13 7.66 7.60 8.12 8.10 7.53 7.95 8.29 8.00 7.76 7.69 8.08 8.35 8.18 8.33 7.68 7.99 7.82 8.12 7.59 7.56 8.38 8.30 8.03 8.04 7.68 7.81 7.82 7.48 8.28 7.95 7.56 7.67 7.77 8.11 7.63 7.83 7.69 8.16 8.32 8.04 8.21 7.73 8.20 7.80 7.65 8.09 8.17 7.93 7.74 7.85 7.74 7.53 7.82 8.38 7.62 7.49 8.32 8.03 7.58 7.73 7.86 8.41 7.90 7.76 7.61 7.55 8.43 8.39 8.41 7.61 7.90 7.99 7.98 7.51 7.58 8.13 8.33 8.17 7.87 8.18 7.95 7.52 7.82 7.95 -9999 -9999 -9999 -9999 -9999 -9999 -9999 -9999 -9999 -9999 -9999 -9999 -9999 -9999 -9999 -9999 -9999 -9999 -9999 -9999 -9999 -9999 -9999 -9999 -9999 -9999 -9999
7.64 8.12 8.25 8.26 7.66 7.79 8.17 8.19 7.85 7.78 8.14 7.99 7.69 8.10 7.82 7.71 7.70 7.61 7.70 8.12 7.52 7.86 8.04 7.82 7.74 7.50 7.70 7.76 7.64 7.49 7.48 7.73 7.77 8.07 8.43 8.01 7.67 8.38 7.75 7.65 7.72 8.10 7.99 7.63 7.66 7.61 8.11 8.38 8.00 7.83 7.75 7.76 7.47 8.19 7.53 8.01 8.23 7.53 8.36 7.54 7.80 8.20 8.22 7.91 7.49 8.24 8.13 8.02 7.50 7.63 8.09 8.03 7.71 8.38 7.64 7.64 7.57 7.56 7.46 7.67 7.57 7.55 8.27 8.25 7.45 8.36 7.45 7.62 8.39 7.53 7.53 8.24 7.68 7.59 8.26 7.94 7.70 7.84 7.76 8.26 7.73 8.20 8.32 7.98 7.61 8.36 7.72 8.12 7.82 7.63 8.14 8.41 7.44 8.05 7.55 8.42 8.06 7.95 7.75 7.57 8.33 7.73 7.85 8.17 8.29 8.14 7.69 7.53 7.86 7.95 7.71 7.86 7.54 7.59 7.47 8.06 8.05 8.21 7.70 7.47 8.30 7.95 8.10 7.63 7.91 7.86 8.05 7.90 8.43 8.16 7.46 7.64 8.39 8.24 7.96 7.89 8.08 7.93 7.85 8.23 8.11 8.14 8.08 7.93 7.97 7.52 7.47 7.89 7.97 8.18 7.97 8.22 8.06 7.93 8.20 7.55 8.31 7.52 7.75 8.21 7.63 8.15 8.03 8.22 7.55 8.12 7.89 7.53 8.16 -9999 -9999 -9999 -9999 -9999 -9999 -9999 -9999 -9999 -9999 -9999 -9999 -9999 -9999 -9999 -9999 -9999 -9999 -9999 -9999 -9999 -9999 -9999 -9999 -9999 -9999
7.48 7.48 7.44 8.28 8.30 8.42 7.68 7.67 7.95 8.08 7.68 7.50 7.92 7.78 7.78 8.31 8.19 8.28 8.06 7.93 8.03 8.12 7.68 7.76 7.56 7.90 8.43 7.98 7.73 7.94 7.46 7.57 7.93 8.41 7.79 7.64 7.77 8.08 7.95 8.17 8.40 7.56 8.04 7.67 7.79 7.98 8.30 7.73 7.92 8.13 8.23 8.12 7.71 8.34 7.58 7.82 7.89 7.94 7.74 7.57 8.29 8.34 7.76 8.29 7.58 8.14 8.13 8.29 8.23 8.14 8.16 7.79 8.27 7.97 7.44 8.22 7.99 8.13 7.85 8.06 8.25 7.69 7.83 7.86 7.45 7.75 8.31 8.38 8.36 7.98 8.04 8.25 8.17 8.18 8.37 7.51 7.49 7.96 7.50 7.65 7.54 8.27 7.72 7.45 8.34 7.89 7.86 7.47 8.28 7.69 7.58 7.58 7.56 8.01 8.19 7.45 8.20 7.90 8.18 7.90 8.03 7.67 8.41 8.02 7.55 7.93 7.56 7.89 7.48 7.47 7.48 8.20 7.69 8.12 7.76 7.76 7.84 7.63 7.56 7.80 7.53 7.57 8.42 7.68 7.79 8.21 8.01 8.23 8.04 7.77 8.25 8.01 8.41 7.67 8.33 8.30 7.93 7.60 7.56 8.18 7.44 7.70 7.98 8.03 8.37 8.14 7.58 7.63 7.75 8.35 8.29 7.83 7.62 8.26 7.89 8.19 7.94 7.57 7.83 8.38 7.91 8.04 7.49 8.37 8.04 7.97 8.19 7.92 7.76 -9999 -9999 -9999 -9999 -9999 -9999 -9999 -9999 -9999 -9999 -9999 -9999 -9999 -9999 -9999 -9999 -9999 -9999 -9999 -9999 -9999 -9999 -9999 -9999 -9999 -9999
8.31 7.88 7.74 7.54 7.88 7.45 8.32 8.30 7.91 8.15 7.74 7.72 7.50 8.02 8.18 8.24 7.98 7.63 8.12 7.78 7.45 8.16 7.56 8.01 7.95 7.87 8.04 7.44 7.90 7.50 8.04 8.19 8.05 7.92 8.40 8.27 8.02 7.83 7.75 7.94 7.49 8.24 7.73 8.40 8.06 7.67 7.56 7.66 8.32 7.47 7.83 8.06 7.66 8.23 7.73 8.08 8.08 7.71 7.52 7.84 8.33 8.10 7.95 8.07 7.47 8.37 7.71 7.48 7.60 8.18 7.72 7.77 7.66 8.09 8.01 7.93 7.73 7.77 8.00 7.88 7.93 7.48 8.15 7.62 7.67 7.73 8.13 7.52 7.81 7.97 7.86 7.58 7.54 7.99 7.64 7.78 8.20 8.13 7.50 8.27 8.11 7.82 7.88 7.57 7.76 7.57 8.21 7.83 8.34 8.42 7.57 8.11 7.66 8.21 7.57 7.85 7.48 8.19 7.73 7.85 8.02 7.62 8.16 8.04 7.56 8.09 7.64 7.99 8.07 7.50 7.43 8.35 8.05 8.36 8.16 8.14 8.36 8.15 8.16 7.82 7.85 8.12 7.62 7.56 8.24 7.78 7.74 8.33 8.32 8.42 7.51 7.66 7.51 8.23 7.44 8.40 8.04 8.23 7.84 8.37 7.93 8.39 7.95 7.46 8.30 8.37 7.50 8.07 7.89 7.96 8.37 8.04 7.64 8.11 8.34 8.05 8.18 7.55 7.54 7.92 8.03 7.91 7.71 8.42 7.73 8.00 7.49 7.83 7.57 -9999 -9999 -9999 -9999 -9999 -9999 -9999 -9999 -9999 -9999 -9999 -9999 -9999 -9999 -9999 -9999 -9999 -9999 -9999 -9999 -9999 -9999 -9999 -9999 -9999 -9999
7.48 8.33 7.43 7.94 7.49 8.18 7.57 8.17 8.09 7.85 7.64 7.85 7.72 7.97 7.63 8.38 8.05 7.45 7.90 8.07 8.17 8.20 7.57 8.35 8.03 7.68 8.19 8.15 8.39 7.56 7.79 7.81 7.79 8.06 8.01 8.24 8.32 7.95 8.07 7.45 8.08 7.91 8.13 7.67 7.65 7.77 7.71 8.30 7.51 7.50 8.39 7.68 7.77 7.44 7.82 7.85 7.98 7.69 8.06 8.40 7.81 7.49 7.79 7.48 8.03 8.19 8.11 7.98 8.21 8.04 8.17 8.25 8.02 7.50 7.79 7.52 8.08 8.28 8.12 8.31 8.26 8.04 8.06 8.25 7.65 7.58 8.13 8.27 7.69 7.68 8.21 7.84 7.70 7.47 8.38 7.65 7.43 7.65 7.69 7.74 8.13 7.44 7.97 7.81 7.53 8.15 7.50 8.24 8.38 7.95 7.49 7.85 7.44 7.82 8.32 7.56 7.54 7.52 7.48 7.88 7.49 8.06 8.08 7.57 8.09 7.71 8.33 7.75 7.66 7.95 8.02 7.67 7.60 8.43 7.54 8.01 8.25 8.39 7.67 8.37 7.58 8.37 8.01 7.81 7.72 8.32 7.78 7.52 7.78 7.44 7.96 8.11 7.99 8.33 7.75 8.27 7.76 7.52 7.96 7.93 7.55 8.27 7.83 7.71 7.63 7.97 8.18 7.75 7.77 7.78 7.50 8.08 7.62 8.03 7.73 8.33 7.52 7.87 7.94 8.17 7.43 7.98 7.51 8.07 7.97 8.13 7.53 7.59 7.60 -9999 -9999 -9999 -9999 -9999 -9999 -9999 -9999 -9999 -9999 -9999 -9999 -9999 -9999 -9999 -9999 -9999 -9999 -9999 -9999 -9999 -9999 -9999 -9999 -9999 -9999
8.00 8.22 8.13 8.31 7.67 8.41 7.66 7.59 8.34 7.46 8.19 8.16 7.64 8.20 8.03 7.91 7.46 7.70 7.64 8.32 7.53 7.49 8.19 7.64 7.93 8.15 7.64 7.62 7.87 8.21 7.62 7.54 8.26 7.99 8.28 8.12 7.90 7.53 8.20 7.52 8.22 7.73 8.40 7.70 7.55 8.22 7.96 8.39 8.10 7.68 7.47 8.02 7.46 8.20 7.61 7.62 8.03 7.73 7.55 7.86 7.96 8.13 7.67 7.51 8.21 8.21 8.25 7.44 8.30 7.95 8.32 8.03 7.46 7.69 8.14 7.60 7.55 8.04 7.84 8.22 7.67 8.28 8.22 7.90 7.90 7.85 7.78 7.96 8.20 7.89 8.01 7.54 8.28 8.02 7.49 8.14 8.09 7.44 7.51 7.95 8.04 7.83 8.26 7.44 7.60 8.12 8.32 7.95 7.59 7.48 7.91 8.37 8.07 7.47 8.25 8.40 7.80 7.77 8.40 7.73 8.43 7.58 7.82 7.70 7.59 7.96 8.34 7.46 7.83 7.85 8.31 7.54 8.37 7.81 7.89 7.78 7.92 7.99 7.49 8.07 7.65 7.95 8.09 8.11 8.34 8.27 7.47 7.62 8.18 7.88 7.60 7.48 8.26 7.86 7.87 7.58 8.05 7.88 8.15 7.75 7.79 7.48 8.06 8.28 8.01 7.55 8.29 7.76 7.88 7.79 7.85 8.42 7.83 8.19 8.05 8.20 8.03 8.18 7.54 7.70 7.45 7.70 7.89 8.05 7.55 7.53 7.51 7.56 8.13 -9999 -9999 -9999 -9999 -9999 -9999 -9999 -9999 -9999 -9999 -9999 -9999 -9999 -9999 -9999 -9999 -9999 -9999 -9999 -9999 -9999 -9999 -9999 -9999 -9999 -9999
7.44 7.73 8.42 7.61 8.36 7.84 7.93 8.11 8.17 8.13 8.34 8.29 8.39 7.79 7.61 8.41 8.13 8.28 8.39 8.33 8.41 8.00 7.75 7.49 8.31 8.27 8.23 7.98 7.46 7.84 7.61 8.33 8.38 7.85 7.82 7.65 7.81 8.23 8.28 8.39 8.02 8.39 8.24 8.04 7.75 7.80 8.38 8.27 8.18 8.34 8.22 8.09 7.76 8.00 7.90 7.90 7.49 8.08 8.19 8.40 8.08 7.77 7.50 7.98 7.54 7.94 8.41 8.06 8.22 7.88 7.56 8.35 8.17 8.25 8.10 7.85 8.26 7.81 8.27 7.81 8.10 7.80 8.34 7.80 8.18 8.30 8.13 8.40 8.25 7.58 8.17 7.61 8.02 7.56 8.13 8.17 7.93 7.65 8.04 8.11 7.83 7.99 7.55 7.52 8.42 8.43 7.52 8.06 8.07 8.16 7.59 7.68 7.57 8.08 8.41 7.71 7.81 7.54 7.48 7.49 7.77 7.70 7.71 8.35 8.19 7.78 7.82 7.86 7.45 7.95 7.86 8.07 7.72 8.06 7.69 7.53 8.11 8.21 7.75 7.50 7.80 7.54 8.13 7.69 7.59 8.35 8.24 8.17 7.85 7.85 8.19 7.70 7.86 8.32 7.86 8.30 7.96 8.24 7.81 8.01 8.24 8.07 7.55 8.24 8.32 7.73 7.58 8.23 7.51 7.86 7.56 8.06 8.33 7.76 8.20 7.76 7.44 8.38 8.25 7.59 7.80 8.09 7.96 7.95 7.63 7.89 7.65 8.42 7.47 -9999 -9999 -9999 -9999 -9999 -9999 -9999 -9999 -9999 -9999 -9999 -9999 -9999 -9999 -9999 -9999 -9999 -9999 -9999 -9999 -9999 -9999 -9999 -9999 -9999 -9999
7.86 8.14 7.74 7.49 7.78 7.76 7.77 7.79 7.76 8.12 8.11 7.49 7.68 7.55 8.16 8.05 7.86 7.46 8.33 7.92 7.62 8.40 8.32 8.29 7.86 7.98 7.56 7.67 8.22 7.84 8.01 7.56 8.05 8.40 8.35 8.19 8.06 7.90 7.58 8.29 8.10 7.95 8.39 7.49 8.12 7.66 7.53 8.09 7.59 7.86 7.81 8.18 7.64 7.84 8.21 7.99 7.49 7.76 8.11 8.24 8.14 8.22 8.43 8.22 7.91 8.13 7.92 7.72 8.24 7.54 7.68 7.96 8.33 7.92 8.31 7.71 8.12 7.83 7.73 8.43 7.45 7.69 7.44 7.67 8.36 7.77 7.73 8.42 8.09 7.66 7.59 7.57 8.00 8.21 8.22 8.25 7.70 8.22 8.29 7.91 7.72 7.59 7.88 7.65 7.58 7.74 8.02 8.04 7.52 8.39 8.29 8.10 7.76 8.31 8.13 8.05 8.05 7.98 7.69 7.70 8.04 7.73 8.13 8.36 8.34 8.12 8.43 7.44 8.21 8.16 8.05 8.36 7.71 7.80 7.69 7.85 7.88 7.78 7.55 8.37 8.09 7.64 7.54 7.69 7.52 7.68 7.71 8.40 7.43 8.40 8.29 8.13 7.94 7.83 7.64 7.64 8.04 8.25 8.17 8.40 7.71 8.23 8.04 7.95 7.81 7.85 7.97 7.71 8.17 8.21 7.68 7.65 8.27 7.55 7.49 7.89 7.60 8.03 7.67 7.97 8.03 7.83 8.41 8.01 7.82 7.44 7.83 8.33 8.08 8.05 -9999 -9999 -9999 -9999 -9999 -9999 -9999 -9999 -9999 -9999 -9999 -9999 -9999 -9999 -9999 -9999 -9999 -9999 -9999 -9999 -9999 -9999 -9999 -9999 -9999
8.21 7.46 8.26 7.62 7.92 7.49 7.59 7.64 7.88 7.68 7.99 7.48 7.67 7.96 8.35 8.03 8.00 8.15 7.60 7.90 8.00 7.54 7.84 7.49 7.80 8.11 7.68 8.23 7.47 7.52 8.27 7.77 8.01 8.29 8.22 8.11 7.45 7.60 7.79 7.75 7.61 8.28 8.17 7.60 8.17 7.68 8.26 7.65 8.39 7.81 7.90 7.91 8.42 8.05 8.35 8.18 8.04 7.87 7.89 8.39 7.45 7.96 8.21 7.83 7.97 8.06 8.29 7.56 7.47 8.40 8.25 8.24 8.32 7.57 8.13 8.36 7.52 7.71 7.94 8.32 7.83 8.22 8.11 8.11 7.89 8.36 7.80 8.12 8.29 8.33 7.90 7.90 7.74 8.26 7.55 8.13 7.57 7.53 8.20 8.24 7.51 7.72 7.92 8.16 8.40 8.31 8.24 7.64 8.23 7.60 8.28 7.51 7.48 8.16 8.01 7.94 8.32 8.29 7.65 7.91 7.75 8.23 8.35 7.99 7.84 7.48 7.65 8.28 7.84 7.59 7.65 8.34 8.18 7.71 8.28 8.17 7.67 8.10 7.64 7.54 7.82 7.98 7.83 7.99 8.21 8.37 7.60 8.19 8.12 7.79 7.65 8.42 7.45 8.28 8.43 8.21 8.16 8.02 7.64 7.74 8.09 7.80 7.61 7.94 8.25 7.70 7.97 7.62 7.96 8.23 7.81 8.04 7.60 8.27 7.83 7.52 7.81 7.73 8.22 8.08 7.59 8.00 7.65 8.02 8.13 8.33 7.48 7.72 8.27 7.89 -9999 -9999 -9999 -9999 -9999 -9999 -9999 -9999 -9999 -9999 -9999 -9999 -9999 -9999 -9999 -9999 -9999 -9999 -9999 -9999 -9999 -9999 -9999 -9999 -9999
7.96 8.25 8.07 8.27 7.77 7.57 8.00 7.76 7.90 7.54 8.08 7.44 8.30 7.60 8.00 7.89 7.67 7.59 7.92 8.02 8.28 7.61 8.19 7.78 8.37 8.15 7.44 8.35 7.77 7.61 7.45 8.41 8.06 8.26 7.45 8.16 7.85 7.49 7.98 8.18 8.13 7.47 8.00 7.92 8.10 7.83 7.96 8.14 7.85 7.68 7.58 8.34 8.14 7.68 8.04 7.46 7.87 7.79 7.92 8.39 8.25 8.16 7.62 7.69 7.57 8.34 7.77 8.05 8.29 8.26 8.12 8.13 7.65 8.13 7.72 7.61 8.36 8.08 7.81 7.66 7.78 8.08 7.58 7.49 7.58 7.49 8.04 8.03 7.60 8.15 7.99 7.71 8.25 8.28 7.49 7.79 7.67 8.36 8.08 8.05 7.83 7.44 7.59 8.02 7.73 7.86 7.50 7.81 8.10 7.62 8.25 7.44 7.71 7.66 8.06 7.58 7.44 7.91 8.21 8.16 7.88 7.83 7.85 8.21 7.93 7.89 7.63 8.15 8.09 8.30 7.74 7.84 7.85 8.30 7.51 8.00 7.46 7.86 8.10 8.19 7.71 7.48 8.41 7.73 7.50 7.50 8.24 8.08 8.07 7.95 7.67 7.81 7.61 7.74 7.98 7.83 7.99 7.44 8.22 8.29 8.28 7.72 7.68 8.23 8.21 8.20 8.03 7.70 8.38 8.14 7.49 8.14 7.60 7.72 8.26 7.65 7.47 7.66 8.12 8.39 7.69 7.78 7.49 8.41 7.65 7.87 7.60 8.14 8.38 8.28 -9999 -9999 -9999 -9999 -9999 -9999 -9999 -9999 -9999 -9999 -9999 -9999 -9999 -9999 -9999 -9999 -9999 -9999 -9999 -9999 -9999 -9999 -9999 -9999 -9999
7.94 7.89 8.29 8.25 7.73 8.31 8.36 7.49 7.70 7.86 7.74 8.16 7.61 8.33 7.65 7.83 8.26 7.45 7.59 8.27 7.66 7.96 7.98 7.86 7.83 8.36 7.92 7.73 8.38 8.09 8.12 8.29 7.98 8.34 8.04 8.17 7.79 8.26 7.98 7.49 7.45 8.02 7.61 8.04 8.22 8.08 7.80 7.59 7.77 7.80 7.83 7.75 8.22 8.05 7.71 8.02 7.92 7.98 7.44 7.45 7.93 8.08 7.93 8.02 7.67 8.41 7.46 8.02 8.35 8.00 8.14 7.48 7.88 8.14 7.88 8.35 8.42 8.36 7.50 7.56 7.74 7.66 7.58 7.59 7.43 8.12 7.93 8.18 7.90 8.06 8.30 8.34 7.51 8.10 8.07 7.76 8.40 8.09 8.28 7.93 7.83 8.29 8.02 8.28 8.38 8.02 8.06 8.27 7.85 7.95 8.01 7.91 7.86 7.71 8.37 8.07 7.98 8.39 7.83 8.17 8.07 8.14 8.39 7.66 8.09 8.41 7.46 7.71 7.47 7.67 8.41 8.35 7.82 7.50 7.68 7.70 8.01 8.00 8.22 8.35 8.08 7.88 8.10 8.00 8.41 8.13 7.90 7.81 8.15 8.08 7.90 7.59 8.00 8.33 8.17 7.60 7.78 8.36 8.24 8.20 7.88 7.55 8.17 7.92 7.71 8.02 8.12 7.51 8.01 7.85 7.64 7.54 8.22 7.86 8.40 8.43 7.78 8.12 7.62 7.74 8.33 7.91 8.21 8.20 7.80 8.20 7.86 8.35 7.72 8.42 -9999 -9999 -9999 -9999 -9999 -9999 -9999 -9999 -9999 -9999 -9999 -9999 -9999 -9999 -9999 -9999 -9999 -9999 -9999 -9999 -9999 -9999 -9999 -9999 -9999
7.65 7.94 7.92 8.28 7.71 8.27 8.39 8.06 8.14 8.36 8.05 8.34 7.47 8.42 8.12 8.11 7.57 7.52 7.96 8.33 7.81 8.05 8.27 8.33 8.11 7.99 7.79 8.40 7.59 7.71 7.58 8.29 7.70 8.07 7.50 8.07 8.26 7.50 8.10 8.23 8.09 7.45 7.88 7.87 7.63 7.62 7.60 8.38 7.57 8.27 8.19 8.30 7.63 7.96 7.66 7.57 7.65 8.25 7.49 8.36 8.10 8.17 8.30 8.17 8.22 7.85 7.68 8.31 7.73 7.83 7.61 8.19 7.98 7.73 8.03 7.61 7.65 8.15 7.60 7.92 7.60 7.58 8.25 7.85 8.30 7.84 8.16 7.59 8.40 7.91 7.90 8.14 7.95 7.66 8.30 8.23 7.85 7.80 7.50 7.93 7.94 8.00 8.00 7.47 8.36 8.13 8.35 7.58 7.59 7.64 8.00 7.71 8.39 8.02 7.88 7.52 8.32 8.21 7.82 7.85 8.13 8.01 7.91 7.82 8.08 7.91 7.57 7.91 7.75 7.65 8.20 7.89 8.21 7.87 7.97 8.27 8.17 7.79 8.02 8.26 8.28 7.54 8.31 7.97 8.12 7.53 7.51 8.01 7.63 7.68 7.59 7.92 8.17 8.00 8.29 7.69 8.31 7.85 7.98 7.75 8.26 8.37 7.70 8.32 7.96 7.91 8.07 7.96 8.03 7.50 7.63 7.85 8.36 8.17 7.63 7.56 7.60 8.06 8.05 7.55 7.54 7.58 8.13 7.51 8.03 7.55 8.07 8.14 8.18 7.78 -9999 -9999 -9999 -9999 -9999 -9999 -9999 -9999 -9999 -9999 -9999 -9999 -9999 -9999 -9999 -9999 -9999 -9999 -9999 -9999 -9999 -9999 -9999 -9999 -9999
8.33 7.80 7.44 8.10 7.47 8.28 7.76 7.51 8.26 7.69 7.95 7.70 7.56 8.20 8.24 8.05 7.69 8.42 7.51 8.09 8.10 8.27 7.58 8.42 7.53 7.97 8.38 7.76 7.87 8.30 7.99 7.92 8.00 8.00 8.19 7.94 8.16 7.88 8.10 8.37 8.07 8.06 8.17 8.10 7.49 7.93 7.81 8.03 8.19 7.53 8.28 8.19 8.30 7.98 7.93 7.56 7.44 7.62 8.21 7.55 7.99 8.29 7.47 7.95 7.53 7.69 8.29 7.74 8.06 8.02 7.48 8.10 7.85 8.41 8.35 8.24 8.33 7.79 7.91 8.37 7.53 7.46 8.01 8.26 7.62 7.77 7.99 8.43 7.66 7.64 8.40 7.91 8.33 7.54 8.13 8.09 7.93 8.03 7.99 8.00 8.43 7.62 8.31 8.26 8.03 7.62 7.82 7.51 8.32 7.54 7.48 8.05 8.07 8.34 8.04 7.69 8.37 7.46 7.58 7.77 8.32 8.03 7.98 7.51 7.58 7.86 8.42 8.39 8.01 8.10 8.05 8.12 8.32 8.26 7.99 7.58 8.39 7.83 7.52 8.07 8.14 8.01 8.06 8.40 8.18 8.25 7.55 7.97 7.85 8.11 8.30 7.82 8.05 8.14 7.57 7.96 7.98 8.42 7.46 7.85 8.24 7.85 7.44 8.29 8.26 8.16 7.75 7.54 7.88 7.95 7.84 8.19 7.90 7.93 7.75 8.40 8.33 7.60 7.56 7.69 7.90 8.11 8.23 7.92 8.11 8.26 7.87 7.52 7.67 8.00 -9999 -9999 -9999 -9999 -9999 -9999 -9999 -9999 -9999 -9999 -9999 -9999 -9999 -9999 -9999 -9999 -9999 -9999 -9999 -9999 -9999 -9999 -9999 -9999 -9999
8.37 7.76 8.06 7.64 7.95 7.47 7.99 7.58 7.65 8.22 7.93 7.85 8.24 8.19 7.57 7.46 8.07 7.56 7.61 7.51 8.32 7.89 7.97 8.37 8.10 8.26 7.48 7.86 8.03 7.52 8.34 8.07 8.15 8.41 7.55 7.52 7.61 8.23 8.22 8.13 7.48 7.57 7.45 7.62 8.13 7.90 7.52 7.86 7.51 8.11 8.40 7.48 8.06 7.94 8.08 7.81 7.68 7.86 7.46 8.19 8.32 8.28 7.50 8.32 7.57 8.39 7.84 8.23 7.49 7.52 7.83 7.94 8.03 8.42 7.94 8.36 8.04 8.25 8.39 7.48 7.43 7.77 8.12 7.66 8.32 8.04 7.71 8.05 7.65 8.16 8.20 7.96 8.25 8.04 7.56 8.15 7.54 7.54 7.76 8.14 7.72 8.07 8.10 7.97 7.86 7.65 7.68 8.05 8.11 7.72 7.81 7.92 8.43 7.45 8.21 8.37 8.32 8.35 7.89 7.73 7.64 8.04 7.50 7.83 7.91 7.84 7.90 8.28 8.03 8.40 7.80 7.81 8.04 7.48 7.82 7.64 8.32 7.64 7.76 8.39 7.45 7.48 7.61 8.25 8.36 7.54 8.10 8.42 7.49 8.42 8.07 8.10 8.37 8.33 8.23 8.43 8.18 8.03 7.44 7.92 7.78 7.44 7.66 7.77 7.86 7.83 7.78 8.21 7.44 7.91 7.84 7.47 7.60 8.15 7.59 8.23 8.32 8.02 7.70 8.11 7.98 7.87 7.66 8.31 8.01 7.74 7.93 8.23 8.27 8.09 7.65 -9999 -9999 -9999 -9999 -9999 -9999 -9999 -9999 -9999 -9999 -9999 -9999 -9999 -9999 -9999 -9999 -9999 -9999 -9999 -9999 -9999 -9999 -9999 -9999
7.61 7.64 7.46 8.26 7.96 8.26 8.06 7.53 8.14 7.93 7.66 7.58 7.63 7.78 8.38 8.12 7.62 8.31 7.67 7.79 7.70 8.30 8.17 7.78 7.47 8.29 7.57 7.81 7.63 8.02 7.48 7.81 7.99 8.10 7.83 7.86 7.71 7.59 7.88 7.60 8.30 7.70 8.00 8.25 7.79 8.11 8.19 7.64 8.30 8.05 8.25 8.05 8.19 8.17 7.50 8.01 8.40 7.46 8.06 7.79 8.26 8.18 7.61 7.56 8.04 7.60 7.44 7.47 8.33 7.59 8.24 7.96 8.24 7.90 8.14 7.64 7.97 8.01 8.02 7.57 7.45 8.24 8.31 7.58 7.94 8.28 7.76 8.17 8.07 7.45 8.28 8.16 8.25 7.61 7.99 7.85 8.06 8.41 7.73 7.97 7.57 7.70 7.50 7.64 7.78 7.81 7.69 8.29 7.98 8.09 7.83 7.64 8.37 7.51 7.82 7.77 7.94 7.72 7.64 7.49 8.37 7.95 8.04 7.66 8.22 7.87 7.66 7.86 7.81 7.79 8.01 7.48 7.63 8.28 7.81 7.74 8.16 7.60 8.13 8.31 7.96 8.34 7.64 7.64 7.93 7.86 7.47 8.06 8.06 7.68 7.68 8.22 8.12 8.00 7.90 7.81 8.12 8.31 7.98 7.80 8.36 8.36 8.12 7.93 7.57 8.39 8.00 7.72 7.99 7.66 8.25 7.84 8.40 8.17 7.87 7.62 7.55 7.45 7.87 8.38 8.19 7.80 8.38 7.81 8.39 7.48 7.90 8.19 7.83 7.53 7.94 -9999 -9999 -9999 -9999 -9999 -9999 -9999 -9999 -9999 -9999 -9999 -9999 -9999 -9999 -9999 -9999 -9999 -9999 -9999 -9999 -9999 -9999 -9999 -9999
8.20 7.47 8.19 8.11 8.19 8.10 7.81 8.13 8.43 8.34 7.58 8.04 8.09 7.89 8.14 8.35 8.19 8.20 8.17 8.28 8.36 7.94 7.51 7.81 7.49 7.56 7.45 7.77 8.11 7.74 8.37 7.51 7.47 7.57 8.05 7.91 8.04 7.49 8.27 7.86 8.15 7.88 8.43 7.57 7.82 7.91 7.79 7.80 7.77 7.96 7.70 8.31 8.19 7.81 8.21 7.54 8.26 8.18 7.48 8.17 8.21 7.82 7.46 8.02 8.26 7.92 8.37 7.64 7.65 7.56 7.77 7.79 7.50 7.93 7.49 7.80 8.13 7.91 7.98 8.01 8.42 8.12 8.15 7.97 8.14 7.76 7.83 8.08 8.30 8.21 8.19 8.12 7.65 8.38 7.63 8.10 7.62 7.88 8.15 7.46 7.64 8.28 7.97 7.63 8.36 8.12 7.94 7.86 7.49 7.63 7.67 8.16 7.56 8.01 8.25 7.56 8.03 8.41 7.56 7.83 8.15 8.10 8.43 7.74 7.64 8.23 8.14 7.88 8.42 7.67 7.54 8.13 7.71 7.71 8.15 7.46 7.74 8.42 8.38 7.53 7.77 7.93 8.03 7.54 8.17 7.92 8.07 7.44 8.38 8.17 7.50 7.80 8.25 7.88 7.60 8.19 7.84 7.89 8.03 8.06 7.96 8.43 8.29 8.16 7.89 8.11 8.26 8.32 7.75 7.76 8.12 8.40 7.62 7.87 7.79 7.67 8.42 8.01 7.99 7.52 8.01 8.43 7.46 8.27 7.47 7.53 7.51 7.73 7.92 7.88 8.36 -9999 -9999 -9999 -9999 -9999 -9999 -9999 -9999 -9999 -9999 -9999 -9999 -9999 -9999 -9999 -9999 -9999 -9999 -9999 -9999 -9999 -9999 -9999 -9999
7.60 7.96 7.80 8.04 7.68 8.18 7.85 7.62 8.28 8.15 7.55 7.66 7.69 7.68 7.91 8.21 8.00 7.48 7.82 7.49 8.20 7.92 7.99 7.81 8.27 8.30 8.01 8.38 8.11 8.07 8.11 8.07 7.87 7.46 8.35 7.85 8.05 7.48 8.03 7.89 8.28 7.68 7.80 7.69 7.78 8.04 8.42 7.79 7.55 7.60 7.83 8.02 8.07 7.65 7.55 7.76 7.85 7.74 7.86 7.43 7.62 8.28 7.75 7.59 7.76 8.20 7.89 7.47 8.31 7.73 7.77 7.77 8.02 7.60 7.79 7.93 7.78 7.59 7.99 7.88 8.36 8.19 8.19 7.74 8.11 7.77 7.99 8.21 8.16 8.00 7.43 8.23 7.69 7.58 8.29 8.36 7.83 8.37 7.90 8.34 7.77 7.80 7.64 7.59 7.87 8.31 8.35 7.88 8.14 7.53 8.04 8.35 7.63 7.53 8.23 7.77 8.35 7.71 8.00 8.19 8.00 7.94 7.71 8.27 8.17 7.83 7.65 8.38 8.33 8.00 8.40 7.69 7.44 7.96 8.41 8.04 7.70 8.22 7.88 7.51 7.97 7.51 7.90 7.51 7.89 8.00 7.65 8.25 8.39 7.65 7.96 7.76 8.06 7.96 7.84 7.64 7.47 7.86 7.81 7.53 8.39 8.25 7.55 7.54 8.34 7.91 8.13 7.79 8.22 7.89 8.23 7.47 7.83 8.22 7.93 7.65 7.92 7.96 8.36 7.68 8.00 7.75 7.63 8.37 8.41 7.70 8.27 7.64 7.85 8.32 7.63 -9999 -9999 -9999 -9999 -9999 -9999 -9999 -9999 -9999 -9999 -9999 -9999 -9999 -9999 -9999 -9999 -9999 -9999 -9999 -9999 -9999 -9999 -9999 -9999
8.37 7.59 7.76 7.80 8.32 7.54 8.30 7.50 8.04 7.73 7.92 7.61 7.86 7.73 7.84 7.94 8.00 7.56 7.77 8.04 7.77 7.76 7.85 8.11 7.71 8.19 7.58 8.30 7.87 8.23 7.57 7.76 8.38 7.90 7.86 7.61 7.53 8.42 7.73 8.03 7.50 8.05 7.82 8.39 8.16 8.32 7.45 8.36 7.64 7.75 7.99 8.11 7.79 8.31 8.39 7.57 7.93 7.50 7.57 7.56 8.10 8.01 7.46 8.28 7.71 7.77 8.32 8.05 8.42 7.87 7.50 7.84 7.51 7.64 7.82 7.78 7.76 8.15 7.65 8.21 7.84 7.52 8.03 8.40 7.71 7.55 7.58 7.94 8.37 8.15 8.24 8.04 7.92 8.38 8.08 7.44 7.83 8.10 8.01 7.57 8.27 8.41 7.44 7.84 7.76 7.95 8.28 8.12 7.66 8.31 8.43 8.28 8.41 7.49 8.18 7.82 8.24 8.39 8.00 8.35 8.08 8.42 8.06 8.15 8.08 8.33 8.23 8.25 7.47 8.08 7.46 7.56 8.14 7.82 7.99 8.42 7.72 8.21 7.85 8.43 8.25 7.85 7.74 8.17 8.28 7.70 8.37 8.16 7.49 8.29 8.19 8.34 7.98 7.95 8.03 8.08 8.39 7.58 7.99 7.47 7.94 8.16 8.10 8.39 8.09 8.08 7.53 7.98 7.95 7.91 8.24 7.66 7.65 7.71 7.47 7.80 7.57 7.88 7.87 7.80 8.42 8.41 7.90 7.53 7.80 7.79 7.56 7.48 7.73 7.90 7.72 -9999 -9999 -9999 -9999 -9999 -9999 -9999 -9999 -9999 -9999 -9999 -9999 -9999 -9999 -9999 -9999 -9999 -9999 -9999 -9999 -9999 -9999 -9999 -9999
7.45 7.50 8.18 8.25 8.31 7.81 8.42 7.89 7.62 8.41 8.15 8.16 7.88 8.36 7.60 7.58 8.40 7.64 7.99 7.49 8.26 7.86 7.50 8.19 7.93 7.73 8.32 8.07 7.95 7.77 7.70 7.63 7.96 7.68 7.85 8.42 8.20 7.47 7.79 7.54 7.48 8.11 7.47 7.87 7.50 7.65 8.41 7.63 7.60 8.27 8.31 7.77 7.95 8.38 8.11 7.67 8.31 7.49 7.70 8.21 7.64 7.70 7.49 7.66 7.89 7.92 8.25 8.08 7.97 7.56 7.64 8.09 7.73 7.86 8.24 7.62 7.95 8.28 8.41 8.33 7.93 8.40 8.35 7.47 8.41 7.93 7.69 7.56 8.12 7.76 7.49 7.47 8.00 7.95 8.42 8.08 7.83 7.78 7.64 8.39 8.22 8.23 8.00 8.23 8.12 8.41 7.99 8.36 8.41 8.38 7.83 7.56 7.83 7.67 7.90 8.17 8.37 7.51 7.74 7.47 8.42 7.88 7.64 7.80 8.30 7.48 8.31 7.84 8.39 8.23 7.97 8.19 8.07 8.01 8.34 8.08 7.52 7.54 8.20 7.45 7.89 8.29 8.17 7.59 7.99 7.51 8.29 7.52 7.47 8.31 7.49 8.03 8.34 7.76 8.35 7.70 8.29 7.71 7.84 7.74 7.72 7.95 8.06 8.00 7.82 7.47 8.21 7.82 7.95 8.23 7.53 7.96 8.29 8.00 8.40 7.98 7.99 7.63 7.48 8.04 7.55 7.91 7.46 7.48 7.50 8.36 8.27 8.24 7.83 7.88 8.15 -9999 -9999 -9999 -9999 -9999 -9999 -9999 -9999 -9999 -9999 -9999 -9999 -9999 -9999 -9999 -9999 -9999 -9999 -9999 -9999 -9999 -9999 -9999 -9999
7.79 8.28 7.51 7.48 7.64 8.22 7.50 8.24 8.40 7.55 7.83 7.99 8.31 8.30 7.82 7.94 8.07 7.51 8.27 7.51 7.51 8.35 7.92 7.60 7.62 7.50 7.57 8.16 7.94 7.78 7.51 8.32 7.66 7.86 7.90 7.71 7.81 8.01 7.66 7.45 7.96 7.96 7.93 7.79 7.63 8.36 7.43 7.70 8.40 8.10 7.99 8.28 8.30 7.85 8.38 8.38 7.76 7.73 7.62 8.28 7.90 8.12 7.64 8.28 8.28 7.84 7.61 7.73 7.75 8.37 8.22 7.65 8.22 8.32 8.21 7.45 8.01 7.85 8.17 8.18 8.22 8.08 7.86 7.67 8.12 7.77 7.82 8.20 7.69 7.64 8.00 7.81 7.57 7.76 7.78 8.14 7.51 8.19 8.14 7.47 8.20 7.94 8.16 7.93 8.23 7.62 7.53 7.49 8.09 7.46 7.48 7.58 7.90 7.73 8.43 7.92 8.01 8.17 8.28 7.45 7.77 7.71 7.93 7.66 7.54 7.51 7.45 7.87 8.21 8.19 7.95 7.70 7.52 7.53 8.00 7.69 7.54 8.35 7.66 7.74 7.45 7.84 8.40 7.92 8.03 7.95 7.71 8.28 7.73 8.37 8.15 8.27 7.85 8.04 7.54 8.06 7.64 7.98 7.74 8.34 7.81 7.82 8.07 7.91 7.78 7.65 7.76 7.66 8.20 7.44 8.03 8.39 7.71 8.26 8.06 8.36 7.79 8.16 7.80 7.82 8.29 7.60 7.50 7.80 7.53 8.29 7.75 7.53 8.33 8.38 7.84 -9999 -9999 -9999 -9999 -9999 -9999 -9999 -9999 -9999 -9999 -9999 -9999 -9999 -9999 -9999 -9999 -9999 -9999 -9999 -9999 -9999 -9999 -9999 -9999
7.72 8.33 7.49 8.17 7.51 7.87 7.90 7.72 7.50 8.01 7.99 7.48 8.13 7.72 8.30 7.54 7.59 8.14 8.22 8.24 7.55 7.83 7.87 7.67 8.31 8.06 7.68 7.83 7.82 7.98 7.88 7.86 7.53 8.29 7.83 7.98 7.98 7.96 8.36 7.94 7.66 8.19 7.90 8.41 8.05 7.79 7.72 8.10 7.89 7.95 7.79 8.09 7.56 8.25 8.00 8.14 7.45 8.14 8.38 8.33 7.76 7.59 7.56 8.03 8.30 7.74 7.99 7.58 7.86 8.03 8.42 7.89 8.31 8.03 7.59 8.40 8.31 8.26 7.77 7.64 7.80 7.55 7.76 8.42 8.02 7.75 7.49 7.70 7.48 7.54 7.80 7.54 7.95 7.94 8.36 8.27 7.49 8.43 8.21 7.52 7.66 8.14 7.48 7.50 8.05 7.92 8.23 8.42 8.39 7.49 7.60 7.94 7.55 8.01 8.27 7.78 8.01 8.42 7.86 7.73 8.38 7.73 8.04 8.29 7.90 8.28 7.76 8.19 8.07 7.57 8.00 8.31 7.65 8.16 7.76 7.61 7.50 8.16 7.64 7.85 8.39 8.37 7.90 7.85 7.52 7.65 7.98 7.66 7.90 7.61 7.98 7.61 7.43 8.12 7.97 8.43 7.49 7.58 8.36 7.76 7.51 8.17 7.65 8.20 8.02 7.50 7.56 7.58 7.80 7.64 8.38 8.31 7.88 7.58 8.38 8.33 8.38 8.15 8.26 7.97 8.33 8.27 8.31 7.73 7.58 8.03 7.88 8.23 8.18 7.93 8.33 7.78 -9999 -9999 -9999 -9999 -9999 -9999 -9999 -9999 -9999 -9999 -9999 -9999 -9999 -9999 -9999 -9999 -9999 -9999 -9999 -9999 -9999 -9999 -9999
7.53 8.04 7.74 7.50 8.36 8.08 7.61 8.30 8.13 8.40 8.16 7.69 8.01 7.59 8.02 8.16 7.77 7.99 8.13 8.26 8.25 8.33 7.91 7.65 7.83 8.33 7.44 7.69 7.93 8.30 8.26 7.79 8.34 8.13 8.37 7.52 7.86 8.05 8.34 7.61 7.50 8.14 7.89 7.70 8.28 7.53 8.14 8.43 7.50 7.46 7.58 8.28 7.63 8.35 7.75 8.40 7.53 8.04 8.09 7.67 7.47 7.69 7.68 8.21 8.17 7.92 8.27 8.39 8.41 7.44 7.71 8.29 7.45 8.43 7.44 7.85 8.21 7.78 7.85 7.62 8.06 8.27 7.86 7.90 7.53 8.41 7.59 7.91 8.08 8.40 7.52 8.14 8.14 8.14 7.80 8.12 7.63 8.31 7.70 7.97 7.92 7.73 8.01 8.43 7.86 8.31 8.08 7.83 8.18 8.43 7.58 7.97 8.29 8.24 8.26 7.48 7.76 7.68 7.78 7.91 8.28 8.23 7.61 7.57 8.43 8.28 7.81 7.52 7.85 7.90 7.75 7.95 7.95 8.33 7.54 8.42 8.31 7.68 7.95 8.39 7.98 8.10 7.53 7.44 7.50 7.68 8.03 8.18 8.31 8.28 8.02 7.76 8.31 7.67 7.71 8.28 8.05 7.89 7.71 8.27 7.76 8.01 8.39 8.10 8.18 7.53 7.67 8.05 7.44 7.85 7.88 7.99 7.62 7.56 8.42 8.16 7.83 7.70 7.47 7.63 7.95 7.60 7.61 7.73 7.76 8.01 7.82 7.86 8.21 8.11 7.50 8.41 -9999 -9999 -9999 -9999 -9999 -9999 -9999 -9999 -9999 -9999 -9999 -9999 -9999 -9999 -9999 -9999 -9999 -9999 -9999 -9999 -9999 -9999 -9999
7.83 8.08 7.90 8.12 8.43 7.73 8.00 7.47 7.67 7.86 8.37 7.57 8.18 7.73 7.68 8.43 8.40 8.40 7.83 7.58 8.26 7.49 7.53 7.60 8.16 8.07 7.68 7.69 7.48 7.69 8.17 8.32 8.10 8.17 8.12 8.09 8.39 7.75 7.96 7.96 7.61 8.08 7.80 8.24 8.23 7.54 8.18 8.10 8.07 8.18 7.55 7.65 8.29 8.04 7.47 7.99 7.76 7.50 7.60 8.23 8.25 8.26 7.92 7.72 7.55 7.57 8.28 7.57 7.45 8.04 7.69 8.34 7.53 7.88 7.54 7.45 7.72 7.77 8.15 7.87 8.16 7.68 7.76 8.01 7.48 7.67 7.88 8.05 8.36 7.88 8.17 7.67 8.43 7.92 8.35 7.70 7.58 7.74 7.43 7.52 8.36 8.37 8.34 8.07 8.43 8.41 7.52 8.30 8.23 8.09 7.66 7.62 7.72 8.13 7.54 8.33 8.35 7.76 8.38 7.96 7.62 7.66 7.99 7.82 7.69 7.55 7.57 7.98 8.07 7.62 8.17 7.90 7.46 7.97 7.73 7.63 7.80 8.20 7.79 7.77 7.66 8.06 7.65 7.52 7.68 8.08 8.01 8.07 7.87 7.97 8.25 8.28 8.00 7.52 8.02 8.33 7.74 7.50 8.26 8.01 8.28 7.99 8.02 8.29 7.68 7.79 8.42 7.63 7.78 8.17 8.02 7.69 8.09 7.89 8.32 8.19 8.30 7.96 7.92 7.51 8.18 8.42 7.49 7.56 8.31 7.83 8.28 8.09 8.18 8.27 7.51 8.36 -9999 -9999 -9999 -9999 -9999 -9999 -9999 -9999 -9999 -9999 -9999 -9999 -9999 -9999 -9999 -9999 -9999 -9999 -9999 -9999 -9999 -9999 -9999
8.15 7.96 7.54 8.06 7.96 7.74 8.30 7.85 7.53 8.00 8.15 7.93 8.10 7.97 7.79 7.94 7.47 8.05 8.43 7.61 7.49 8.11 8.12 7.95 8.40 7.75 7.63 7.99 7.71 8.18 8.08 7.75 7.92 8.01 7.49 7.84 8.25 7.70 7.93 7.93 7.48 7.89 8.34 7.63 7.97 7.63 7.90 8.41 8.30 8.31 7.53 7.57 7.59 7.79 7.70 7.48 7.60 7.58 7.69 8.23 7.57 7.80 7.80 8.17 7.53 8.13 8.05 7.69 7.97 8.43 8.01 7.79 7.57 7.83 8.31 8.38 7.72 8.23 7.82 7.79 8.31 7.99 7.44 8.11 7.95 7.58 8.02 8.39 8.24 8.10 7.97 8.10 7.60 7.63 7.90 7.93 7.76 7.72 7.90 7.75 7.77 8.00 8.16 8.39 8.00 7.69 8.21 8.12 7.53 7.54 7.92 7.72 8.34 7.87 7.81 8.06 8.07 8.25 7.70 7.97 8.09 8.41 7.46 7.51 7.54 7.70 8.07 8.03 7.93 7.45 7.55 8.29 7.70 7.90 7.92 8.06 8.07 8.17 7.95 7.94 7.56 7.87 8.43 7.92 7.77 7.45 7.85 7.80 7.78 8.37 7.70 8.41 7.47 7.82 7.84 7.90 7.84 7.93 7.98 8.01 8.04 8.29 8.06 7.63 7.91 7.74 7.58 7.72 7.53 7.67 7.58 7.67 7.74 7.79 7.61 8.36 7.48 8.35 8.13 8.31 7.91 7.97 8.33 8.25 7.83 7.82 8.23 7.84 7.51 7.50 8.15 8.31 -9999 -9999 -9999 -9999 -9999 -9999 -9999 -9999 -9999 -9999 -9999 -9999 -9999 -9999 -9999 -9999 -9999 -9999 -9999 -9999 -9999 -9999 -9999
8.24 8.07 7.49 7.98 8.08 8.42 7.66 8.26 8.41 8.11 7.83 7.90 7.48 7.45 7.80 8.27 7.97 7.64 7.50 8.35 7.51 7.57 8.19 7.63 7.49 8.19 8.16 7.83 7.74 7.74 7.56 7.66 7.81 7.90 8.38 8.11 8.27 7.60 8.43 7.73 7.86 8.30 8.12 8.05 8.12 7.96 8.03 7.92 8.23 7.46 7.69 8.19 8.13 7.72 8.37 7.93 7.47 8.21 7.62 8.08 8.14 7.58 7.68 8.33 8.38 8.22 7.58 8.42 7.96 7.92 8.20 8.13 7.50 8.36 7.89 7.64 7.54 8.07 7.79 7.73 7.47 7.48 7.54 7.78 7.50 7.95 7.49 7.92 7.76 7.73 7.72 7.55 8.16 8.29 7.90 8.03 7.56 7.93 8.40 8.27 8.15 8.21 7.82 8.13 8.06 8.39 7.66 7.93 8.31 8.17 7.64 8.27 8.17 7.96 8.33 7.89 7.58 7.71 7.51 7.63 7.69 7.63 7.57 7.57 8.03 8.21 8.13 8.33 8.18 7.60 8.04 8.08 7.81 8.14 7.54 8.18 7.80 8.40 7.83 7.99 8.34 7.76 8.19 8.06 7.51 8.07 8.15 7.76 7.90 7.67 8.22 8.36 7.86 8.03 7.64 7.79 8.08 7.52 8.41 8.12 7.56 8.43 7.88 7.61 7.92 8.22 8.07 7.66 7.76 8.36 8.39 7.95 7.55 8.09 8.38 8.21 7.90 7.69 7.66 7.68 7.98 7.70 7.98 7.85 7.73 8.01 7.57 8.29 7.76 7.49 8.27 8.32 -9999 -9999 -9999 -9999 -9999 -9999 -9999 -9999 -9999 -9999 -9999 -9999 -9999 -9999 -9999 -9999 -9999 -9999 -9999 -9999 -9999 -9999 -9999
8.04 7.80 7.46 8.25 7.57 7.57 7.78 7.43 7.98 8.12 7.85 8.21 7.66 7.82 8.11 8.17 8.20 8.30 7.69 7.49 7.95 7.71 8.08 7.46 8.30 8.28 8.24 7.91 8.31 7.51 7.93 7.92 8.04 7.98 7.86 8.29 7.66 7.62 7.90 7.60 7.87 7.73 7.44 7.57 7.65 8.33 8.00 7.65 7.46 7.50 7.56 8.43 8.17 7.61 7.94 7.51 7.85 8.24 8.16 7.87 7.67 7.48 7.75 8.05 8.18 7.96 8.24 7.54 8.38 7.98 8.05 7.47 8.39 7.51 8.03 8.24 8.41 7.57 7.49 7.71 7.80 7.67 7.69 8.22 7.57 8.06 8.02 8.40 8.18 7.76 8.06 7.54 8.27 7.57 7.53 7.69 8.15 7.79 7.88 8.16 8.04 7.84 7.65 8.17 7.76 7.80 8.26 8.41 7.67 8.22 7.82 7.59 7.62 7.90 7.97 7.63 7.49 7.85 7.70 8.28 7.89 7.84 7.86 8.34 7.75 8.20 7.45 7.54 7.98 8.39 7.70 8.19 8.09 8.04 8.08 8.13 7.75 8.12 8.12 7.79 8.08 8.36 7.94 7.48 7.84 7.71 7.56 8.02 7.75 8.00 7.65 7.95 8.34 8.41 8.40 8.20 8.01 7.92 7.76 7.44 8.41 7.63 8.27 7.55 8.16 8.00 7.62 7.50 8.37 8.06 7.84 8.29 7.80 8.02 7.59 8.06 8.34 7.99 7.78 8.03 8.33 7.82 8.30 8.13 8.14 7.49 8.39 7.91 8.28 7.55 8.20 7.70 -9999 -9999 -9999 -9999 -9999 -9999 -9999 -9999 -9999 -9999 -9999 -9999 -9999 -9999 -9999 -9999 -9999 -9999 -9999 -9999 -9999 -9999 -9999
7.65 7.83 7.71 7.54 7.51 7.72 7.73 7.66 8.04 8.30 7.46 7.55 7.93 7.43 7.63 7.84 8.04 7.91 7.57 8.30 7.80 8.27 8.14 7.73 8.00 7.74 8.41 7.72 8.09 7.44 7.56 7.92 8.17 7.74 7.74 8.27 7.80 8.41 7.56 7.49 8.32 8.30 8.21 7.96 7.93 8.27 7.97 8.17 7.59 7.86 8.34 8.20 7.94 7.68 8.27 7.59 7.76 7.86 8.27 7.45 7.86 8.21 7.46 7.76 7.97 7.89 7.51 7.59 7.75 8.26 7.66 7.74 7.54 8.34 7.81 7.44 8.21 8.01 8.28 8.37 7.86 8.00 7.57 8.04 8.00 7.98 8.35 8.00 8.25 7.47 8.32 8.03 8.30 7.46 7.79 7.54 8.07 8.22 8.23 7.74 7.85 8.34 7.92 8.08 8.20 8.24 8.30 8.27 7.95 7.77 8.11 7.48 8.39 8.18 8.14 8.35 8.12 8.24 7.83 8.06 7.47 8.40 7.81 8.24 7.92 7.54 8.33 7.89 7.95 7.57 8.19 7.52 7.84 8.01 8.36 8.28 7.68 8.14 7.72 8.28 8.21 8.06 7.59 7.60 7.93 8.24 8.22 8.12 7.45 7.50 8.04 8.26 8.40 7.87 7.44 7.77 7.47 7.75 7.49 8.27 7.89 8.24 8.35 8.43 8.05 7.66 7.80 8.20 8.35 8.41 7.82 7.59 7.64 7.67 7.73 8.12 8.42 7.79 7.90 8.01 7.70 7.73 7.92 8.30 8.05 7.74 7.57 7.68 8.37 7.59 7.49 7.94 7.48 -9999 -9999 -9999 -9999 -9999 -9999 -9999 -9999 -9999 -9999 -9999 -9999 -9999 -9999 -9999 -9999 -9999 -9999 -9999 -9999 -9999 -9999
7.54 8.30 8.17 8.26 8.03 7.91 7.98 8.03 7.64 8.01 8.43 7.81 7.59 8.02 8.39 7.66 8.34 8.32 7.70 7.99 7.87 8.02 7.51 7.68 8.14 7.76 7.52 8.40 7.70 8.02 8.40 8.19 7.66 8.12 7.45 8.26 8.30 8.30 8.06 8.40 7.71 8.19 8.07 7.83 7.46 7.85 8.07 7.83 7.86 7.84 7.75 8.02 8.37 8.16 8.26 7.96 7.83 8.09 8.16 7.64 7.50 7.89 7.47 8.10 7.81 8.39 7.91 7.57 7.60 8.43 7.47 8.08 8.26 7.62 8.14 7.50 7.75 7.62 7.79 8.14 8.14 8.01 7.51 7.66 8.36 7.79 7.59 7.63 7.80 7.82 8.30 7.70 8.40 7.77 7.62 8.35 8.06 8.37 7.60 7.52 7.81 7.84 7.74 7.94 8.16 7.55 8.15 8.12 8.16 8.30 8.38 8.19 8.38 8.25 7.45 7.94 8.26 8.26 8.37 8.09 7.45 7.85 7.80 7.85 8.13 8.27 7.82 7.80 8.17 8.02 8.05 8.32 8.40 8.17 7.82 7.76 7.83 8.26 8.24 7.98 8.21 8.41 8.32 7.68 8.13 8.33 7.87 7.79 7.62 8.34 8.13 8.34 8.33 7.97 7.78 8.11 7.64 8.22 7.92 7.46 7.62 7.83 8.37 8.37 8.22 8.21 7.88 7.95 8.42 7.93 8.06 7.62 7.99 7.83 8.37 7.94 7.68 8.19 7.94 8.32 8.02 8.04 7.74 8.35 8.11 8.28 8.11 7.49 8.12 7.86 8.36 8.27 7.45 -9999 -9999 -9999 -9999 -9999 -9999 -9999 -9999 -9999 -9999 -9999 -9999 -9999 -9999 -9999 -9999 -9999 -9999 -9999 -9999 -9999 -9999
7.56 7.86 7.64 7.59 7.92 7.89 7.54 7.44 8.04 7.96 8.05 7.83 7.84 7.73 7.54 7.78 7.61 7.47 7.87 8.40 7.98 7.96 7.65 7.89 7.80 7.99 8.41 7.92 7.73 8.32 7.56 8.08 7.53 7.77 8.30 7.95 8.03 8.23 8.23 8.11 7.84 8.27 7.94 7.60 8.32 8.38 7.68 8.41 8.37 8.20 8.06 8.27 8.27 7.55 7.93 7.69 7.69 7.94 8.13 7.92 8.01 8.35 8.31 8.10 7.82 7.67 7.62 7.61 7.43 8.38 8.32 8.22 8.27 8.10 7.73 7.67 8.10 8.01 8.00 7.48 7.69 7.80 8.15 8.21 8.32 8.29 8.29 7.93 8.22 7.65 7.99 7.87 8.32 7.89 8.23 7.75 8.28 7.69 7.56 8.32 7.84 8.28 7.89 8.22 7.90 7.97 8.07 7.84 7.51 8.35 7.81 7.85 7.97 7.69 7.91 7.88 7.94 7.91 8.26 7.86 7.64 7.51 7.90 7.67 8.32 8.19 7.43 7.68 7.63 7.67 7.75 7.47 8.21 8.17 8.30 8.01 8.10 8.26 8.16 7.85 7.58 7.62 8.32 7.99 7.82 7.96 8.00 8.17 7.44 8.41 7.64 8.14 8.37 7.54 7.54 7.74 8.03 7.86 7.48 7.92 7.79 7.99 7.50 7.95 7.49 7.70 8.42 8.43 7.46 8.26 7.66 7.97 8.14 8.30 7.60 7.45 7.87 8.38 7.48 8.18 8.18 7.53 7.72 8.06 7.44 7.89 8.41 8.01 7.74 7.67 7.73 8.04 7.80 -9999 -9999 -9999 -9999 -9999 -9999 -9999 -9999 -9999 -9999 -9999 -9999 -9999 -9999 -9999 -9999 -9999 -9999 -9999 -9999 -9999 -9999
7.46 8.19 8.25 7.76 7.67 8.04 7.58 8.23 8.25 7.86 8.01 8.29 7.62 8.30 8.10 7.74 8.12 7.75 7.84 7.81 7.89 8.22 7.54 7.60 8.37 8.13 8.25 7.79 7.83 7.65 7.60 8.08 8.11 7.84 7.75 7.62 7.57 8.03 7.92 7.86 7.69 7.96 7.59 8.16 8.20 8.40 8.04 7.45 8.11 7.67 7.50 8.34 8.34 8.36 8.36 7.99 7.44 8.27 8.04 7.48 8.25 7.49 7.94 7.57 8.29 7.80 7.55 7.44 8.41 7.59 8.01 7.52 7.75 7.84 7.70 7.74 7.62 7.76 8.13 7.98 7.98 7.86 8.06 7.99 8.26 7.49 7.94 7.48 8.17 7.46 8.27 8.15 7.72 7.52 7.45 7.45 7.46 8.17 7.49 7.65 7.99 7.98 8.42 7.50 8.09 8.27 8.16 8.05 7.60 7.79 7.72 8.05 7.91 7.99 8.03 7.55 8.20 7.90 8.17 7.97 7.88 8.15 7.72 7.91 8.35 7.80 7.53 8.37 7.69 7.97 8.28 7.89 7.70 8.07 8.35 8.11 7.91 7.86 8.27 7.44 7.65 8.19 8.08 7.91 8.06 8.02 8.04 8.19 7.67 7.72 7.72 7.97 8.04 7.49 8.26 7.51 7.58 7.46 7.87 8.08 7.74 7.88 7.58 7.91 7.52 7.90 8.12 7.48 8.43 8.05 8.25 7.44 8.40 7.46 7.53 7.55 7.76 8.30 8.06 8.17 7.95 8.22 7.86 8.05 7.62 8.35 7.93 7.91 7.67 7.91 8.09 7.82 7.56 -9999 -9999 -9999 -9999 -9999 -9999 -9999 -9999 -9999 -9999 -9999 -9999 -9999 -9999 -9999 -9999 -9999 -9999 -9999 -9999 -9999 -9999
7.80 8.28 7.95 7.44 7.84 8.34 8.15 7.67 8.24 7.82 8.14 7.82 7.93 8.05 7.48 7.94 7.78 8.39 7.67 7.72 7.51 8.15 8.16 8.20 7.93 8.06 7.79 8.04 7.90 8.02 7.85 7.95 8.33 7.92 7.56 8.40 8.27 8.00 7.64 7.75 7.46 7.90 8.09 7.44 7.97 8.32 8.35 7.84 8.26 8.41 7.51 8.37 8.00 7.60 7.80 7.73 8.16 8.02 7.58 8.17 7.78 7.79 7.85 7.91 8.14 7.57 7.66 7.50 7.75 8.12 8.16 8.17 7.99 8.26 7.97 7.91 7.74 8.37 8.30 7.71 7.78 8.28 8.40 7.88 7.93 8.30 7.73 7.99 7.72 8.01 7.46 8.13 7.76 7.83 7.88 8.38 8.12 7.69 8.10 8.31 8.25 8.43 8.08 7.85 7.85 7.62 8.26 7.55 8.21 7.47 7.45 7.96 8.28 7.56 7.89 7.46 8.23 8.20 7.84 8.42 7.84 7.74 7.43 8.08 8.30 8.40 8.00 7.96 7.93 8.29 8.32 8.34 8.21 7.45 8.14 7.91 7.51 7.61 7.44 7.94 7.90 7.70 8.13 8.14 8.18 7.54 7.53 8.14 7.69 8.11 8.17 8.11 8.25 8.09 7.64 7.80 8.18 7.55 8.38 8.26 8.28 7.74 7.46 7.69 7.64 8.22 8.40 8.25 7.60 8.13 8.06 7.93 8.19 7.55 7.52 8.04 8.43 8.33 7.94 8.21 7.56 7.98 7.49 8.03 8.32 7.61 8.43 8.08 8.43 7.98 7.93 8.29 8.21 -9999 -9999 -9999 -9999 -9999 -9999 -9999 -9999 -9999 -9999 -9999 -9999 -9999 -9999 -9999 -9999 -9999 -9999 -9999 -9999 -9999 -9999
7.99 8.06 7.54 8.04 7.63 8.21 7.74 8.02 7.54 7.57 8.22 8.29 7.60 8.19 8.03 7.65 8.16 8.01 7.72 7.87 8.08 8.36 7.74 8.34 8.15 7.73 7.77 7.72 7.95 8.11 8.19 8.07 7.53 8.30 7.83 7.88 7.47 7.96 8.22 7.58 8.26 8.18 7.96 8.23 7.89 7.48 7.79 8.06 8.21 8.34 7.54 8.07 8.03 7.46 7.56 7.99 7.46 7.76 8.40 7.54 7.49 7.85 7.55 8.28 7.45 7.65 8.15 8.18 7.95 7.88 7.54 8.35 8.18 8.39 8.04 8.16 8.37 8.19 8.16 7.94 8.34 7.89 7.83 8.39 7.74 7.64 7.62 7.53 8.19 7.46 8.30 7.65 8.18 8.16 8.20 7.86 8.37 8.17 7.45 7.66 7.95 8.08 8.24 7.51 7.72 8.15 8.25 8.36 8.34 7.47 7.53 7.74 7.77 7.73 7.53 7.94 7.95 7.87 7.63 8.25 7.54 7.90 8.18 8.00 7.97 7.82 7.49 7.93 8.05 7.67 7.77 7.82 7.46 8.23 8.16 8.13 7.62 7.51 7.71 7.47 8.38 8.41 7.85 7.70 7.88 7.66 7.68 8.02 7.64 7.71 8.16 8.04 8.39 7.83 7.77 7.66 8.32 8.07 8.39 7.53 8.11 8.15 7.79 8.33 8.26 8.24 7.81 7.47 7.75 7.76 7.76 7.59 8.40 8.08 7.62 7.61 8.18 8.10 7.97 7.58 7.55 8.34 8.15 7.79 8.18 8.15 7.44 8.30 8.39 8.10 7.91 8.10 8.23 -9999 -9999 -9999 -9999 -9999 -9999 -9999 -9999 -9999 -9999 -9999 -9999 -9999 -9999 -9999 -9999 -9999 -9999 -9999 -9999 -9999 -9999
8.39 7.86 7.49 7.84 7.98 7.52 7.70 8.43 7.55 7.45 8.27 7.98 7.75 7.53 7.47 8.41 7.56 8.35 8.40 8.21 7.51 8.05 7.80 8.43 7.71 7.86 7.70 8.02 7.78 7.58 7.48 7.79 8.43 7.87 8.10 8.37 8.11 7.88 7.98 7.47 8.15 7.98 8.10 8.02 7.96 7.76 7.53 7.91 8.42 8.16 8.25 8.31 7.77 8.05 8.35 7.92 8.29 8.29 7.71 8.21 8.20 7.86 7.65 7.95 7.49 8.22 7.51 8.25 7.64 7.56 7.57 7.70 8.42 8.14 7.54 7.84 8.09 8.20 8.04 8.18 8.39 7.81 7.82 7.78 8.20 8.04 8.01 8.42 8.03 8.25 8.08 7.97 7.56 8.26 8.42 8.11 7.62 8.27 7.80 7.74 8.29 8.11 7.60 7.80 7.74 7.76 8.18 7.61 7.67 7.63 8.31 8.10 8.43 8.18 7.91 8.36 8.29 8.19 7.57 8.15 7.85 7.43 7.44 8.07 7.61 8.34 7.78 7.73 8.35 7.47 7.96 7.65 7.76 8.38 7.54 8.33 7.88 8.00 7.81 8.03 8.30 8.23 8.09 7.46 8.02 8.41 8.21 7.90 7.83 8.15 7.66 8.18 7.72 8.05 8.32 7.90 7.93 8.28 7.44 7.70 8.17 8.40 8.42 8.43 7.48 8.07 7.78 8.39 7.91 7.93 7.66 8.36 7.65 8.10 8.23 8.11 7.98 8.17 8.07 8.36 8.42 7.93 8.28 7.46 8.25 7.93 7.86 8.14 8.35 8.39 8.01 7.68 7.74 8.12 -9999 -9999 -9999 -9999 -9999 -9999 -9999 -9999 -9999 -9999 -9999 -9999 -9999 -9999 -9999 -9999 -9999 -9999 -9999 -9999 -9999
7.68 7.70 7.53 8.37 8.41 7.46 7.84 7.90 8.32 7.79 8.33 8.04 8.09 7.85 7.91 7.98 8.15 7.71 8.22 7.76 7.46 8.42 8.20 7.91 7.84 8.31 8.15 7.79 7.76 7.46 8.35 7.82 7.98 7.57 7.74 7.49 7.47 8.26 8.35 7.88 7.91 8.36 8.24 7.88 8.27 8.38 8.07 7.61 7.67 7.89 7.77 8.40 8.21 8.43 7.97 8.13 7.49 7.94 7.84 8.26 8.10 8.19 8.11 8.20 8.02 8.23 8.19 8.35 7.46 8.41 7.47 8.40 8.00 7.50 8.15 7.50 7.85 7.46 8.41 7.93 7.52 7.63 7.58 7.97 8.24 7.54 7.44 8.43 8.41 7.50 8.28 7.89 8.07 8.34 7.59 7.44 7.84 8.11 7.50 7.58 8.05 8.07 8.37 7.99 8.40 8.03 8.20 8.17 8.26 7.82 8.01 7.78 8.32 7.82 7.72 7.82 7.68 8.17 8.29 7.99 7.69 8.09 8.35 7.47 7.82 7.66 7.73 7.53 7.97 7.43 7.60 7.82 7.54 8.40 8.33 7.69 8.23 8.13 8.09 7.89 7.88 8.36 7.91 8.24 8.06 7.55 8.05 7.67 7.78 8.24 8.38 7.71 7.80 7.69 7.66 7.45 7.64 8.33 7.79 7.79 7.85 7.70 7.83 7.50 7.66 8.13 7.53 7.90 8.40 7.95 8.09 8.01 7.75 7.96 7.57 7.71 8.38 7.77 8.27 7.53 7.64 8.34 8.17 7.62 7.61 7.44 7.52 8.36 8.20 8.11 8.31 7.84 8.31 7.54 -9999 -9999 -9999 -9999 -9999 -9999 -9999 -9999 -9999 -9999 -9999 -9999 -9999 -9999 -9999 -9999 -9999 -9999 -9999 -9999 -9999
7.56 7.76 8.39 8.05 8.15 7.65 8.37 8.25 7.76 8.02 7.52 7.73 7.74 8.20 8.06 7.95 8.38 7.93 8.36 7.94 8.09 7.45 8.07 8.08 8.21 7.75 7.95 7.92 8.10 8.02 7.99 7.50 7.57 7.68 7.68 7.92 8.08 8.10 7.49 7.80 8.10 7.83 8.37 7.49 8.40 7.87 8.31 7.49 7.54 7.98 7.65 7.94 7.45 8.18 7.77 7.93 7.83 7.72 7.46 7.92 7.83 7.88 8.14 7.65 8.25 7.51 7.88 7.76 8.13 7.45 8.29 7.88 8.43 7.84 7.93 7.79 7.89 7.94 7.95 7.93 8.19 7.64 8.12 7.52 7.98 7.48 7.61 7.75 8.32 7.64 8.20 8.31 7.84 8.11 7.76 8.29 7.89 7.45 8.11 7.93 8.20 7.87 7.80 7.99 8.27 8.15 8.21 7.68 8.12 8.12 7.97 7.84 8.24 7.44 7.80 8.37 7.57 7.75 7.78 8.31 7.77 7.62 8.01 8.25 8.39 7.60 7.55 8.43 7.83 8.43 8.19 7.96 8.36 7.77 7.47 7.57 8.42 7.45 7.75 8.10 8.00 8.38 7.80 7.84 7.70 7.65 8.02 8.43 8.01 7.83 8.34 7.98 7.80 8.24 8.36 7.44 7.54 8.36 7.47 8.26 8.40 7.57 7.55 7.80 7.76 7.87 8.25 7.68 7.60 7.53 7.87 7.76 8.40 7.76 7.49 7.91 8.30 7.46 8.31 7.85 7.61 7.80 8.27 7.92 7.91 7.60 8.19 8.08 8.40 7.56 8.38 7.59 7.69 7.59 -9999 -9999 -9999 -9999 -9999 -9999 -9999 -9999 -9999 -9999 -9999 -9999 -9999 -9999 -9999 -9999 -9999 -9999 -9999 -9999 -9999
7.55 8.40 7.87 8.04 8.15 7.74 8.27 7.59 8.29 7.68 7.98 8.00 8.23 7.53 7.79 8.09 7.47 8.06 8.02 7.50 8.43 7.48 7.90 8.14 7.97 8.04 7.55 8.12 7.97 7.86 8.15 7.91 7.45 7.68 8.35 7.81 7.78 8.08 8.24 8.24 7.58 7.54 8.21 8.26 7.79 7.58 8.11 8.35 8.06 7.86 7.55 7.87 8.37 7.98 7.45 8.30 7.79 7.66 8.32 8.18 7.92 7.94 7.96 7.93 7.53 8.24 8.24 8.10 8.08 7.47 8.23 7.59 7.79 7.58 8.31 7.50 7.95 8.24 7.69 8.00 8.41 7.65 8.34 8.26 7.87 8.09 7.66 7.65 8.19 8.13 8.22 8.32 7.60 8.18 8.39 8.43 8.35 7.90 7.44 7.69 8.08 8.08 8.10 7.63 7.48 7.80 7.66 8.32 8.03 8.23 7.79 8.43 8.14 7.51 8.31 8.03 7.75 7.66 7.55 8.37 8.28 8.07 8.09 7.78 7.53 7.75 7.46 7.72 7.87 7.44 7.74 7.52 8.43 7.97 7.65 8.03 8.30 7.52 7.69 8.16 8.25 7.80 7.61 8.37 8.36 8.37 7.89 7.81 7.96 7.81 8.01 8.30 8.09 7.60 7.62 7.56 8.28 7.74 7.74 7.68 7.66 7.58 8.09 7.63 7.68 7.82 8.13 7.90 8.25 7.98 7.79 8.28 8.40 7.72 8.31 7.72 7.45 7.74 7.93 8.00 7.58 7.84 7.87 7.77 8.09 7.50 7.93 8.04 7.66 7.64 7.47 7.92 8.28 7.85 -9999 -9999 -9999 -9999 -9999 -9999 -9999 -9999 -9999 -9999 -9999 -9999 -9999 -9999 -9999 -9999 -9999 -9999 -9999 -9999 -9999
7.95 7.69 7.56 7.50 7.84 8.00 8.18 7.98 8.23 8.28 7.75 8.12 8.31 8.01 8.25 8.38 8.36 7.67 7.76 7.91 8.24 7.75 7.49 7.61 8.04 7.69 7.74 8.13 8.38 7.43 7.56 8.03 8.32 8.29 8.37 7.53 7.52 7.94 8.40 7.60 7.65 7.45 8.20 7.63 8.42 7.53 7.54 7.92 8.42 7.86 7.91 7.56 8.34 7.48 7.80 7.72 7.62 7.55 8.03 8.34 7.81 7.92 8.12 7.51 7.63 7.94 8.09 7.89 8.05 8.13 8.39 7.59 7.94 8.02 7.75 8.14 8.13 7.49 8.10 8.17 7.58 7.67 7.80 7.58 7.64 8.28 7.78 7.83 8.26 7.92 8.41 8.32 8.01 8.26 8.41 8.36 7.76 8.08 8.35 7.46 7.64 8.15 8.25 8.14 8.05 8.32 7.78 8.21 8.16 7.60 7.59 7.92 7.62 7.71 7.57 8.04 7.67 8.02 8.17 8.26 7.86 7.61 8.02 8.07 7.83 7.53 8.27 7.82 8.04 8.02 8.13 7.95 7.91 7.95 7.79 7.75 8.22 7.53 7.89 8.11 7.69 7.75 7.72 7.48 8.03 7.49 7.89 8.16 7.77 8.25 7.69 7.65 7.60 7.75 8.26 8.27 8.40 7.86 7.62 7.46 8.08 7.93 8.34 7.70 8.33 7.81 7.95 8.31 7.76 7.63 7.91 8.26 7.64 8.01 7.97 7.98 7.56 7.84 7.82 8.43 7.82 8.28 7.64 8.41 7.58 7.55 8.17 8.37 7.93 8.43 8.24 7.57 7.47 7.97 -9999 -9999 -9999 -9999 -9999 -9999 -9999 -9999 -9999 -9999 -9999 -9999 -9999 -9999 -9999 -9999 -9999 -9999 -9999 -9999 -9999
8.31 7.53 7.90 7.75 7.51 8.35 7.98 8.35 7.74 8.22 7.98 7.54 8.42 8.33 8.05 8.40 8.10 7.77 7.50 7.47 8.07 7.51 7.44 8.43 7.99 7.54 8.30 7.62 7.47 8.24 8.21 7.94 7.67 7.94 7.60 8.23 7.58 8.39 8.25 7.75 7.57 8.36 7.47 8.15 7.91 8.29 8.24 8.42 8.21 7.82 7.83 7.71 8.40 7.80 7.51 7.75 7.89 7.52 8.43 7.65 8.02 7.73 7.96 7.75 8.23 8.09 7.67 7.90 7.66 7.51 8.27 7.61 7.59 8.17 8.20 8.19 8.07 8.12 8.18 7.92 8.30 7.94 7.82 8.38 8.41 7.99 7.60 7.98 7.53 8.37 7.62 7.86 8.00 7.86 7.70 8.03 7.71 8.24 7.71 7.51 7.52 8.27 7.76 7.96 7.83 8.21 7.48 7.88 7.59 8.28 7.94 8.29 7.53 7.68 8.06 8.22 8.16 7.59 8.25 7.81 7.51 8.20 7.64 8.02 7.69 8.16 8.27 7.86 8.22 7.90 8.35 8.18 7.52 7.86 7.55 8.09 7.95 8.03 7.58 8.31 8.18 7.95 7.50 8.12 7.47 8.09 7.55 8.12 7.80 7.53 7.74 8.21 7.98 7.51 8.22 7.81 8.43 7.95 7.73 8.25 7.66 8.00 7.51 8.39 7.83 7.44 8.38 7.60 7.65 7.52 8.42 8.31 8.24 7.49 8.01 7.76 8.43 7.82 7.48 8.12 7.71 7.81 8.11 7.97 7.68 8.38 7.90 7.73 7.90 7.78 7.68 8.17 7.51 7.71 -9999 -9999 -9999 -9999 -9999 -9999 -9999 -9999 -9999 -9999 -9999 -9999 -9999 -9999 -9999 -9999 -9999 -9999 -9999 -9999 -9999
8.13 8.04 7.61 8.16 7.48 8.31 7.71 7.87 7.80 8.21 7.91 8.22 8.09 8.21 7.57 8.06 7.57 8.27 7.87 8.11 7.57 8.40 8.29 8.12 8.10 8.35 7.65 7.54 8.24 7.99 7.58 7.48 7.58 8.27 7.69 7.62 8.14 8.35 8.41 7.87 8.42 7.47 7.80 7.89 8.13 7.84 7.57 8.00 7.87 7.62 7.66 8.33 8.15 7.75 7.47 7.82 8.15 7.46 8.28 8.22 7.53 7.83 8.35 8.12 7.87 8.04 7.49 7.74 7.48 7.88 7.44 8.20 7.97 7.52 8.00 7.45 8.23 8.01 7.70 8.10 7.47 7.85 8.06 7.44 8.12 7.58 7.88 8.21 8.34 8.37 8.06 8.32 8.02 7.92 7.76 7.84 8.26 8.23 8.41 8.35 7.98 8.11 7.97 7.73 8.28 7.66 7.93 8.34 8.20 7.90 7.57 8.20 8.41 7.66 7.89 7.68 7.98 8.35 7.59 7.63 7.94 8.04 8.22 8.13 7.98 7.91 7.59 7.64 8.06 8.36 8.33 8.07 8.14 7.71 8.37 8.30 7.54 7.44 7.50 7.97 8.06 7.78 8.04 8.42 7.71 8.07 8.34 8.13 8.21 7.65 8.39 7.84 7.62 8.29 8.15 8.24 7.45 7.86 8.08 7.47 8.14 7.75 8.37 7.63 7.78 8.38 7.47 7.57 7.74 7.87 7.47 7.99 8.19 7.65 8.01 7.61 7.93 8.23 8.25 8.13 8.13 7.92 8.26 7.97 7.70 8.03 7.91 7.64 7.49 7.79 7.97 8.00 8.43 8.23 7.71 -9999 -9999 -9999 -9999 -9999 -9999 -9999 -9999 -9999 -9999 -9999 -9999 -9999 -9999 -9999 -9999 -9999 -9999 -9999 -9999
7.80 7.46 8.36 8.07 8.13 8.16 8.42 8.25 7.55 8.06 7.56 7.88 7.98 7.53 8.20 8.21 7.99 8.19 7.53 8.07 8.08 8.34 7.88 7.89 8.43 7.64 8.25 8.28 8.26 7.75 7.97 7.89 8.05 7.78 7.51 8.28 8.21 8.09 8.28 8.38 7.90 8.29 7.58 8.17 8.23 8.24 7.96 7.57 8.17 7.88 8.34 8.03 7.60 7.80 7.53 7.92 8.04 8.34 8.37 7.89 8.14 7.89 7.72 8.38 8.32 7.93 7.58 8.40 7.87 8.38 7.80 8.39 7.91 7.99 7.84 8.00 8.40 7.79 7.87 8.13 7.51 7.82 7.98 8.11 7.69 7.88 7.50 7.80 8.16 8.15 7.96 8.34 7.57 7.71 8.38 7.72 8.08 7.80 7.80 8.13 8.26 8.15 7.47 7.48 7.71 8.32 7.49 7.45 8.17 8.42 8.15 7.77 8.26 7.86 7.62 8.22 7.97 8.36 7.93 7.97 8.20 7.76 7.71 8.16 7.49 7.60 7.56 8.41 7.94 8.41 7.98 7.61 8.32 7.99 8.21 8.40 7.86 7.95 7.83 8.25 8.38 8.29 7.48 8.23 7.83 7.90 8.25 8.25 8.18 8.30 7.53 8.18 7.83 8.31 7.89 7.93 8.33 7.69 8.30 8.07 7.87 8.13 7.74 7.91 7.57 8.10 8.23 8.05 8.31 7.65 7.70 8.39 7.70 8.12 7.51 8.34 7.80 8.19 7.91 7.98 8.06 7.76 7.62 7.99 8.07 8.04 7.72 7.88 7.86 8.35 7.77 7.44 7.86 7.67 7.52 -9999 -9999 -9999 -9999 -9999 -9999 -9999 -9999 -9999 -9999 -9999 -9999 -9999 -9999 -9999 -9999 -9999 -9999 -9999 -9999
8.29 8.15 7.54 8.03 8.12 7.71 8.15 7.73 7.83 7.67 8.43 7.86 8.28 8.20 8.09 7.54 8.43 7.48 7.50 7.77 7.48 7.48 8.20 7.64 8.06 7.55 8.25 7.94 8.18 7.96 7.47 8.19 7.75 7.52 7.58 8.27 7.77 7.88 7.95 7.58 8.07 7.99 8.22 7.44 7.65 7.63 8.38 8.33 8.03 7.49 7.66 8.13 8.29 7.54 8.03 7.61 8.32 8.13 8.10 8.37 8.04 7.46 7.67 8.07 8.43 7.94 7.52 7.44 7.49 7.78 8.15 7.89 8.12 7.64 7.79 8.27 8.07 7.81 7.44 7.65 8.42 7.59 8.16 8.29 7.50 7.50 8.27 7.47 8.17 8.20 7.65 8.32 8.26 7.46 7.56 8.27 7.47 8.12 8.34 7.52 8.43 8.28 8.00 8.31 8.12 8.39 7.84 7.45 7.57 8.26 8.07 8.37 8.27 7.95 7.91 7.64 8.22 8.29 7.96 8.17 7.79 8.33 7.64 7.47 7.89 7.81 7.87 7.49 7.50 8.42 7.67 7.60 7.91 7.45 8.02 7.94 8.23 8.31 8.37 8.17 7.47 8.40 7.60 7.66 7.46 7.50 7.94 8.22 8.23 7.57 7.87 8.27 7.55 7.92 8.24 7.93 7.59 7.80 7.97 7.58 8.19 8.29 8.14 8.33 7.60 7.54 7.48 7.87 7.95 7.89 8.40 8.38 8.26 7.72 8.20 7.68 8.24 7.94 7.73 8.33 7.98 7.56 7.62 7.70 8.21 7.71 8.13 8.08 7.66 8.29 8.37 8.11 7.73 7.74 7.51 -9999 -9999 -9999 -9999 -9999 -9999 -9999 -9999 -9999 -9999 -9999 -9999 -9999 -9999 -9999 -9999 -9999 -9999 -9999 -9999
8.23 7.59 7.53 7.73 7.88 8.38 8.06 7.66 7.85 7.80 7.57 8.25 7.91 8.32 7.58 7.77 7.73 8.03 8.29 7.47 8.33 7.84 7.83 8.42 7.69 7.52 7.75 8.38 7.80 8.33 7.94 8.25 8.21 7.68 8.23 8.18 7.50 7.89 8.28 8.35 7.72 7.66 8.26 8.14 7.58 8.00 7.98 7.92 7.98 8.03 8.33 7.77 8.40 8.19 7.51 7.82 8.15 7.71 7.53 8.12 8.05 7.58 7.89 8.06 7.79 7.44 8.35 8.02 7.56 8.13 7.86 8.40 7.64 7.51 7.99 8.15 8.09 8.43 7.84 8.04 8.10 7.69 7.94 8.06 7.95 7.64 7.51 8.05 8.21 8.24 8.25 7.97 7.90 7.46 7.69 7.92 8.00 8.21 7.96 7.67 7.89 7.88 8.32 7.45 8.42 7.58 8.30 8.29 8.01 7.47 8.20 7.51 7.99 8.32 8.00 7.73 7.85 8.02 7.52 7.73 7.73 7.67 8.34 7.99 7.80 7.72 8.15 7.72 8.15 7.71 7.45 7.59 7.83 8.42 7.66 8.36 8.15 7.60 7.66 8.31 8.28 8.03 7.53 7.45 8.19 8.34 7.49 8.38 8.11 8.11 7.48 8.19 7.69 7.78 7.45 7.50 7.61 8.22 7.60 8.08 8.27 7.51 8.29 7.66 8.10 7.94 7.97 7.70 8.17 8.33 7.70 7.96 8.42 8.15 7.70 7.99 7.98 7.77 7.91 8.05 7.47 8.14 8.22 7.52 7.54 7.98 7.81 8.39 7.58 8.11 7.75 8.02 7.96 7.92 8.34 -9999 -9999 -9999 -9999 -9999 -9999 -9999 -9999 -9999 -9999 -9999 -9999 -9999 -9999 -9999 -9999 -9999 -9999 -9999 -9999
7.74 7.83 7.97 7.93 8.34 7.45 7.56 8.39 8.22 7.82 8.38 8.35 7.60 8.28 7.48 8.37 8.16 7.58 7.89 7.89 7.61 7.88 8.08 8.13 8.08 8.15 7.54 8.17 7.75 8.21 7.52 8.15 8.35 8.42 8.19 8.10 7.47 7.93 7.92 7.69 8.39 7.99 7.67 7.58 7.76 7.47 7.52 7.80 8.21 7.72 7.73 7.93 7.77 8.41 7.83 7.52 7.49 8.20 8.36 8.32 7.54 7.63 8.06 7.56 8.02 7.64 7.61 8.39 8.04 7.51 8.28 7.46 7.56 7.58 7.96 7.79 7.49 7.46 8.02 8.06 7.76 8.35 8.16 7.73 7.99 8.37 7.67 8.29 7.65 7.54 7.74 7.67 8.05 7.48 7.44 7.97 7.49 7.61 7.55 7.77 7.72 8.24 8.02 8.27 7.62 7.77 8.37 7.59 7.83 8.25 7.49 7.53 8.40 8.21 7.79 8.02 7.45 7.91 8.14 7.54 7.43 7.65 8.41 8.15 7.62 7.88 7.89 8.39 7.99 8.18 7.62 7.97 7.84 7.62 7.54 8.24 7.95 7.53 7.99 8.16 8.38 8.36 8.05 7.84 7.70 7.95 8.15 8.14 8.11 7.88 8.02 7.69 7.91 8.39 8.28 8.05 7.65 8.34 8.31 7.96 8.01 7.55 7.56 8.25 7.62 7.76 7.44 7.72 7.52 7.71 8.01 8.09 7.47 7.83 8.26 8.03 7.52 8.17 7.79 8.32 8.19 7.52 7.86 8.14 7.98 7.60 7.82 7.79 8.25 7.62 8.24 8.39 8.01 7.69 8.30 -9999 -9999 -9999 -9999 -9999 -9999 -9999 -9999 -9999 -9999 -9999 -9999 -9999 -9999 -9999 -9999 -9999 -9999 -9999 -9999
8.18 8.43 7.65 8.27 8.40 7.93 8.25 7.70 8.20 7.94 7.82 8.07 7.75 7.65 8.27 7.99 8.31 7.98 7.93 7.70 8.40 7.69 7.73 8.43 7.53 8.27 8.04 8.17 8.22 7.49 7.62 8.04 7.78 8.27 7.72 8.04 7.83 7.64 7.78 7.44 7.45 8.00 8.02 8.01 7.53 7.48 7.93 8.09 8.42 7.81 7.98 7.79 7.82 8.24 8.02 7.46 7.46 7.84 8.23 7.65 7.58 8.28 8.17 7.65 7.47 7.87 7.61 7.59 8.30 7.86 7.95 8.26 8.33 7.56 8.39 8.13 7.86 8.11 8.01 8.01 8.13 7.63 8.27 8.40 8.14 7.48 7.55 7.63 7.74 8.03 8.27 8.05 7.96 7.88 8.11 7.56 8.35 7.73 8.37 8.37 8.26 8.19 7.94 8.39 8.08 8.37 7.82 8.28 8.05 8.06 7.96 8.03 7.57 7.85 7.52 7.79 7.90 7.60 8.07 7.67 8.00 7.80 7.50 7.88 7.71 7.48 7.70 8.39 8.36 7.44 7.76 7.91 7.87 7.75 8.17 8.31 7.45 7.50 7.46 8.32 7.83 8.19 8.34 8.38 7.64 7.58 8.42 8.18 7.68 7.77 8.18 7.61 7.97 7.56 7.55 7.75 7.68 8.13 7.65 8.18 7.85 7.59 8.26 8.29 7.53 7.55 8.41 8.37 7.67 8.08 7.97 7.55 7.91 7.43 8.21 7.89 7.69 7.64 7.45 7.86 7.72 7.52 8.40 8.24 8.09 8.41 7.67 8.28 7.96 8.25 7.81 7.49 7.80 7.53 7.94 -9999 -9999 -9999 -9999 -9999 -9999 -9999 -9999 -9999 -9999 -9999 -9999 -9999 -9999 -9999 -9999 -9999 -9999 -9999 -9999
8.30 8.10 8.36 7.92 7.74 7.87 7.60 7.59 8.00 8.22 8.41 7.57 8.15 7.83 8.35 7.48 7.95 7.78 7.72 7.83 7.68 7.82 8.21 7.44 8.06 8.18 7.81 8.05 8.30 8.19 8.07 8.02 8.20 7.86 8.25 7.89 8.32 7.60 8.43 7.72 8.01 7.69 8.40 8.39 7.65 7.56 8.04 8.27 7.51 8.19 8.36 8.12 7.98 8.20 7.68 7.76 8.17 8.04 7.97 7.85 7.61 8.27 8.14 7.59 8.25 7.77 8.21 8.16 8.12 7.97 8.43 8.42 7.91 7.48 8.00 7.64 7.91 8.23 7.62 7.78 7.58 8.20 7.51 7.94 8.24 8.33 7.63 7.74 8.06 7.70 7.69 7.89 7.85 7.79 8.39 7.65 8.43 8.10 7.86 7.64 7.83 7.96 8.31 8.43 7.81 7.68 8.06 8.19 8.36 7.93 7.74 8.05 8.12 7.52 8.21 7.70 8.01 8.16 8.26 7.94 7.73 8.43 8.08 7.66 7.46 7.44 8.15 7.95 8.19 7.45 7.54 7.89 8.01 7.92 7.60 7.93 7.57 7.46 8.09 8.13 7.78 7.47 8.27 8.10 7.83 8.39 7.58 8.30 7.50 8.41 7.94 7.77 7.58 7.55 7.64 8.04 8.13 7.94 7.98 7.96 8.02 8.16 7.88 8.13 8.30 7.79 7.65 7.70 7.49 7.92 8.24 7.93 8.04 8.05 8.21 8.33 7.60 7.82 7.97 8.18 8.01 7.92 7.76 8.27 7.58 7.59 7.64 8.03 8.19 7.52 7.62 7.60 8.43 7.81 8.29 -9999 -9999 -9999 -9999 -9999 -9999 -9999 -9999 -9999 -9999 -9999 -9999 -9999 -9999 -9999 -9999 -9999 -9999 -9999 -9999
7.91 8.12 8.15 8.03 7.84 8.00 8.17 8.43 7.47 7.48 7.66 8.21 7.81 8.26 7.55 7.54 8.20 7.56 8.20 7.54 8.39 7.61 7.79 7.88 8.30 7.94 7.78 8.37 7.87 7.53 8.04 7.63 7.68 7.87 7.96 7.68 7.77 8.23 7.56 7.76 7.83 7.98 8.18 8.29 8.21 7.55 8.39 7.70 7.57 7.79 7.81 8.02 8.16 7.77 7.89 8.32 7.83 8.15 7.52 8.29 8.26 7.96 7.89 8.11 7.69 8.30 7.51 8.38 8.41 8.34 8.37 7.85 7.64 8.08 7.98 7.87 7.51 8.36 7.88 7.73 8.01 7.75 7.89 7.82 8.05 8.20 7.92 7.95 7.59 7.97 7.49 8.11 7.55 7.80 7.56 7.50 8.02 8.42 7.49 7.58 7.51 7.63 8.09 7.57 8.16 7.92 8.27 8.07 7.66 7.83 8.39 7.82 8.32 8.07 8.39 8.23 8.00 7.50 8.11 8.34 8.42 8.08 8.37 8.05 7.79 8.07 8.28 7.68 8.15 7.62 8.14 8.35 8.02 7.71 7.88 7.67 7.66 8.06 8.25 8.26 8.27 8.39 7.70 7.64 7.58 8.39 7.53 7.82 8.07 7.70 8.04 7.87 7.55 7.61 7.47 8.03 7.45 7.54 8.14 8.38 8.15 8.41 8.33 7.74 8.18 7.77 7.86 7.43 8.39 8.29 7.53 8.12 8.42 8.32 7.71 8.23 8.33 8.07 7.62 8.06 7.55 7.72 8.27 7.58 7.60 7.95 8.37 8.23 8.01 8.13 8.24 7.71 7.73 8.38 7.49 7.53 -9999 -9999 -9999 -9999 -9999 -9999 -9999 -9999 -9999 -9999 -9999 -9999 -9999 -9999 -9999 -9999 -9999 -9999 -9999
7.83 8.40 7.89 7.64 7.44 8.26 8.35 7.59 8.20 7.99 7.67 7.66 7.64 8.11 7.98 8.19 7.99 8.24 8.27 7.47 8.25 7.56 8.30 7.73 7.52 8.40 8.28 8.03 7.89 8.32 7.82 7.63 7.66 7.89 7.84 7.84 7.86 7.70 8.27 7.50 8.20 7.95 8.42 7.63 7.83 8.11 7.54 8.12 8.10 8.33 8.25 8.16 7.55 7.97 8.20 8.43 7.62 8.03 8.39 8.08 8.11 7.44 8.10 7.49 7.73 7.55 8.05 8.18 7.86 8.25 7.56 7.72 7.94 7.82 8.00 8.21 7.91 8.40 7.53 8.09 8.23 7.60 7.54 7.91 7.50 8.40 8.23 7.98 7.57 7.68 7.97 7.55 7.77 7.66 7.68 7.49 8.42 7.72 8.06 8.12 8.32 7.52 8.39 8.07 7.96 7.90 7.59 7.90 7.77 7.58 7.94 8.37 7.95 7.67 7.86 7.59 8.26 7.57 8.28 8.22 8.17 7.97 7.49 7.70 8.35 7.54 8.37 8.27 7.73 8.20 8.27 7.87 7.63 8.13 7.76 8.10 7.77 7.66 7.90 8.09 7.73 7.90 7.98 7.90 7.81 8.06 7.82 7.84 8.04 8.23 8.31 8.20 7.50 7.71 8.35 8.09 7.93 7.71 8.37 8.09 7.62 7.90 7.84 7.99 8.09 7.86 8.05 8.40 7.95 7.57 7.76 7.52 7.88 7.62 8.01 7.45 8.19 8.07 8.31 8.22 8.20 8.16 7.52 8.31 7.93 7.61 8.08 8.20 7.57 8.37 7.78 8.27 8.09 8.24 8.12 7.81 -9999 -9999 -9999 -9999 -9999 -9999 -9999 -9999 -9999 -9999 -9999 -9999 -9999 -9999 -9999 -9999 -9999 -9999 -9999
7.51 7.69 7.83 8.10 8.22 7.53 8.23 7.83 7.70 7.75 7.68 7.89 7.88 7.84 7.55 7.47 7.74 8.15 8.05 7.87 7.71 8.04 7.96 7.69 7.85 8.08 7.44 7.70 8.30 7.78 8.19 7.93 8.43 7.47 7.81 7.92 7.83 7.47 7.84 8.03 7.97 8.24 7.79 8.34 7.64 7.58 7.99 7.70 7.59 7.83 8.02 7.74 8.29 7.72 7.95 8.35 8.31 8.42 7.81 7.88 8.28 7.44 8.02 7.73 8.10 7.84 8.05 8.35 7.89 8.39 7.46 8.20 8.22 8.19 7.48 8.27 7.54 8.29 7.53 8.06 7.45 8.20 8.13 7.60 7.77 7.69 7.72 7.68 8.17 7.95 7.65 8.26 7.92 8.30 8.37 7.64 7.53 7.99 7.44 8.27 7.79 8.20 8.41 7.82 7.67 8.02 8.13 8.13 8.20 8.11 8.39 8.30 8.35 8.00 7.66 7.49 8.00 7.87 8.00 7.81 8.06 7.65 8.03 7.85 7.99 7.66 8.18 7.79 7.79 8.26 8.04 8.36 7.50 8.11 8.18 8.36 8.13 8.30 8.14 8.29 7.83 7.59 8.29 7.55 7.61 7.68 8.12 7.93 7.55 8.02 7.64 7.92 8.39 8.41 7.98 8.37 7.88 7.80 8.39 7.70 7.76 7.62 7.62 7.79 8.16 7.45 8.40 8.07 7.82 7.63 8.22 7.63 8.39 7.48 7.99 8.33 7.83 7.98 8.32 8.40 8.24 8.33 7.74 7.53 7.53 7.75 8.29 7.73 8.24 7.86 7.89 7.85 7.71 8.37 8.34 7.44 -9999 -9999 -9999 -9999 -9999 -9999 -9999 -9999 -9999 -9999 -9999 -9999 -9999 -9999 -9999 -9999 -9999 -9999 -9999
7.51 7.92 8.25 7.50 7.73 8.08 8.41 7.84 8.35 8.43 8.30 7.91 8.16 7.84 8.19 7.78 7.57 8.41 7.87 7.76 7.77 7.88 7.49 8.27 8.29 7.56 7.84 7.55 7.90 7.78 7.74 7.57 8.25 8.23 7.76 8.38 7.50 7.49 7.73 8.37 7.53 7.67 8.13 8.06 7.94 8.00 8.23 7.59 7.52 7.63 8.14 8.24 7.62 8.18 7.99 7.90 7.88 8.39 7.76 7.47 8.27 8.40 7.71 7.94 7.84 7.85 7.71 7.83 7.95 8.24 8.24 7.67 7.46 8.27 7.95 7.46 8.20 7.76 7.78 7.68 7.71 7.51 7.81 7.71 8.10 7.49 7.95 7.78 8.30 7.94 8.41 7.78 7.77 7.72 8.17 7.93 7.65 7.78 7.49 8.39 8.15 7.83 7.70 7.96 7.82 8.41 7.81 8.10 8.00 8.23 7.71 8.27 8.32 7.46 7.98 7.76 8.39 7.44 8.16 7.87 7.56 8.08 8.26 7.47 8.05 8.21 8.12 8.13 8.13 8.40 7.95 7.58 8.07 7.90 7.56 7.78 8.03 7.56 7.95 7.63 8.01 7.59 7.53 7.92 8.36 7.68 8.14 7.93 8.29 7.63 7.59 7.99 7.61 8.16 7.52 8.29 8.39 8.06 7.45 8.10 7.72 7.52 8.26 8.10 7.62 7.64 8.24 8.01 7.50 7.54 7.87 8.33 8.42 7.65 8.09 7.71 7.70 8.41 7.80 7.65 8.23 7.63 7.82 8.26 8.00 7.70 7.79 7.88 8.21 7.67 7.67 8.27 7.48 7.89 8.32 7.72 -9999 -9999 -9999 -9999 -9999 -9999 -9999 -9999 -9999 -9999 -9999 -9999 -9999 -9999 -9999 -9999 -9999 -9999 -9999
7.47 7.83 8.29 8.40 7.52 7.58 7.93 8.07 7.68 8.39 8.14 8.07 7.60 7.54 8.11 7.57 7.61 8.20 8.04 7.84 7.57 8.12 8.37 7.76 7.99 8.30 7.44 7.91 7.95 8.19 7.64 8.20 7.76 8.07 8.10 7.45 7.75 8.25 8.29 8.16 7.94 8.21 7.76 7.84 8.29 7.64 8.00 8.17 7.75 8.34 7.55 8.40 7.47 7.45 7.60 8.01 8.06 7.69 8.22 8.42 8.38 7.96 8.27 8.11 7.93 8.21 8.43 8.18 8.30 7.53 8.27 7.75 7.56 8.03 7.72 7.54 8.21 8.23 8.10 8.05 7.83 7.76 8.14 7.90 8.30 7.70 8.38 8.00 8.29 7.49 7.94 7.57 7.45 8.32 8.28 8.06 8.40 8.32 8.01 8.26 8.32 7.63 8.27 8.06 8.40 7.60 7.71 7.76 8.22 7.91 7.76 8.34 7.73 7.69 7.99 8.29 7.47 7.72 7.93 7.82 7.59 8.34 7.84 8.31 7.67 7.58 8.04 8.35 8.19 8.05 7.60 7.46 7.54 8.30 8.26 7.45 7.55 8.42 8.32 7.82 8.22 7.47 7.58 7.78 7.50 8.11 7.43 7.98 7.66 8.12 7.97 7.45 7.76 7.96 8.25 8.27 7.67 7.58 8.27 8.07 8.21 7.74 8.36 8.14 8.01 8.05 7.76 7.87 8.22 8.22 7.85 7.99 7.64 7.79 7.52 8.31 8.23 7.45 7.75 7.71 7.72 8.26 8.03 8.12 8.34 7.89 7.68 8.42 7.64 8.43 8.25 7.93 8.25 7.58 7.90 8.40 -9999 -9999 -9999 -9999 -9999 -9999 -9999 -9999 -9999 -9999 -9999 -9999 -9999 -9999 -9999 -9999 -9999 -9999 -9999
7.60 7.78 8.11 8.07 7.83 7.87 8.12 7.74 8.33 8.34 8.02 7.76 7.61 7.46 7.87 7.47 8.28 7.88 7.46 8.01 7.89 7.71 8.43 7.95 7.64 7.98 8.28 7.47 7.80 7.94 7.73 7.80 7.68 8.23 8.02 8.19 8.33 8.11 8.26 8.01 8.26 8.05 8.40 7.88 7.98 7.93 7.84 8.20 8.21 8.14 7.75 8.17 8.24 7.73 7.65 7.82 8.01 7.70 8.06 7.62 8.19 7.88 7.72 7.46 8.13 8.19 8.19 7.91 7.95 8.28 8.28 8.00 8.05 8.14 7.88 8.11 7.65 7.52 7.57 7.86 7.72 8.12 8.42 7.93 8.39 8.20 7.83 8.15 7.74 7.82 7.92 7.75 8.33 7.81 8.12 8.23 8.06 7.73 8.32 7.69 7.50 7.46 7.65 7.65 7.52 8.26 8.17 8.43 8.09 8.05 7.98 8.16 7.49 8.38 8.02 7.80 7.97 7.85 8.06 7.62 7.46 8.09 7.48 8.13 7.61 7.81 7.46 8.31 8.38 7.74 8.18 8.06 8.34 7.57 8.20 7.99 8.10 8.32 7.51 8.41 7.44 8.26 8.41 7.98 8.05 8.38 7.52 8.42 7.49 8.21 7.93 8.04 7.76 8.18 7.96 7.67 7.52 8.06 7.72 7.82 7.56 8.34 7.73 8.12 8.16 8.06 8.43 8.19 7.79 7.88 8.22 7.76 8.36 7.88 8.42 7.62 7.44 8.34 8.32 7.60 7.82 8.20 7.52 7.77 8.22 8.10 7.98 7.95 7.81 8.26 7.74 7.69 8.04 7.60 8.28 7.83 -9999 -9999 -9999 -9999 -9999 -9999 -9999 -9999 -9999 -9999 -9999 -9999 -9999 -9999 -9999 -9999 -9999 -9999 -9999
8.22 8.12 7.67 7.67 8.09 8.31 7.54 7.97 7.80 7.95 8.37 8.28 7.98 8.10 7.62 7.64 7.64 7.94 7.54 7.89 7.71 7.73 7.90 7.91 8.13 8.22 7.75 7.99 8.20 7.72 8.17 8.27 7.91 7.45 7.76 8.28 8.05 8.30 7.79 8.03 7.97 8.37 7.94 8.18 7.68 8.17 8.05 8.40 7.77 8.33 7.49 8.34 8.18 7.59 8.25 8.37 7.46 8.33 8.26 7.63 8.35 7.69 7.84 8.17 8.34 7.60 8.10 8.23 7.63 7.87 7.49 8.01 7.63 7.57 8.18 8.43 7.70 8.40 8.16 7.57 7.45 8.35 7.96 8.24 8.16 8.14 7.54 7.66 8.38 7.90 7.91 8.11 7.45 8.24 7.71 7.63 8.18 8.08 7.57 8.38 8.04 7.92 8.14 7.79 8.02 7.84 7.48 8.04 7.85 8.19 8.00 7.65 8.05 8.10 7.54 7.77 8.38 7.51 8.35 7.49 8.31 7.82 8.18 8.22 8.04 7.73 8.25 7.77 7.72 7.72 8.13 7.76 7.92 8.35 7.62 8.41 7.90 7.71 7.94 8.24 7.48 7.93 8.29 7.73 7.74 8.00 7.54 7.99 7.90 7.49 8.26 8.06 7.85 7.93 8.11 8.00 8.14 8.19 7.54 8.19 8.07 7.84 7.99 8.03 7.60 8.24 8.05 7.55 8.34 7.60 7.63 7.69 8.12 7.79 8.32 7.88 7.71 7.75 7.63 7.99 8.16 8.11 7.93 7.44 7.82 7.65 8.22 7.47 8.42 8.01 7.91 7.75 7.48 7.82 7.54 7.81 7.75 -9999 -9999 -9999 -9999 -9999 -9999 -9999 -9999 -9999 -9999 -9999 -9999 -9999 -9999 -9999 -9999 -9999 -9999
8.16 7.53 8.07 8.41 8.00 8.20 7.91 8.18 7.59 7.81 7.61 8.21 7.93 7.84 8.08 8.16 7.96 7.60 7.84 8.16 8.15 8.29 7.48 7.82 7.84 8.00 7.86 8.03 7.46 7.92 8.43 7.99 7.84 8.35 7.78 7.66 8.37 8.37 7.86 7.50 8.13 7.46 7.47 7.67 7.73 7.82 7.83 7.75 8.29 8.38 8.21 8.24 7.98 8.02 7.94 8.06 8.07 7.61 7.53 8.17 7.49 7.67 8.00 7.60 7.66 7.81 8.35 7.97 7.52 8.13 7.74 7.98 7.86 8.02 7.57 7.53 8.36 7.79 7.57 7.75 7.57 7.50 8.22 7.70 8.30 8.07 7.86 8.19 8.43 8.27 7.97 8.34 8.23 8.13 8.26 7.58 8.04 7.47 8.13 7.70 8.22 8.24 7.95 7.94 7.93 8.07 7.89 8.38 7.53 7.76 7.56 7.97 7.87 8.00 8.17 7.95 7.94 7.55 8.23 8.17 8.30 8.19 7.63 7.79 7.87 7.92 8.08 8.14 8.43 7.75 7.54 7.90 7.85 8.00 7.84 8.30 7.51 8.34 7.81 8.13 7.48 8.08 7.64 8.02 7.63 7.52 8.41 7.94 8.13 8.02 7.76 7.75 7.81 7.46 7.68 7.74 7.76 7.49 7.92 7.62 8.35 7.87 8.42 8.42 7.63 8.42 7.77 8.30 7.74 7.83 7.77 8.18 7.98 8.20 8.04 8.11 7.73 8.15 7.83 8.29 7.50 7.87 7.66 7.80 8.12 7.95 7.69 8.38 8.23 8.14 7.44 7.53 7.96 7.71 7.70 8.23 8.16 -9999 -9999 -9999 -9999 -9999 -9999 -9999 -9999 -9999 -9999 -9999 -9999 -9999 -9999 -9999 -9999 -9999 -9999
7.90 7.56 7.96 7.85 8.25 8.37 7.74 7.71 8.17 7.99 7.89 8.29 7.88 8.42 7.76 8.40 7.91 7.70 7.50 7.54 7.96 7.92 7.90 7.82 7.70 8.19 7.47 7.69 7.85 7.95 7.83 7.95 8.02 8.04 7.76 7.61 7.71 7.54 7.79 8.42 8.31 7.65 7.68 7.70 7.99 7.77 7.81 7.47 8.27 7.73 8.12 7.58 7.96 7.56 7.72 7.73 7.69 7.61 7.76 8.25 7.67 8.37 7.61 7.55 8.02 8.16 8.33 8.42 8.11 8.42 8.13 8.27 7.50 8.31 7.87 8.36 7.67 8.39 8.34 7.63 7.55 8.08 7.59 7.88 7.44 7.56 8.14 7.72 8.12 8.17 7.58 7.91 7.68 7.82 7.52 8.41 7.87 7.70 8.32 7.49 8.17 7.58 7.97 8.28 7.87 8.14 8.40 8.38 7.82 8.06 7.92 7.55 7.95 7.79 8.26 7.59 8.06 7.59 7.47 8.13 8.12 8.10 7.85 8.05 8.35 7.64 7.96 7.67 8.39 7.91 7.50 8.35 7.67 8.05 7.82 7.57 8.10 7.65 7.46 7.48 8.24 7.86 8.14 8.27 8.02 8.26 7.56 8.07 8.10 7.90 7.66 7.95 7.88 8.11 8.15 7.97 7.71 7.82 7.94 7.54 7.86 8.34 7.82 7.74 7.91 7.87 8.19 8.34 8.25 7.49 7.59 8.08 7.58 7.44 7.64 7.96 7.68 8.17 8.26 7.53 7.64 7.45 7.94 7.74 8.39 7.72 8.08 7.50 8.18 7.57 7.53 8.28 7.91 8.31 7.44 8.40 8.29 -9999 -9999 -9999 -9999 -9999 -9999 -9999 -9999 -9999 -9999 -9999 -9999 -9999 -9999 -9999 -9999 -9999 -9999
7.44 8.35 7.47 8.11 8.26 7.58 8.06 7.83 7.70 8.17 7.79 7.45 7.90 8.31 7.50 7.77 7.81 7.65 7.62 8.06 7.45 7.88 8.17 7.85 7.66 7.69 7.84 7.60 7.81 7.72 7.89 8.23 8.41 8.29 7.69 7.91 7.51 7.78 8.16 7.68 7.77 7.88 7.94 8.15 7.50 7.46 8.12 8.12 7.76 8.14 8.29 7.93 7.87 7.82 7.94 7.73 8.24 7.75 8.01 7.89 7.94 8.43 8.30 8.23 8.30 8.38 7.87 7.89 8.01 7.79 7.68 7.53 7.68 7.90 8.08 8.30 7.54 8.13 7.77 8.21 7.83 7.66 7.73 8.34 7.65 7.44 7.82 7.74 7.73 8.42 7.93 7.84 7.73 8.00 7.91 7.69 7.92 7.79 8.14 7.59 7.75 7.54 7.90 7.65 7.66 7.61 7.64 8.06 8.12 8.02 8.14 7.84 7.58 8.22 8.42 7.91 8.32 8.18 8.34 8.11 8.07 7.48 7.67 7.84 8.18 7.78 8.07 8.10 8.06 7.45 7.51 7.94 7.99 8.22 7.50 7.57 8.21 7.90 7.58 8.24 8.41 8.38 7.45 7.52 8.35 7.64 8.36 8.42 8.38 7.47 7.74 7.60 7.74 7.77 8.11 7.94 8.08 7.96 7.99 8.22 7.76 7.51 8.19 7.59 7.88 8.36 7.77 7.49 7.67 8.43 7.71 7.71 7.91 8.28 8.07 7.74 7.87 8.41 7.87 7.68 7.61 7.55 7.89 8.05 8.04 8.31 7.83 8.38 8.41 8.26 8.38 7.72 7.51 7.74 7.48 7.47 8.12 -9999 -9999 -9999 -9999 -9999 -9999 -9999 -9999 -9999 -9999 -9999 -9999 -9999 -9999 -9999 -9999 -9999 -9999
8.07 7.72 8.31 7.51 8.35 7.52 7.81 7.70 8.29 7.92 7.89 7.56 8.36 8.17 8.40 7.56 7.58 7.73 7.85 7.93 8.21 7.95 7.72 8.13 8.26 7.92 8.01 8.36 7.83 8.40 7.91 7.49 8.41 7.98 7.94 7.62 7.60 7.57 8.00 8.17 7.48 7.92 8.06 8.11 7.88 8.03 7.87 8.42 7.84 7.86 8.22 7.80 7.78 7.68 7.55 7.75 8.06 7.55 8.00 7.91 7.73 8.43 8.32 8.24 7.74 7.64 7.67 7.76 7.94 8.34 8.18 8.03 8.23 8.24 8.10 8.06 7.44 7.71 8.34 7.45 7.54 7.84 7.59 7.53 8.32 7.58 7.82 7.46 8.03 8.03 7.48 7.62 7.50 7.69 7.78 8.43 8.10 7.53 8.31 7.84 8.35 7.53 7.54 8.26 8.18 8.27 8.12 8.30 8.07 8.18 7.70 7.46 7.78 7.83 7.74 8.28 7.86 8.27 8.12 7.85 8.35 8.06 8.16 7.81 7.97 8.29 8.28 8.18 7.46 8.00 8.39 7.90 7.65 7.60 8.30 8.24 8.24 8.26 8.33 7.47 7.46 7.60 7.81 8.24 7.73 7.97 8.24 7.86 8.31 7.88 7.79 7.70 7.47 8.01 7.58 8.40 8.27 8.25 7.49 7.65 7.85 8.35 7.86 7.66 8.20 8.32 7.91 7.93 7.60 8.23 7.92 8.27 7.81 7.99 8.03 7.85 8.10 7.53 7.73 7.98 7.51 7.54 7.67 8.18 7.70 8.29 8.20 7.80 7.74 8.01 -9999 -9999 -9999 -9999 -9999 -9999 -9999 -9999 -9999 -9999 -9999 -9999 -9999 -9999 -9999 -9999 -9999 -9999 -9999 -9999 -9999 -9999 -9999 -9999 -9999
7.68 7.99 7.57 8.13 8.16 7.49 7.56 8.43 8.42 8.43 8.18 7.53 8.39 7.80 8.22 8.01 7.76 7.97 7.53 8.05 8.03 8.05 7.67 7.60 7.45 8.15 8.11 7.77 8.10 7.95 7.46 8.34 8.21 8.04 7.77 7.53 8.39 8.04 7.93 7.58 7.68 8.32 7.56 7.73 8.36 7.98 8.42 7.75 7.88 7.84 8.26 8.33 7.70 7.51 8.11 7.76 8.23 7.79 8.03 7.55 8.11 7.54 8.20 8.05 7.84 7.43 8.16 7.66 8.13 8.36 8.39 8.09 7.84 8.10 7.93 7.46 7.83 7.76 7.64 8.38 8.12 7.69 7.91 7.70 8.39 7.73 7.90 7.98 8.28 8.23 8.28 7.59 8.38 8.02 7.62 8.41 8.40 8.14 8.24 7.63 7.54 8.16 7.65 8.43 7.75 7.76 7.54 7.70 8.15 7.49 8.35 7.88 7.66 7.47 8.00 8.13 7.66 8.33 7.46 8.30 8.41 7.94 7.85 7.88 7.62 7.55 8.13 7.61 7.60 8.42 8.08 7.94 7.80 8.41 7.72 7.46 7.68 7.75 8.05 7.96 7.65 8.36 8.33 7.64 7.88 7.50 8.32 8.06 7.74 8.02 7.93 7.61 7.67 8.33 7.61 7.83 8.39 8.04 7.66 7.72 8.15 7.81 8.32 7.63 8.03 8.39 7.78 7.93 7.82 8.13 8.30 8.26 8.23 8.22 7.95 7.50 7.60 7.83 8.01 7.88 7.90 7.56 7.67 7.82 8.17 7.52 8.04 7.46 -9999 -9999 -9999 -9999 -9999 -9999 -9999 -9999 -9999 -9999 -9999 -9999 -9999 -9999 -9999 -9999 -9999 -9999 -9999 -9999 -9999 -9999 -9999 -9999 -9999 -9999 -9999
8.43 8.12 8.18 7.97 8.23 7.79 7.72 8.34 8.42 8.26 7.50 7.55 8.04 8.31 7.70 7.93 8.08 7.59 7.74 8.26 7.65 7.71 7.63 7.76 8.05 7.66 7.51 7.65 8.10 8.01 7.47 7.54 7.82 7.63 7.88 7.61 8.21 7.83 7.51 7.85 8.27 8.04 7.54 8.25 7.48 7.81 7.78 7.85 7.57 8.07 7.65 8.10 8.38 8.18 7.54 7.50 8.11 7.60 8.32 7.89 8.25 8.01 7.70 8.39 8.03 7.95 7.84 8.35 7.55 7.84 8.34 8.43 7.97 7.53 8.29 8.10 7.95 7.56 8.17 7.69 7.60 7.69 7.71 8.42 7.67 7.51 8.33 7.59 7.48 7.46 7.95 7.49 7.46 8.22 8.43 7.81 7.77 7.46 8.40 7.52 8.19 7.83 7.72 7.70 7.87 8.12 7.69 8.25 7.49 7.67 8.06 7.95 8.05 7.84 7.77 7.74 7.99 7.54 7.79 8.07 8.13 7.57 8.19 7.72 7.50 7.79 8.33 7.77 7.46 7.53 7.69 7.71 7.46 8.37 8.04 8.42 8.09 8.21 7.88 8.13 7.87 7.77 7.70 8.10 7.54 7.62 7.70 7.59 7.98 8.10 7.48 8.15 7.60 8.31 8.06 8.42 7.50 8.30 7.94 7.83 8.20 7.52 8.28 8.37 8.43 8.19 8.30 7.81 8.25 8.35 8.20 8.37 8.03 8.10 8.10 8.42 8.23 8.19 8.34 8.31 7.88 7.70 8.35 7.58 8.10 7.70 7.75 7.68 -9999 -9999 -9999 -9999 -9999 -9999 -9999 -9999 -9999 -9999 -9999 -9999 -9999 -9999 -9999 -9999 -9999 -9999 -9999 -9999 -9999 -9999 -9999 -9999 -9999 -9999 -9999
7.85 7.54 7.49 7.92 7.48 7.50 7.55 7.96 8.12 7.75 7.69 8.20 8.40 8.41 7.57 7.58 7.98 8.08 7.62 7.80 8.07 8.15 7.66 8.14 8.05 7.54 8.36 7.54 7.99 8.08 7.62 8.31 7.68 7.45 8.11 7.91 8.18 8.06 7.63 8.07 8.04 7.99 7.89 8.37 7.68 8.41 7.62 7.50 7.59 7.75 7.96 7.99 7.87 8.05 8.15 7.59 7.87 8.31 7.64 7.69 8.24 7.61 7.97 7.56 8.29 8.31 8.42 8.13 7.58 7.87 8.16 8.04 7.94 8.23 8.41 7.82 8.24 8.42 8.41 7.67 7.45 8.09 7.68 7.81 7.77 8.05 7.99 8.37 8.20 7.84 8.39 8.00 7.67 8.19 8.14 8.06 7.57 8.13 8.01 8.09 8.16 7.94 8.33 8.23 7.52 7.70 7.75 7.70 7.74 8.33 8.08 7.92 8.09 8.22 8.08 8.36 7.69 8.11 7.80 7.97 7.71 8.23 8.10 7.86 7.46 8.32 7.79 7.69 7.84 7.70 8.41 7.97 7.53 8.38 8.37 7.95 7.61 7.85 7.80 7.91 8.42 7.59 8.18 7.94 8.29 7.48 7.82 7.68 7.73 7.64 7.45 8.07 7.67 7.50 8.00 8.41 7.54 7.56 7.86 7.99 7.98 8.40 7.68 8.21 7.77 8.16 7.95 8.10 8.41 7.52 8.00 8.18 8.09 8.28 7.70 8.03 7.88 8.30 7.63 8.26 8.10 7.81 7.66 8.40 8.27 7.62 8.25 7.76 -9999 -9999 -9999 -9999 -9999 -9999 -9999 -9999 -9999 -9999 -9999 -9999 -9999 -9999 -9999 -9999 -9999 -9999 -9999 -9999 -9999 -9999 -9999 -9999 -9999 -9999 -9999
7.67 8.25 7.74 8.36 7.64 8.35 7.58 8.21 7.97 7.50 7.90 7.93 7.51 7.77 7.86 8.33 8.31 7.48 7.49 8.43 8.18 7.63 7.95 8.05 8.40 8.23 8.42 7.82 7.97 8.02 7.69 8.26 8.30 7.89 7.84 8.15 7.87 7.60 7.55 8.24 7.62 8.09 7.98 7.65 8.19 8.26 8.32 7.45 8.28 7.74 7.59 8.12 7.60 7.75 7.83 7.57 7.88 8.41 7.93 7.89 8.14 7.49 7.46 7.50 7.95 7.50 7.93 7.80 7.53 8.26 7.52 8.11 8.20 7.66 8.13 8.11 7.93 7.91 7.51 8.22 8.39 7.67 8.38 8.06 8.21 7.99 7.89 8.08 8.41 8.01 7.43 7.74 7.76 7.79 7.85 8.23 8.18 7.53 7.66 8.20 7.63 7.69 7.85 7.46 8.10 8.09 8.27 8.25 7.85 8.43 8.06 7.92 7.62 7.98 8.30 7.85 8.13 8.06 7.88 8.21 7.50 7.47 8.29 8.21 8.14 8.25 8.18 7.49 7.59 8.34 7.88 8.19 7.78 7.80 8.32 7.73 8.17 8.18 7.83 7.73 7.47 8.08 7.51 8.21 7.87 8.03 7.71 8.31 7.80 7.72 7.99 7.57 7.95 7.82 7.95 8.04 7.44 7.81 7.81 7.84 7.68 8.09 8.33 7.95 8.17 8.00 8.20 7.59 7.55 7.86 8.21 7.46 7.86 8.42 7.77 8.14 7.72 8.31 7.45 8.30 8.16 7.51 8.07 8.22 7.77 7.57 7.99 7.97 -9999 -9999 -9999 -9999 -9999 -9999 -9999 -9999 -9999 -9999 -9999 -9999 -9999 -9999 -9999 -9999 -9999 -9999 -9999 -9999 -9999 -9999 -9999 -9999 -9999 -9999 -9999
8.01 7.56 7.78 8.16 7.45 8.32 7.95 7.98 7.86 7.56 8.05 7.76 8.30 7.84 7.86 7.77 7.78 7.70 8.42 8.10 8.29 8.03 7.56 8.23 7.85 7.90 7.83 7.71 7.85 8.21 8.25 7.58 7.79 7.77 7.64 7.52 7.44 8.12 8.29 7.74 8.12 7.71 7.67 7.62 8.01 7.49 8.01 7.48 8.10 7.92 8.06 7.80 8.15 7.56 8.28 7.92 8.22 7.78 8.02 7.89 7.86 8.36 7.66 7.80 7.91 8.01 8.10 8.23 8.42 7.55 7.63 8.22 8.13 7.68 8.08 7.56 7.78 8.00 7.75 7.68 7.78 7.90 7.46 7.97 7.46 8.10 7.98 8.04 7.76 8.10 8.28 7.52 8.18 8.29 8.09 7.74 8.04 8.15 8.40 7.48 7.59 8.24 7.93 7.82 7.72 8.24 7.79 7.72 7.60 7.60 7.50 8.28 8.41 8.10 7.77 8.43 7.80 7.63 7.93 8.34 8.06 7.57 7.80 8.05 7.51 7.45 7.85 7.83 7.87 8.14 7.71 8.42 7.46 8.15 7.86 7.51 7.87 8.16 7.71 7.72 7.94 7.86 7.64 8.01 8.20 8.29 8.42 7.59 7.63 8.19 8.07 7.69 7.86 8.05 8.31 8.35 7.98 8.11 7.77 7.54 7.87 8.41 7.91 7.44 7.88 8.35 7.73 7.88 8.25 7.85 8.38 7.73 7.84 7.59 7.52 8.01 7.80 7.45 8.26 7.68 8.31 7.74 7.95 7.73 7.75 8.12 8.19 7.79 7.69 -9999 -9999 -9999 -9999 -9999 -9999 -9999 -9999 -9999 -9999 -9999 -9999 -9999 -9999 -9999 -9999 -9999 -9999 -9999 -9999 -9999 -9999 -9999 -9999 -9999 -9999
7.70 7.81 7.49 7.94 8.25 8.09 7.85 8.27 7.61 8.07 7.82 8.38 8.08 7.88 7.71 8.21 8.16 7.48 8.25 7.59 7.81 8.01 8.25 7.72 8.09 8.31 7.45 8.35 8.13 8.25 7.99 7.78 7.97 8.25 8.11 7.94 8.14 8.37 8.29 7.91 7.69 7.99 7.45 8.36 8.37 8.10 8.38 7.75 7.75 7.66 8.42 7.89 7.70 8.33 7.75 7.44 8.16 7.94 8.13 7.44 7.46 8.10 7.74 8.13 8.33 8.19 7.98 8.25 7.97 7.94 8.15 7.58 8.23 8.18 8.38 7.69 7.89 7.93 7.45 7.96 7.56 7.46 7.94 8.36 8.23 8.21 8.29 7.98 8.09 8.06 8.03 8.13 7.81 8.33 8.41 7.97 8.27 8.23 8.36 7.90 7.44 7.47 7.90 7.48 8.17 7.84 7.52 7.68 8.16 8.13 7.86 7.84 7.58 7.56 7.61 8.01 7.61 8.14 7.91 8.19 8.37 8.42 7.83 8.17 8.21 7.51 8.37 7.89 8.00 7.60 7.47 7.81 7.72 7.58 8.01 7.83 7.61 7.77 7.65 7.95 8.15 7.75 7.61 7.92 8.41 8.23 7.47 7.65 7.75 7.76 7.50 7.91 8.30 7.66 8.22 8.43 7.68 7.67 7.65 7.90 7.88 8.00 7.83 7.47 8.19 7.95 7.89 8.05 8.06 7.75 8.27 7.91 8.43 8.38 7.99 7.76 7.66 8.38 8.19 8.05 8.04 7.74 8.08 7.75 7.49 8.29 8.06 7.53 7.56 -9999 -9999 -9999 -9999 -9999 -9999 -9999 -9999 -9999 -9999 -9999 -9999 -9999 -9999 -9999 -9999 -9999 -9999 -9999 -9999 -9999 -9999 -9999 -9999 -9999 -9999
8.07 8.21 7.48 8.23 7.88 7.71 8.25 7.60 8.23 7.83 8.36 8.22 8.32 8.16 8.41 8.33 7.64 8.35 7.58 8.04 7.77 7.70 8.23 7.54 7.54 8.29 7.79 7.81 7.56 8.38 8.40 7.62 7.44 7.72 7.47 8.36 7.73 8.16 7.63 7.97 7.48 7.83 8.21 8.43 7.53 8.18 8.14 8.32 7.51 8.35 7.43 8.00 7.53 8.39 8.14 7.71 8.20 7.49 8.27 7.59 8.27 7.66 7.98 8.03 8.06 7.81 8.00 8.06 7.94 7.83 8.14 8.16 7.47 8.03 7.69 8.33 8.12 7.66 8.07 8.35 7.52 8.43 7.49 7.55 8.31 7.77 7.88 7.94 7.98 7.85 8.22 8.32 8.07 8.12 8.02 8.19 8.17 7.96 7.77 7.49 7.49 7.59 7.59 7.87 8.41 8.34 7.65 7.52 7.46 8.32 7.44 8.22 7.79 8.17 7.51 8.09 8.38 7.53 8.35 8.15 8.41 7.51 7.67 7.74 7.85 8.19 7.93 7.66 8.10 7.94 8.21 7.57 7.71 8.40 7.59 7.75 7.67 7.92 7.66 8.38 7.44 8.02 8.08 7.71 7.93 8.17 7.94 8.03 7.89 7.69 8.43 8.10 7.53 8.25 7.54 7.57 7.53 7.56 8.00 7.86 8.06 7.69 8.41 7.95 7.83 7.97 7.67 7.64 8.01 8.30 7.47 7.47 7.50 8.21 7.77 7.87 8.01 7.77 7.82 8.40 8.39 7.64 8.36 8.00 7.95 7.51 7.74 7.50 7.95 -9999 -9999 -9999 -9999 -9999 -9999 -9999 -9999 -9999 -9999 -9999 -9999 -9999 -9999 -9999 -9999 -9999 -9999 -9999 -9999 -9999 -9999 -9999 -9999 -9999 -9999
7.61 7.61 7.90 8.32 7.76 7.93 7.78 8.31 8.21 7.69 8.39 7.67 8.11 8.10 8.20 8.37 7.54 8.35 7.45 7.65 7.79 7.61 8.28 8.32 8.02 8.34 7.77 8.02 8.19 8.30 7.64 7.78 7.99 7.54 7.50 7.54 8.20 8.31 7.84 8.27 7.86 7.96 7.90 7.85 7.54 8.30 7.88 7.61 7.82 7.85 8.29 8.10 7.96 8.31 8.14 8.22 7.91 8.41 8.25 7.58 8.25 7.45 7.67 7.97 8.40 7.84 7.83 7.57 8.42 7.92 7.85 8.28 8.14 8.33 7.73 7.46 7.47 8.02 7.73 7.55 7.97 7.77 8.28 7.83 7.46 7.88 7.98 7.85 7.99 8.20 8.42 7.69 7.86 7.94 8.05 7.87 7.47 7.78 7.53 7.45 7.63 7.57 8.33 8.27 8.21 8.21 8.23 7.81 8.38 7.86 8.05 8.08 7.90 7.84 8.26 7.56 8.01 7.66 7.66 8.10 8.07 8.00 8.00 7.44 7.47 7.84 7.58 7.98 8.12 8.03 7.96 8.09 8.31 8.11 7.87 7.89 7.75 8.35 8.17 7.54 8.02 8.38 8.37 7.81 8.21 7.99 8.27 7.56 7.58 7.78 7.53 7.99 8.01 7.59 8.38 7.52 8.28 7.83 7.64 8.02 8.09 8.22 7.73 8.16 7.87 7.63 7.44 7.64 8.14 8.21 8.12 7.81 7.89 7.47 8.25 7.63 7.98 8.07 8.31 7.98 7.87 7.89 7.52 8.21 8.02 8.14 8.24 7.87 8.25 -9999 -9999 -9999 -9999 -9999 -9999 -9999 -9999 -9999 -9999 -9999 -9999 -9999 -9999 -9999 -9999 -9999 -9999 -9999 -9999 -9999 -9999 -9999 -9999 -9999 -9999
7.93 8.13 8.31 8.40 8.15 7.84 8.06 7.97 7.70 7.83 8.38 8.16 7.80 7.61 7.79 7.77 8.03 8.13 8.20 7.97 8.19 7.96 8.41 7.85 7.99 7.75 7.82 7.86 7.43 8.38 8.16 8.39 7.66 8.30 7.71 8.30 8.15 7.51 8.05 7.49 7.56 7.44 7.45 8.18 8.12 7.92 8.07 7.96 7.72 8.19 7.94 7.90 8.30 7.57 8.04 7.85 7.87 8.40 8.30 8.27 7.56 8.33 8.36 7.64 8.22 7.49 8.09 7.79 7.74 8.41 7.45 8.41 8.41 7.81 8.34 7.78 8.42 7.48 8.23 7.95 7.55 8.06 7.77 8.18 8.41 7.68 8.39 8.41 7.63 7.68 8.35 8.01 7.71 7.69 8.27 7.49 8.42 8.05 8.08 8.13 7.68 7.86 7.87 8.36 7.78 7.60 8.10 8.16 8.05 8.01 7.61 7.70 7.47 8.23 7.44 8.17 8.10 8.32 7.83 7.76 8.14 8.29 8.07 8.10 7.71 8.38 8.09 7.57 7.55 8.18 8.10 7.97 8.31 7.79 7.70 8.00 7.46 8.09 7.99 7.57 7.94 7.87 8.29 7.72 8.32 8.43 7.71 8.05 7.44 7.93 8.24 7.61 8.24 7.50 8.42 8.06 7.77 7.81 7.58 7.92 8.35 8.25 8.25 7.98 7.48 8.06 7.65 7.43 8.25 8.40 7.64 7.97 7.88 7.57 7.47 8.04 8.36 8.04 7.88 8.26 7.81 7.70 8.39 7.66 8.11 8.16 8.02 8.19 7.95 -9999 -9999 -9999 -9999 -9999 -9999 -9999 -9999 -9999 -9999 -9999 -9999 -9999 -9999 -9999 -9999 -9999 -9999 -9999 -9999 -9999 -9999 -9999 -9999 -9999 -9999
8.31 7.91 7.79 7.82 8.05 8.29 7.89 8.21 7.55 7.48 7.82 7.60 8.20 8.05 7.73 7.83 8.29 7.51 8.04 8.32 8.03 8.23 8.20 8.22 8.34 7.79 7.92 7.56 7.47 7.76 7.88 7.64 8.07 7.45 7.79 7.78 7.88 8.13 7.64 8.29 7.51 7.77 7.45 7.50 8.35 7.56 7.70 8.06 8.29 7.77 8.32 8.04 7.94 7.84 7.86 7.51 7.56 7.76 7.94 7.96 8.28 7.73 8.35 8.13 7.54 7.86 8.01 8.14 8.04 8.33 8.04 7.76 7.67 7.68 7.92 7.91 7.55 8.21 8.25 7.89 7.73 7.97 8.30 8.38 7.49 8.01 8.19 7.74 8.01 7.96 8.15 7.71 8.05 8.14 8.16 7.60 8.02 7.84 7.56 8.40 7.68 7.60 7.46 7.97 8.01 7.43 8.05 8.14 8.06 7.49 7.64 7.64 7.69 7.43 7.47 7.63 8.37 7.74 8.08 8.02 8.28 8.33 8.00 8.24 8.36 8.30 8.24 7.71 7.45 8.20 8.09 8.21 7.96 7.85 8.29 7.68 8.39 7.81 8.25 7.73 8.05 7.49 7.67 8.04 8.23 7.75 8.29 8.27 7.59 7.77 8.29 8.13 7.68 7.54 8.20 8.40 7.73 8.06 7.44 8.25 7.56 8.39 7.76 7.80 8.33 7.71 8.20 7.67 8.01 7.86 7.74 7.58 7.57 8.20 7.77 7.78 8.02 7.81 7.68 7.65 7.83 7.93 7.94 8.35 7.53 7.98 7.63 8.35 7.89 -9999 -9999 -9999 -9999 -9999 -9999 -9999 -9999 -9999 -9999 -9999 -9999 -9999 -9999 -9999 -9999 -9999 -9999 -9999 -9999 -9999 -9999 -9999 -9999 -9999 -9999
7.70 7.66 7.44 7.94 7.54 8.32 8.12 8.38 7.65 7.47 8.36 7.53 8.34 7.74 8.09 7.69 8.07 7.54 7.57 7.77 8.24 7.91 8.12 8.16 8.11 7.81 8.40 8.39 7.58 7.78 8.31 8.12 8.29 7.48 7.83 7.79 7.44 8.23 7.55 8.25 7.68 8.10 8.41 7.51 7.73 7.95 7.51 7.59 8.37 8.40 7.58 8.25 7.83 8.41 7.48 8.35 8.29 7.85 8.02 8.17 7.62 8.26 7.81 7.57 7.74 7.52 7.64 7.46 8.34 7.58 8.07 8.36 8.28 7.69 8.42 7.97 7.67 8.11 7.50 8.36 8.08 7.57 7.67 7.76 7.56 7.45 7.55 7.83 7.71 7.64 8.24 7.60 8.37 7.77 8.36 7.61 8.38 7.98 7.55 8.20 8.39 8.10 7.76 7.61 8.39 8.25 7.84 8.16 7.88 8.18 7.81 7.64 8.11 8.30 8.39 8.39 7.59 7.59 8.42 7.51 7.96 7.51 7.90 8.26 7.83 8.21 8.02 7.45 7.92 7.66 7.74 8.40 7.63 7.55 7.46 7.73 7.94 7.61 8.00 7.65 8.21 7.98 7.60 8.14 7.87 8.00 8.22 8.20 7.57 7.47 7.93 7.53 8.42 7.64 8.08 7.54 7.61 7.82 8.18 8.23 7.54 7.93 7.44 7.81 7.95 8.02 8.06 7.68 8.16 8.06 8.30 8.36 7.88 7.44 7.84 8.33 7.58 7.90 8.11 7.61 8.01 7.99 8.09 7.62 7.85 7.86 7.46 8.31 7.80 -9999 -9999 -9999 -9999 -9999 -9999 -9999 -9999 -9999 -9999 -9999 -9999 -9999 -9999 -9999 -9999 -9999 -9999 -9999 -9999 -9999 -9999 -9999 -9999 -9999 -9999
8.03 8.32 7.49 8.11 7.64 7.55 7.92 7.55 7.82 7.68 8.32 7.96 7.61 7.62 7.90 7.50 7.52 7.45 8.35 7.56 8.01 7.50 8.00 7.59 8.21 8.41 8.39 7.94 7.60 8.23 7.61 8.14 7.63 7.56 8.07 8.16 8.32 7.57 7.52 8.15 7.52 8.28 7.67 7.63 8.22 7.64 7.78 7.74 8.37 8.14 7.70 7.54 8.30 7.60 7.83 7.85 7.83 7.81 8.23 8.26 8.42 7.93 8.28 8.11 7.59 8.41 7.50 7.98 8.12 7.97 7.94 7.66 8.27 8.19 7.48 8.41 8.37 8.14 7.93 7.47 7.44 7.53 7.70 7.57 7.86 7.84 8.33 8.17 8.29 8.33 7.91 7.94 8.09 7.66 8.08 8.19 8.28 8.01 7.89 7.47 8.39 7.90 8.31 8.04 8.33 8.06 7.61 8.26 7.79 7.61 8.07 7.89 8.14 8.08 7.59 7.47 8.16 7.91 7.77 8.13 8.33 8.10 8.38 8.03 7.97 7.68 8.01 8.08 8.26 7.94 7.47 7.50 7.79 7.96 8.16 7.65 7.47 7.77 8.27 7.92 8.07 8.20 7.96 8.15 7.50 7.51 7.46 7.46 7.64 8.36 7.75 7.46 7.92 7.55 8.33 8.42 7.61 7.56 7.96 8.09 8.17 8.10 8.37 8.34 7.48 7.49 7.67 7.81 8.00 7.83 7.80 7.92 8.32 8.18 7.69 8.25 8.07 7.89 7.60 8.08 8.04 8.41 8.26 8.06 8.02 7.92 7.93 8.40 8.06 7.83 -9999 -9999 -9999 -9999 -9999 -9999 -9999 -9999 -9999 -9999 -9999 -9999 -9999 -9999 -9999 -9999 -9999 -9999 -9999 -9999 -9999 -9999 -9999 -9999 -9999
8.35 7.87 7.92 7.87 8.24 7.84 7.98 8.04 7.67 7.67 8.37 7.81 7.57 7.82 7.68 8.24 7.70 7.95 8.17 8.34 7.72 7.95 7.49 7.82 7.53 7.67 7.82 7.64 7.80 7.57 8.25 8.38 8.39 8.22 7.85 8.23 8.19 7.79 7.97 8.09 7.84 8.43 8.13 7.77 8.33 8.07 7.69 7.99 7.92 8.08 8.23 8.03 8.21 8.16 7.56 7.91 7.83 7.62 7.65 7.51 7.94 8.39 8.30 8.09 8.36 8.34 7.97 7.65 7.86 8.38 8.40 7.44 7.78 7.60 8.09 7.62 8.29 7.63 8.36 7.58 7.44 8.24 8.12 7.58 7.63 7.59 8.28 7.88 8.38 7.47 7.86 7.68 8.20 7.49 8.08 8.17 8.29 7.49 7.58 7.70 8.24 8.22 7.53 8.02 8.05 8.07 7.54 8.28 7.44 7.56 7.68 7.95 8.40 7.84 7.59 8.40 7.57 7.84 8.31 7.88 8.28 8.13 8.38 8.09 8.30 7.59 8.03 7.89 8.10 8.42 8.01 8.23 7.80 7.74 7.70 8.38 8.33 7.62 8.25 8.21 8.10 8.07 8.27 7.48 8.10 8.06 7.48 8.05 7.66 7.44 7.74 8.37 8.23 7.59 7.77 7.93 8.11 8.34 8.02 8.16 7.56 8.04 7.97 8.02 8.21 8.35 7.57 8.41 7.84 8.27 7.90 7.48 7.66 7.99 7.94 7.92 7.57 8.41 7.56 7.88 7.70 7.94 8.10 7.72 7.85 8.08 7.84 7.64 8.40 8.17 -9999 -9999 -9999 -9999 -9999 -9999 -9999 -9999 -9999 -9999 -9999 -9999 -9999 -9999 -9999 -9999 -9999 -9999 -9999 -9999 -9999 -9999 -9999 -9999 -9999
7.83 7.62 7.70 7.46 8.01 8.39 7.81 8.08 7.79 7.52 8.09 7.54 8.32 8.30 8.16 7.81 7.88 7.99 7.48 8.36 8.26 7.50 7.91 8.05 8.26 7.44 7.56 7.67 7.71 7.68 8.05 7.89 8.32 8.20 8.30 8.19 8.28 7.63 7.51 8.33 8.12 7.51 7.74 7.50 8.23 8.32 7.67 7.81 8.00 7.63 7.63 7.84 7.72 7.93 8.33 8.29 8.36 8.06 7.73 8.02 8.01 8.33 8.21 7.83 7.89 8.43 7.78 7.72 8.18 8.31 8.34 7.43 7.59 7.99 7.61 7.72 8.26 7.45 8.12 8.36 7.59 8.19 7.45 7.92 7.47 7.50 8.43 7.79 7.52 8.42 8.09 7.49 7.78 7.53 8.42 8.40 7.53 7.98 8.09 7.87 7.74 8.02 7.60 7.65 8.04 7.56 7.46 7.53 8.22 8.15 7.69 8.05 7.96 7.45 8.32 8.11 7.52 7.75 7.56 8.05 7.77 8.24 8.41 8.16 8.02 7.63 8.20 7.87 7.84 7.59 7.59 8.36 7.51 7.94 7.57 7.58 7.92 7.52 7.56 8.34 8.01 7.71 7.55 7.73 8.25 8.10 7.74 7.61 8.18 7.66 8.33 7.70 7.80 7.75 8.42 7.85 7.44 8.39 8.06 7.67 7.99 7.96 8.21 8.26 8.04 8.28 8.28 7.49 8.14 8.34 7.89 7.48 7.87 8.09 8.16 7.68 7.70 7.97 7.67 7.61 8.39 8.02 8.43 8.20 8.17 8.40 7.76 7.69 7.63 7.45 -9999 -9999 -9999 -9999 -9999 -9999 -9999 -9999 -9999 -9999 -9999 -9999 -9999 -9999 -9999 -9999 -9999 -9999 -9999 -9999 -9999 -9999 -9999 -9999 -9999
7.98 8.04 8.05 8.37 7.93 8.20 7.48 8.25 8.19 7.90 7.58 7.51 7.88 7.44 8.09 7.89 8.13 7.92 8.29 7.76 8.09 7.92 8.28 7.55 8.10 7.61 7.54 8.41 8.32 7.70 8.42 7.71 7.49 7.89 7.82 7.53 8.17 7.83 7.76 7.91 7.94 8.09 7.47 7.71 7.50 7.69 8.07 8.15 8.03 7.61 7.68 8.32 7.80 7.88 7.65 7.53 8.22 8.09 7.91 7.57 7.88 7.75 7.69 7.54 8.16 8.03 7.47 8.29 8.04 7.79 7.55 7.78 7.53 7.76 8.24 7.52 7.57 7.88 7.71 7.86 8.34 7.46 8.18 8.42 7.48 7.80 7.84 7.64 8.03 7.84 7.82 7.99 8.39 7.87 8.10 7.67 7.77 8.28 8.29 7.95 8.12 8.00 7.47 7.91 8.09 8.19 7.98 7.69 7.50 8.38 8.26 8.22 8.33 7.74 7.93 7.46 7.99 8.15 7.70 7.81 8.01 7.72 8.24 8.21 7.79 8.18 7.72 8.09 7.76 8.28 8.38 7.44 7.95 8.12 7.80 8.25 8.07 8.37 7.59 7.87 8.23 8.23 8.29 8.04 8.18 7.86 8.40 7.57 8.19 7.58 7.50 7.55 8.11 8.05 7.56 7.82 7.58 8.43 7.49 8.05 7.72 7.70 7.54 7.96 7.52 8.41 7.75 8.12 8.22 7.53 7.88 7.69 7.45 8.16 8.02 8.13 7.87 8.10 7.55 8.03 7.76 8.22 7.95 8.11 7.49 8.23 8.13 7.60 7.89 7.85 -9999 -9999 -9999 -9999 -9999 -9999 -9999 -9999 -9999 -9999 -9999 -9999 -9999 -9999 -9999 -9999 -9999 -9999 -9999 -9999 -9999 -9999 -9999 -9999 -9999
7.95 7.97 7.87 8.39 7.66 7.48 7.91 7.54 7.97 7.49 8.02 8.32 8.33 7.81 7.50 8.09 7.45 7.47 7.68 8.11 8.21 8.26 7.53 8.27 8.30 8.31 8.18 8.42 8.08 7.81 8.19 8.30 7.84 8.17 8.32 7.84 8.37 8.42 7.86 8.04 8.10 7.54 8.29 8.16 7.82 8.09 8.17 8.39 8.42 7.60 8.20 7.94 7.91 7.98 7.75 7.56 8.43 7.79 7.89 8.33 8.09 7.79 7.46 8.41 7.61 7.49 7.49 8.42 7.54 7.76 8.13 7.46 7.77 8.40 8.07 8.21 8.30 7.80 8.04 7.63 8.07 8.42 7.92 7.97 7.81 7.56 7.85 8.40 7.85 8.01 8.22 8.01 7.57 7.60 7.87 8.30 8.26 7.74 8.18 7.55 8.35 7.61 7.55 8.13 7.91 7.71 8.03 7.64 8.18 7.66 7.58 7.92 7.51 7.73 7.99 8.29 7.98 8.40 8.07 7.84 8.33 8.43 7.61 8.11 7.95 7.94 7.46 7.70 7.61 7.87 7.98 8.37 8.24 7.92 8.05 8.25 8.22 8.26 8.18 8.10 7.46 7.46 7.77 8.25 7.70 7.72 7.76 8.36 7.70 8.13 8.36 7.72 7.51 7.98 7.86 7.76 7.48 7.89 7.55 7.87 7.83 7.53 8.19 8.28 8.37 7.72 7.46 7.64 7.68 8.28 8.17 8.09 8.35 7.67 7.84 8.24 7.54 8.21 7.62 7.56 7.51 7.66 8.02 7.92 7.65 8.11 8.04 7.96 7.53 8.36 -9999 -9999 -9999 -9999 -9999 -9999 -9999 -9999 -9999 -9999 -9999 -9999 -9999 -9999 -9999 -9999 -9999 -9999 -9999 -9999 -9999 -9999 -9999 -9999 -9999
8.19 7.71 8.20 7.88 8.16 8.27 7.86 8.22 7.67 7.58 8.34 8.18 7.89 7.74 8.15 7.55 7.44 8.24 8.20 8.03 8.23 7.75 8.39 8.03 8.06 7.47 8.35 7.78 7.56 8.20 7.87 7.99 7.67 7.92 7.63 7.96 8.12 8.19 7.88 7.95 7.93 8.36 8.39 7.54 8.23 7.90 8.12 8.34 7.62 8.41 7.82 8.13 7.79 7.73 8.30 8.33 8.06 7.75 7.62 7.80 8.12 8.04 7.73 8.18 7.84 7.83 7.82 8.10 7.96 7.61 7.81 7.74 8.17 8.27 7.77 8.35 7.95 7.61 8.32 7.66 8.32 8.27 8.36 8.25 7.88 8.42 8.30 8.05 7.78 7.88 8.36 8.12 7.73 7.89 7.71 8.23 7.82 8.04 7.44 8.31 8.29 7.57 8.40 8.05 7.91 8.43 7.57 8.34 7.88 7.58 7.69 7.59 8.09 7.69 7.72 7.58 7.66 8.05 7.97 7.92 7.47 8.05 7.50 7.78 8.01 7.51 8.30 7.58 7.87 8.12 8.40 8.42 7.72 7.74 8.41 7.78 8.07 7.67 8.06 8.05 7.58 7.83 7.83 8.10 7.60 7.63 7.81 7.50 8.38 8.24 8.08 7.71 8.07 8.35 7.88 7.92 7.84 8.40 8.01 7.63 8.22 7.95 7.83 8.30 8.06 8.12 7.52 8.38 8.38 7.53 7.93 7.86 7.49 8.00 7.50 7.88 7.53 8.42 8.34 8.23 7.44 7.76 8.08 7.76 7.75 7.84 8.38 7.79 8.43 8.14 -9999 -9999 -9999 -9999 -9999 -9999 -9999 -9999 -9999 -9999 -9999 -9999 -9999 -9999 -9999 -9999 -9999 -9999 -9999 -9999 -9999 -9999 -9999 -9999 -9999
7.89 8.40 7.78 7.92 8.16 7.76 8.34 7.49 7.84 8.04 7.99 7.81 8.41 7.85 7.55 7.44 8.21 7.71 7.53 7.61 7.97 7.53 7.57 7.93 8.19 7.87 8.41 7.54 7.69 7.86 8.25 7.63 7.68 8.22 7.77 7.67 7.72 7.59 8.03 7.60 8.15 7.97 7.87 8.12 7.90 7.58 8.02 8.37 7.56 7.44 8.14 8.07 7.54 8.25 7.97 7.79 8.38 7.65 8.21 8.40 8.33 7.61 7.72 7.75 7.73 7.49 8.12 8.41 8.27 7.64 8.19 7.72 8.30 8.06 7.48 7.76 8.06 8.33 7.49 7.97 8.05 8.42 7.94 8.17 8.25 7.50 7.46 7.86 7.98 8.00 8.00 8.26 8.41 7.92 8.30 7.56 7.89 8.09 7.48 8.13 8.23 7.46 8.20 7.94 7.47 7.92 8.04 8.32 8.06 8.06 7.53 7.48 7.99 7.74 7.76 7.66 8.38 8.39 7.97 8.21 7.95 8.40 7.45 8.15 7.73 7.52 7.82 7.86 8.27 7.56 7.66 7.51 7.61 7.90 7.90 7.64 8.26 7.83 7.82 7.74 8.29 7.92 8.19 8.38 7.99 8.11 7.56 7.69 8.17 8.09 8.26 7.90 7.71 8.42 7.66 7.68 7.79 7.81 7.87 8.00 7.62 7.63 7.82 7.82 8.05 7.91 7.65 7.75 8.12 8.26 7.51 8.19 8.13 7.86 7.45 8.37 7.91 8.42 7.86 7.70 7.67 8.35 8.23 7.54 8.09 8.36 8.36 8.05 7.80 7.78 7.59 -9999 -9999 -9999 -9999 -9999 -9999 -9999 -9999 -9999 -9999 -9999 -9999 -9999 -9999 -9999 -9999 -9999 -9999 -9999 -9999 -9999 -9999 -9999 -9999
8.16 7.51 7.86 7.78 7.81 8.20 7.45 7.88 7.53 7.74 8.06 8.03 7.79 7.87 7.67 7.86 7.51 8.00 7.84 8.23 7.74 7.94 7.55 7.65 7.45 7.44 8.11 7.63 7.77 8.37 8.17 8.19 7.95 7.86 7.48 8.27 7.54 8.31 8.01 8.08 8.00 8.33 8.33 8.24 8.34 8.18 8.32 7.73 7.47 8.34 8.26 8.01 8.22 8.33 7.50 8.11 8.16 7.61 7.97 8.02 8.17 7.73 7.48 8.39 7.48 7.99 7.62 7.85 7.53 7.58 7.74 8.38 8.30 7.61 8.27 7.95 7.73 7.45 7.72 8.38 8.29 7.84 8.35 7.53 7.97 7.76 8.11 7.50 8.02 8.05 7.86 8.40 7.64 7.96 8.29 7.96 7.77 8.23 8.33 8.20 7.72 8.00 8.32 7.53 8.08 8.12 7.65 8.11 7.47 7.62 7.71 8.18 8.24 7.56 8.14 7.69 8.21 7.88 8.28 7.52 7.79 8.05 8.29 7.81 7.66 7.89 7.92 7.63 7.64 7.47 8.21 7.83 8.27 7.48 7.63 7.47 8.36 8.25 8.32 8.04 7.73 7.85 8.27 8.11 8.16 8.32 7.65 7.51 7.47 8.06 8.26 8.14 7.74 7.51 8.19 7.50 7.65 7.74 8.23 7.48 7.60 7.44 8.08 7.51 7.53 7.53 7.81 8.36 7.59 7.95 7.74 7.77 7.49 7.59 7.73 7.90 7.78 7.55 8.28 8.11 7.86 7.95 7.72 7.94 8.29 7.82 8.05 7.89 7.99 8.08 8.25 -9999 -9999 -9999 -9999 -9999 -9999 -9999 -9999 -9999 -9999 -9999 -9999 -9999 -9999 -9999 -9999 -9999 -9999 -9999 -9999 -9999 -9999 -9999 -9999
7.48 7.44 7.78 8.18 8.00 8.24 7.82 8.33 7.64 8.30 7.86 7.81 7.91 7.46 7.49 8.36 8.22 8.17 7.79 7.81 7.65 7.53 8.21 8.16 7.89 8.20 7.83 7.86 8.22 8.04 8.25 7.79 8.28 7.74 7.90 8.14 8.32 7.79 8.32 7.90 7.64 8.20 8.27 7.51 7.93 8.36 7.82 7.78 8.13 7.55 7.76 7.60 7.63 7.47 8.37 8.29 8.34 7.81 7.77 8.28 8.22 7.66 7.84 7.84 8.10 8.30 8.35 8.16 8.35 8.38 7.90 7.51 8.14 7.75 8.12 8.18 7.98 7.64 8.03 7.57 8.25 7.78 8.22 8.24 7.86 8.29 7.48 7.98 7.54 7.46 7.48 8.25 8.00 8.15 8.31 7.62 8.29 7.77 7.83 8.05 7.80 8.01 7.95 7.55 7.54 7.73 7.99 7.95 8.37 7.82 7.85 8.16 8.08 8.28 8.26 8.35 7.52 7.86 8.38 8.00 8.23 7.57 7.99 7.81 7.66 8.38 8.40 8.16 7.61 8.10 7.68 7.52 7.55 8.20 8.27 7.90 7.45 8.36 7.99 8.03 8.01 7.96 8.14 7.71 7.76 8.35 7.61 7.80 7.70 8.04 8.20 7.89 7.68 8.36 7.92 8.35 7.67 7.55 7.81 7.56 8.22 7.64 7.96 7.51 7.67 7.82 7.63 7.47 8.34 8.43 7.71 7.94 8.40 8.13 8.00 7.93 7.73 7.55 8.35 8.08 7.81 7.94 7.50 8.10 7.83 7.89 7.61 7.52 7.64 7.86 7.78 -9999 -9999 -9999 -9999 -9999 -9999 -9999 -9999 -9999 -9999 -9999 -9999 -9999 -9999 -9999 -9999 -9999 -9999 -9999 -9999 -9999 -9999 -9999 -9999
8.10 8.35 7.71 7.81 7.47 7.97 8.01 8.25 8.22 7.71 8.00 8.40 7.80 7.52 8.40 8.10 8.41 8.29 8.38 7.59 7.89 7.90 7.84 8.33 8.32 7.86 7.72 8.10 7.84 7.68 7.69 8.14 7.56 7.50 7.63 7.48 7.61 8.02 8.04 7.82 7.50 8.34 8.14 8.42 7.97 7.84 7.66 7.71 8.30 8.06 7.53 7.64 8.02 7.97 7.65 8.35 7.46 7.54 7.62 7.47 8.07 8.19 8.14 7.49 8.34 7.83 7.92 7.90 7.89 7.51 7.69 8.40 8.34 8.12 7.82 8.18 8.14 7.48 8.08 7.59 7.66 7.53 8.27 7.78 7.92 7.95 8.08 7.91 8.07 7.90 8.24 8.06 7.45 8.18 7.94 7.56 8.00 8.34 7.77 8.04 7.79 7.85 8.14 7.70 7.85 8.18 7.73 7.54 7.89 8.04 7.57 8.00 8.05 8.19 7.74 7.44 8.02 7.94 7.68 7.85 7.49 8.09 7.62 8.15 7.68 7.65 7.86 8.31 8.27 8.20 7.74 7.68 8.08 8.01 7.67 7.86 7.98 7.89 8.37 7.72 8.25 7.56 7.96 7.97 7.80 7.57 8.20 8.06 7.71 7.46 7.65 7.60 7.65 8.19 8.07 8.11 7.44 7.76 7.53 7.43 7.64 7.64 7.57 7.55 7.81 8.23 8.34 7.54 7.89 7.54 8.18 8.04 7.59 7.73 7.68 7.44 8.21 8.43 8.36 8.18 7.71 8.17 7.70 7.77 7.88 7.76 7.50 8.34 7.80 8.14 7.65 -9999 -9999 -9999 -9999 -9999 -9999 -9999 -9999 -9999 -9999 -9999 -9999 -9999 -9999 -9999 -9999 -9999 -9999 -9999 -9999 -9999 -9999 -9999 -9999
7.60 7.76 8.12 7.74 7.68 7.87 8.00 8.02 7.96 8.21 7.77 8.20 8.38 7.51 8.20 8.41 7.47 8.10 7.58 8.08 8.32 7.67 7.55 7.90 7.53 7.89 7.54 8.21 7.90 8.32 8.22 7.93 7.51 7.68 7.59 8.18 7.65 8.23 7.93 7.79 7.76 8.23 7.64 7.56 8.08 7.83 8.00 7.62 8.26 7.97 7.61 8.25 8.28 8.24 8.01 7.92 8.15 7.94 8.02 7.52 7.63 7.57 7.77 8.35 7.92 8.03 8.23 8.12 7.81 8.35 7.94 8.04 7.56 8.29 7.78 8.19 8.01 7.80 8.23 8.23 8.39 8.26 7.97 7.61 8.39 8.33 7.63 8.09 7.97 8.43 7.68 7.75 7.57 7.59 7.63 8.21 7.86 8.27 8.31 7.49 8.26 8.34 7.84 7.80 7.45 8.24 7.65 8.20 7.53 7.59 7.88 7.54 7.91 7.78 7.85 8.26 8.09 8.36 7.90 8.09 7.98 7.82 7.79 8.13 8.28 8.33 7.55 8.36 7.70 8.10 7.45 8.17 7.97 7.52 7.73 8.41 7.52 7.50 7.67 7.51 7.88 7.58 8.26 8.16 7.66 8.34 8.40 7.73 8.40 7.76 8.11 8.39 8.26 8.16 7.85 8.41 7.47 8.15 7.63 7.65 7.83 7.53 7.93 7.57 7.73 7.92 7.77 8.39 7.49 7.87 7.98 7.57 8.41 8.39 7.70 7.71 8.05 8.04 8.38 8.22 8.42 8.31 7.77 8.26 7.89 8.28 7.46 7.46 7.60 7.60 7.91 -9999 -9999 -9999 -9999 -9999 -9999 -9999 -9999 -9999 -9999 -9999 -9999 -9999 -9999 -9999 -9999 -9999 -9999 -9999 -9999 -9999 -9999 -9999 -9999
8.20 8.20 8.24 8.11 8.07 7.51 8.07 8.34 8.16 8.04 8.33 7.76 7.79 7.87 8.03 7.80 8.26 8.12 7.47 8.39 7.93 8.41 7.74 8.39 8.28 7.87 8.01 7.70 8.35 8.08 8.39 8.07 7.69 7.74 7.60 7.99 7.78 7.90 8.02 8.23 7.51 7.71 7.92 7.60 8.24 7.81 7.70 7.78 7.69 8.15 8.07 8.10 7.44 7.44 7.64 7.79 8.26 7.69 8.27 7.86 7.79 7.82 8.16 7.64 7.57 7.78 7.47 7.52 8.43 8.06 8.27 7.55 7.97 7.60 8.32 7.89 8.40 7.70 7.75 7.53 8.12 7.86 8.22 8.22 7.81 7.59 7.74 8.28 8.34 7.77 8.20 7.86 8.38 8.24 7.88 8.23 7.87 7.47 8.11 8.16 7.61 7.94 7.46 7.83 7.78 8.26 8.28 8.12 8.08 7.56 7.75 7.48 7.93 7.49 8.07 7.78 7.91 7.89 8.36 8.10 7.83 7.86 7.58 8.27 8.32 7.83 7.53 8.39 8.01 8.23 7.52 7.94 7.74 8.11 7.83 7.98 8.06 7.94 7.79 7.87 7.45 8.37 8.35 7.91 7.89 7.51 8.35 8.31 7.71 7.52 8.20 8.09 8.21 7.73 8.01 7.95 7.94 8.18 8.25 7.71 7.94 8.36 8.25 7.86 7.91 7.81 8.40 8.15 7.56 8.40 8.35 7.97 8.00 8.29 7.63 7.62 7.84 8.30 7.96 8.01 7.46 8.19 8.27 7.44 8.23 8.04 7.71 7.64 8.41 7.72 8.26 -9999 -9999 -9999 -9999 -9999 -9999 -9999 -9999 -9999 -9999 -9999 -9999 -9999 -9999 -9999 -9999 -9999 -9999 -9999 -9999 -9999 -9999 -9999 -9999
7.75 8.40 8.21 8.13 7.75 7.63 8.08 7.95 7.88 7.94 7.94 8.39 7.87 7.96 8.19 7.49 8.09 8.24 8.06 7.61 8.39 7.45 8.29 7.74 7.46 7.46 7.57 7.51 8.08 7.43 8.38 7.64 8.33 7.84 8.02 7.60 7.69 7.76 7.80 7.71 7.77 8.24 8.31 8.23 7.88 7.51 7.69 8.34 8.27 8.18 8.20 8.36 8.19 7.61 8.33 8.22 7.77 7.94 7.54 8.20 7.66 8.28 8.26 8.37 8.07 8.21 8.32 7.90 7.86 8.03 7.81 8.01 7.54 8.01 7.43 7.57 7.97 7.62 7.55 7.55 7.60 8.01 8.40 7.57 7.78 7.95 8.00 7.61 8.36 7.71 7.77 8.09 7.73 7.60 8.12 7.62 8.03 7.43 7.75 8.39 7.66 8.34 7.75 7.58 7.85 7.87 8.24 8.13 8.01 7.75 7.66 7.82 7.99 7.87 7.67 7.46 7.60 8.26 7.74 8.11 7.68 7.76 8.36 7.48 8.07 8.22 7.85 7.88 7.93 8.07 8.33 7.55 8.31 8.29 7.86 7.85 7.65 7.84 8.31 8.26 7.95 7.83 7.71 7.63 8.39 7.71 8.08 7.99 8.30 7.76 7.46 7.53 7.59 7.90 8.29 7.73 7.96 7.62 7.75 8.40 8.12 8.21 7.83 8.42 7.84 8.34 7.78 7.81 7.96 8.10 7.57 8.01 7.92 7.79 7.70 7.55 7.50 8.25 8.21 8.04 7.49 7.57 7.74 7.65 8.35 7.94 7.69 7.67 7.97 7.50 8.25 -9999 -9999 -9999 -9999 -9999 -9999 -9999 -9999 -9999 -9999 -9999 -9999 -9999 -9999 -9999 -9999 -9999 -9999 -9999 -9999 -9999 -9999 -9999 -9999
8.10 8.21 7.79 8.27 8.01 7.47 7.84 8.09 7.88 8.14 7.62 7.80 7.87 8.42 7.60 7.91 7.73 7.78 7.49 7.84 7.80 8.05 8.34 7.55 7.61 8.16 7.52 8.15 7.81 8.13 8.17 8.02 7.95 8.23 8.33 8.18 7.76 7.66 8.40 8.00 8.32 8.38 7.97 7.56 8.22 7.75 7.53 8.39 7.79 7.46 7.63 7.94 7.64 7.75 8.15 7.65 7.56 7.84 7.58 7.65 7.58 8.32 7.96 7.88 8.16 7.55 7.76 7.86 7.68 8.01 8.30 8.23 8.19 8.36 7.47 7.95 8.11 7.87 7.89 8.42 7.97 7.59 8.10 7.49 7.77 8.05 7.75 7.59 8.30 8.31 7.81 7.79 7.64 7.87 7.61 7.50 8.16 8.29 8.13 8.17 7.46 7.60 7.81 8.04 7.94 7.55 7.57 7.97 8.37 7.97 8.31 8.26 7.92 7.47 7.45 7.69 8.17 7.88 7.83 7.99 7.99 7.77 8.23 7.47 7.93 7.79 7.45 8.31 8.01 8.22 8.28 8.36 7.57 8.27 8.23 7.93 8.29 8.04 8.35 8.11 7.62 7.69 7.72 7.53 8.22 7.84 7.98 7.60 8.23 8.38 8.20 7.77 7.85 7.45 7.57 8.09 7.62 8.14 7.51 8.42 8.05 7.75 8.27 7.73 7.78 8.00 8.29 7.96 7.46 7.68 7.73 8.33 7.61 8.10 7.91 7.84 8.11 7.94 8.12 8.29 7.95 8.06 7.53 7.56 8.14 7.56 7.69 8.34 8.08 8.04 8.26 7.79 -9999 -9999 -9999 -9999 -9999 -9999 -9999 -9999 -9999 -9999 -9999 -9999 -9999 -9999 -9999 -9999 -9999 -9999 -9999 -9999 -9999 -9999 -9999
7.68 8.17 8.10 8.14 7.45 7.77 7.98 7.98 7.87 7.82 7.61 7.89 8.01 7.77 8.34 8.19 7.79 8.11 8.32 7.45 8.26 8.08 8.33 8.39 8.04 7.71 7.99 8.25 8.33 8.03 8.17 7.47 8.36 8.14 7.96 7.67 7.83 8.06 7.91 7.76 7.89 7.70 8.32 8.02 8.24 8.01 7.69 8.08 8.20 8.37 8.37 8.35 7.57 8.26 7.63 8.01 7.51 7.61 7.54 7.97 7.72 7.92 7.77 7.59 7.88 8.23 7.96 7.80 7.81 7.57 7.87 8.04 8.17 7.66 8.21 7.74 7.75 7.90 8.21 8.30 8.29 7.70 7.83 8.26 8.01 7.46 7.49 7.47 7.91 8.14 7.64 7.95 8.28 7.48 7.99 8.11 7.62 7.45 7.90 7.93 7.51 7.93 7.60 8.26 7.75 7.70 7.72 7.83 8.38 8.06 8.39 8.12 8.10 7.71 8.19 8.07 8.13 8.11 7.94 7.88 7.92 7.55 8.33 7.86 8.17 7.92 7.81 8.00 7.58 7.79 7.53 8.28 8.22 7.62 7.85 7.76 8.33 7.70 7.96 7.66 7.81 8.38 8.29 7.50 7.82 7.54 7.70 7.52 7.91 8.40 7.45 8.29 8.07 7.96 8.02 7.81 7.71 7.69 8.38 7.91 7.45 8.14 7.97 8.04 8.08 8.10 7.64 7.69 7.45 8.05 8.36 7.61 8.11 7.75 7.55 7.59 8.15 7.51 7.59 7.52 7.81 8.18 8.04 7.94 8.13 8.03 8.19 8.39 8.11 8.41 8.37 7.84 -9999 -9999 -9999 -9999 -9999 -9999 -9999 -9999 -9999 -9999 -9999 -9999 -9999 -9999 -9999 -9999 -9999 -9999 -9999 -9999 -9999 -9999 -9999
8.40 8.34 7.94 8.06 7.98 7.47 8.12 8.36 7.65 7.45 8.42 7.90 8.01 8.10 8.40 7.79 7.48 8.11 7.52 7.73 7.78 8.22 8.30 7.79 8.01 7.63 7.60 7.96 7.44 8.39 8.05 7.63 8.41 7.74 7.49 8.40 8.25 8.08 7.90 7.83 8.36 7.95 8.07 7.92 7.87 8.26 7.94 8.09 7.66 7.71 8.28 7.63 7.85 7.94 7.68 8.16 8.26 7.83 8.24 8.20 7.71 7.84 8.40 7.82 8.24 8.12 7.55 7.46 7.61 8.12 7.73 8.08 7.97 7.94 8.20 8.17 7.98 7.78 8.08 8.12 7.85 8.41 8.29 8.27 7.82 8.26 7.48 7.97 7.64 8.26 7.54 8.09 7.69 7.91 8.25 8.06 7.94 7.89 7.90 7.84 7.95 7.48 7.50 8.33 7.74 7.81 8.36 8.41 8.06 8.34 7.66 8.11 7.74 8.11 8.28 8.08 7.59 7.72 8.24 7.63 8.19 8.22 7.44 7.84 8.03 7.75 8.11 8.26 8.37 8.17 8.31 7.65 8.37 7.58 7.61 7.59 7.73 7.48 7.87 7.49 7.59 7.50 8.05 7.76 7.61 8.38 8.12 7.69 8.03 7.68 8.12 7.73 7.86 8.31 7.49 8.28 8.33 8.22 8.19 7.85 7.96 8.32 8.26 7.59 8.34 8.28 7.67 8.32 8.07 8.35 7.94 7.96 8.37 7.52 7.46 8.40 7.61 8.26 7.53 7.45 8.24 7.66 8.41 7.85 7.83 8.19 7.60 8.02 8.43 8.09 8.26 7.85 -9999 -9999 -9999 -9999 -9999 -9999 -9999 -9999 -9999 -9999 -9999 -9999 -9999 -9999 -9999 -9999 -9999 -9999 -9999 -9999 -9999 -9999 -9999
8.10 8.22 7.65 7.90 8.23 7.96 7.67 8.04 7.66 8.29 7.62 7.50 7.76 8.02 7.51 8.40 8.34 8.15 8.29 7.53 8.14 7.53 8.15 7.47 8.08 7.57 7.55 8.09 7.49 8.26 7.80 8.18 7.60 8.05 7.64 7.68 7.59 7.80 7.54 7.85 7.88 8.13 7.49 8.38 7.99 8.19 7.50 8.28 8.41 7.79 7.99 7.73 8.29 8.18 8.32 8.03 7.98 7.65 7.53 7.81 7.80 8.32 7.61 8.07 8.23 7.99 7.93 8.25 8.24 8.35 7.65 8.13 7.72 8.06 7.67 8.28 7.86 8.37 7.59 7.44 7.70 7.92 8.21 8.08 7.46 8.10 8.04 8.15 7.80 8.01 7.46 8.34 7.50 7.98 7.59 7.48 8.05 7.94 7.69 8.21 7.96 7.92 7.49 7.63 7.52 7.80 7.52 8.18 7.90 8.05 7.85 7.81 7.55 8.32 8.29 7.73 7.56 7.93 7.74 8.22 7.65 8.07 8.17 7.69 7.47 7.87 7.82 8.21 8.34 7.67 7.50 7.65 7.55 7.91 7.94 7.90 7.62 7.85 7.83 8.42 7.65 8.02 8.16 8.30 7.84 8.12 7.56 7.70 7.51 7.93 8.36 8.01 8.14 8.43 8.39 7.64 7.88 8.28 8.37 7.51 8.01 8.34 7.91 8.17 7.98 7.72 8.43 7.69 7.53 8.05 7.76 8.43 7.67 8.36 8.13 7.68 7.94 7.48 8.33 8.33 8.31 8.13 8.11 8.30 8.03 7.92 7.63 8.33 8.03 7.88 7.81 7.57 -9999 -9999 -9999 -9999 -9999 -9999 -9999 -9999 -9999 -9999 -9999 -9999 -9999 -9999 -9999 -9999 -9999 -9999 -9999 -9999 -9999 -9999 -9999
8.26 8.43 7.72 8.26 8.08 7.79 8.01 8.43 7.59 8.24 7.70 8.12 8.04 8.23 7.60 7.98 7.92 7.80 7.57 7.89 7.79 7.81 7.54 7.65 8.33 7.68 8.16 7.64 8.13 7.90 8.26 8.19 7.91 7.59 7.90 7.78 7.85 7.82 7.87 7.81 7.92 7.64 7.44 8.21 8.30 7.64 7.71 8.03 7.72 7.81 8.05 8.11 8.07 8.07 7.81 7.47 8.06 7.92 8.15 8.12 7.69 8.13 7.97 8.20 8.18 8.10 8.22 7.98 7.48 8.38 8.38 8.06 8.20 8.11 7.45 8.12 8.14 8.34 7.98 8.33 7.91 8.16 8.33 8.33 7.47 7.85 8.33 7.47 8.39 8.38 7.97 8.08 7.47 8.07 7.55 7.87 8.16 7.76 7.68 7.89 8.29 7.64 7.51 8.09 8.25 7.87 7.96 7.48 8.13 8.17 8.09 7.67 7.50 8.22 8.36 8.08 7.79 7.63 8.07 7.90 7.73 8.14 7.66 7.58 8.04 7.54 8.43 8.22 8.03 7.61 8.13 8.28 8.24 7.64 7.89 7.89 7.84 7.50 8.15 7.91 7.59 8.19 8.08 7.96 7.64 8.42 7.70 7.82 8.07 7.93 8.00 8.40 7.96 8.40 7.71 7.97 7.69 7.67 7.48 8.39 7.95 7.46 8.12 8.13 7.66 7.79 7.96 7.85 7.79 7.84 7.83 8.13 7.51 7.67 8.07 8.37 7.92 8.05 8.17 7.44 8.02 7.60 7.85 8.33 8.08 7.57 8.26 8.09 7.94 8.15 8.11 8.35 -9999 -9999 -9999 -9999 -9999 -9999 -9999 -9999 -9999 -9999 -9999 -9999 -9999 -9999 -9999 -9999 -9999 -9999 -9999 -9999 -9999 -9999 -9999
7.81 8.42 8.00 7.65 7.84 7.75 7.90 8.04 7.66 7.70 7.86 8.18 8.28 8.12 7.76 8.00 7.71 8.31 7.83 8.27 7.76 7.59 7.49 7.71 7.90 8.29 7.91 7.75 7.57 7.51 7.76 7.84 7.88 7.75 7.54 8.10 7.50 7.67 7.91 8.35 7.94 8.31 7.48 7.54 8.02 7.94 7.93 8.21 8.36 8.12 7.58 7.78 7.88 8.30 7.56 8.02 8.37 8.23 8.24 7.49 8.29 7.67 7.80 8.05 8.07 7.94 7.96 7.69 7.84 8.36 8.14 7.80 8.01 8.35 8.38 7.63 7.76 7.63 8.41 8.13 7.88 7.65 8.01 7.99 7.55 8.17 8.16 8.40 8.07 7.65 8.21 7.46 7.90 7.62 8.00 8.35 7.59 7.63 7.94 8.38 7.61 8.42 8.12 8.27 8.24 7.77 7.72 7.90 7.75 8.10 7.79 8.26 7.85 8.07 8.00 8.12 7.80 8.01 7.54 7.84 7.95 7.46 7.60 7.66 7.47 7.75 8.42 7.48 8.36 7.64 8.43 7.67 8.21 7.55 7.75 7.75 8.43 7.61 7.48 7.82 7.76 8.26 8.17 8.36 8.11 7.91 8.02 7.74 8.02 8.07 7.69 7.78 7.63 8.02 8.17 7.53 7.68 8.30 7.99 8.17 8.03 7.77 8.19 7.63 8.16 8.10 8.31 7.79 8.17 8.00 7.79 7.65 7.69 7.92 8.18 7.74 8.33 7.48 7.65 8.08 8.26 8.20 7.97 8.07 8.42 7.61 7.70 7.44 7.89 7.74 8.24 7.69 -9999 -9999 -9999 -9999 -9999 -9999 -9999 -9999 -9999 -9999 -9999 -9999 -9999 -9999 -9999 -9999 -9999 -9999 -9999 -9999 -9999 -9999 -9999
8.06 8.01 8.18 8.15 8.19 7.70 7.85 7.47 7.99 7.46 7.52 7.54 8.11 8.30 8.17 8.31 8.32 7.78 7.82 8.22 8.08 7.44 8.11 7.94 7.98 7.77 8.06 7.80 8.28 7.60 7.91 7.49 8.02 7.46 7.66 8.40 7.94 8.13 7.49 7.93 7.85 7.94 7.97 7.66 7.51 8.21 8.39 8.39 7.88 7.94 7.64 7.48 7.86 7.53 7.48 7.53 8.22 7.84 7.53 7.93 7.54 7.47 7.80 8.43 7.75 7.57 7.44 8.06 7.56 8.18 7.70 7.67 7.44 7.79 8.32 7.49 8.10 7.78 7.44 8.17 7.60 7.51 7.70 8.03 7.67 7.88 8.27 8.06 7.48 8.09 7.89 7.78 7.88 8.12 7.66 7.78 7.91 7.76 8.02 8.20 8.28 8.35 7.67 7.72 7.97 8.28 7.63 8.20 7.54 7.73 7.70 7.65 7.85 8.23 7.95 7.71 7.92 7.95 7.71 7.64 7.63 8.24 7.92 7.67 8.19 8.18 7.83 8.18 7.89 7.51 7.59 7.84 8.16 7.95 7.52 8.35 7.61 7.51 8.12 8.29 8.32 7.90 7.89 8.22 7.90 7.45 8.00 7.62 7.58 7.72 7.79 7.92 7.81 8.26 8.23 7.64 8.02 7.80 8.26 7.44 7.63 8.12 7.95 8.00 7.70 7.74 7.65 7.75 7.59 7.91 7.94 8.41 7.67 8.00 8.37 7.46 7.95 8.28 8.13 7.62 7.81 7.83 7.50 7.95 8.24 8.14 8.07 7.66 7.89 7.49 8.05 7.89 7.87 -9999 -9999 -9999 -9999 -9999 -9999 -9999 -9999 -9999 -9999 -9999 -9999 -9999 -9999 -9999 -9999 -9999 -9999 -9999 -9999 -9999 -9999
7.95 7.64 8.01 8.19 7.76 7.76 7.54 8.21 7.93 7.51 8.36 7.90 7.91 7.54 7.71 7.72 7.96 7.64 7.87 8.26 8.05 8.30 8.08 8.06 7.62 8.12 7.84 8.07 8.20 7.82 7.75 8.29 8.37 7.62 7.70 7.58 8.18 8.35 8.42 8.42 7.73 8.12 7.95 8.00 8.42 8.24 7.59 8.31 8.02 8.32 8.22 7.84 7.70 7.62 8.37 7.61 8.02 8.33 7.96 8.26 8.18 8.05 8.03 8.07 8.39 8.01 8.43 8.32 7.71 8.16 8.13 8.01 7.93 7.69 7.78 7.54 8.41 7.93 7.50 8.42 8.27 7.50 7.84 8.01 7.90 7.58 7.48 7.77 7.97 7.79 8.38 8.04 7.64 8.20 7.80 8.02 8.12 7.78 7.63 8.24 8.04 7.56 7.97 7.61 7.98 7.79 7.58 7.96 7.80 8.12 7.89 8.21 7.90 8.13 7.57 7.64 7.54 8.25 8.43 7.86 8.33 7.77 7.52 7.92 7.97 8.25 7.90 7.72 7.95 8.31 7.96 7.70 7.69 8.08 7.95 7.72 7.62 7.57 8.11 7.50 7.51 8.43 8.27 8.40 8.15 8.41 7.96 7.47 7.83 7.89 7.87 8.08 7.45 8.06 8.00 8.18 7.88 8.15 8.00 7.88 7.80 8.00 7.97 8.18 8.19 8.21 7.82 7.85 7.80 7.78 8.33 7.65 7.76 7.97 7.99 7.68 8.28 7.90 7.56 7.60 8.12 7.75 7.84 7.75 7.91 8.10 8.20 8.41 7.61 7.55 8.38 7.76 7.88 -9999 -9999 -9999 -9999 -9999 -9999 -9999 -9999 -9999 -9999 -9999 -9999 -9999 -9999 -9999 -9999 -9999 -9999 -9999 -9999 -9999 -9999
7.60 7.53 7.54 7.84 8.21 7.83 7.55 7.98 7.67 8.01 7.87 7.74 8.26 8.20 7.83 7.94 8.09 7.50 8.31 8.07 8.21 8.16 8.13 7.70 7.62 8.32 8.32 7.71 7.63 7.79 8.03 7.87 8.04 7.90 7.82 7.59 8.08 7.88 8.25 7.96 7.59 8.18 7.91 7.78 7.91 8.20 7.57 8.41 7.99 7.74 7.73 8.30 7.83 8.29 8.03 7.54 7.44 8.19 8.36 8.01 7.85 8.38 8.21 8.24 7.77 7.56 7.63 7.61 8.34 8.17 8.16 8.07 7.55 7.75 8.25 8.21 7.97 7.87 8.06 7.52 7.51 8.28 8.31 7.65 7.62 7.92 8.21 7.64 8.03 7.49 7.53 7.99 8.43 7.90 7.71 7.98 7.94 7.71 7.73 7.91 8.38 8.39 8.23 8.37 7.57 8.12 7.75 8.30 8.39 8.33 8.05 8.29 7.91 7.76 7.87 7.83 8.19 8.02 8.42 8.05 7.79 7.91 7.47 7.94 7.55 7.99 8.04 8.25 7.99 8.12 8.07 8.07 8.18 8.23 7.62 7.84 7.91 7.66 7.82 8.05 7.52 7.88 7.97 7.70 7.90 8.22 7.95 7.63 7.62 7.70 7.49 7.66 7.69 8.09 8.30 8.37 7.49 8.04 8.37 7.77 8.07 8.23 8.21 8.22 8.26 7.96 7.59 7.91 8.29 7.97 7.95 7.62 7.86 8.04 7.55 7.49 8.39 8.31 7.82 7.78 8.36 8.01 8.10 8.37 8.36 7.77 7.56 7.69 7.82 8.15 8.39 7.50 8.41 -9999 -9999 -9999 -9999 -9999 -9999 -9999 -9999 -9999 -9999 -9999 -9999 -9999 -9999 -9999 -9999 -9999 -9999 -9999 -9999 -9999 -9999
7.96 7.54 8.40 8.13 7.65 8.00 7.64 8.43 7.46 7.46 8.04 8.01 8.01 7.99 8.09 8.24 7.97 7.87 7.89 8.36 7.66 8.43 8.34 7.99 7.52 8.27 7.76 7.69 7.71 8.13 7.44 8.30 7.56 8.23 8.40 8.24 7.81 7.73 7.98 7.88 8.30 7.65 8.27 7.82 8.06 8.38 7.86 7.90 8.00 7.95 7.70 8.28 8.00 7.84 8.29 7.78 7.47 8.26 7.65 7.96 8.24 7.62 7.60 8.28 8.18 7.45 8.25 7.65 8.02 7.78 7.46 7.86 7.46 7.77 7.46 7.54 8.06 8.19 7.80 8.18 7.62 7.66 7.56 8.26 7.52 8.00 7.69 8.24 7.56 7.98 7.59 7.72 8.09 8.37 7.90 8.20 8.31 8.17 8.16 8.17 7.44 8.18 8.08 8.22 7.65 8.06 7.90 8.01 8.30 8.43 7.90 7.99 8.38 7.98 7.49 7.90 8.41 7.90 7.58 8.21 7.69 7.44 7.65 7.46 8.01 8.03 7.74 7.97 7.48 7.72 7.70 8.36 8.07 7.57 7.74 7.43 8.32 7.64 8.03 7.55 7.62 7.88 8.17 7.58 7.83 7.53 7.55 7.71 7.45 8.31 8.35 7.83 7.57 8.02 7.73 7.74 8.01 7.55 8.38 8.31 7.99 8.26 7.92 8.09 8.33 8.04 7.52 8.15 8.34 7.50 7.58 7.70 8.36 7.54 7.50 7.46 8.24 7.52 7.92 7.66 8.24 8.24 8.13 7.55 7.78 7.93 8.34 8.39 8.23 8.25 7.84 7.86 8.38 -9999 -9999 -9999 -9999 -9999 -9999 -9999 -9999 -9999 -9999 -9999 -9999 -9999 -9999 -9999 -9999 -9999 -9999 -9999 -9999 -9999 -9999
8.16 8.19 7.78 8.01 7.49 7.73 8.00 7.96 8.22 7.69 8.31 8.20 7.77 7.51 8.03 8.01 8.10 7.47 7.91 7.84 8.14 7.51 8.06 7.62 8.30 7.51 7.58 7.95 7.71 7.54 7.68 7.56 7.97 7.58 7.45 8.32 8.06 7.98 7.46 7.63 7.65 8.27 7.70 8.20 8.39 7.77 7.59 8.17 7.64 8.32 7.63 8.09 7.95 8.30 8.08 7.61 7.94 8.31 8.38 7.52 7.96 7.46 7.89 7.66 7.77 8.40 7.51 8.12 8.35 8.22 8.38 8.22 7.81 7.96 8.30 8.09 8.24 8.33 8.08 7.82 7.59 8.19 7.50 7.87 8.43 8.22 7.72 8.40 8.03 7.87 8.40 7.52 8.23 7.70 7.86 7.84 7.46 8.22 8.16 8.36 8.24 8.13 8.06 7.63 8.25 8.40 8.28 7.85 8.32 7.48 8.27 8.21 7.44 7.57 8.24 7.80 7.85 8.41 8.04 8.29 7.55 7.56 7.76 8.42 7.73 8.01 8.02 7.89 8.03 8.34 7.72 7.59 8.08 7.89 7.73 7.57 8.38 7.89 8.40 7.79 7.74 8.09 7.74 8.29 7.78 7.59 7.57 7.97 7.89 8.02 8.12 7.69 8.09 8.06 7.60 7.68 7.70 7.74 8.21 7.72 8.10 8.41 8.01 7.75 8.27 8.17 7.49 7.81 8.17 8.38 7.73 8.20 7.97 7.57 8.23 7.66 8.17 7.63 8.14 7.61 8.23 7.99 7.76 8.39 8.29 7.88 7.49 7.55 7.50 8.28 7.97 7.55 8.11 -9999 -9999 -9999 -9999 -9999 -9999 -9999 -9999 -9999 -9999 -9999 -9999 -9999 -9999 -9999 -9999 -9999 -9999 -9999 -9999 -9999 -9999
8.08 8.24 7.55 7.47 7.95 7.72 8.32 7.64 7.72 7.58 7.68 7.58 7.93 7.72 7.47 8.04 8.19 7.74 7.87 7.60 7.64 7.84 7.66 7.92 7.48 7.79 8.24 8.24 8.40 7.53 7.44 8.09 8.27 7.79 7.64 7.58 8.27 7.85 8.09 8.27 7.83 7.47 7.82 7.71 8.12 7.68 7.67 8.01 8.10 7.77 7.62 7.55 7.46 8.13 7.65 8.31 8.12 7.96 8.30 7.62 8.05 8.02 7.97 7.66 7.58 8.09 8.37 7.94 7.73 8.04 7.51 8.07 7.44 8.38 8.32 7.68 8.14 8.19 7.66 7.91 8.08 7.72 7.48 7.64 7.46 8.14 7.63 7.53 7.96 7.44 8.06 8.23 7.58 8.38 8.16 7.55 8.30 7.55 8.25 8.20 8.07 7.85 7.74 7.56 8.07 8.38 8.18 8.03 8.37 8.01 8.15 7.44 8.02 7.92 8.23 8.37 8.30 7.74 7.68 7.61 8.40 8.12 8.04 7.79 7.82 8.31 8.24 7.53 7.85 8.04 8.19 8.20 7.49 8.15 8.39 7.68 8.36 7.58 8.17 7.96 7.86 7.82 7.63 7.75 8.00 8.19 7.64 8.12 7.70 8.41 8.29 8.03 8.11 8.40 7.90 8.09 7.65 7.88 7.89 8.06 8.41 7.77 7.76 7.58 7.75 8.35 7.49 8.29 7.48 8.42 7.85 7.87 7.99 8.02 8.07 7.95 7.68 8.37 7.59 8.18 7.76 8.28 8.13 8.29 8.35 8.27 7.46 8.06 8.04 8.16 7.88 8.29 7.99 -9999 -9999 -9999 -9999 -9999 -9999 -9999 -9999 -9999 -9999 -9999 -9999 -9999 -9999 -9999 -9999 -9999 -9999 -9999 -9999 -9999 -9999
7.45 8.22 7.84 7.89 7.65 7.83 7.56 7.47 7.88 7.67 8.24 7.64 7.71 7.56 7.73 8.02 7.76 7.59 8.31 8.14 7.89 7.98 7.69 7.75 7.89 7.90 7.97 7.98 8.01 7.62 8.41 7.76 8.03 8.27 8.36 7.45 7.62 7.44 8.28 7.87 8.27 7.50 8.07 8.07 7.47 7.48 7.83 8.05 7.92 7.67 7.71 7.72 7.53 8.36 8.37 7.53 8.03 7.54 8.01 8.41 8.17 8.10 7.47 8.36 7.82 7.51 7.48 7.93 8.32 8.38 7.54 7.62 7.78 8.18 7.53 7.98 8.02 7.99 8.17 7.86 8.34 7.48 8.23 7.94 8.11 7.98 7.91 7.76 8.32 7.86 8.33 7.76 7.72 7.87 8.40 8.18 7.64 8.16 8.30 7.90 7.55 7.69 8.20 8.28 7.94 7.77 8.27 7.89 7.56 7.62 7.66 7.74 7.94 7.52 7.84 8.31 8.13 8.19 8.24 8.00 8.29 8.16 7.44 8.39 7.78 7.87 8.18 8.40 8.13 7.76 7.93 7.86 7.57 7.73 7.94 7.61 8.00 8.25 8.43 8.18 7.69 8.32 7.88 7.93 7.71 7.52 8.41 8.02 7.81 7.45 7.97 7.50 8.14 8.37 8.24 8.41 8.05 7.73 7.89 8.25 7.66 7.65 7.65 8.20 7.72 7.58 7.87 8.15 8.23 7.49 8.05 7.57 7.77 8.14 7.85 8.09 8.04 8.05 8.15 7.97 7.74 7.50 8.41 7.62 7.54 7.52 7.58 7.61 8.34 7.87 7.57 7.59 8.17 7.92 -9999 -9999 -9999 -9999 -9999 -9999 -9999 -9999 -9999 -9999 -9999 -9999 -9999 -9999 -9999 -9999 -9999 -9999 -9999 -9999 -9999
7.51 7.71 8.23 7.76 8.07 7.83 7.82 8.13 7.74 8.02 7.84 7.73 8.35 7.54 8.20 8.06 7.46 7.50 8.41 8.40 7.81 8.11 8.33 7.69 8.17 7.44 8.31 8.15 8.26 7.56 7.69 8.28 8.22 8.30 7.52 7.75 8.35 7.48 7.92 7.54 8.10 8.05 7.56 7.61 7.50 7.84 7.45 7.86 7.53 7.47 7.95 7.73 8.11 7.62 7.53 7.94 7.84 7.48 7.70 7.65 7.89 7.59 8.13 8.03 8.14 8.00 8.14 7.71 8.07 7.56 7.89 8.04 8.23 7.71 8.34 7.87 8.12 7.72 7.89 8.38 7.56 8.13 8.43 7.79 7.61 8.07 7.68 7.46 7.72 8.12 8.12 7.60 8.07 7.80 7.62 8.22 8.04 8.40 7.94 7.62 8.08 8.30 7.65 7.62 8.15 7.85 7.76 7.75 8.43 8.20 7.82 7.86 8.32 8.13 7.77 8.20 8.04 7.60 7.90 8.17 7.95 7.92 7.82 7.47 8.24 7.55 7.56 7.76 7.70 7.85 7.86 8.34 7.72 7.76 7.65 7.78 7.61 7.99 7.71 8.09 7.85 7.91 7.77 7.89 7.72 7.71 8.01 8.17 8.03 7.44 8.33 7.84 7.66 8.14 7.52 8.43 8.03 7.59 7.49 8.01 7.59 7.95 7.61 8.03 7.44 8.10 7.78 8.18 8.10 7.71 7.46 8.36 7.76 8.11 7.76 8.35 7.80 8.38 7.65 8.16 8.22 8.33 7.97 7.48 7.84 8.24 7.88 7.95 8.03 7.68 7.74 7.84 7.81 7.91 -9999 -9999 -9999 -9999 -9999 -9999 -9999 -9999 -9999 -9999 -9999 -9999 -9999 -9999 -9999 -9999 -9999 -9999 -9999 -9999 -9999
8.29 7.44 8.42 7.80 8.03 7.46 8.31 8.06 8.09 7.61 8.07 8.05 8.27 7.80 8.20 7.77 7.66 7.71 7.72 7.72 7.85 8.12 8.03 7.90 7.74 7.82 7.66 7.50 7.56 8.11 7.78 8.05 8.24 8.08 7.57 8.33 7.45 8.26 8.12 7.96 7.78 7.45 8.09 7.48 7.48 8.09 8.12 7.57 8.02 8.41 7.98 8.26 8.15 7.60 8.39 7.71 7.70 8.29 7.84 8.28 7.56 7.85 8.38 7.45 8.16 7.53 7.72 8.29 7.46 7.55 7.82 7.56 7.49 7.47 7.55 8.01 8.29 7.65 8.10 8.23 7.51 8.10 7.51 8.25 7.62 8.37 7.52 7.53 7.84 8.02 8.08 7.65 7.94 7.78 8.11 7.70 7.54 7.60 7.62 8.30 8.15 7.71 7.89 8.18 7.45 7.82 7.50 8.31 8.07 8.15 7.45 7.60 8.23 7.62 8.05 7.78 7.72 7.95 8.30 8.08 7.71 7.71 8.40 7.74 7.73 8.15 7.56 8.32 8.31 8.35 7.55 7.81 7.54 8.33 7.71 8.28 7.54 7.85 7.58 7.90 8.16 7.56 8.34 7.64 7.45 7.58 7.55 7.70 7.67 7.52 8.29 7.65 7.44 7.50 8.18 7.86 7.82 7.98 8.01 7.44 7.90 8.07 7.98 8.39 8.28 7.78 8.37 7.58 8.10 8.21 7.57 8.37 7.54 8.34 7.58 7.64 8.22 7.93 8.28 7.56 7.54 8.19 7.50 7.99 8.13 8.18 8.19 7.44 7.79 8.24 8.34 8.29 7.89 7.86 -9999 -9999 -9999 -9999 -9999 -9999 -9999 -9999 -9999 -9999 -9999 -9999 -9999 -9999 -9999 -9999 -9999 -9999 -9999 -9999 -9999
8.25 8.25 8.07 7.95 8.39 7.78 7.60 8.04 8.36 7.87 8.36 8.26 8.32 8.17 7.57 8.25 8.22 7.61 7.52 8.18 7.53 8.38 8.26 7.51 8.31 7.73 8.30 8.26 7.66 8.40 8.17 7.77 8.19 8.05 8.12 8.17 8.18 7.66 7.96 7.97 7.94 7.64 7.56 7.56 8.32 8.34 7.73 8.37 7.50 7.59 8.24 8.05 7.86 8.09 7.55 7.55 8.35 7.47 8.15 7.69 7.54 7.57 8.28 7.90 8.35 7.98 7.80 8.37 8.31 7.94 8.25 7.86 7.55 7.44 8.10 7.59 8.37 7.53 8.15 7.87 7.65 8.40 8.24 8.27 8.17 8.09 7.59 7.72 7.97 8.33 8.25 8.10 8.03 8.29 7.50 7.82 7.82 7.44 8.20 8.40 8.42 8.22 8.17 7.95 8.20 8.10 7.95 8.29 7.54 8.08 7.88 7.71 7.90 7.86 7.63 8.00 7.58 8.26 7.98 8.30 7.59 7.71 7.55 7.55 7.88 7.55 8.23 8.42 8.19 8.10 7.79 7.64 8.04 8.30 7.61 8.31 8.41 7.87 7.85 7.63 7.88 7.44 7.72 8.11 7.66 7.54 8.02 8.17 7.66 8.20 8.14 7.45 7.62 8.06 8.21 7.97 8.15 8.42 7.60 8.22 7.66 7.57 7.47 8.03 8.14 7.70 8.36 8.06 7.54 8.31 7.95 8.32 7.49 8.03 8.05 7.51 8.28 7.87 8.29 7.66 8.20 7.46 8.23 7.71 7.56 7.82 8.10 7.76 7.51 8.30 7.66 7.56 7.47 8.08 -9999 -9999 -9999 -9999 -9999 -9999 -9999 -9999 -9999 -9999 -9999 -9999 -9999 -9999 -9999 -9999 -9999 -9999 -9999 -9999 -9999
7.75 7.52 8.25 7.90 8.25 7.57 8.21 8.14 7.76 7.62 7.77 7.86 7.76 7.46 8.16 8.05 7.88 7.63 8.06 8.05 7.81 7.94 7.88 7.88 7.67 7.62 8.27 7.58 7.48 7.63 7.56 8.00 7.52 7.71 8.11 7.83 7.51 8.06 7.91 8.07 7.46 7.57 7.60 8.21 8.23 7.48 8.41 8.37 7.55 7.95 7.52 7.45 8.26 7.89 8.31 8.07 7.51 8.18 7.85 7.71 8.25 7.53 7.50 8.32 7.92 7.63 8.03 7.81 8.09 7.86 7.68 8.06 7.58 7.77 8.24 8.18 7.66 7.72 8.32 7.98 7.82 7.45 8.20 8.23 7.46 7.98 8.09 7.98 7.44 8.04 7.72 7.68 7.47 8.19 7.98 7.44 8.21 8.28 8.05 7.92 7.67 7.71 7.77 8.19 8.30 8.07 8.43 8.28 8.17 7.82 7.77 7.65 7.83 7.83 8.35 8.28 7.50 8.24 7.61 8.25 7.82 8.14 7.56 8.15 7.60 7.54 7.71 7.57 7.61 7.95 7.82 8.33 7.75 7.71 8.25 8.03 8.04 8.14 8.37 8.37 8.24 7.91 8.41 8.33 7.96 7.82 8.17 7.84 8.20 8.39 7.59 7.51 7.81 8.36 8.38 7.57 7.48 7.74 7.97 8.24 7.98 8.13 8.03 7.65 8.27 7.95 8.38 7.49 8.39 7.73 7.84 7.85 7.82 8.14 7.44 7.96 8.05 8.11 8.15 7.52 7.98 7.62 8.18 8.36 8.09 8.42 8.06 8.15 8.14 8.31 7.61 7.50 8.09 8.05 -9999 -9999 -9999 -9999 -9999 -9999 -9999 -9999 -9999 -9999 -9999 -9999 -9999 -9999 -9999 -9999 -9999 -9999 -9999 -9999 -9999
7.61 8.24 7.63 8.17 8.25 8.25 7.73 7.58 7.75 7.58 8.35 8.12 8.24 7.88 8.06 7.49 7.64 8.42 8.14 8.32 7.85 7.92 7.73 8.30 8.43 7.56 7.74 8.41 7.67 8.13 8.05 8.07 8.02 7.66 7.71 8.01 7.85 7.85 7.96 8.22 8.24 7.68 7.59 8.23 7.85 8.08 7.69 7.47 8.42 8.04 8.25 7.63 7.74 7.81 7.58 8.41 7.99 8.41 7.44 7.77 7.59 7.45 7.61 7.70 8.40 7.67 7.69 7.86 7.55 7.61 7.83 8.40 8.42 7.59 7.99 8.14 7.70 7.71 7.94 8.07 7.84 8.13 8.41 7.83 8.16 7.48 7.71 7.72 8.25 7.49 7.89 7.75 8.35 8.07 7.50 7.75 7.79 7.52 7.77 8.13 7.94 8.40 8.12 7.61 7.49 8.21 8.35 8.21 8.10 7.81 7.97 8.42 7.81 8.33 8.11 7.45 7.89 7.88 8.14 7.65 8.41 8.24 7.51 7.69 7.96 7.70 7.47 8.40 7.93 7.74 7.70 8.04 8.36 7.94 7.86 7.67 7.55 8.04 7.89 7.46 7.47 7.50 7.62 7.57 8.08 8.09 8.18 8.24 8.03 8.30 7.58 7.52 8.31 8.19 7.62 8.19 8.26 8.15 7.88 8.21 8.26 8.20 8.03 8.18 8.21 8.37 7.57 7.85 7.95 7.56 7.98 8.27 8.28 8.21 7.50 7.52 7.93 7.51 7.59 7.98 8.34 7.73 7.85 8.16 8.16 7.95 8.24 7.74 8.18 8.33 7.82 8.13 7.85 8.07 -9999 -9999 -9999 -9999 -9999 -9999 -9999 -9999 -9999 -9999 -9999 -9999 -9999 -9999 -9999 -9999 -9999 -9999 -9999 -9999 -9999
8.01 8.28 8.12 8.14 7.84 7.60 8.26 8.32 8.36 8.18 7.95 7.54 8.37 7.79 7.75 7.56 7.78 8.28 8.07 7.91 7.74 7.67 7.75 8.21 8.39 8.38 8.33 8.08 8.28 8.06 8.31 7.65 8.05 8.35 7.68 7.88 8.23 7.80 7.85 8.37 8.04 7.61 8.17 7.83 7.98 7.76 8.14 8.26 7.56 8.30 7.46 7.77 7.79 8.03 8.01 7.93 7.51 7.47 8.18 7.90 7.62 7.47 7.70 7.66 7.72 7.72 7.84 7.86 7.58 7.64 7.63 8.11 7.51 7.61 7.50 7.79 7.90 8.21 7.67 8.32 7.85 7.63 8.12 7.48 7.89 7.44 8.37 8.34 8.39 7.57 8.17 7.81 8.19 7.45 7.92 7.93 8.26 8.21 7.90 8.42 7.61 7.54 7.69 7.52 7.54 8.39 7.72 8.30 8.41 7.47 8.10 8.33 8.17 8.35 8.02 8.40 7.59 8.37 7.77 7.53 7.67 7.65 7.71 8.34 7.96 8.14 7.69 8.09 7.91 8.07 8.24 7.81 8.37 8.32 7.83 8.39 8.38 7.76 7.79 7.70 7.63 8.34 8.33 7.83 7.57 8.01 7.88 7.94 8.30 8.21 7.85 7.60 8.15 8.26 7.74 8.38 7.94 7.88 7.90 8.25 7.64 8.17 7.91 7.54 7.97 8.10 8.07 8.30 8.39 8.05 7.65 8.18 7.56 8.24 8.17 8.05 7.80 7.91 7.57 8.33 8.11 7.84 7.92 8.41 8.20 8.06 8.31 8.01 7.72 7.77 7.48 7.95 8.09 7.91 -9999 -9999 -9999 -9999 -9999 -9999 -9999 -9999 -9999 -9999 -9999 -9999 -9999 -9999 -9999 -9999 -9999 -9999 -9999 -9999 -9999
8.32 8.17 8.17 8.28 8.19 7.45 7.74 7.92 7.50 8.35 7.86 7.66 8.10 8.12 7.62 7.83 7.57 7.46 8.34 7.62 8.23 8.02 8.25 8.06 7.83 7.77 8.01 8.13 7.87 8.41 7.89 8.30 8.32 7.50 7.66 8.13 8.03 7.58 7.58 8.17 8.24 8.33 7.58 8.32 8.41 7.68 8.41 8.12 7.52 8.41 7.99 7.87 8.31 8.11 7.73 7.99 8.09 8.26 7.49 8.05 7.58 7.96 8.40 7.51 8.16 8.17 8.37 7.58 8.21 7.69 8.09 7.74 8.16 7.63 7.97 8.26 7.76 8.01 7.89 7.57 7.51 8.03 7.48 7.75 8.41 8.26 7.56 8.30 8.40 7.54 8.18 7.92 7.91 7.44 8.30 7.82 7.56 8.07 8.02 8.01 7.85 7.55 7.95 7.74 7.73 7.94 8.33 7.60 7.53 7.72 8.03 8.29 7.92 7.82 7.91 7.98 7.59 8.10 7.63 7.92 7.56 8.21 7.58 8.38 8.37 7.50 8.01 7.87 7.60 7.70 7.50 8.39 7.75 8.14 7.98 8.02 8.06 8.34 8.28 8.17 7.84 7.66 8.29 8.38 7.62 7.69 8.28 8.37 8.34 7.99 8.01 8.28 8.25 7.73 7.67 8.17 8.08 8.39 7.99 7.96 7.75 7.56 7.51 8.38 7.56 7.92 8.15 8.37 8.10 7.46 8.22 7.53 7.68 8.09 7.79 8.42 7.67 7.54 7.58 8.23 8.02 7.75 8.10 8.16 8.10 8.36 7.66 8.01 8.29 7.49 7.54 8.13 8.32 7.69 8.40 -9999 -9999 -9999 -9999 -9999 -9999 -9999 -9999 -9999 -9999 -9999 -9999 -9999 -9999 -9999 -9999 -9999 -9999 -9999 -9999
8.37 8.26 8.24 8.00 8.38 7.88 7.55 7.94 8.34 7.47 7.92 8.24 7.76 8.24 7.56 7.62 8.27 8.22 8.41 7.97 8.18 8.36 8.25 8.33 7.61 8.33 8.42 7.88 7.53 8.35 8.10 7.83 7.88 8.23 8.20 7.89 8.25 7.85 7.89 8.15 8.28 7.73 8.18 7.57 8.27 8.42 8.43 7.83 7.54 8.32 8.43 8.29 7.67 7.59 7.75 7.60 8.28 7.84 8.02 7.46 7.45 7.79 7.80 7.85 8.15 7.50 7.98 8.16 7.91 7.65 7.80 7.51 8.13 7.82 8.19 7.60 7.52 8.21 7.45 8.12 7.59 7.70 8.31 7.71 8.15 8.14 8.01 8.32 8.34 7.45 8.04 8.08 7.67 7.72 7.51 8.15 8.25 7.80 7.66 8.18 7.49 8.16 8.04 7.44 8.42 8.35 7.71 8.23 8.27 7.69 7.83 7.45 8.03 7.64 7.77 8.09 8.09 7.71 7.47 7.84 7.63 7.83 8.23 7.52 7.50 7.67 8.08 7.60 7.62 7.92 8.22 8.24 7.83 8.14 7.85 7.90 8.01 8.36 7.76 7.81 7.51 8.01 7.96 8.18 7.73 7.50 7.88 8.40 7.49 7.48 8.40 7.92 7.75 7.65 8.23 8.00 8.11 8.39 7.94 8.21 8.02 7.75 8.02 8.16 7.48 7.96 7.64 7.82 8.11 8.07 7.77 7.47 8.41 7.95 8.20 7.94 7.67 8.36 8.13 8.06 8.23 7.60 7.50 8.19 7.87 7.85 7.65 7.75 8.19 8.13 8.32 8.17 8.39 7.77 7.48 -9999 -9999 -9999 -9999 -9999 -9999 -9999 -9999 -9999 -9999 -9999 -9999 -9999 -9999 -9999 -9999 -9999 -9999 -9999 -9999
7.94 8.39 8.12 8.25 7.71 8.34 7.59 7.78 8.04 7.80 8.04 7.85 8.43 8.11 8.06 7.66 7.51 8.34 8.30 7.77 7.79 8.32 7.93 7.72 7.60 8.22 7.98 8.21 7.66 7.87 7.52 7.49 8.08 8.30 7.63 7.99 7.98 7.76 7.58 7.81 8.29 7.51 7.50 8.02 7.90 7.51 8.01 7.73 8.27 7.56 8.17 8.17 7.55 7.71 7.54 7.64 7.87 7.93 7.56 8.23 7.52 7.46 8.17 7.88 7.63 8.08 7.47 8.07 7.48 8.27 8.09 7.69 8.42 7.92 8.20 7.77 7.62 7.67 7.99 7.81 7.96 7.93 8.30 7.97 7.47 7.70 7.57 8.29 7.56 8.20 7.52 7.85 8.25 7.64 7.45 8.29 8.10 8.10 7.50 8.08 7.61 7.98 8.31 7.67 8.05 7.56 8.24 7.55 7.87 7.72 8.41 8.33 7.80 7.85 8.09 8.20 7.99 8.26 7.61 8.21 8.10 7.49 7.69 8.35 8.18 8.41 7.96 7.85 8.26 7.75 8.43 8.31 7.80 8.21 7.45 7.55 8.41 7.55 7.58 8.04 7.83 8.36 7.73 8.33 8.23 7.92 8.40 7.64 7.85 7.71 7.48 7.57 7.92 8.21 8.30 8.19 8.08 8.41 7.79 7.90 7.94 8.16 8.10 7.51 7.51 8.04 7.91 7.88 8.08 7.55 7.83 8.34 8.12 7.47 7.87 8.25 7.90 8.20 7.92 8.00 7.95 7.68 8.17 7.95 7.76 7.52 8.19 8.13 7.47 7.79 8.04 7.44 7.90 8.05 7.70 -9999 -9999 -9999 -9999 -9999 -9999 -9999 -9999 -9999 -9999 -9999 -9999 -9999 -9999 -9999 -9999 -9999 -9999 -9999 -9999
8.21 7.68 7.60 7.85 8.22 7.74 7.59 7.78 8.34 8.35 8.00 8.27 7.67 8.12 8.09 8.33 8.19 8.12 7.71 7.72 7.75 8.08 8.30 8.05 7.45 7.75 7.88 7.63 8.33 8.39 7.74 7.77 8.18 8.29 7.73 7.73 8.20 7.63 8.42 8.12 8.33 7.64 7.83 8.27 8.41 7.89 8.16 8.28 8.22 7.90 8.21 7.88 7.64 7.61 7.54 7.88 8.00 7.68 7.78 7.89 8.15 7.92 7.83 8.14 7.81 8.22 7.95 7.47 7.69 7.89 8.11 7.46 7.87 7.67 7.71 7.48 7.75 7.97 8.34 7.82 8.17 8.26 7.63 8.15 8.24 7.99 8.07 8.33 8.41 7.56 7.47 7.93 8.28 8.34 7.64 8.37 8.34 8.14 8.30 7.43 8.17 7.62 8.35 8.26 8.23 8.15 7.79 7.69 7.67 8.28 8.10 8.11 7.70 8.18 7.75 7.72 7.81 8.12 7.77 8.01 8.17 8.43 7.66 8.43 8.25 8.30 7.50 8.06 7.77 7.54 8.23 8.01 7.87 7.67 7.69 7.85 7.59 7.99 7.54 7.83 8.17 7.78 7.95 8.16 8.11 7.71 8.10 7.46 7.70 8.37 8.30 8.09 7.58 8.37 7.63 8.16 7.99 8.31 7.49 7.84 8.08 8.19 8.16 7.80 7.77 8.18 8.09 7.97 7.63 8.11 7.84 7.60 8.34 8.02 8.12 7.82 7.70 7.50 8.36 7.71 8.11 7.99 8.01 8.07 8.31 7.85 8.20 8.28 7.72 8.24 8.41 8.17 8.31 8.02 7.46 -9999 -9999 -9999 -9999 -9999 -9999 -9999 -9999 -9999 -9999 -9999 -9999 -9999 -9999 -9999 -9999 -9999 -9999 -9999 -9999
7.45 8.03 7.68 8.30 7.59 8.21 7.99 7.87 7.94 7.77 8.13 8.22 8.11 8.22 7.79 7.57 7.56 7.92 7.72 7.67 7.99 8.33 8.23 8.12 7.67 7.49 8.07 8.22 7.51 8.01 8.28 7.66 8.30 7.72 7.99 8.24 7.82 8.28 7.88 7.47 7.48 8.37 7.58 8.08 7.47 7.90 8.29 8.10 8.09 8.04 8.36 7.99 7.46 8.11 7.59 8.06 7.66 8.25 8.19 7.67 7.57 7.46 7.76 7.66 7.73 8.29 8.24 7.79 8.10 7.90 8.18 8.28 7.56 7.49 8.29 8.12 8.12 7.72 8.43 8.03 7.91 8.28 8.19 7.89 7.67 8.21 7.66 7.93 8.14 8.04 8.07 8.23 8.12 8.21 8.34 8.18 8.35 7.44 7.99 7.98 7.77 7.76 8.27 8.12 8.15 7.48 7.81 7.45 7.47 7.91 7.66 8.41 7.92 8.14 7.72 8.10 7.66 7.48 7.52 7.55 7.68 7.74 8.19 7.60 8.07 8.18 8.42 7.68 7.49 7.49 7.94 7.61 7.98 7.71 7.55 7.47 7.59 7.87 7.74 8.43 7.59 8.11 7.45 7.66 7.47 8.10 7.99 8.23 7.64 7.70 7.51 7.58 7.47 7.77 7.51 8.04 7.90 7.63 8.01 8.07 8.06 8.42 7.55 7.72 8.07 7.52 8.16 8.15 8.01 8.18 7.53 7.82 7.52 7.94 8.05 8.16 7.86 7.53 8.03 7.88 7.68 8.20 8.30 7.60 8.33 7.72 7.75 7.60 8.03 7.72 7.74 7.90 7.57 8.06 8.31 -9999 -9999 -9999 -9999 -9999 -9999 -9999 -9999 -9999 -9999 -9999 -9999 -9999 -9999 -9999 -9999 -9999 -9999 -9999 -9999
8.07 7.72 8.05 8.12 7.55 7.93 7.98 8.09 7.93 7.76 8.02 7.45 7.75 7.59 7.75 8.13 8.02 8.18 7.65 7.79 7.81 8.17 8.41 8.31 8.35 7.58 8.33 7.60 8.35 8.37 7.99 7.78 7.44 8.42 8.18 7.83 8.32 8.07 8.32 7.77 7.45 7.93 8.43 7.67 8.13 8.18 8.19 8.24 8.24 7.83 8.41 7.62 7.77 8.20 7.92 7.50 8.23 7.80 8.36 7.55 7.52 7.52 7.80 7.92 8.25 7.65 8.35 8.23 8.21 8.42 7.57 7.75 8.02 7.44 7.83 7.89 7.84 7.89 8.24 8.07 8.36 8.19 8.38 7.62 7.75 7.46 7.73 8.22 8.37 7.90 7.49 7.96 8.13 7.57 8.30 7.78 8.01 7.50 7.73 7.60 7.85 8.29 7.67 8.27 8.14 7.62 8.35 8.00 7.63 7.96 8.40 8.30 7.84 8.33 7.56 8.13 8.08 7.95 7.87 7.87 7.86 8.09 7.47 8.23 7.93 7.74 8.43 7.71 8.15 7.62 7.46 7.79 7.89 8.35 7.89 8.16 7.79 7.49 7.63 8.02 8.36 8.26 7.67 7.54 7.70 7.80 7.44 8.12 8.42 8.01 7.72 7.86 8.25 8.15 7.55 7.45 8.00 7.78 8.33 7.90 7.94 7.70 7.77 7.76 7.88 8.13 8.19 8.14 8.30 8.30 7.58 8.05 8.04 7.90 8.08 8.41 7.69 8.18 7.68 8.19 8.18 7.84 7.93 8.27 8.10 7.71 8.29 8.31 7.87 7.93 7.56 8.20 8.18 7.83 7.77 -9999 -9999 -9999 -9999 -9999 -9999 -9999 -9999 -9999 -9999 -9999 -9999 -9999 -9999 -9999 -9999 -9999 -9999 -9999 -9999
7.54 7.56 7.73 7.88 8.05 8.28 7.90 8.37 8.20 7.66 7.61 7.49 7.72 8.01 7.60 7.75 7.67 7.48 7.72 8.26 7.48 7.99 8.32 8.31 7.87 7.93 8.40 8.33 8.25 7.48 7.66 7.99 8.07 8.14 7.76 7.60 8.02 7.58 7.82 7.49 7.56 8.30 8.04 7.77 7.49 8.28 8.00 8.26 7.53 8.00 7.79 7.68 8.23 7.86 8.29 7.95 7.45 7.88 7.89 7.63 8.09 8.16 7.70 7.72 8.29 8.43 7.85 8.15 7.54 8.27 7.78 8.05 8.38 8.18 7.47 7.44 7.90 7.53 7.86 8.01 7.47 7.68 7.69 7.95 7.90 8.14 8.43 7.73 7.80 8.19 7.86 8.06 7.86 7.72 7.60 8.16 7.98 7.55 7.68 7.51 8.35 8.00 7.50 7.53 8.37 7.52 7.93 7.87 8.16 7.99 7.79 7.58 8.10 8.32 8.17 8.29 7.72 8.30 7.84 7.46 7.71 7.55 7.83 7.85 8.15 7.60 7.44 8.09 8.38 8.42 7.59 7.78 7.60 8.42 7.61 7.55 7.97 8.34 8.05 8.37 8.18 7.53 7.76 7.87 7.72 8.25 8.17 8.43 8.11 7.93 7.95 7.63 7.78 8.42 7.73 7.54 7.97 7.57 8.14 8.16 8.14 7.79 8.19 7.83 8.22 7.76 7.95 8.09 8.14 7.91 7.68 7.69 7.45 8.11 7.89 8.29 8.06 7.86 7.95 7.68 8.42 7.93 8.01 7.70 8.26 7.83 7.93 7.95 8.39 7.61 7.82 7.48 7.93 7.80 7.58 8.04 -9999 -9999 -9999 -9999 -9999 -9999 -9999 -9999 -9999 -9999 -9999 -9999 -9999 -9999 -9999 -9999 -9999 -9999 -9999
8.10 7.54 7.50 8.40 8.28 7.77 8.38 7.60 8.35 8.17 8.11 7.82 7.97 8.35 7.60 8.35 8.29 8.07 8.36 8.22 7.77 8.24 8.15 8.01 8.26 7.68 7.62 7.78 7.87 7.89 8.28 8.20 7.60 7.44 7.76 7.87 7.64 7.93 8.08 7.99 7.75 7.93 8.23 8.04 8.07 7.59 7.56 7.66 8.09 7.75 7.72 7.95 7.50 7.91 7.62 7.96 8.10 7.71 7.47 7.97 7.90 7.62 7.86 7.81 7.92 7.77 7.62 7.94 8.31 7.53 7.64 7.96 7.51 8.43 8.30 8.03 7.49 8.09 8.08 7.55 8.30 7.71 7.51 7.52 8.42 8.33 7.47 8.20 8.26 8.33 7.87 7.61 7.63 8.23 7.83 7.61 7.99 8.08 8.14 7.48 7.73 8.19 7.77 8.02 7.80 8.20 7.54 7.85 7.50 8.27 7.49 7.69 7.66 7.46 7.80 7.49 8.21 7.81 7.83 8.15 7.83 7.70 7.60 7.48 8.12 7.60 7.91 7.80 7.61 7.81 7.66 7.52 7.84 8.20 7.48 7.69 7.65 7.71 7.76 8.14 7.64 8.15 8.37 7.45 8.40 8.29 7.77 8.41 7.72 7.67 8.32 8.19 8.05 8.09 8.26 7.45 7.76 8.00 8.10 8.39 8.14 7.94 8.06 7.92 8.40 7.45 8.30 8.41 7.50 7.98 7.91 8.33 8.30 8.09 7.98 8.06 8.30 8.14 7.59 7.72 8.00 7.63 7.65 7.56 8.29 8.03 8.36 8.04 8.36 7.80 8.10 7.66 7.62 8.06 7.55 7.99 -9999 -9999 -9999 -9999 -9999 -9999 -9999 -9999 -9999 -9999 -9999 -9999 -9999 -9999 -9999 -9999 -9999 -9999 -9999
8.32 7.80 7.62 7.74 7.55 8.20 7.51 8.18 7.72 7.99 8.23 8.06 8.42 8.17 7.70 8.16 8.37 8.24 7.54 7.63 8.02 8.05 8.19 8.41 7.69 8.25 7.78 7.73 7.77 7.47 7.71 8.02 8.13 8.33 7.65 7.56 8.21 7.63 7.97 7.66 7.90 8.12 8.18 7.51 7.78 7.84 7.60 8.39 7.86 8.01 7.67 8.41 8.06 8.28 8.42 7.49 8.43 8.01 7.96 7.81 7.52 7.90 8.16 8.17 8.01 8.02 7.76 7.74 7.65 8.18 8.07 8.06 7.51 8.25 8.27 8.08 7.64 7.52 7.55 8.33 7.76 8.21 7.67 7.48 7.70 8.41 7.97 8.35 8.28 8.41 7.88 7.48 8.33 7.80 8.14 8.30 7.44 8.37 8.13 8.24 7.80 7.75 8.30 8.27 7.64 7.55 8.25 8.40 7.85 7.88 8.16 7.80 8.00 8.26 7.44 8.09 8.02 8.39 7.48 8.22 8.16 7.93 8.21 8.24 7.58 7.78 8.27 7.83 8.00 7.85 7.74 8.26 8.05 8.42 7.72 8.41 7.98 7.59 7.62 8.34 8.27 8.15 8.15 7.96 7.57 7.51 7.79 7.85 8.23 8.38 7.59 7.92 7.67 7.94 7.55 8.04 8.38 7.92 8.04 7.92 7.70 7.61 8.09 7.80 7.74 7.83 8.08 8.00 8.13 8.32 8.37 8.25 8.29 8.43 8.32 8.07 8.37 7.51 7.59 7.81 8.34 7.93 8.38 7.64 8.21 7.65 7.92 8.35 8.36 8.13 8.05 7.97 7.82 7.87 8.19 7.93 -9999 -9999 -9999 -9999 -9999 -9999 -9999 -9999 -9999 -9999 -9999 -9999 -9999 -9999 -9999 -9999 -9999 -9999 -9999
8.31 7.95 7.45 7.67 7.90 7.99 7.46 7.73 7.90 8.31 7.49 7.45 8.15 8.07 7.56 7.88 8.25 7.82 8.07 7.54 7.56 7.79 7.99 8.27 7.53 8.15 8.40 7.74 8.19 7.91 8.17 8.43 8.11 7.66 7.53 7.45 7.91 7.94 8.40 7.80 8.10 7.89 8.17 8.26 8.36 8.02 7.90 7.57 7.68 7.70 7.93 8.04 7.53 8.40 7.62 7.76 7.58 8.02 7.72 7.58 8.40 7.80 7.47 8.14 7.64 8.33 7.69 8.38 8.09 7.66 7.68 7.46 7.77 8.03 8.03 7.50 8.07 7.92 8.34 8.18 7.54 8.02 8.06 7.83 7.87 7.65 7.52 8.03 7.52 7.93 8.13 7.80 7.97 8.00 8.15 7.64 7.56 7.61 8.39 8.13 8.08 8.28 8.06 8.33 8.32 8.22 8.01 7.60 8.38 7.97 7.48 7.98 8.04 7.50 7.77 7.67 8.29 8.22 7.86 7.82 7.75 8.21 7.70 7.44 8.33 7.72 8.02 8.40 7.83 7.75 8.38 8.29 8.38 7.44 7.58 7.83 7.59 8.26 8.28 7.62 7.87 8.08 8.37 8.18 8.33 8.38 7.92 7.79 7.49 7.48 8.27 7.62 8.02 8.42 8.25 7.80 7.57 8.03 8.34 8.03 7.44 8.32 8.15 7.64 8.21 8.40 7.89 7.55 7.53 7.99 8.40 7.53 7.95 7.82 7.60 8.01 7.83 7.43 7.68 7.64 7.67 7.94 7.54 8.31 7.74 8.05 7.85 7.91 8.09 7.67 8.23 7.92 7.65 7.48 7.97 7.45 -9999 -9999 -9999 -9999 -9999 -9999 -9999 -9999 -9999 -9999 -9999 -9999 -9999 -9999 -9999 -9999 -9999 -9999 -9999
8.07 7.69 7.50 7.98 8.21 8.01 8.34 8.18 7.81 7.91 7.44 7.61 7.71 8.12 8.03 8.40 8.27 7.59 7.48 8.05 8.13 7.48 7.73 8.00 8.43 7.52 8.37 8.33 8.41 7.45 7.53 7.84 8.43 8.43 8.28 7.82 8.29 8.36 7.48 7.59 8.32 7.84 7.70 8.05 8.27 7.87 7.73 7.70 7.98 8.40 7.79 7.94 7.47 7.64 7.51 8.00 8.21 8.26 7.78 7.49 7.57 7.53 8.05 8.06 7.47 8.16 7.59 7.49 7.72 7.81 7.92 8.20 8.38 7.94 7.88 7.58 8.01 7.63 8.21 8.22 8.17 8.15 8.38 8.16 7.73 7.97 7.97 8.04 7.75 8.38 8.38 8.10 8.09 7.45 8.38 8.01 8.07 8.19 7.55 7.82 7.45 7.74 7.98 7.92 7.91 7.58 8.42 7.79 7.69 7.91 8.27 7.63 8.19 7.46 7.75 8.17 7.65 8.31 8.12 7.55 7.46 7.81 8.05 7.58 7.73 7.98 8.42 8.19 7.61 7.47 7.96 7.88 7.55 8.33 8.01 7.90 7.92 7.79 7.57 7.88 7.66 8.33 7.62 8.22 7.98 8.31 7.68 8.33 8.41 7.84 7.77 7.71 7.87 7.93 8.08 7.99 7.62 7.79 8.34 7.47 8.42 8.19 7.92 7.84 8.13 8.22 7.48 7.68 8.06 7.81 8.16 8.19 7.54 7.69 8.04 7.77 7.91 7.73 8.41 7.97 8.20 8.39 7.70 8.19 7.63 8.38 7.61 8.15 7.89 7.70 7.86 8.16 8.10 7.88 7.84 7.60 -9999 -9999 -9999 -9999 -9999 -9999 -9999 -9999 -9999 -9999 -9999 -9999 -9999 -9999 -9999 -9999 -9999 -9999 -9999
7.99 8.32 7.60 8.33 8.01 7.77 7.86 7.81 7.90 7.96 7.59 8.14 7.66 7.99 8.07 7.98 7.97 7.75 7.58 7.89 7.90 7.92 8.42 7.88 8.02 7.46 7.83 7.81 8.20 7.47 7.79 8.16 7.61 7.90 7.90 8.30 7.90 8.35 7.56 7.68 8.19 8.41 8.06 7.62 8.07 8.37 7.69 8.06 7.73 7.79 8.41 8.39 7.77 8.02 7.59 8.40 8.37 8.08 8.20 8.33 8.35 8.16 8.32 8.33 7.50 7.55 8.37 7.52 7.56 8.18 7.54 8.05 7.64 7.55 8.04 7.61 8.23 8.41 7.88 8.04 8.20 7.98 8.16 7.62 7.87 7.71 8.07 8.08 7.52 7.63 7.47 8.08 7.58 8.16 8.35 8.35 7.80 7.63 7.52 7.58 8.38 8.10 7.91 8.35 7.57 7.49 8.10 8.39 7.91 8.18 8.08 7.59 8.35 7.61 7.76 7.68 7.44 8.30 8.22 8.25 7.75 8.36 7.53 7.76 8.40 7.50 8.42 8.20 8.35 7.62 8.24 7.76 7.63 7.57 7.66 8.10 8.12 8.28 8.40 8.00 7.65 7.90 7.49 7.97 7.72 8.06 7.72 8.29 7.62 8.08 7.93 7.74 8.11 7.81 7.79 7.62 8.35 7.62 8.31 8.32 7.51 7.75 8.43 7.88 8.43 8.38 7.44 7.62 8.15 8.23 8.26 8.13 7.80 8.16 8.27 8.43 7.98 7.62 7.92 8.35 7.81 7.81 8.31 7.66 8.17 8.00 8.02 8.23 7.67 8.11 7.57 7.59 8.36 7.83 7.82 7.55 -9999 -9999 -9999 -9999 -9999 -9999 -9999 -9999 -9999 -9999 -9999 -9999 -9999 -9999 -9999 -9999 -9999 -9999 -9999
8.38 7.45 8.19 7.71 8.26 7.86 7.99 8.30 7.95 8.26 7.92 7.79 7.92 7.78 8.16 7.59 7.48 7.49 8.29 7.93 7.47 7.78 8.29 8.41 8.01 8.06 7.97 7.54 7.79 7.95 7.80 8.39 8.23 7.45 8.43 7.44 7.92 8.16 7.56 8.36 7.44 7.53 8.26 7.89 8.27 7.69 8.30 7.61 7.60 8.11 7.55 7.67 7.98 7.71 8.41 8.36 7.86 7.49 7.75 7.57 7.75 8.25 8.22 8.13 7.45 7.81 7.69 8.01 8.24 7.43 7.68 7.86 7.90 8.17 7.50 8.11 7.61 8.05 8.43 8.36 7.52 7.66 7.85 8.24 7.90 7.46 7.70 7.97 8.41 7.60 8.42 8.20 7.69 7.66 8.37 7.72 8.30 8.04 7.56 7.79 7.53 7.47 7.99 8.36 7.77 8.15 7.55 8.24 8.38 7.98 7.64 7.69 7.78 7.62 8.27 8.12 8.32 7.70 7.58 7.78 8.24 7.75 7.51 7.52 8.23 7.73 7.76 8.12 7.57 7.90 7.48 7.79 7.54 7.47 8.28 8.01 8.01 8.11 8.05 7.48 7.62 8.05 7.81 7.72 8.18 8.18 7.95 7.63 8.13 7.95 8.01 8.05 7.61 7.71 8.05 8.10 7.86 8.20 8.04 7.71 7.48 7.89 7.74 7.57 8.22 7.45 8.34 8.08 8.33 8.31 8.28 8.18 7.97 7.45 7.68 8.28 8.13 8.15 7.84 8.26 7.64 7.85 8.41 7.54 7.82 8.37 7.75 7.46 7.76 8.04 8.15 7.60 8.00 7.60 8.20 7.73 -9999 -9999 -9999 -9999 -9999 -9999 -9999 -9999 -9999 -9999 -9999 -9999 -9999 -9999 -9999 -9999 -9999 -9999 -9999
7.45 7.81 7.44 7.79 7.82 8.16 7.80 8.35 7.65 7.47 8.02 7.76 7.70 8.12 8.30 7.67 8.33 8.21 7.63 7.87 7.65 7.86 8.24 7.88 8.10 7.81 7.60 7.92 7.66 7.65 7.97 8.27 8.19 8.00 7.84 7.68 8.03 8.06 7.52 8.22 7.68 7.50 7.58 8.31 7.85 7.62 7.64 7.64 7.83 7.44 7.99 7.70 8.16 7.69 7.94 7.68 8.07 7.86 7.69 8.02 8.31 7.70 7.78 8.27 8.40 7.65 8.31 7.85 7.68 7.96 7.95 7.58 7.95 8.34 8.32 7.71 7.57 8.10 7.86 7.77 7.99 7.61 7.52 7.63 7.94 7.67 8.33 7.71 7.77 8.02 7.67 7.54 7.53 8.08 7.95 7.50 8.03 7.60 8.23 7.68 7.71 8.19 7.67 7.93 8.04 7.58 7.63 7.88 8.15 8.08 8.18 7.83 8.11 7.51 8.27 8.18 7.50 8.36 8.00 8.15 7.92 7.94 8.02 7.61 7.89 7.70 7.78 7.84 7.83 8.28 7.85 8.34 8.18 7.94 7.55 8.28 7.86 7.71 8.22 7.96 7.80 8.17 7.84 7.76 8.07 8.26 8.37 8.09 7.79 7.88 8.12 7.97 8.40 7.69 8.13 8.08 7.86 7.69 8.18 7.68 7.63 8.22 7.66 7.83 7.85 7.98 8.09 7.96 8.38 8.03 7.96 8.16 8.34 7.64 8.29 8.29 8.30 8.27 7.98 8.30 8.20 7.70 7.60 8.22 8.33 7.77 8.38 7.89 7.72 8.33 7.59 7.64 8.37 7.69 8.02 7.82 7.48 -9999 -9999 -9999 -9999 -9999 -9999 -9999 -9999 -9999 -9999 -9999 -9999 -9999 -9999 -9999 -9999 -9999 -9999
7.67 7.46 7.75 8.14 8.38 8.20 8.07 7.82 7.84 7.67 7.90 7.95 7.87 7.45 8.09 8.20 7.90 7.66 8.06 8.32 8.22 8.07 7.73 8.30 8.11 7.91 7.70 8.04 8.33 7.83 7.88 8.38 8.09 7.96 8.33 7.53 8.12 8.13 8.41 7.55 8.00 8.20 8.15 8.32 7.79 7.66 7.67 7.89 8.15 8.06 8.43 8.23 8.05 7.60 8.07 7.91 7.92 7.52 7.94 7.78 7.55 8.13 8.06 7.87 7.80 7.57 8.21 7.86 7.86 7.73 7.49 7.65 8.40 7.98 8.27 7.74 7.91 7.44 7.72 7.44 8.24 7.48 7.49 7.47 7.50 7.52 8.40 7.88 8.40 7.64 7.78 7.65 8.15 8.00 8.22 8.35 8.12 8.16 7.56 8.23 8.34 7.83 7.82 8.33 8.03 7.46 7.92 7.88 7.53 8.35 8.18 8.15 7.90 7.69 7.70 8.02 8.23 8.07 8.07 7.98 8.37 7.73 8.02 8.33 7.85 8.27 7.95 7.52 8.20 8.28 7.95 8.03 8.06 8.20 8.42 7.49 8.24 8.15 8.05 8.02 8.37 8.41 7.71 7.45 8.01 8.36 7.80 8.10 7.82 7.52 7.60 8.03 7.98 8.21 7.89 7.60 7.65 8.05 8.29 8.30 8.40 7.55 7.79 7.47 8.35 8.35 7.86 8.33 7.48 7.71 8.25 7.99 7.47 7.77 8.24 8.42 7.52 7.64 8.35 7.44 7.87 7.83 8.24 7.47 7.85 7.97 7.88 7.52 8.20 8.29 7.46 8.00 7.54 8.03 7.64 7.49 7.56 -9999 -9999 -9999 -9999 -9999 -9999 -9999 -9999 -9999 -9999 -9999 -9999 -9999 -9999 -9999 -9999 -9999 -9999
7.69 8.42 7.83 8.40 8.31 8.42 7.50 7.55 8.34 7.93 8.02 7.75 7.78 7.63 7.60 8.11 7.94 7.66 7.95 7.81 7.86 8.20 8.40 7.61 8.17 7.67 8.28 7.95 7.95 8.15 8.33 8.25 8.02 8.06 7.90 8.34 7.62 7.98 8.33 7.44 8.02 8.03 8.21 7.96 7.98 7.48 7.93 7.61 7.48 8.09 8.03 7.85 8.25 8.35 7.53 8.40 8.15 8.03 7.81 8.22 7.91 8.35 8.25 8.08 7.99 8.12 7.95 7.93 7.79 7.53 7.70 7.88 8.12 8.29 7.46 8.36 8.40 8.20 7.54 8.27 7.48 7.97 8.35 7.97 7.78 7.85 7.68 8.17 7.93 8.32 8.13 7.89 8.17 8.12 8.23 7.68 7.62 7.79 7.84 8.27 7.87 7.63 8.41 8.24 7.79 8.18 7.79 8.33 8.05 8.11 7.51 7.44 7.83 7.72 7.78 7.54 7.67 8.36 8.18 7.78 7.81 7.97 7.77 8.37 7.59 8.23 7.81 7.48 8.23 7.70 8.15 8.05 8.25 7.43 8.28 7.47 7.57 7.65 8.35 8.35 7.99 7.97 7.88 8.31 7.90 8.40 7.78 7.48 7.47 8.08 7.88 7.78 8.09 8.05 7.80 8.29 8.12 7.85 7.82 7.99 7.93 7.87 8.05 7.78 8.25 7.77 7.66 8.34 7.90 7.65 7.79 7.70 7.77 7.76 7.64 8.15 8.16 7.53 8.13 7.65 7.43 7.77 8.08 8.15 7.59 7.70 7.75 8.10 7.68 7.92 7.84 7.53 7.72 7.65 7.98 7.71 8.09 -9999 -9999 -9999 -9999 -9999 -9999 -9999 -9999 -9999 -9999 -9999 -9999 -9999 -9999 -9999 -9999 -9999 -9999
7.91 8.07 8.25 7.77 8.30 7.68 8.04 8.19 7.93 7.83 7.64 7.89 8.35 8.27 8.02 8.32 8.21 7.80 7.84 8.02 7.92 7.69 7.51 7.69 7.54 7.73 8.12 7.99 7.59 8.28 8.22 8.15 7.51 8.11 7.67 7.54 7.77 8.19 7.80 8.16 7.70 7.51 7.83 8.29 7.45 7.94 8.41 7.74 8.17 8.12 8.27 7.44 8.25 8.20 7.60 8.38 7.77 7.88 8.41 7.77 8.24 7.49 8.40 7.97 7.53 7.81 7.91 7.56 8.04 7.92 7.66 7.86 8.17 7.43 8.14 8.33 7.99 7.45 8.24 7.47 7.55 8.36 8.23 8.22 8.34 7.87 7.55 8.15 7.51 8.38 7.85 7.80 8.07 8.09 7.56 7.98 7.52 7.97 8.01 8.41 7.91 7.92 7.63 8.16 8.07 8.12 8.26 7.81 7.94 8.12 8.40 8.37 7.93 8.19 7.99 8.06 7.61 7.70 7.44 7.82 7.45 8.34 7.60 8.15 7.58 7.97 8.21 7.79 7.83 8.30 7.65 8.09 7.97 7.44 8.12 8.03 7.88 7.96 8.41 7.85 8.34 7.45 8.05 8.27 8.15 7.95 7.82 7.80 7.92 7.71 8.19 8.14 7.81 7.88 8.21 8.31 7.63 7.75 8.32 7.71 7.82 7.77 8.41 7.68 7.88 8.37 7.92 8.04 7.67 8.37 7.80 8.13 7.62 8.29 7.70 7.52 8.00 8.00 8.11 7.72 7.69 7.72 7.60 8.08 8.23 8.10 7.53 7.63 7.99 7.84 7.80 7.44 7.71 7.68 7.77 8.33 7.85 -9999 -9999 -9999 -9999 -9999 -9999 -9999 -9999 -9999 -9999 -9999 -9999 -9999 -9999 -9999 -9999 -9999 -9999
7.81 7.68 7.72 8.21 7.44 7.88 7.49 7.57 8.25 8.37 7.98 8.40 7.75 7.82 8.24 8.06 7.51 7.57 8.10 7.87 8.41 8.29 8.22 7.78 8.09 8.15 8.29 7.62 8.40 7.93 7.93 7.48 7.55 7.44 7.50 8.28 8.06 8.22 8.29 7.52 7.62 7.85 8.33 8.14 8.15 7.46 8.04 7.87 8.36 7.79 8.40 7.64 7.91 8.32 7.53 7.57 7.65 7.76 8.20 7.68 7.52 7.71 7.91 8.26 7.59 7.80 8.00 7.82 7.90 7.90 7.54 8.13 8.28 8.23 7.55 7.74 8.22 7.48 8.43 8.17 8.15 7.62 7.93 7.82 8.36 7.93 8.25 8.32 8.12 8.17 8.34 8.24 8.17 8.00 8.20 8.28 8.31 7.96 7.70 7.56 8.16 8.30 7.71 7.47 7.60 8.20 8.15 8.20 8.33 8.41 7.62 8.26 7.71 8.19 7.93 7.79 7.53 7.86 8.41 7.70 8.29 7.84 7.62 8.34 8.31 7.76 8.24 8.09 7.43 8.26 8.37 7.75 8.41 7.88 8.25 7.64 8.38 7.57 7.99 8.14 7.80 8.34 7.53 8.05 8.05 7.74 8.29 8.00 7.88 8.42 8.39 7.74 8.19 8.30 8.26 8.13 8.22 7.83 7.45 8.40 7.61 7.80 8.16 8.18 8.29 7.47 8.03 7.66 8.35 8.34 7.76 7.52 8.38 8.27 7.60 7.69 7.84 8.24 7.89 8.13 7.75 7.97 8.27 8.11 7.54 7.52 7.79 7.52 8.32 7.91 8.22 7.81 8.08 8.01 7.90 7.86 7.60 -9999 -9999 -9999 -9999 -9999 -9999 -9999 -9999 -9999 -9999 -9999 -9999 -9999 -9999 -9999 -9999 -9999 -9999
8.27 7.79 7.94 7.50 8.01 8.03 8.19 7.46 8.15 7.75 7.44 7.59 8.32 8.19 8.13 8.01 8.08 8.23 7.84 7.50 7.75 8.34 7.45 7.58 7.56 7.52 7.97 7.47 8.20 8.32 7.63 8.11 7.78 8.00 7.81 8.25 8.22 7.73 7.91 7.81 7.81 7.72 7.91 7.86 8.02 8.18 7.62 7.52 8.21 8.03 7.71 7.49 7.58 7.93 7.70 7.58 8.05 7.83 7.85 8.24 7.92 8.18 7.56 7.65 8.07 8.13 8.14 7.61 7.46 7.72 7.54 7.60 7.44 8.19 8.03 7.76 7.57 7.52 8.05 8.20 8.03 8.24 8.10 8.21 7.44 7.59 7.44 8.14 7.86 7.91 8.16 8.09 7.68 8.41 7.56 8.02 8.34 8.06 8.08 8.29 7.56 7.71 7.57 8.30 8.35 8.34 8.10 8.19 7.85 7.59 8.26 8.42 8.41 7.46 8.35 7.62 7.62 7.95 8.09 7.94 8.04 8.12 8.39 7.66 8.35 7.66 8.36 8.09 7.87 7.57 8.18 8.20 7.81 7.90 7.78 8.12 7.54 7.76 7.98 8.15 7.97 8.29 8.05 7.64 8.12 8.35 8.05 8.14 7.80 8.43 8.41 7.53 7.94 8.29 8.17 7.88 8.18 7.45 7.95 7.92 7.53 7.56 7.54 8.31 7.67 8.38 8.23 8.02 7.46 8.27 7.78 7.50 7.87 8.30 7.69 8.03 7.81 7.56 7.61 7.78 8.34 7.49 7.95 7.86 7.97 8.15 7.56 8.43 7.50 7.80 8.37 7.60 7.78 8.28 7.99 8.38 8.13 -9999 -9999 -9999 -9999 -9999 -9999 -9999 -9999 -9999 -9999 -9999 -9999 -9999 -9999 -9999 -9999 -9999 -9999
7.85 7.57 8.07 7.72 7.64 8.39 7.85 7.66 7.47 8.40 8.32 7.72 8.22 7.96 7.44 7.95 7.81 7.90 7.64 8.10 7.46 7.61 7.62 7.49 8.16 7.54 7.65 7.90 8.32 8.33 7.99 7.83 7.71 8.35 8.14 8.40 7.78 7.52 8.08 8.32 7.60 8.20 7.46 7.72 7.61 8.12 8.31 8.32 8.11 7.91 7.87 8.17 8.32 8.40 8.15 7.79 7.86 7.66 8.37 8.29 7.70 7.54 8.25 7.46 7.96 7.58 7.56 7.50 7.86 8.29 7.94 7.57 8.20 7.56 8.15 8.36 8.10 7.85 7.59 7.98 7.92 8.12 8.03 7.72 7.86 8.02 8.13 7.63 8.08 8.02 7.54 8.06 7.72 7.65 8.02 7.81 8.02 7.66 7.66 8.09 7.60 8.12 7.70 7.89 7.91 8.34 7.88 7.79 8.37 8.42 8.30 8.01 8.38 8.20 7.53 7.45 7.72 8.01 8.35 7.50 7.74 8.00 8.05 7.70 7.97 7.95 8.22 8.21 7.71 7.75 7.55 8.17 7.44 7.55 8.03 8.19 8.08 7.98 8.10 8.33 7.65 8.20 7.47 8.02 8.41 7.56 8.03 8.24 7.71 7.47 7.67 8.23 7.64 8.05 7.81 7.92 7.92 7.91 7.46 8.25 7.47 8.01 7.82 8.23 7.57 7.95 8.23 7.68 7.62 7.79 8.30 8.30 7.58 7.65 7.64 7.84 8.06 7.48 7.51 8.29 7.99 7.70 7.61 8.08 7.74 8.37 8.26 7.92 7.94 7.48 7.69 8.15 7.48 8.09 7.92 8.34 7.58 7.94 -9999 -9999 -9999 -9999 -9999 -9999 -9999 -9999 -9999 -9999 -9999 -9999 -9999 -9999 -9999 -9999 -9999
7.63 8.39 8.11 7.83 8.06 7.54 7.71 7.49 8.41 7.95 8.02 8.34 7.61 7.66 7.85 7.61 7.60 7.90 7.67 8.01 8.27 8.33 8.27 8.42 7.70 8.17 7.65 8.33 7.79 8.02 8.43 7.67 8.08 7.49 8.01 8.05 7.87 8.38 8.08 8.17 7.94 7.84 7.88 7.78 7.90 7.95 8.01 8.21 8.27 7.44 7.57 8.03 8.12 7.92 7.81 8.05 8.19 7.56 7.89 7.97 7.60 8.05 7.97 7.87 8.18 7.59 8.24 8.36 8.43 8.37 8.20 8.38 8.24 8.06 7.87 8.15 8.18 7.86 7.76 7.98 8.42 8.08 7.81 7.92 8.30 7.46 7.85 8.23 8.08 7.68 8.25 8.02 7.54 7.72 7.49 8.41 7.95 7.83 7.50 7.49 8.37 8.30 7.56 8.22 7.58 8.00 8.10 7.56 7.80 8.29 8.17 7.58 7.84 8.25 8.25 8.15 7.50 7.76 8.27 7.68 7.87 8.27 7.44 7.49 8.26 7.58 8.26 7.98 8.12 7.53 8.36 7.91 7.81 8.38 7.55 8.02 7.59 7.69 8.20 8.06 7.82 7.45 7.85 7.96 8.36 8.04 8.12 7.87 8.22 7.67 7.70 7.98 8.13 8.23 7.71 7.79 7.92 8.35 8.42 7.77 7.95 7.59 7.61 7.77 7.48 7.89 8.05 8.35 8.34 7.50 7.71 7.87 8.08 8.04 7.88 8.08 7.90 7.53 8.15 7.62 8.09 7.57 7.78 8.43 7.51 7.95 7.64 7.90 7.55 7.68 8.27 7.55 8.40 7.70 7.47 8.20 8.33 7.55 -9999 -9999 -9999 -9999 -9999 -9999 -9999 -9999 -9999 -9999 -9999 -9999 -9999 -9999 -9999 -9999 -9999
7.80 7.63 7.50 8.28 7.96 7.60 7.88 8.13 8.41 7.64 7.78 8.19 8.25 8.42 7.69 7.87 7.71 8.21 8.01 8.02 7.55 8.29 7.69 8.14 8.29 7.61 8.23 8.15 7.57 7.50 7.85 7.76 7.89 7.51 7.95 8.34 8.06 7.86 7.87 7.92 7.73 8.26 7.62 7.79 7.50 8.36 8.23 8.02 8.19 7.44 7.49 8.22 8.11 8.28 7.59 8.25 7.49 7.94 7.80 7.90 8.31 8.29 8.27 7.73 7.99 7.64 8.07 8.22 7.83 8.32 8.36 8.11 7.57 7.84 7.74 7.46 8.32 8.39 7.66 8.16 7.71 7.59 7.88 8.28 7.47 8.14 8.39 7.43 7.98 8.43 8.41 7.67 8.10 8.09 7.51 8.36 7.84 8.12 7.98 7.84 7.70 8.10 7.91 7.99 7.43 7.85 8.35 8.17 8.05 7.52 8.27 7.87 8.01 8.36 7.47 7.60 7.57 8.26 7.61 8.08 7.95 7.91 8.42 7.64 7.56 7.75 8.25 8.15 7.70 7.81 7.45 8.06 7.63 8.13 7.90 8.25 8.06 7.98 7.68 7.81 8.29 7.91 8.16 7.68 7.98 8.23 7.79 8.28 8.07 8.11 7.91 8.32 7.89 7.54 8.04 8.06 7.80 7.55 7.76 8.32 7.73 8.21 7.44 8.01 7.61 7.95 8.16 8.27 8.24 7.84 8.39 8.11 8.30 8.33 7.54 7.58 7.85 8.26 7.52 8.09 7.84 8.02 7.82 8.20 8.07 7.73 7.76 7.63 8.27 8.33 7.98 8.00 8.35 7.45 8.24 7.52 8.28 7.89 -9999 -9999 -9999 -9999 -9999 -9999 -9999 -9999 -9999 -9999 -9999 -9999 -9999 -9999 -9999 -9999 -9999
8.09 7.53 7.50 7.45 8.33 7.89 7.45 8.05 7.66 7.54 7.46 7.64 8.19 8.35 7.65 8.23 7.70 7.71 7.47 8.18 7.85 7.76 7.95 7.79 7.66 8.01 8.05 7.83 7.98 7.71 8.08 7.57 8.42 7.76 7.48 8.05 7.86 8.22 8.00 7.88 7.97 8.33 7.77 7.53 8.41 8.06 7.94 7.46 8.05 8.21 7.60 7.90 7.54 7.78 7.72 7.52 7.72 8.42 8.09 8.43 7.96 7.89 8.28 7.68 8.42 7.81 8.32 8.19 7.74 7.80 8.03 7.97 7.44 8.33 7.75 7.81 8.13 7.93 8.29 7.67 8.14 7.91 8.28 8.35 8.11 7.95 7.92 8.31 8.11 7.79 8.15 7.75 7.62 8.31 8.28 8.13 8.21 8.01 8.05 7.75 7.98 8.43 8.10 8.11 8.08 7.57 8.40 8.00 8.05 7.59 8.13 7.45 8.02 7.96 8.06 7.64 8.07 7.74 8.03 7.48 8.40 7.94 8.05 7.80 7.50 7.88 7.93 7.80 8.37 7.69 7.91 7.88 8.35 8.07 7.74 8.05 8.25 8.04 7.50 8.01 7.70 8.42 7.60 7.92 7.92 8.27 7.57 7.44 8.31 8.12 8.34 8.35 8.24 7.53 7.80 7.82 7.50 7.65 7.63 7.81 7.79 7.94 8.10 8.01 7.60 7.98 7.69 7.92 8.23 7.87 8.29 7.63 8.35 7.69 7.87 7.82 7.64 8.23 7.85 7.66 7.67 8.19 7.46 7.97 7.98 8.13 7.78 7.51 7.76 7.81 7.51 8.39 8.00 8.27 7.52 8.43 8.12 8.30 -9999 -9999 -9999 -9999 -9999 -9999 -9999 -9999 -9999 -9999 -9999 -9999 -9999 -9999 -9999 -9999 -9999
7.84 8.38 8.15 8.33 8.42 8.41 8.22 7.83 7.57 8.04 7.63 7.74 7.65 7.97 8.03 7.73 7.51 8.27 7.85 8.35 8.41 7.59 7.87 7.98 7.74 7.82 7.79 8.28 7.97 8.00 7.75 7.80 8.43 7.87 7.76 7.97 8.29 8.13 7.81 7.67 7.59 7.68 7.87 8.04 7.53 7.44 7.48 7.88 8.35 8.06 7.76 7.49 8.03 8.36 8.08 7.95 7.60 7.49 7.83 8.22 7.90 8.02 8.00 8.37 8.00 8.01 8.19 8.13 8.35 7.95 8.25 7.59 7.56 7.57 7.52 7.76 7.92 8.05 7.45 8.29 7.75 7.98 8.31 7.88 8.17 8.39 8.00 7.67 8.42 8.30 8.39 8.06 7.88 7.64 7.71 7.99 7.67 7.70 7.48 8.18 7.82 7.93 8.25 8.31 7.79 7.47 8.24 8.23 7.99 7.91 7.82 7.85 7.76 7.87 8.08 8.07 8.37 7.69 8.19 8.29 7.53 8.34 8.38 7.56 8.03 7.71 8.43 8.19 7.55 7.53 8.37 7.50 7.91 7.69 8.19 8.05 7.79 8.11 8.29 8.40 7.51 8.27 8.43 7.52 8.15 7.86 8.00 7.47 7.77 7.95 8.38 8.26 7.71 7.65 7.74 8.03 7.60 8.09 7.52 7.86 8.28 7.90 8.37 8.41 7.98 7.66 7.68 8.40 7.62 7.87 7.66 8.16 7.62 7.46 7.97 7.95 8.06 7.55 7.57 7.80 8.16 7.48 7.91 8.21 7.58 7.76 7.59 7.83 7.54 7.94 8.43 7.65 7.70 8.23 7.68 7.70 8.03 7.69 -9999 -9999 -9999 -9999 -9999 -9999 -9999 -9999 -9999 -9999 -9999 -9999 -9999 -9999 -9999 -9999 -9999
7.78 7.46 8.39 8.29 8.09 7.55 8.26 8.10 7.86 7.61 8.40 7.65 7.67 8.27 8.14 7.70 8.12 7.46 8.28 7.63 8.24 8.05 7.67 8.10 8.05 8.18 7.73 7.53 8.32 8.16 8.03 7.85 7.93 8.33 7.61 7.44 7.89 8.40 7.69 8.43 8.35 7.70 7.49 7.74 7.66 8.02 8.04 8.17 7.66 7.68 8.17 8.17 7.74 7.59 8.00 8.36 8.28 7.99 8.28 8.07 7.64 8.00 7.77 7.49 7.76 8.14 7.49 7.89 7.58 8.39 7.57 8.27 8.33 8.27 8.11 7.54 8.04 7.55 7.88 7.48 7.93 8.36 7.85 7.81 7.47 8.32 8.28 7.60 7.90 8.06 8.22 7.69 8.21 7.99 7.90 8.18 8.27 7.64 7.43 7.79 8.32 8.06 7.52 8.16 7.78 8.42 7.44 7.56 7.99 7.77 8.27 7.85 7.88 8.23 7.85 8.36 7.74 7.68 8.34 7.46 7.70 7.72 7.68 7.97 7.98 7.69 7.62 7.66 7.64 8.21 7.68 7.53 7.85 7.60 8.15 8.16 8.23 8.15 7.81 8.24 7.93 8.41 8.43 8.43 8.10 8.42 7.98 8.27 7.91 8.19 7.78 8.05 7.62 8.42 7.62 8.04 8.09 7.65 8.03 7.62 8.30 7.65 7.72 7.87 7.82 7.54 8.32 8.00 7.54 8.41 7.98 8.11 7.60 8.07 7.55 7.57 7.71 8.15 7.58 7.49 7.87 7.75 8.00 7.66 8.41 8.41 8.17 7.96 8.26 8.06 7.57 7.78 8.23 7.88 7.56 7.82 7.78 7.59 -9999 -9999 -9999 -9999 -9999 -9999 -9999 -9999 -9999 -9999 -9999 -9999 -9999 -9999 -9999 -9999 -9999
7.78 8.33 8.24 7.59 7.53 7.88 7.70 8.30 8.03 8.06 8.27 8.12 8.04 7.59 7.70 8.18 7.45 8.30 7.97 8.22 8.38 7.77 8.32 7.44 8.19 7.90 7.69 7.82 8.06 7.51 7.75 8.01 8.19 7.49 8.07 7.97 7.97 8.31 8.25 8.31 8.11 7.95 8.38 7.92 8.02 7.70 7.46 8.18 8.02 8.15 7.78 7.88 7.73 7.94 8.02 7.76 7.45 8.23 8.04 7.64 8.36 7.52 8.14 7.96 8.42 8.42 7.85 8.03 8.43 7.66 7.79 7.89 7.74 8.28 7.73 8.12 7.78 7.96 7.85 7.68 8.40 8.10 7.96 8.23 8.41 8.40 7.99 7.85 7.47 7.57 7.56 8.26 8.01 7.71 8.18 7.46 7.44 7.77 7.74 7.92 7.58 7.90 8.26 7.73 8.29 7.64 8.29 8.39 7.46 8.29 8.25 7.94 8.33 8.37 8.28 8.07 7.92 8.20 8.41 7.63 7.79 7.65 7.55 8.15 8.37 7.69 8.02 7.71 7.87 7.55 7.88 8.23 7.73 8.08 7.83 8.13 7.47 8.35 8.12 8.24 8.37 8.34 8.38 7.75 7.90 8.14 8.36 7.66 7.43 8.05 7.86 8.17 7.98 8.33 7.44 7.68 7.78 7.45 7.78 8.33 7.47 7.77 7.78 8.15 7.66 8.40 7.89 7.81 8.01 7.79 8.39 8.10 7.65 8.28 7.85 7.68 8.37 7.60 7.57 7.45 8.24 7.88 7.72 8.17 8.33 8.23 8.30 8.09 7.50 7.47 7.71 7.87 7.64 7.60 7.96 7.93 7.76 8.19 -9999 -9999 -9999 -9999 -9999 -9999 -9999 -9999 -9999 -9999 -9999 -9999 -9999 -9999 -9999 -9999 -9999
8.11 7.84 7.72 8.35 8.28 8.07 7.63 7.56 8.27 7.61 7.93 7.93 7.64 7.84 7.60 7.66 7.58 7.68 7.71 8.39 7.79 7.59 7.63 8.21 7.83 8.01 7.78 8.34 8.21 8.19 7.66 8.17 7.50 8.24 8.08 8.34 8.27 7.53 8.12 7.98 7.61 7.64 7.97 7.49 8.29 8.38 8.13 7.91 8.15 8.36 8.22 8.40 8.09 8.16 8.03 7.72 7.51 8.11 7.61 7.52 7.78 7.45 7.63 8.02 7.59 8.06 7.76 7.59 7.65 7.48 8.11 8.19 8.41 8.42 8.20 7.64 7.52 8.37 8.08 7.91 7.78 7.64 7.47 8.26 8.30 8.23 8.42 7.58 7.88 7.94 7.65 7.47 7.86 7.93 8.12 8.29 8.09 7.94 7.88 7.52 8.10 7.61 8.05 8.09 7.74 7.77 8.33 7.55 7.76 7.95 7.71 7.86 7.97 8.31 7.61 7.79 7.83 7.66 7.77 8.02 7.80 8.35 7.56 8.37 7.71 8.39 7.94 8.09 8.17 7.74 7.81 7.60 7.56 8.18 8.31 8.23 7.56 8.13 7.43 7.60 8.09 7.78 7.44 7.61 7.55 8.21 7.75 7.65 7.67 8.15 7.46 7.85 7.67 7.91 8.41 7.79 7.89 8.29 7.68 7.82 7.62 8.34 7.58 7.51 7.45 7.44 7.65 8.43 8.26 7.44 8.36 7.60 7.92 7.68 7.56 7.98 8.18 7.65 7.75 7.92 8.08 8.15 8.34 8.42 8.15 7.88 7.70 7.60 7.87 8.04 8.20 8.30 7.73 7.64 7.80 7.81 7.67 7.99 8.21 -9999 -9999 -9999 -9999 -9999 -9999 -9999 -9999 -9999 -9999 -9999 -9999 -9999 -9999 -9999 -9999
7.74 7.54 8.14 7.62 7.48 7.65 8.06 7.81 7.50 7.89 7.79 8.14 7.65 7.94 7.84 7.78 8.07 8.19 7.99 7.58 7.95 7.54 8.23 8.29 7.93 7.76 8.26 7.91 7.93 7.92 8.41 7.60 8.37 7.89 8.30 7.62 8.29 7.68 8.31 7.91 7.52 7.78 7.67 8.26 7.63 8.25 7.74 7.55 8.38 7.46 7.46 7.49 7.69 8.21 8.37 7.97 7.56 7.81 8.16 7.53 8.43 7.48 8.42 8.14 7.79 8.08 7.92 7.61 8.15 8.40 7.97 7.67 7.85 7.60 8.40 8.27 7.75 7.77 8.26 7.76 7.95 7.80 7.82 8.03 7.74 7.98 8.31 8.38 8.41 7.51 8.42 7.58 8.23 8.29 7.91 7.49 7.66 7.50 7.94 8.32 7.52 7.82 8.31 8.36 8.34 8.18 8.02 7.74 8.02 7.79 7.77 8.27 7.74 8.33 8.08 7.61 7.62 7.74 8.41 7.66 7.79 7.62 8.17 8.34 7.94 8.06 7.86 8.22 7.63 8.03 8.21 7.84 7.85 7.45 7.68 7.62 7.61 7.86 8.06 7.54 8.06 8.14 8.19 8.24 7.73 7.55 7.99 8.40 7.96 8.04 8.37 7.53 7.84 7.49 8.10 7.58 7.78 8.42 7.68 7.90 7.78 7.96 7.93 7.66 7.49 7.63 7.71 8.14 8.42 8.16 8.28 7.68 8.09 8.10 7.62 7.91 8.06 8.08 8.16 7.86 8.17 8.32 8.41 8.36 8.33 8.38 7.79 7.49 7.69 8.18 8.36 7.90 7.71 8.31 7.81 7.48 8.40 8.08 7.76 -9999 -9999 -9999 -9999 -9999 -9999 -9999 -9999 -9999 -9999 -9999 -9999 -9999 -9999 -9999 -9999
7.52 7.85 7.80 8.30 7.44 7.69 7.62 8.08 8.19 7.70 8.24 8.18 8.21 7.57 8.28 7.86 7.54 7.48 7.45 7.52 7.59 7.91 8.05 7.50 8.23 8.32 7.93 7.84 7.96 8.43 8.09 7.84 8.05 8.22 7.61 8.22 7.99 8.01 7.62 7.81 7.77 7.73 7.71 7.49 7.87 8.41 7.59 7.48 7.88 7.58 8.10 8.38 8.02 7.72 7.82 7.85 8.42 7.90 7.79 8.15 7.61 7.47 7.99 7.71 8.20 7.71 7.58 8.10 7.99 7.70 7.85 7.64 7.75 7.82 8.26 7.58 7.97 8.31 8.29 8.16 8.18 8.35 7.47 7.52 8.38 7.93 7.87 7.66 7.57 8.26 7.62 8.02 7.66 8.33 7.79 8.20 7.44 7.65 8.28 8.21 7.86 7.55 8.14 7.59 7.95 7.84 7.78 7.94 7.87 8.08 7.51 7.59 8.27 8.17 7.48 7.72 8.16 8.35 7.60 8.08 8.00 7.85 7.91 7.81 7.57 8.37 7.99 8.34 8.27 7.47 7.92 8.33 7.85 7.63 7.71 7.90 7.46 7.72 7.69 8.06 7.89 8.35 8.27 7.51 8.14 8.42 7.60 7.98 8.25 8.09 8.05 8.39 8.01 8.13 7.57 7.96 7.51 8.14 8.22 7.93 7.72 7.63 7.93 7.90 8.28 8.29 8.04 7.55 7.88 7.62 7.70 8.29 8.34 7.58 8.06 8.31 8.14 8.19 7.91 7.97 8.12 7.95 7.64 7.50 8.39 8.23 7.87 8.08 8.01 8.35 7.82 8.15 8.12 8.42 7.51 7.71 7.99 7.59 7.97 -9999 -9999 -9999 -9999 -9999 -9999 -9999 -9999 -9999 -9999 -9999 -9999 -9999 -9999 -9999 -9999
8.03 7.89 8.31 7.91 7.77 7.84 8.13 7.69 7.67 7.78 7.61 8.33 8.28 8.32 8.29 8.42 7.84 7.43 8.07 7.71 7.63 7.84 7.90 7.65 8.09 8.14 7.44 7.48 7.87 7.50 8.14 7.95 8.08 8.18 7.92 7.51 8.03 7.75 7.93 7.70 7.85 8.30 7.64 7.61 7.94 7.64 7.85 8.11 7.97 8.37 7.81 8.28 7.95 7.76 7.77 7.72 7.44 7.69 7.92 7.99 7.95 7.72 7.64 7.65 7.69 8.35 8.34 7.62 7.99 7.78 8.35 7.70 8.00 7.95 7.55 7.80 7.62 8.32 8.10 7.81 7.59 7.90 8.31 7.90 7.65 8.04 7.68 7.80 7.59 7.73 8.16 7.78 8.39 7.59 7.63 8.15 7.75 7.77 7.77 7.62 7.82 8.09 7.94 7.84 7.48 8.33 8.26 7.55 8.09 7.74 8.16 8.03 7.68 8.33 7.99 8.02 7.64 7.65 7.88 7.62 8.40 7.44 7.63 8.25 7.97 8.09 7.88 8.24 8.21 7.50 8.24 7.90 7.72 7.44 8.37 8.05 8.19 7.61 7.87 8.26 8.14 8.11 8.34 8.39 8.08 8.15 8.04 7.52 8.36 7.57 7.82 7.69 7.78 8.30 7.55 7.72 7.63 7.81 7.95 7.51 7.70 8.04 8.00 7.89 8.12 8.26 7.93 7.58 7.75 7.78 7.81 7.57 7.84 8.17 7.80 7.79 7.60 8.21 7.56 7.67 7.70 7.99 7.66 8.05 8.14 8.22 8.37 8.08 7.73 8.01 7.51 8.31 8.27 8.37 8.32 8.36 7.94 7.83 7.93 -9999 -9999 -9999 -9999 -9999 -9999 -9999 -9999 -9999 -9999 -9999 -9999 -9999 -9999 -9999 -9999
7.49 7.52 7.71 8.11 8.00 8.17 8.32 7.70 7.68 7.66 8.18 8.32 7.46 7.89 8.26 7.86 8.20 8.28 7.91 7.66 7.71 7.88 8.07 8.20 7.92 8.06 7.92 7.82 8.17 8.31 8.09 7.88 7.61 8.32 8.09 7.66 8.17 8.26 7.89 7.77 8.09 7.45 7.55 7.96 7.46 7.83 7.44 7.44 7.54 8.21 7.50 8.27 8.20 8.11 8.09 7.67 8.23 8.16 7.77 7.99 7.86 8.39 7.59 8.18 8.34 7.70 7.92 8.00 7.61 8.08 7.75 7.88 7.73 7.55 8.18 8.33 7.82 7.68 7.48 8.37 8.34 8.18 8.24 7.92 8.03 7.72 8.41 7.47 7.90 8.25 8.04 8.16 7.59 8.38 7.81 7.81 7.66 8.26 8.17 8.33 8.38 7.51 8.07 7.93 8.40 7.55 7.66 7.55 7.86 8.35 8.04 8.01 8.14 7.96 7.55 8.13 8.41 7.71 7.93 8.37 7.90 7.64 8.00 7.45 7.91 7.52 8.16 7.74 8.33 8.34 7.90 8.12 7.67 7.97 7.45 7.88 8.07 7.99 7.56 7.62 8.11 8.41 8.43 8.34 8.01 8.43 7.80 7.92 7.51 7.90 8.21 8.38 8.08 8.04 7.93 7.86 8.25 7.66 8.01 8.14 7.80 7.60 7.59 7.68 7.97 8.11 8.09 7.84 8.30 7.69 7.85 8.41 8.27 8.09 7.79 7.49 8.22 7.76 8.31 7.52 8.02 7.50 7.74 7.52 7.70 8.08 7.69 7.90 7.52 7.81 8.06 8.39 7.76 7.59 7.78 8.08 8.17 8.11 8.22 -9999 -9999 -9999 -9999 -9999 -9999 -9999 -9999 -9999 -9999 -9999 -9999 -9999 -9999 -9999 -9999
7.71 7.58 7.56 7.64 8.03 8.31 7.79 7.68 7.95 7.83 7.61 8.33 7.46 7.64 8.20 7.98 8.41 7.71 7.60 7.99 7.87 7.51 7.75 8.23 8.40 7.82 7.68 7.71 7.59 7.76 7.53 7.78 8.24 7.97 7.83 7.59 7.88 8.42 7.93 7.48 8.26 8.14 7.82 7.85 8.23 8.18 8.15 8.03 8.19 7.44 8.17 7.52 7.92 7.98 7.61 7.89 7.92 7.51 7.64 7.57 8.40 8.03 7.73 7.76 7.62 8.41 7.78 8.36 7.47 7.98 7.47 7.77 7.67 7.89 7.69 8.37 8.36 7.73 8.42 8.23 7.66 8.16 7.98 8.41 8.40 8.37 7.57 8.06 7.69 7.44 8.11 8.24 8.18 7.47 7.99 8.19 7.50 8.21 7.77 7.69 7.48 7.61 7.57 7.90 7.94 8.35 7.94 8.20 7.56 8.19 7.50 7.46 7.47 7.61 8.17 8.05 7.76 8.29 8.40 7.56 7.66 8.33 8.30 7.58 7.99 7.82 7.84 7.76 8.10 7.91 7.52 8.03 8.42 7.47 8.22 8.28 8.42 8.30 7.82 8.32 7.99 7.96 8.08 8.21 7.70 7.95 8.04 8.00 7.87 7.50 7.55 7.65 7.91 7.61 7.50 7.76 7.66 8.24 8.37 7.86 8.00 8.24 7.85 7.61 7.86 7.49 8.06 7.54 8.07 7.77 7.89 8.24 7.67 8.07 7.94 7.92 7.56 8.18 7.53 7.82 7.73 8.08 8.00 7.64 8.26 7.62 8.34 7.71 7.97 7.70 7.98 7.70 8.13 7.89 7.61 8.07 8.40 8.39 8.31 -9999 -9999 -9999 -9999 -9999 -9999 -9999 -9999 -9999 -9999 -9999 -9999 -9999 -9999 -9999 -9999
8.05 8.40 8.32 7.69 8.30 7.72 8.38 8.35 7.68 7.62 7.46 7.80 8.31 7.72 8.09 7.80 7.64 8.43 7.62 7.95 8.31 7.44 8.33 7.79 7.94 8.43 8.19 8.40 8.09 8.41 7.71 8.00 7.70 8.00 8.07 8.40 8.36 8.32 7.71 7.81 8.03 7.44 7.69 7.58 8.43 7.95 7.63 7.78 8.12 7.92 7.97 8.32 7.57 7.56 7.86 7.59 7.66 7.75 8.29 7.87 8.37 8.41 8.06 8.04 7.46 7.81 8.07 7.84 8.25 8.20 8.23 7.97 7.87 7.52 8.14 8.27 7.45 7.88 7.95 8.31 7.69 7.65 7.52 8.09 7.56 7.64 8.02 7.47 7.54 7.46 8.13 8.35 7.72 7.84 8.36 8.27 8.41 7.73 8.05 8.15 8.33 7.99 8.28 7.51 7.82 7.76 7.71 8.10 7.78 7.69 8.40 8.03 8.37 8.37 8.38 8.37 7.71 7.81 8.39 8.12 7.98 8.37 8.21 7.70 7.89 7.66 7.69 7.62 8.08 7.75 8.09 8.07 8.15 7.97 8.24 7.97 7.96 8.41 7.58 8.26 8.29 8.16 7.65 8.16 7.67 7.79 8.31 7.69 7.77 8.30 8.06 7.87 8.17 7.46 7.44 7.96 7.56 7.61 7.80 8.13 8.34 7.95 7.79 7.85 7.78 8.06 8.22 8.35 7.67 8.00 7.67 7.84 7.63 7.44 7.63 8.11 7.63 8.05 8.30 8.27 8.07 8.19 8.22 7.53 7.89 8.04 8.30 7.74 8.19 7.67 8.06 7.71 7.50 8.23 7.53 8.05 7.88 8.08 7.47 8.14 -9999 -9999 -9999 -9999 -9999 -9999 -9999 -9999 -9999 -9999 -9999 -9999 -9999 -9999 -9999
7.50 7.70 7.66 7.65 8.15 8.16 8.43 7.69 8.41 8.15 8.05 8.40 7.96 8.12 7.54 7.76 7.55 8.35 7.98 7.83 8.34 7.92 8.32 7.46 7.47 8.08 7.60 7.68 8.38 7.68 7.92 7.52 8.33 8.31 7.76 8.19 8.27 7.79 8.22 7.46 7.78 7.96 7.74 7.78 8.00 8.14 7.99 7.99 8.21 7.52 7.53 7.49 7.86 7.96 7.90 7.78 7.71 8.33 8.28 8.09 7.98 7.48 7.95 7.57 8.22 7.75 8.29 8.07 8.29 7.45 8.04 8.43 8.41 8.00 8.20 8.41 7.44 8.02 7.64 7.47 7.85 7.47 8.29 8.01 7.82 8.12 7.55 7.78 7.51 8.18 8.22 7.91 8.40 7.79 7.87 8.10 8.26 7.65 7.65 7.66 7.47 8.29 7.64 7.87 7.88 7.83 7.57 7.73 8.18 7.73 7.55 7.72 7.47 7.53 7.97 7.71 8.20 7.53 7.52 8.23 7.44 7.80 7.66 7.98 7.77 8.32 7.48 7.81 7.64 8.02 7.72 7.71 7.81 7.96 7.45 7.53 8.07 8.07 7.72 7.94 8.42 7.68 7.80 8.29 7.66 7.94 7.82 8.10 7.70 7.99 8.06 8.13 7.66 7.57 7.90 7.53 7.97 8.13 8.41 7.94 8.29 7.91 7.53 7.71 7.91 7.77 8.34 8.42 8.26 7.53 7.95 7.61 7.68 7.79 7.73 8.15 8.05 7.93 7.87 8.20 7.66 7.53 7.71 8.33 7.93 8.22 8.02 7.79 7.92 8.05 7.97 7.45 8.28 7.61 7.59 8.01 8.34 7.95 7.94 7.91 -9999 -9999 -9999 7.73 7.53 7.55 8.18 7.92 8.19 -9999 -9999 -9999 -9999 -9999 -9999
7.71 7.61 7.88 7.47 7.79 7.64 7.91 8.14 8.43 7.90 8.29 8.41 7.47 7.80 7.79 7.61 7.57 8.36 7.66 7.89 7.86 8.04 7.54 8.11 8.05 7.85 8.16 7.82 8.28 7.52 8.36 7.46 7.71 8.25 8.23 7.72 8.36 8.41 8.17 8.39 8.01 7.70 8.33 8.22 8.18 8.17 8.00 7.52 7.57 7.99 7.54 7.50 8.10 7.93 8.30 7.71 8.34 7.57 7.68 7.49 7.75 8.34 8.19 8.32 7.97 8.01 7.73 7.65 7.72 8.19 7.97 7.69 8.35 8.06 8.10 7.91 8.22 8.32 8.19 7.67 8.15 7.68 7.76 7.83 7.71 7.53 7.75 8.13 7.82 7.53 8.15 7.71 8.10 8.23 7.57 7.51 8.40 8.13 7.45 7.58 8.03 7.66 8.12 7.93 7.64 8.38 7.77 7.97 8.23 7.96 7.80 7.80 7.69 7.70 7.81 7.96 8.27 8.06 7.81 7.50 8.22 7.58 7.73 7.49 7.90 8.00 7.82 7.59 7.54 7.47 7.62 7.88 8.13 7.72 7.94 8.24 8.07 7.55 7.75 8.24 7.81 7.82 7.57 8.06 8.08 7.58 7.53 7.70 8.39 7.65 8.01 7.94 7.69 7.75 7.57 8.30 8.29 7.69 7.53 8.15 8.30 8.18 8.34 8.14 8.29 7.52 8.13 8.12 8.29 8.19 8.18 7.82 7.52 7.99 8.20 7.80 7.83 7.69 7.47 8.03 7.49 7.89 8.02 7.53 8.18 8.14 7.66 7.95 7.47 7.77 7.65 7.66 8.00 8.00 7.83 8.40 7.45 8.03 7.81 7.72 8.17 8.39 8.10 7.54 7.91 7.72 7.74 8.33 8.19 8.09 -9999 -9999 -9999 -9999 -9999
7.80 7.94 7.89 8.10 8.04 7.98 8.21 8.18 7.55 8.42 7.46 8.09 7.82 7.94 8.10 8.09 8.34 8.42 7.92 7.90 7.82 7.99 7.97 7.57 8.38 7.76 8.15 8.19 7.57 8.39 8.18 7.61 8.10 7.49 7.62 8.22 8.08 7.83 8.19 7.75 8.07 7.74 7.71 7.96 8.14 7.98 8.35 7.82 7.73 7.53 8.40 7.80 7.49 8.09 8.03 7.73 8.23 7.54 8.25 7.70 7.83 8.08 7.86 7.79 8.24 7.94 8.10 7.70 8.00 8.18 7.74 8.17 7.77 7.70 7.78 8.05 7.61 7.50 7.99 7.79 8.35 8.26 7.48 7.51 8.08 7.76 7.56 7.93 7.71 7.58 7.68 7.69 8.35 7.50 7.95 8.01 8.02 7.96 7.52 8.35 7.65 7.62 8.17 7.62 8.00 8.39 7.56 7.49 8.35 8.23 7.99 7.78 8.27 7.71 8.01 8.16 8.06 8.25 8.30 8.33 8.39 8.12 7.54 7.72 8.30 7.55 8.03 8.23 8.22 7.57 7.47 8.32 7.56 8.34 7.69 8.32 8.29 7.52 8.34 7.60 8.32 7.48 8.00 8.36 7.49 8.10 8.25 8.31 8.42 7.55 8.20 7.99 7.71 7.50 7.99 7.50 7.83 7.47 8.13 7.93 7.97 8.15 7.56 7.86 8.33 7.59 8.10 7.89 7.87 7.85 8.27 8.22 7.73 7.90 7.91 7.82 7.82 8.22 8.26 7.91 7.56 8.03 7.61 7.62 7.82 8.08 7.47 7.55 7.83 8.04 8.27 8.23 8.31 7.60 7.67 8.04 7.76 8.08 7.77 7.82 8.17 8.38 7.48 7.77 7.92 7.79 7.89 8.19 7.93 8.07 -9999 -9999 -9999 -9999 -9999
8.12 7.98 7.60 7.50 7.83 8.22 8.21 8.29 7.95 7.82 7.75 7.70 7.55 7.45 8.02 8.27 7.45 8.42 7.51 7.48 8.03 8.06 8.15 8.18 8.16 8.31 8.07 7.93 8.33 7.49 7.92 8.43 8.41 7.56 8.20 7.90 8.01 8.04 7.80 8.37 8.27 8.09 8.31 8.26 7.73 8.23 7.94 7.72 8.41 8.27 8.08 7.75 7.46 7.68 8.17 7.96 7.74 7.93 7.77 8.12 8.14 8.36 8.38 8.04 7.71 8.35 7.94 7.94 7.68 8.22 7.80 8.37 7.56 7.82 8.20 7.65 8.21 7.71 7.48 7.85 7.93 8.24 8.15 8.18 8.15 8.36 7.82 7.63 7.62 8.32 8.04 7.82 7.76 7.73 7.81 7.94 8.40 8.39 8.34 7.91 8.36 7.74 8.00 8.40 7.69 7.56 7.95 8.03 8.38 7.54 8.21 7.48 7.95 8.29 8.25 7.88 7.87 7.46 7.83 8.32 7.99 7.80 8.35 7.87 8.05 7.75 8.00 7.97 7.80 8.28 8.19 7.81 8.13 8.07 7.50 8.34 7.80 8.35 8.07 8.14 7.70 7.48 7.98 8.20 8.09 7.48 8.02 7.49 7.54 8.04 8.14 8.37 8.27 7.85 8.15 7.55 8.27 7.80 7.81 8.36 8.16 8.03 7.66 7.78 8.04 7.50 8.26 7.87 7.71 8.11 8.32 8.32 8.43 7.87 7.84 8.04 7.64 8.16 7.91 8.11 8.33 7.70 8.37 7.86 7.65 7.93 7.67 7.52 7.82 7.90 8.32 7.61 8.05 7.45 8.20 7.57 7.43 8.08 8.20 7.78 8.18 7.65 8.15 8.27 8.08 8.19 7.47 8.15 7.50 8.19 -9999 -9999 -9999 -9999 -9999
7.86 7.55 7.60 7.79 7.83 8.33 7.72 7.92 7.79 7.72 7.95 7.90 7.55 7.69 7.78 8.36 7.96 7.99 7.87 7.51 7.49 8.11 8.14 7.85 7.90 7.95 7.99 7.58 8.08 8.15 8.07 8.17 8.30 7.78 7.96 7.94 7.60 7.82 7.57 7.76 8.36 7.99 7.98 7.88 8.23 8.33 8.15 8.29 8.17 7.56 7.66 8.09 8.03 7.59 7.81 7.97 8.12 8.03 7.69 7.83 8.30 7.76 7.72 7.77 7.61 7.74 7.68 8.19 7.73 7.55 7.63 7.85 8.00 7.64 8.09 7.68 7.59 7.86 7.49 8.28 8.25 8.29 8.29 7.76 8.08 7.71 7.76 8.00 8.22 8.02 8.07 7.85 7.90 7.59 7.99 8.04 7.57 8.13 7.57 7.93 7.57 7.78 7.63 8.24 7.54 8.08 7.69 7.53 7.75 7.92 7.58 7.57 7.83 7.70 7.82 8.30 7.72 8.17 7.45 7.70 7.85 8.31 8.08 8.09 7.68 7.58 7.44 8.23 7.83 8.03 8.11 8.01 8.30 7.67 7.45 7.87 7.49 7.71 8.25 7.60 7.58 7.65 7.86 8.03 7.57 7.63 8.26 8.10 7.95 7.98 7.69 7.62 7.56 8.16 7.62 8.24 7.77 7.99 8.29 7.94 7.47 7.46 8.08 8.03 8.11 8.36 8.13 8.37 7.77 7.52 7.45 8.26 8.25 8.27 7.56 8.27 8.13 8.21 8.25 7.63 7.70 7.61 8.18 8.38 7.96 7.71 7.84 8.06 7.71 8.09 8.29 8.05 8.38 8.14 8.40 7.48 8.10 8.06 8.32 8.36 7.58 8.01 8.14 7.54 8.04 7.84 7.88 8.15 8.43 8.33 -9999 -9999 -9999 -9999 -9999
8.40 7.95 7.48 8.43 7.86 8.34 8.00 7.50 7.94 8.42 7.83 8.38 8.42 7.94 7.48 7.95 7.46 7.53 7.78 7.46 7.58 8.34 8.35 8.07 8.06 7.62 8.14 7.95 8.17 8.38 8.33 8.15 8.17 7.49 7.66 7.59 8.30 8.24 7.56 8.04 8.38 7.91 7.70 7.44 7.56 8.06 8.31 8.17 7.71 7.44 8.24 8.04 7.48 7.67 8.09 7.88 7.95 8.22 7.85 7.55 7.58 7.87 8.04 7.56 8.19 8.40 8.33 7.93 7.75 7.57 8.13 7.92 8.35 7.56 7.43 7.74 7.80 7.55 8.14 8.14 7.82 7.76 8.21 8.23 7.73 7.77 7.75 7.80 7.46 7.56 8.03 7.49 7.68 7.44 7.53 7.75 8.43 7.87 7.65 8.40 7.72 8.40 7.74 7.88 7.85 7.99 7.66 7.78 8.25 7.96 7.83 8.38 7.53 8.08 8.20 7.94 8.36 7.90 7.51 8.17 8.43 8.28 7.70 7.88 8.15 7.59 8.07 7.94 7.78 7.79 8.43 7.87 8.15 7.73 7.80 7.79 8.34 7.59 7.52 7.92 8.33 7.46 7.45 7.81 8.09 8.16 7.96 8.32 7.68 7.58 8.34 7.99 8.19 8.36 7.80 7.83 8.41 8.01 7.82 8.10 8.40 7.94 8.41 8.26 7.93 7.98 8.09 7.78 7.85 7.73 8.03 8.21 7.63 7.94 8.05 8.38 8.33 7.88 7.44 7.93 8.22 8.35 7.86 8.15 7.69 7.49 8.23 8.02 7.87 7.79 7.87 8.27 7.98 8.23 7.61 8.37 7.51 7.49 7.55 8.14 8.27 7.98 8.09 7.45 8.27 8.38 7.83 8.10 8.12 8.06 -9999 -9999 -9999 -9999 -9999
8.42 7.57 7.50 7.65 7.44 8.28 8.24 7.66 7.83 7.69 7.86 7.88 8.26 8.13 7.80 8.37 7.49 7.72 7.48 7.52 7.81 7.71 7.96 7.80 8.19 8.41 7.97 7.89 7.48 7.73 8.17 8.03 8.11 7.74 7.74 7.83 8.29 7.85 8.22 7.71 7.50 7.45 7.69 8.14 8.37 7.66 7.49 7.73 8.42 8.10 7.75 8.05 8.11 8.09 7.61 8.17 8.35 8.30 7.51 7.93 7.62 8.32 7.94 8.29 7.97 8.14 7.47 8.13 7.72 8.29 8.40 7.73 7.88 8.08 8.13 8.34 8.19 8.01 8.40 7.64 7.86 8.23 7.73 8.07 8.41 7.83 7.55 7.77 7.85 7.84 7.64 7.77 8.22 7.57 7.75 8.31 7.66 7.77 7.91 7.72 8.01 7.57 8.20 8.27 8.22 7.58 7.62 8.16 8.08 8.06 7.90 7.98 7.84 8.32 8.27 7.91 8.06 8.00 7.91 7.75 8.15 7.48 7.47 8.12 8.25 8.34 8.15 7.89 8.38 8.26 8.05 7.72 7.53 8.10 7.56 7.50 7.93 8.08 8.29 7.95 8.35 7.91 7.85 8.02 7.78 8.12 7.49 8.11 7.44 7.54 8.04 8.06 8.22 7.97 7.90 7.79 7.64 8.20 7.60 7.61 8.35 7.91 8.39 8.14 8.05 7.92 7.54 8.12 8.10 7.66 7.99 7.45 7.88 7.44 7.89 8.41 8.41 7.50 7.53 8.25 8.27 8.29 8.07 8.18 7.68 7.57 8.08 8.08 7.92 8.28 8.33 8.31 8.39 7.61 7.89 7.61 7.66 8.29 7.81 8.35 7.95 8.14 8.35 8.38 7.75 7.57 8.01 7.81 7.85 8.16 -9999 -9999 -9999 -9999 -9999
7.72 7.75 7.56 7.92 8.01 8.37 7.87 8.01 7.76 8.21 8.10 8.36 8.26 7.98 8.03 8.25 8.09 8.13 7.79 8.39 7.44 8.36 7.68 7.67 8.34 8.02 7.66 7.45 7.95 7.44 8.32 7.62 8.27 7.69 8.21 8.26 7.82 7.94 7.51 7.68 7.87 7.70 7.95 8.26 8.06 7.73 8.38 7.86 7.68 7.53 7.66 8.40 7.50 7.99 7.86 7.51 8.22 8.11 7.49 8.43 8.13 7.88 7.58 7.75 7.94 8.42 8.20 7.48 7.86 8.04 8.10 8.08 8.05 8.16 7.51 7.63 8.40 8.10 8.15 7.76 7.93 8.19 7.62 8.13 7.78 8.14 7.83 8.19 8.25 7.57 7.49 8.24 7.71 7.55 8.23 8.35 7.75 8.19 8.16 7.71 7.81 8.33 7.88 7.79 8.32 8.43 7.45 8.06 8.35 7.58 8.10 7.81 8.15 8.26 8.37 7.99 7.77 7.97 7.76 8.16 7.99 7.63 7.56 8.20 8.38 8.36 7.64 8.11 8.42 7.67 7.68 7.48 8.31 8.19 8.15 7.94 8.02 8.35 8.15 7.52 8.22 7.90 8.33 7.65 7.67 8.05 7.80 8.03 7.59 8.12 7.86 7.44 7.57 7.78 8.29 8.42 8.08 8.04 8.05 7.60 7.89 8.23 8.42 7.93 7.97 7.64 7.72 7.59 8.42 8.41 7.69 8.37 8.11 8.36 8.23 7.76 7.93 7.88 8.01 7.80 8.34 8.31 8.28 7.78 7.82 8.10 7.52 7.52 8.19 7.89 7.55 8.35 7.55 7.79 7.66 7.94 7.53 7.89 8.01 7.45 7.76 8.15 8.25 8.19 8.01 7.62 8.24 7.52 7.90 8.21 -9999 -9999 -9999 -9999 -9999
8.43 7.76 7.62 8.35 7.48 7.60 8.07 8.28 7.82 8.08 8.09 8.05 7.77 7.69 7.84 7.69 7.72 7.49 8.12 7.54 7.58 7.56 8.33 7.80 8.38 8.25 7.64 8.03 7.69 8.17 7.73 7.87 8.20 7.95 7.96 8.12 8.17 8.09 7.83 7.82 7.58 8.39 7.79 7.53 7.53 7.84 7.77 7.85 8.28 8.41 8.32 7.94 8.10 7.61 8.39 8.34 8.42 7.89 8.43 7.75 7.62 7.68 7.87 8.26 7.84 7.82 7.56 8.20 7.49 8.27 8.00 7.69 8.43 7.72 7.69 7.44 8.20 7.60 7.99 7.55 8.16 7.63 7.64 7.60 7.44 7.76 7.84 7.44 7.50 8.29 7.66 8.30 7.52 8.40 7.77 7.94 7.57 7.92 7.71 8.40 7.79 7.51 8.21 8.01 7.95 7.79 8.25 7.66 7.82 7.60 7.77 7.65 8.41 7.96 7.45 7.78 7.58 7.92 7.88 8.25 7.73 7.72 7.50 7.95 7.78 7.61 8.02 7.94 8.04 7.64 7.89 8.20 7.57 7.51 8.08 7.78 7.67 7.54 8.22 7.92 7.74 8.13 8.06 7.54 7.46 7.64 7.56 7.60 7.99 8.23 8.20 7.85 8.09 8.25 8.36 8.39 7.49 7.78 7.95 8.13 8.29 7.79 8.42 7.92 7.96 8.14 8.13 7.79 8.30 7.78 8.22 7.86 7.98 7.88 7.66 8.26 8.10 8.22 7.49 7.88 7.82 8.04 7.47 7.92 8.35 8.08 8.40 7.48 8.40 7.98 7.94 7.86 8.23 7.84 7.97 7.78 7.47 7.57 7.89 8.26 7.44 7.69 7.69 7.82 7.44 8.11 7.98 7.52 7.59 7.95 8.37 -9999 -9999 -9999 -9999
8.39 7.72 7.93 7.79 7.46 8.40 7.85 8.12 8.12 8.24 7.77 7.75 7.98 8.11 7.79 7.46 7.91 8.35 8.40 8.40 7.50 7.68 8.35 7.48 7.92 8.27 7.58 8.00 7.59 8.19 8.32 7.58 8.01 8.08 7.73 7.99 8.30 8.43 7.60 7.75 7.60 8.02 8.34 7.53 8.32 8.14 7.54 7.87 8.15 7.72 8.18 7.45 8.08 7.92 7.74 7.51 7.84 7.48 7.86 8.24 8.35 7.47 7.77 7.78 7.52 7.87 8.34 7.58 7.63 8.07 8.33 8.10 7.93 8.32 8.06 7.77 7.62 8.23 7.62 7.54 7.65 7.49 8.09 8.23 7.80 7.93 7.89 7.96 8.04 7.48 7.99 7.92 7.91 7.98 7.53 8.01 8.36 7.49 7.49 8.27 7.83 8.42 7.75 7.65 7.85 7.44 7.99 8.42 7.93 7.45 8.42 7.76 7.56 8.43 8.02 7.95 7.87 8.36 7.82 7.95 7.52 8.19 8.01 7.46 7.55 8.38 7.47 8.25 7.84 8.07 7.46 7.67 8.18 8.43 8.12 7.92 8.25 8.31 7.93 7.77 7.62 7.98 7.69 8.23 7.83 7.75 8.40 7.78 7.68 8.10 8.32 8.35 7.74 7.86 7.82 8.13 8.30 8.38 7.93 7.46 7.51 7.48 8.15 7.51 7.45 8.26 7.44 8.39 8.23 7.69 7.62 8.15 7.93 8.05 7.68 7.52 7.83 7.76 8.30 7.91 7.57 7.44 8.23 8.04 8.33 7.98 7.47 7.69 8.26 8.40 8.00 8.15 7.54 8.18 8.01 7.71 7.91 8.16 7.54 8.09 7.91 8.36 7.94 8.30 8.12 8.04 7.62 8.11 8.08 7.44 7.71 -9999 -9999 -9999 -9999
8.16 8.26 8.06 7.67 8.01 7.97 8.38 7.66 8.17 7.88 8.19 7.76 7.77 8.43 8.02 8.15 7.93 7.95 7.53 8.27 8.30 7.75 8.12 7.82 7.86 7.92 7.56 7.71 7.47 8.16 7.54 8.20 7.79 8.26 7.76 8.15 7.62 8.00 7.44 7.99 8.34 7.89 8.31 7.55 7.63 7.77 7.78 8.42 8.03 7.68 7.73 8.27 7.86 8.41 8.43 8.31 7.52 8.03 8.25 7.44 7.45 7.71 8.24 8.34 8.02 7.59 8.08 7.83 7.63 8.22 8.18 7.86 7.77 8.13 7.98 7.77 8.15 7.60 8.34 7.71 8.39 8.08 8.40 8.15 7.83 7.55 8.32 7.71 7.87 7.60 8.06 8.21 7.50 7.79 8.19 7.69 7.55 8.35 8.26 7.89 7.49 7.74 7.71 7.76 7.51 8.17 8.39 8.13 7.93 7.76 7.68 7.62 7.81 7.73 8.18 8.22 7.93 7.58 8.29 7.49 8.02 8.01 7.54 8.17 8.19 7.91 8.14 8.17 7.62 7.61 7.54 8.37 8.32 7.67 8.19 8.00 8.40 8.12 8.21 7.93 7.60 7.61 7.74 7.52 7.47 7.83 7.64 8.32 8.38 7.85 7.58 7.65 8.09 8.41 7.69 8.15 7.62 7.64 7.50 7.73 7.74 7.60 8.39 7.87 7.93 8.13 7.51 7.89 7.45 7.97 8.11 7.99 7.71 7.99 7.70 8.18 7.93 7.48 8.22 7.92 7.67 7.56 7.53 7.53 7.68 7.81 7.43 7.52 8.41 7.44 7.79 7.89 7.89 7.71 7.87 8.00 8.37 7.96 7.60 7.71 8.31 8.33 7.47 7.52 7.72 7.50 7.79 7.96 7.82 8.37 7.79 -9999 -9999 -9999 -9999
8.43 8.38 7.93 7.93 7.64 7.53 8.13 8.34 7.74 7.77 8.19 8.01 7.48 7.55 8.33 7.85 8.21 7.48 7.48 7.73 7.56 7.92 7.89 7.81 8.16 7.54 8.06 7.84 7.97 7.68 7.67 7.84 7.69 8.24 7.67 8.26 8.06 7.67 7.93 7.89 8.27 7.86 8.41 7.60 8.22 8.41 7.46 8.25 7.84 7.85 7.76 7.89 8.41 8.34 7.61 8.03 7.85 7.43 7.86 7.46 7.47 8.25 7.76 7.71 8.39 8.35 7.61 7.98 7.69 8.16 8.09 8.10 8.35 7.88 8.35 8.32 7.74 8.04 7.80 7.93 7.54 7.65 7.55 8.40 8.32 7.63 7.89 7.56 8.16 7.54 8.36 7.78 7.75 7.68 7.99 8.27 8.13 8.40 8.17 7.97 7.85 7.63 8.26 7.46 8.15 7.96 7.47 7.81 8.25 7.76 8.39 8.04 8.32 7.83 7.88 7.70 7.49 7.70 7.68 7.66 7.89 7.47 8.00 8.21 8.10 7.63 7.56 7.86 7.99 8.03 7.57 8.04 7.73 7.63 8.09 8.31 7.77 7.79 7.90 8.38 7.95 7.48 7.97 7.61 8.03 8.09 7.53 7.56 8.40 8.41 8.18 7.68 7.90 8.28 7.86 7.54 8.21 7.86 7.43 7.60 8.08 7.79 8.32 7.56 8.17 7.58 8.43 8.00 7.86 8.41 7.85 7.59 7.79 8.30 7.60 7.99 8.19 8.22 7.57 7.78 8.21 8.22 7.83 8.15 7.44 8.02 8.39 8.17 7.93 7.59 8.02 8.08 7.61 8.13 8.19 7.90 7.89 7.89 8.06 7.58 7.58 7.63 8.23 7.70 7.98 8.15 8.38 8.26 7.82 7.86 8.41 -9999 -9999 -9999 -9999
8.27 7.51 7.62 7.65 8.24 8.28 7.56 8.32 8.29 7.71 8.10 7.46 7.86 7.97 8.00 7.66 7.57 7.84 7.70 8.39 7.73 7.60 8.30 7.93 8.14 8.24 8.31 7.83 7.69 7.92 7.64 7.44 7.57 8.28 7.99 7.71 8.30 8.35 8.28 7.64 8.09 8.00 7.58 8.33 8.23 7.85 8.19 7.58 8.09 7.48 7.53 7.53 7.60 7.47 7.97 8.40 7.80 8.11 8.36 8.43 7.61 7.72 7.91 7.80 7.62 7.58 7.84 7.92 7.89 8.21 7.98 7.86 8.09 8.16 7.50 7.89 7.62 8.13 7.67 7.52 8.25 7.47 7.66 8.26 8.11 7.89 8.30 7.59 8.15 7.78 8.41 7.70 7.47 8.31 7.61 8.14 8.01 7.80 8.27 7.66 8.38 7.79 8.14 7.82 7.66 7.90 7.50 8.06 7.75 8.21 8.17 8.40 7.67 7.74 8.34 7.91 7.99 7.50 7.68 7.74 7.49 7.97 7.88 7.52 7.74 8.27 7.80 8.24 8.41 8.08 7.56 8.38 7.49 7.76 8.36 8.24 8.29 8.43 8.41 7.75 7.84 8.09 7.47 7.99 7.89 8.36 8.00 8.22 8.13 8.22 7.64 8.19 7.90 7.86 7.69 8.04 8.38 7.48 7.46 7.61 7.72 8.12 7.45 8.01 8.40 7.52 8.06 7.44 8.36 8.23 8.17 7.63 8.38 7.93 8.42 8.20 8.06 8.22 7.71 8.05 8.19 7.97 7.87 8.31 8.42 7.64 8.24 7.50 7.48 8.04 7.72 7.50 7.97 8.35 7.96 8.11 7.55 7.54 8.23 8.07 7.64 8.11 7.50 8.29 7.61 7.95 7.81 8.43 8.28 7.92 7.67 -9999 -9999 -9999 -9999
8.40 8.11 7.92 7.96 8.13 8.28 7.64 8.03 7.81 7.88 8.40 8.26 7.61 7.78 8.38 7.82 7.85 8.13 8.21 7.56 7.84 7.47 8.00 7.65 7.84 7.50 8.12 7.87 8.34 8.12 8.34 7.76 7.95 8.22 7.62 7.47 8.12 7.99 7.98 7.73 7.62 7.83 8.05 7.88 7.53 7.56 7.95 7.82 7.85 8.39 7.97 7.75 7.80 7.76 8.31 7.53 7.94 7.71 8.13 7.87 8.09 7.59 7.51 8.23 8.04 8.10 7.70 8.03 7.67 8.28 7.96 8.05 7.53 8.25 7.54 8.33 7.58 8.13 7.61 8.26 8.29 8.41 8.26 7.77 8.27 7.83 8.06 7.45 7.63 8.01 8.31 7.83 7.79 7.63 7.87 8.14 7.95 7.91 8.41 8.40 8.06 7.81 8.05 8.25 7.81 7.64 8.16 7.74 8.23 7.50 7.90 8.09 8.28 7.69 7.90 8.28 7.78 7.50 8.37 7.48 8.15 7.68 8.34 8.13 7.55 8.29 7.76 8.07 8.13 8.26 7.71 7.59 7.90 8.19 8.15 7.58 8.39 7.66 7.46 7.63 8.31 7.89 8.24 7.57 7.86 8.35 7.59 7.70 8.35 7.82 8.18 8.41 8.17 8.37 8.19 7.46 8.26 7.62 7.97 7.67 8.21 7.96 7.45 8.14 8.21 7.44 8.07 7.48 8.24 7.48 7.71 7.79 8.36 8.18 7.80 7.55 7.78 8.16 7.53 7.84 8.09 7.89 8.00 8.15 8.20 8.01 8.33 8.25 7.65 8.05 8.40 7.79 8.12 8.33 7.64 8.29 8.40 7.84 8.16 8.05 7.68 8.40 8.07 7.73 7.59 7.96 7.73 7.83 8.02 8.17 8.03 -9999 -9999 -9999 -9999
8.39 7.65 8.02 8.14 8.38 7.94 8.17 8.00 7.79 7.76 8.30 8.00 7.81 7.44 7.78 8.43 7.70 8.40 8.11 7.61 7.95 7.94 8.06 7.79 7.56 8.07 7.78 7.85 7.45 8.02 7.81 7.61 7.66 8.04 7.52 8.17 7.98 8.14 7.95 8.32 7.63 8.31 8.30 8.42 7.56 8.40 7.70 8.10 8.01 7.99 7.63 7.87 7.92 8.39 7.93 7.80 7.72 7.81 8.20 7.93 8.05 8.07 7.57 7.65 8.36 8.28 8.22 8.00 7.86 8.03 8.29 8.06 7.99 7.78 8.43 7.84 7.49 7.77 7.67 8.18 8.19 7.58 8.11 8.36 7.86 7.62 8.25 7.76 7.73 7.56 7.47 8.17 7.47 8.21 7.64 8.29 8.11 8.38 7.91 8.16 7.53 7.71 7.54 7.73 8.01 7.61 8.28 7.60 7.89 8.12 8.23 7.92 7.74 8.31 7.82 8.43 7.56 7.44 8.43 7.73 8.31 7.50 8.36 7.67 7.70 7.57 7.69 7.50 7.76 8.43 7.86 8.36 7.64 7.79 8.16 7.51 8.04 7.55 7.74 7.56 7.82 7.52 8.26 7.79 8.07 7.77 7.86 7.78 7.89 7.77 8.14 8.28 8.12 7.54 7.57 7.80 7.63 7.70 8.19 8.43 7.82 7.46 7.92 7.97 7.89 7.92 7.83 7.45 7.60 8.12 7.71 7.88 8.40 8.07 8.18 8.05 8.10 7.52 7.60 7.57 7.74 7.63 7.67 8.08 7.45 7.88 7.65 8.13 7.52 8.14 8.08 7.73 7.88 8.14 8.23 7.44 8.02 7.54 7.60 7.94 7.77 8.30 7.94 7.48 8.29 7.87 7.71 7.81 8.42 7.47 7.85 7.71 -9999 -9999 -9999
8.24 8.37 7.92 7.92 7.93 7.71 7.68 7.58 8.34 8.04 7.91 7.84 8.07 7.90 7.83 7.79 7.93 8.13 8.08 7.68 7.64 8.35 8.13 7.84 7.54 7.70 7.80 8.33 7.52 8.14 8.09 7.82 8.06 7.71 7.85 7.68 7.72 8.21 7.84 7.75 7.91 7.77 8.22 8.22 8.28 7.70 7.82 8.34 7.54 8.30 7.60 8.30 8.23 8.27 7.56 8.40 7.68 7.92 8.20 7.90 7.98 8.01 7.79 8.29 8.42 7.77 7.96 7.95 7.97 8.19 7.74 7.71 8.07 7.67 7.95 8.20 7.59 8.35 7.54 8.39 8.36 8.32 8.29 7.62 7.64 7.74 8.17 8.07 7.94 8.24 8.39 7.90 8.15 8.38 7.68 7.94 7.56 7.49 7.83 8.33 7.47 7.51 8.03 7.93 7.75 8.14 8.14 7.72 7.95 7.86 8.15 8.22 8.12 8.40 7.63 8.01 8.32 7.85 7.83 8.01 7.45 8.39 8.32 7.49 8.32 8.16 8.10 8.20 7.77 8.19 8.15 7.66 8.03 8.34 8.20 7.68 7.45 8.10 7.88 7.70 7.83 7.47 8.38 8.10 7.84 8.15 7.94 8.33 7.77 7.69 8.33 7.63 7.92 8.26 8.23 8.13 7.74 7.68 7.67 7.91 8.33 7.56 7.80 8.21 8.02 7.78 7.80 7.91 7.87 8.01 8.22 8.10 7.78 7.96 8.43 8.09 8.39 7.83 7.80 7.67 7.66 7.60 8.29 7.68 8.36 7.89 7.50 8.20 8.43 7.78 7.64 7.93 7.91 8.22 7.61 7.80 7.52 8.12 8.38 8.30 7.52 8.28 8.38 7.68 8.28 8.13 7.44 7.61 8.07 7.61 7.50 7.48 -9999 -9999 -9999
8.11 8.16 7.62 7.59 7.80 8.08 7.99 8.16 7.90 7.98 8.35 8.26 8.04 7.84 8.28 7.50 7.48 7.80 8.06 7.85 7.47 8.14 7.89 8.06 8.42 8.39 8.43 8.38 7.83 7.91 7.81 8.06 8.43 8.06 7.78 8.20 7.93 8.02 7.76 8.18 7.78 8.35 8.33 8.03 8.02 8.02 7.58 8.09 7.89 7.94 7.63 8.16 8.42 8.18 8.07 8.33 7.98 8.05 7.82 8.16 8.16 8.38 8.31 8.11 8.04 7.45 7.99 7.60 7.55 8.07 8.08 8.33 7.50 7.96 7.75 8.06 7.54 7.89 7.79 8.30 8.17 7.56 7.91 7.97 8.12 7.77 7.70 7.85 7.92 7.46 8.21 7.77 7.69 7.91 7.67 7.60 7.81 8.21 8.07 8.32 8.20 7.79 7.92 7.67 8.41 7.57 7.87 8.15 7.94 7.78 8.38 8.26 7.82 7.49 8.36 8.35 7.54 7.49 7.50 8.43 7.50 7.71 8.41 8.16 7.63 7.92 7.76 7.64 7.84 7.89 7.87 8.14 7.48 7.97 7.89 7.54 8.21 8.00 8.33 7.67 7.65 8.06 7.89 8.21 8.21 8.04 7.47 7.90 8.38 7.93 7.51 7.98 7.49 7.82 8.10 8.20 8.34 8.41 7.81 8.06 8.15 7.86 8.28 7.46 7.54 8.16 7.86 7.77 7.59 7.67 8.31 8.40 7.71 8.18 8.26 7.93 7.59 7.98 8.08 7.46 8.42 8.27 7.67 8.36 8.00 7.44 8.12 8.40 8.33 7.96 7.91 8.36 7.79 7.56 8.06 8.37 8.34 7.56 8.10 7.46 8.37 7.75 7.98 8.20 7.62 8.11 8.02 7.63 7.49 8.21 8.27 8.31 -9999 -9999 -9999
7.64 8.15 7.64 7.47 8.28 8.02 7.68 7.46 7.85 8.10 7.95 8.17 8.18 8.39 8.01 7.76 7.44 7.88 7.78 8.15 7.73 7.92 7.73 7.75 8.05 7.71 7.86 7.79 8.21 7.69 8.32 7.66 8.18 7.95 7.46 7.81 7.55 7.88 8.31 7.99 8.01 7.97 7.94 7.98 7.87 7.54 7.73 8.29 7.49 7.97 8.21 8.24 7.56 8.18 8.07 8.05 8.38 8.08 8.05 8.11 8.29 7.65 8.02 8.02 8.18 7.93 8.12 7.60 7.72 8.24 8.00 7.86 7.49 7.95 8.41 8.00 7.53 8.04 7.50 7.49 7.68 7.77 7.49 7.79 7.70 7.98 8.20 8.18 7.92 7.76 7.45 8.16 7.56 8.40 8.12 7.97 7.94 7.83 8.13 7.52 7.77 8.39 7.72 8.21 8.35 8.30 8.30 7.59 7.83 7.89 7.75 8.21 8.04 7.89 7.65 8.32 7.77 8.00 8.11 7.76 8.36 7.77 7.52 7.58 7.55 7.60 7.55 8.09 7.72 7.91 7.76 7.99 7.61 7.57 7.98 7.53 8.28 8.07 8.20 7.70 8.38 7.93 7.98 7.44 7.92 8.18 7.45 8.36 7.64 8.41 7.58 7.68 7.75 8.31 8.43 8.05 8.17 7.88 8.36 8.11 7.93 7.60 8.14 8.31 7.52 7.93 8.39 7.57 8.33 8.42 8.34 7.75 7.93 8.09 7.88 8.22 7.49 8.02 7.50 8.33 8.04 7.44 8.13 7.90 8.16 8.20 8.26 7.93 7.64 7.66 7.60 7.87 7.99 7.95 8.05 7.46 8.32 8.20 7.95 8.03 8.12 7.47 7.84 8.13 8.00 7.75 8.25 7.46 8.02 7.52 8.19 7.66 -9999 -9999 -9999
8.22 8.33 7.73 8.15 7.81 8.10 7.63 8.11 8.03 8.16 7.50 7.86 7.67 8.21 7.73 8.06 7.56 7.44 7.90 8.32 8.40 7.47 8.41 7.46 8.10 8.38 7.57 7.97 8.41 8.31 7.57 7.79 8.02 8.08 8.20 8.31 7.48 8.16 8.12 7.99 7.77 8.22 7.49 7.62 7.52 8.01 8.41 7.48 8.05 8.37 8.04 8.33 7.87 7.95 7.71 7.64 7.51 8.38 7.65 7.92 7.89 8.07 7.60 7.80 7.60 7.62 7.66 7.81 8.03 8.12 8.22 7.49 7.64 8.39 7.44 8.08 8.38 8.16 7.71 7.82 7.59 8.29 7.54 7.61 7.78 7.88 7.45 7.77 8.30 8.24 7.90 7.88 7.46 8.27 8.31 7.44 7.53 8.09 8.13 7.55 8.06 8.27 7.74 8.43 7.93 8.32 8.22 7.61 8.38 8.01 7.51 8.22 8.09 8.00 7.96 7.49 8.05 7.68 8.05 8.23 8.37 8.29 7.72 7.45 8.33 8.00 7.61 8.05 8.41 7.60 7.65 7.87 7.79 8.03 7.77 7.58 8.33 7.57 8.28 7.81 8.43 8.02 7.96 7.46 7.86 8.03 8.17 7.74 7.53 7.49 8.23 8.41 7.88 7.60 7.98 7.50 7.59 7.79 7.60 7.91 8.42 7.76 8.15 8.35 7.50 7.65 7.60 7.69 7.46 7.78 7.62 7.61 7.91 7.70 7.44 8.17 8.28 8.27 8.18 7.85 7.77 7.81 7.64 8.37 7.93 7.84 7.76 7.89 7.86 8.02 8.01 7.65 7.67 8.41 7.92 7.57 8.09 7.72 7.76 8.43 8.09 7.92 8.08 7.65 7.49 7.85 7.97 7.79 8.37 7.76 8.25 8.17 -9999 -9999 -9999
8.20 7.72 7.62 8.09 8.24 7.51 7.66 8.29 7.87 7.91 8.40 7.87 7.78 7.76 8.10 8.28 8.06 8.29 8.38 8.00 7.50 8.00 7.50 8.14 8.31 8.04 8.27 7.88 8.21 7.96 7.71 8.13 7.97 8.02 7.58 7.58 8.28 7.66 8.00 7.72 8.14 7.72 7.70 8.05 7.55 7.95 7.76 8.08 7.46 8.37 8.34 8.08 8.01 7.48 8.39 7.76 7.66 7.54 7.59 8.20 8.11 7.45 8.28 8.13 8.00 8.21 8.11 7.85 7.45 7.92 7.57 8.26 7.93 7.69 8.19 7.78 7.84 7.76 7.63 7.61 8.33 8.16 8.23 7.83 8.19 8.18 7.49 7.72 7.54 8.30 7.58 8.21 8.10 7.85 8.19 7.80 8.35 8.23 7.54 7.86 7.74 7.87 7.97 7.46 8.29 8.36 7.61 7.69 8.22 7.71 7.68 8.11 7.88 7.98 8.42 8.17 7.45 7.87 8.26 8.15 7.51 7.55 8.13 8.21 7.48 7.59 7.49 7.72 7.72 7.70 7.43 7.85 8.36 7.88 8.40 7.99 7.44 7.76 7.51 7.88 8.43 7.97 7.87 8.10 8.35 7.60 7.86 7.92 8.31 8.00 8.42 7.95 7.48 8.33 8.40 8.13 7.99 8.14 8.08 7.47 8.16 7.68 7.56 7.88 8.15 8.14 7.90 7.74 8.28 7.53 7.90 7.85 8.35 7.68 8.18 8.07 7.83 7.61 7.46 8.01 8.36 8.29 8.05 8.15 8.18 7.93 7.95 7.82 7.44 7.89 7.72 7.85 8.07 7.93 7.53 8.30 7.53 7.86 8.22 7.45 7.88 7.44 7.63 7.54 8.05 7.44 7.53 8.14 8.08 7.85 8.03 7.92 -9999 -9999 -9999
7.95 7.92 8.21 8.01 7.60 7.75 8.15 7.70 8.02 7.52 8.23 7.99 8.32 7.81 8.29 8.30 7.91 8.08 7.95 8.28 7.60 7.52 7.99 8.26 7.84 7.99 8.40 8.27 7.50 8.03 7.63 8.24 8.14 7.47 7.74 8.20 8.38 8.18 7.46 7.87 8.41 7.83 7.54 7.93 8.35 7.59 7.65 7.97 8.37 7.68 7.63 8.04 7.60 7.74 8.21 7.45 7.74 8.08 8.10 7.86 7.89 8.09 8.26 8.36 8.23 7.47 8.11 8.14 8.16 7.72 7.55 7.66 8.18 7.50 8.01 8.06 8.29 7.95 8.26 8.37 8.19 7.97 8.14 8.23 7.59 8.40 7.63 8.34 7.91 7.82 8.28 8.21 8.42 7.49 7.88 7.64 8.21 7.46 7.67 8.22 7.75 8.25 7.60 8.41 7.52 7.45 7.85 8.10 7.52 7.79 7.69 8.08 7.75 7.71 7.62 7.57 7.86 7.54 7.70 8.28 7.75 8.42 7.71 7.81 7.70 7.81 7.55 7.89 8.16 7.97 7.82 7.88 7.92 7.91 7.94 8.25 7.90 7.73 7.48 8.11 8.23 7.64 7.51 8.29 7.45 8.27 7.74 7.59 8.28 7.65 8.24 7.55 7.57 8.11 8.41 8.13 7.81 8.09 7.94 7.52 7.91 7.91 7.58 7.48 7.72 7.44 7.63 7.82 8.31 8.36 7.63 8.40 7.92 7.88 7.75 8.29 8.10 7.91 7.54 8.29 8.21 7.74 8.06 8.13 8.32 7.67 8.17 7.55 7.49 7.80 8.20 8.21 8.16 7.69 8.14 8.36 7.62 7.83 7.46 7.80 7.53 8.43 7.50 7.78 7.66 7.96 7.98 7.99 7.66 7.83 7.97 7.61 7.80 -9999 -9999
7.79 7.66 7.91 7.44 8.34 7.86 8.19 8.23 7.50 7.49 8.13 7.54 8.01 8.14 7.76 8.25 7.59 7.68 7.49 7.68 7.86 7.64 8.17 8.03 8.42 7.47 8.43 8.28 7.96 8.28 8.03 7.78 8.30 7.83 7.47 8.39 7.82 8.12 8.04 7.71 7.97 7.53 8.04 7.57 8.12 8.39 8.02 8.22 8.18 8.42 7.47 8.28 7.54 7.48 7.53 8.33 7.56 8.00 7.76 8.27 8.20 7.68 7.81 7.78 8.06 7.76 7.89 8.26 7.66 7.88 8.16 7.52 8.22 8.07 7.66 7.68 7.71 7.93 8.00 7.59 7.99 8.26 8.16 8.03 7.69 7.69 8.02 7.98 8.02 7.99 7.99 8.26 7.51 8.31 8.33 7.94 8.35 8.26 8.21 7.60 8.09 8.29 8.10 8.28 8.20 7.55 8.21 7.80 8.31 8.08 8.33 7.97 7.73 7.75 7.61 7.95 7.51 8.30 8.35 8.41 7.98 8.00 7.72 8.15 7.52 7.85 7.49 8.34 8.37 7.70 8.33 7.61 7.71 7.69 8.05 7.49 7.81 8.33 7.97 8.18 7.48 8.01 8.09 7.56 7.86 7.74 7.87 8.02 8.15 7.67 8.10 8.12 7.47 7.54 7.56 8.27 7.87 7.84 8.12 8.15 8.40 7.94 7.89 8.17 7.82 8.37 8.14 7.90 7.92 8.27 8.10 8.09 8.31 7.92 8.43 7.76 8.25 8.36 7.75 8.18 7.56 8.12 8.23 7.97 8.22 7.53 7.98 8.09 7.83 8.16 7.85 8.04 8.39 7.48 7.87 8.33 7.68 8.19 7.71 8.17 7.62 7.98 7.66 7.50 7.48 8.12 8.43 8.31 7.52 7.79 7.86 8.22 7.71 -9999 -9999
8.04 7.46 8.00 8.04 8.15 8.14 7.63 7.92 7.74 8.38 7.82 8.33 7.70 8.18 7.74 8.15 7.46 8.06 8.30 7.61 8.22 7.74 7.83 8.10 7.77 7.55 7.51 7.94 8.31 7.49 8.01 7.77 7.59 7.45 8.01 7.48 7.70 8.28 7.63 8.10 7.84 8.22 8.15 7.98 7.76 7.78 7.58 7.50 7.80 8.12 7.49 8.23 7.79 7.46 8.08 7.56 7.56 7.52 7.79 7.99 8.10 8.19 7.54 7.51 8.40 8.09 7.49 8.32 8.17 8.38 7.44 7.90 7.85 7.96 7.50 7.52 7.57 7.99 7.53 8.31 7.61 7.72 7.88 7.51 7.93 7.77 7.71 8.04 8.27 8.29 7.62 7.93 7.98 7.90 8.30 7.66 8.20 7.89 8.22 7.93 8.06 8.02 8.39 8.25 8.09 7.80 8.19 8.11 7.90 7.83 7.59 8.43 7.91 7.72 7.99 7.76 7.72 8.41 7.64 7.75 8.24 8.40 7.93 8.17 8.38 8.02 8.27 8.03 8.12 8.38 7.83 8.05 8.22 8.23 7.49 8.02 8.13 7.44 7.45 7.73 7.95 7.59 7.88 8.42 7.44 8.16 7.88 8.13 7.71 8.19 8.25 8.25 8.31 8.09 7.93 7.58 7.97 7.53 8.39 7.44 8.07 7.70 8.18 7.60 8.12 7.46 8.04 8.01 7.67 7.46 8.06 8.25 8.11 7.90 8.38 7.85 8.01 8.43 7.89 7.92 8.06 8.30 8.31 8.41 8.24 7.63 8.16 8.23 8.10 8.10 7.60 8.34 7.63 8.22 7.58 8.06 7.47 7.63 7.72 8.09 8.08 8.02 8.09 7.57 8.22 7.86 8.38 7.44 7.69 8.10 8.23 7.75 7.59 -9999 -9999
7.73 7.80 8.25 8.13 7.97 7.44 8.15 8.30 7.71 7.47 7.69 7.51 8.01 7.63 7.62 8.25 8.29 8.02 7.49 8.39 7.98 8.30 7.80 8.40 8.39 8.38 7.50 7.76 8.41 7.51 7.93 8.35 7.52 7.44 7.78 8.29 7.54 7.45 7.67 7.47 7.56 8.28 7.52 7.58 7.67 7.77 7.99 8.30 8.01 7.82 7.65 7.73 7.71 7.87 8.05 7.86 7.48 7.44 7.89 7.69 7.77 7.80 8.05 7.57 7.96 8.11 8.41 8.01 7.61 7.92 7.58 8.09 7.87 7.64 7.51 8.08 8.19 7.77 8.01 7.99 7.83 7.99 8.35 8.03 7.58 8.42 8.08 8.36 7.97 7.92 7.74 8.00 8.13 8.23 7.60 7.81 7.82 7.96 8.12 7.94 8.27 8.11 8.43 7.56 7.53 7.89 8.41 7.45 8.04 8.10 7.92 7.46 7.81 7.52 8.32 8.12 7.74 8.12 7.83 8.41 8.11 8.30 7.91 8.40 8.05 7.71 7.88 7.63 8.05 7.60 8.05 8.34 7.65 7.74 8.33 7.98 8.18 7.85 8.32 8.30 8.37 8.36 7.46 7.91 8.10 7.91 8.18 7.68 8.11 8.19 7.53 8.26 7.47 7.46 7.94 7.78 8.16 8.23 7.95 8.37 8.10 7.77 7.50 7.77 8.35 8.31 7.62 7.61 7.88 8.30 8.41 8.09 8.12 7.72 8.29 8.16 8.24 8.24 7.64 7.72 7.93 7.63 7.90 8.34 7.76 7.83 7.79 7.72 8.42 7.53 8.38 7.84 8.26 8.05 7.69 7.85 7.76 8.19 8.01 8.36 8.35 8.05 7.57 8.32 7.73 8.20 8.29 8.15 8.24 7.51 7.98 7.44 7.71 -9999 -9999
8.31 7.82 8.38 8.17 8.03 8.05 8.19 7.83 8.08 8.34 8.25 7.63 8.27 7.47 7.88 7.83 7.53 8.03 8.18 7.83 8.29 7.73 7.93 7.44 8.26 8.04 7.69 8.16 8.15 7.70 7.90 8.33 7.64 7.58 7.94 8.24 7.49 7.75 8.39 7.80 8.28 7.66 8.42 8.39 8.36 8.17 7.59 7.44 7.97 7.65 8.23 7.87 7.65 7.54 7.66 8.11 8.41 8.00 8.08 7.48 7.89 7.59 8.05 7.65 7.53 8.26 7.72 7.75 8.01 7.69 7.54 8.03 8.19 7.55 7.57 7.79 8.29 7.61 8.37 7.59 8.43 8.08 8.08 7.65 8.07 8.06 7.75 7.67 8.27 7.66 8.34 8.39 7.99 7.46 8.02 7.61 8.27 8.22 7.76 8.26 7.50 7.47 7.87 7.52 8.33 7.83 8.09 8.09 7.62 7.45 7.89 7.77 8.23 7.50 7.70 7.76 7.88 7.82 8.21 7.60 7.53 8.12 7.79 7.63 7.79 8.12 7.80 8.19 7.59 7.62 7.92 8.15 7.60 8.11 8.36 8.07 8.05 8.10 8.30 8.22 7.65 8.15 8.09 7.84 8.25 7.85 7.83 8.39 7.60 7.72 8.07 7.86 7.78 7.74 8.12 7.85 7.85 8.29 7.50 7.69 7.70 8.35 7.66 8.35 8.02 8.16 7.62 7.69 8.05 7.75 7.70 7.92 8.32 8.22 7.64 8.38 7.93 7.79 7.44 8.10 7.77 7.51 8.27 7.56 8.03 8.11 7.88 8.41 7.90 7.53 7.49 8.20 8.40 7.52 8.43 7.97 7.85 7.47 8.09 7.62 7.66 7.85 8.21 7.62 7.67 7.73 7.95 7.64 8.11 8.28 7.93 8.35 8.27 -9999 -9999
7.76 7.88 8.18 7.92 8.17 8.21 8.18 8.34 7.96 8.39 8.11 8.23 7.65 7.90 7.52 8.00 8.42 7.71 7.65 8.00 7.57 8.41 8.07 8.19 8.17 7.80 7.49 8.22 8.26 7.95 8.34 8.06 8.39 7.75 7.89 8.06 8.40 8.28 8.18 8.08 8.13 8.00 7.86 8.41 7.84 7.57 8.11 7.73 7.65 7.98 8.25 7.84 7.63 7.56 8.27 7.68 8.11 7.86 8.22 7.73 7.92 8.34 8.40 7.64 7.97 7.67 8.32 7.66 7.47 8.01 7.44 8.23 8.35 7.44 8.35 7.78 8.34 8.02 8.22 8.08 8.21 7.96 7.53 8.39 7.91 7.78 7.44 8.36 8.26 8.03 8.16 7.49 8.05 8.05 8.43 8.36 7.44 7.78 7.52 8.04 7.91 8.00 8.09 7.52 7.52 7.99 8.05 7.58 7.70 8.39 8.14 8.33 7.50 7.60 7.46 8.34 7.51 7.85 8.37 7.75 8.16 8.40 8.18 7.82 8.24 7.72 7.98 8.21 7.69 8.03 7.97 7.52 7.59 7.94 8.29 8.24 7.63 8.29 8.34 7.48 8.29 8.11 7.86 7.51 8.39 8.03 8.42 8.15 7.92 8.12 7.70 7.46 7.85 7.85 8.27 7.44 7.88 8.09 8.33 7.92 8.23 7.81 8.21 7.74 8.00 8.31 7.95 7.53 7.69 7.51 7.80 7.76 8.08 7.47 8.16 8.17 7.98 8.39 8.05 7.65 7.77 8.26 8.40 7.62 7.57 8.08 8.10 8.12 7.82 7.94 7.81 8.36 8.28 8.00 8.43 8.11 8.11 8.41 8.38 7.66 7.95 7.67 7.44 7.93 8.27 7.59 8.36 7.67 7.58 7.85 7.54 7.82 8.32 -9999 -9999
7.91 7.73 7.46 7.67 7.85 7.48 7.88 7.77 7.59 7.49 7.95 8.09 7.83 7.95 7.45 8.20 8.19 8.42 7.88 8.33 8.20 8.30 7.81 7.71 7.65 8.12 7.46 7.51 7.89 8.24 8.33 8.08 7.70 7.53 8.13 7.49 7.66 7.89 8.00 7.71 7.82 7.66 7.57 7.73 8.06 7.86 8.27 7.81 8.01 7.62 7.89 8.25 7.57 7.62 7.54 7.51 7.93 8.09 8.41 7.74 7.48 7.46 7.82 7.69 7.48 7.51 7.74 8.42 8.28 7.81 8.08 7.99 8.40 8.22 7.47 7.74 8.16 7.76 8.36 8.34 8.37 8.35 8.38 7.71 8.29 7.99 8.20 7.49 7.65 7.91 8.10 8.18 8.32 7.73 8.29 8.25 7.51 7.47 7.44 8.05 8.11 7.61 8.27 8.30 7.69 7.56 7.76 7.90 7.97 7.95 7.55 7.77 7.64 8.11 8.27 8.00 7.76 7.56 7.82 7.78 8.21 8.06 7.60 7.80 8.06 7.57 7.81 8.01 7.64 7.57 7.62 7.72 7.72 7.80 8.21 7.62 7.73 7.66 7.84 7.43 7.98 8.28 7.89 7.99 7.54 8.14 8.02 7.93 8.23 7.68 7.97 8.15 7.49 7.54 8.14 8.11 7.51 7.76 7.97 7.64 8.39 8.12 8.07 7.62 8.41 8.09 8.08 8.30 8.29 8.38 7.72 8.05 8.30 8.16 8.11 8.17 7.95 8.07 8.12 7.50 8.21 7.90 7.72 7.72 7.63 8.24 7.58 8.23 7.84 7.70 8.42 7.53 8.23 8.07 8.42 7.97 7.50 7.85 8.22 8.28 7.82 8.10 8.31 7.77 7.88 8.21 7.58 8.22 8.36 8.08 7.45 8.33 8.05 -9999 -9999
7.60 7.83 8.23 7.72 7.68 7.83 7.48 7.93 7.99 8.16 8.40 7.65 8.08 7.73 8.28 7.60 8.15 7.64 7.55 8.31 8.05 7.51 7.54 7.83 7.78 7.66 7.85 7.59 7.66 7.60 8.33 7.49 7.58 7.99 8.43 8.35 7.78 7.66 8.14 7.59 8.09 8.25 8.17 8.37 7.62 8.18 8.32 7.54 8.36 8.28 8.23 7.97 7.57 8.36 7.77 7.78 8.08 7.94 7.66 8.43 8.33 7.68 7.78 8.27 8.21 8.28 7.47 8.34 8.05 8.42 7.56 7.50 7.81 7.65 8.05 8.23 7.46 8.31 8.08 8.42 7.60 8.18 8.13 7.75 7.90 7.88 7.94 7.85 7.57 8.37 7.92 8.26 7.98 7.90 8.10 8.28 8.36 8.43 8.40 7.44 7.50 8.15 7.86 8.29 7.73 8.23 8.33 7.60 8.30 7.77 8.40 7.72 8.19 8.28 7.87 8.22 8.33 8.29 7.97 8.36 8.13 8.07 8.05 7.77 7.53 7.97 7.59 7.52 7.57 7.79 7.92 7.82 8.19 7.94 8.25 8.33 7.86 7.73 7.92 7.58 7.92 7.81 8.37 7.50 7.43 7.71 8.23 8.42 7.52 8.43 7.90 8.28 7.84 8.05 7.62 8.34 8.27 7.56 8.01 8.00 7.99 7.64 8.05 7.88 7.87 7.72 7.57 8.15 7.81 8.14 8.02 7.87 8.06 8.09 8.32 8.22 8.40 7.55 7.51 8.33 8.27 7.76 8.21 8.19 8.07 7.88 7.84 7.93 8.34 7.65 8.27 8.30 8.11 7.72 8.22 7.76 8.10 8.10 7.89 8.16 7.47 7.50 8.39 8.01 7.97 7.57 8.43 7.66 7.61 7.80 7.63 -9999 -9999 -9999 -9999
7.80 7.51 8.17 8.34 7.56 7.80 7.95 8.24 7.90 8.01 7.75 8.31 7.63 7.72 7.49 8.28 7.92 7.65 7.78 7.55 7.55 8.29 8.42 7.81 7.98 8.42 7.70 7.65 8.18 8.17 8.10 8.32 7.98 7.54 7.50 8.19 8.40 7.94 8.07 8.12 8.38 7.61 8.04 8.04 7.68 7.57 8.16 8.41 7.97 8.39 7.99 8.17 8.40 7.54 8.30 8.36 8.21 8.17 7.65 7.84 7.72 7.85 7.77 8.43 7.67 8.30 7.89 7.90 8.38 7.79 7.88 7.95 7.85 7.61 7.58 8.26 7.65 8.42 7.73 7.78 7.98 7.58 8.19 7.67 8.43 8.38 7.79 8.41 7.83 8.34 8.01 7.67 7.75 7.99 8.15 7.86 7.79 8.36 8.42 7.55 8.23 7.86 8.20 7.50 7.95 8.32 7.51 7.71 7.88 7.90 7.75 7.61 8.00 7.94 8.20 7.56 8.32 8.23 8.03 7.68 8.13 7.79 7.50 8.11 7.68 8.12 7.44 7.86 7.65 7.93 8.06 8.06 7.84 8.35 7.49 8.42 7.57 7.76 7.69 8.06 7.49 7.55 7.63 8.03 7.69 8.40 8.11 8.26 7.92 7.93 7.58 8.34 8.19 8.06 8.41 7.98 7.76 8.41 8.13 8.23 8.43 8.10 8.02 7.89 8.23 7.90 8.12 7.92 8.37 7.54 8.28 8.27 7.48 7.73 7.73 7.70 8.43 8.08 7.98 7.75 7.59 8.18 7.44 8.31 8.24 7.60 8.34 7.46 7.88 8.18 7.74 7.54 8.19 8.30 7.98 7.78 8.16 7.87 7.50 7.94 7.47 8.14 8.16 7.65 -9999 -9999 -9999 -9999 -9999 -9999 -9999 -9999 -9999 -9999 -9999
7.81 8.15 8.07 7.56 7.62 7.64 7.98 8.16 7.89 7.74 7.49 7.92 7.49 8.08 7.80 8.42 7.71 7.73 7.80 8.03 8.21 7.64 8.04 8.24 7.92 7.53 7.79 7.65 7.63 7.57 7.53 7.60 8.12 8.26 7.74 7.82 7.81 7.56 8.13 8.30 7.66 8.09 8.24 8.22 8.23 8.30 7.93 8.28 8.29 7.81 7.94 7.55 8.14 7.96 8.14 8.38 8.20 7.69 7.79 7.72 7.48 7.61 7.87 7.77 8.34 7.94 8.29 8.07 8.33 8.26 8.02 8.25 8.07 7.78 8.26 8.20 8.22 7.58 8.01 7.47 7.50 8.38 7.43 7.50 8.38 7.69 7.62 8.06 7.71 8.23 8.10 7.80 7.50 7.83 8.06 7.61 7.45 8.42 7.70 8.25 7.71 7.84 7.94 7.75 7.60 8.00 8.02 7.84 7.57 8.10 8.24 7.73 7.84 8.43 7.79 8.01 7.96 8.04 7.76 7.44 7.70 7.77 7.77 7.50 7.56 8.02 8.14 8.08 7.62 8.25 8.35 7.81 7.82 7.99 8.28 7.81 8.25 8.20 7.83 7.67 7.47 8.40 7.98 7.79 8.16 8.02 8.02 8.41 7.55 8.08 7.93 7.76 8.09 8.19 8.25 8.39 7.52 7.76 8.05 8.23 8.20 7.60 8.19 7.54 7.80 7.51 7.69 8.16 8.40 7.62 8.32 8.32 7.79 7.51 7.75 8.43 8.32 7.79 7.71 7.62 8.26 7.55 8.14 7.90 7.50 8.18 8.28 8.24 7.88 7.99 8.34 7.93 7.90 7.96 8.17 7.76 7.83 7.53 -9999 -9999 -9999 -9999 -9999 -9999 -9999 -9999 -9999 -9999 -9999 -9999 -9999 -9999 -9999 -9999 -9999
7.58 7.98 8.25 8.43 8.05 8.24 7.84 8.05 8.00 8.38 8.17 8.04 8.16 7.73 7.94 7.57 8.08 7.77 7.76 8.36 7.75 8.19 8.30 8.23 7.66 8.40 8.02 7.74 7.75 8.36 7.55 7.54 7.86 8.42 7.96 8.34 8.13 7.66 7.90 7.69 7.90 8.23 7.52 8.40 7.59 7.83 8.00 7.53 7.56 7.46 7.94 7.75 8.11 7.71 8.29 7.87 7.76 8.30 8.21 7.77 7.69 8.31 7.75 7.99 7.66 7.74 7.67 8.07 8.19 7.67 7.65 8.33 7.84 7.54 7.96 7.51 8.29 7.50 8.40 7.50 7.81 8.26 8.06 7.45 7.67 8.08 7.55 7.96 8.24 7.97 7.58 8.16 7.71 7.54 7.96 8.27 8.41 7.62 8.33 7.65 7.48 7.84 8.43 7.45 8.24 8.33 7.74 8.07 8.36 8.04 7.87 8.24 7.53 7.92 7.76 7.79 7.77 8.26 7.96 7.80 8.08 7.94 8.21 8.10 8.05 7.93 7.55 7.60 7.81 7.90 8.30 7.96 7.69 8.17 7.89 8.17 7.58 7.61 8.15 8.24 7.90 7.79 7.73 7.76 8.40 8.43 7.49 7.77 8.12 8.26 8.41 8.08 8.17 8.38 8.06 8.06 7.45 7.88 7.83 8.03 7.58 7.79 7.78 7.81 7.56 7.54 8.16 8.15 7.95 8.34 7.89 7.78 7.60 8.41 8.07 7.92 8.07 7.46 8.10 8.18 8.38 7.95 8.24 8.07 8.35 8.07 7.92 8.40 7.76 8.31 8.20 -9999 -9999 -9999 -9999 -9999 -9999 -9999 -9999 -9999 -9999 -9999 -9999 -9999 -9999 -9999 -9999 -9999 -9999 -9999 -9999 -9999 -9999 -9999 -9999
7.91 7.79 7.66 7.81 8.07 7.81 7.55 8.23 7.87 8.28 7.60 7.59 7.44 8.39 7.58 7.59 7.64 7.51 7.94 7.62 8.24 8.16 7.45 8.34 7.47 7.90 7.88 8.07 7.83 8.37 7.67 7.80 8.07 8.37 8.08 8.05 7.90 8.32 8.23 7.50 8.17 7.87 8.31 8.13 7.91 8.08 8.18 7.85 7.77 7.89 8.16 7.60 8.42 8.02 8.18 8.02 8.41 7.51 7.94 7.79 7.94 7.65 8.32 7.81 7.90 8.18 7.78 8.06 7.47 8.37 8.01 8.37 7.44 8.36 7.78 8.16 7.86 7.81 7.61 8.23 7.94 7.75 8.28 7.49 8.07 8.05 7.78 7.77 7.57 8.15 7.52 7.87 8.18 7.63 8.38 8.03 7.77 8.05 8.13 7.56 8.25 8.13 8.36 7.88 7.57 8.27 8.36 7.43 8.01 8.12 7.73 8.04 8.35 8.04 7.52 7.98 8.30 7.73 7.82 7.52 8.16 8.11 7.58 8.35 8.31 7.46 7.69 8.32 7.47 7.94 7.54 7.74 8.19 7.74 8.37 7.59 7.75 7.68 7.59 7.78 8.27 7.70 8.20 7.78 7.45 7.86 7.51 7.49 8.26 8.07 8.19 7.46 8.06 7.63 8.40 8.02 8.23 8.41 8.10 7.74 8.04 8.05 7.64 7.93 7.79 7.61 8.02 7.77 7.68 8.11 8.06 8.22 7.96 8.23 7.63 8.34 8.36 8.43 7.92 8.34 7.74 7.68 7.57 8.13 -9999 -9999 -9999 -9999 -9999 -9999 -9999 -9999 -9999 -9999 -9999 -9999 -9999 -9999 -9999 -9999 -9999 -9999 -9999 -9999 -9999 -9999 -9999 -9999 -9999 -9999 -9999 -9999 -9999 -9999 -9999
7.58 8.40 8.00 8.33 7.73 8.19 8.21 7.84 7.94 8.33 7.66 8.33 8.39 7.62 7.97 7.46 7.94 7.48 8.20 7.64 7.53 7.96 7.88 7.72 7.92 8.41 8.28 8.42 8.16 7.71 8.02 8.25 8.30 7.94 7.72 8.14 7.62 8.16 7.62 8.37 8.42 8.33 7.96 8.04 7.64 7.62 8.24 7.64 7.77 7.51 7.57 8.42 7.90 8.23 7.85 7.55 8.39 8.23 7.55 7.88 8.31 8.09 7.44 7.93 8.23 7.84 8.00 7.69 7.77 7.81 7.53 7.80 7.96 7.57 7.81 7.50 8.21 7.75 7.98 8.35 8.36 7.50 7.72 8.34 8.33 8.17 7.89 7.88 8.36 7.79 8.36 7.52 8.25 7.55 8.34 7.86 8.36 8.07 8.27 8.07 7.93 8.33 7.83 8.15 7.88 7.97 8.19 7.67 7.81 8.38 8.36 8.01 8.06 8.41 8.19 8.10 7.64 7.57 7.58 8.30 8.03 8.40 7.93 7.65 8.19 8.08 8.37 8.40 7.80 8.07 8.03 7.56 8.34 7.67 7.74 7.56 8.08 8.28 8.05 7.82 8.36 7.76 7.50 8.28 7.66 7.47 8.07 8.25 8.05 8.13 7.46 7.50 7.49 8.15 7.81 7.45 7.64 8.02 8.11 7.62 7.91 8.33 8.17 7.99 7.72 7.74 7.86 7.73 7.79 7.70 7.58 8.04 7.53 7.76 8.30 7.61 7.45 -9999 -9999 -9999 -9999 -9999 -9999 -9999 -9999 -9999 -9999 -9999 -9999 -9999 -9999 -9999 -9999 -9999 -9999 -9999 -9999 -9999 -9999 -9999 -9999 -9999 -9999 -9999 -9999 -9999 -9999 -9999 -9999 -9999 -9999 -9999 -9999 -9999 -9999
7.95 7.91 7.91 8.36 8.35 8.05 7.78 7.91 7.85 7.54 7.72 7.95 7.69 7.74 7.90 8.07 8.17 7.68 7.47 7.97 8.07 7.69 7.93 7.47 8.40 7.63 7.84 7.92 7.81 7.95 8.01 8.12 8.38 7.86 7.50 8.00 8.05 7.57 8.37 7.95 8.02 8.25 8.42 8.24 7.73 8.32 7.48 7.53 7.80 8.25 7.76 7.96 8.35 8.21 8.40 8.38 7.45 8.39 8.41 7.83 7.48 7.65 7.46 8.10 8.30 7.86 7.91 7.56 8.20 8.35 7.65 7.99 7.66 7.55 7.96 7.84 8.15 7.56 7.67 8.01 8.33 7.62 7.53 7.99 7.72 7.62 7.53 8.16 8.25 7.67 7.67 7.48 8.14 7.60 7.44 7.97 7.72 7.84 7.72 8.13 8.34 7.77 8.16 7.51 7.49 7.63 7.46 8.00 8.31 7.80 7.46 8.14 7.73 8.40 7.82 8.37 8.01 7.89 7.69 7.55 8.08 8.06 7.95 8.32 7.70 7.48 7.99 7.71 8.23 7.69 7.61 7.67 7.97 7.53 7.61 8.08 8.23 8.40 8.15 7.68 8.16 8.21 8.19 8.43 7.90 7.52 8.14 8.30 7.86 7.57 7.60 8.40 7.57 7.57 8.22 7.88 7.64 7.62 7.97 8.05 8.40 7.51 8.43 8.32 7.84 7.90 8.37 8.04 7.69 7.70 -9999 -9999 -9999 -9999 -9999 -9999 -9999 -9999 -9999 -9999 -9999 -9999 -9999 -9999 -9999 -9999 -9999 -9999 -9999 -9999 -9999 -9999 -9999 -9999 -9999 -9999 -9999 -9999 -9999 -9999 -9999 -9999 -9999 -9999 -9999 -9999 -9999 -9999 -9999 -9999 -9999 -9999 -9999 -9999 -9999
7.99 7.85 8.08 8.00 7.99 7.77 8.01 8.05 7.99 7.92 7.50 8.24 7.93 7.84 8.37 8.17 8.31 7.51 8.20 8.41 8.15 7.67 8.39 8.42 7.90 7.61 8.33 8.43 7.83 7.91 7.89 8.17 7.55 8.27 8.21 8.28 7.80 7.56 8.16 8.14 7.46 7.89 8.37 7.48 8.07 8.17 8.25 8.37 8.05 8.04 8.19 7.99 7.84 8.09 7.56 7.47 7.93 7.85 7.98 7.59 7.53 8.32 7.87 7.57 7.76 7.92 8.09 7.70 8.16 8.30 7.68 7.67 7.54 7.55 8.16 7.70 7.88 8.06 7.75 7.45 8.13 7.49 7.68 7.95 8.24 7.72 8.41 8.04 7.92 7.48 7.79 7.73 7.81 8.34 8.28 7.50 7.53 8.23 8.03 7.53 8.25 8.39 8.42 7.51 7.62 7.44 8.29 7.50 7.77 7.48 7.47 8.18 7.56 7.48 7.49 7.52 7.70 7.75 7.84 8.32 7.84 8.04 8.02 7.51 7.78 8.35 7.62 8.19 7.97 8.03 7.79 7.74 7.58 8.15 8.04 8.43 8.12 7.72 7.60 8.38 7.64 8.18 7.91 7.55 7.68 8.10 7.66 8.17 8.36 8.32 7.91 8.12 7.52 8.35 7.51 7.65 8.05 8.41 7.95 8.17 7.93 8.02 7.53 7.51 7.48 8.35 7.84 8.05 7.47 -9999 -9999 -9999 -9999 -9999 -9999 -9999 -9999 -9999 -9999 -9999 -9999 -9999 -9999 -9999 -9999 -9999 -9999 -9999 -9999 -9999 -9999 -9999 -9999 -9999 -9999 -9999 -9999 -9999 -9999 -9999 -9999 -9999 -9999 -9999 -9999 -9999 -9999 -9999 -9999 -9999 -9999 -9999 -9999 -9999 -9999
8.06 7.51 7.60 8.21 7.89 8.40 8.31 7.70 8.35 8.22 8.10 7.70 7.72 7.88 8.31 8.35 7.98 8.42 7.79 7.62 7.74 7.99 7.99 7.89 8.40 7.95 7.62 7.59 8.21 7.63 7.90 7.98 7.57 7.70 7.79 8.36 7.52 7.68 8.15 7.85 7.91 7.84 7.88 8.35 7.51 7.52 7.64 7.64 8.28 8.32 8.41 7.66 7.49 7.67 7.90 8.03 7.67 8.00 7.85 8.35 7.89 7.76 7.54 8.00 8.28 7.47 7.60 7.46 8.43 7.89 7.49 7.94 8.20 7.90 8.32 8.16 8.25 7.78 8.39 8.23 8.22 7.85 7.72 7.80 8.42 7.60 7.82 8.13 7.90 7.46 7.86 8.27 8.20 7.88 7.95 7.85 8.42 8.19 8.19 7.78 8.43 8.35 8.18 7.89 7.73 7.49 7.99 8.06 7.69 7.73 7.89 7.49 7.54 8.15 8.13 7.76 7.71 7.79 7.51 7.70 7.95 8.37 7.90 8.21 8.23 7.85 7.44 7.83 7.72 7.79 7.91 7.48 8.32 7.88 7.47 7.69 7.58 8.21 7.61 8.29 7.66 8.34 8.05 8.41 7.85 7.44 7.55 7.61 7.44 8.13 8.37 8.18 8.40 8.20 8.38 7.57 7.50 7.94 7.45 8.12 7.67 7.94 8.06 8.33 8.25 7.51 8.32 8.39 7.63 8.18 -9999 -9999 -9999 -9999 -9999 -9999 -9999 -9999 -9999 -9999 -9999 -9999 -9999 -9999 -9999 -9999 -9999 -9999 -9999 -9999 -9999 -9999 -9999 -9999 -9999 -9999 -9999 -9999 -9999 -9999 -9999 -9999 -9999 -9999 -9999 -9999 -9999 -9999 -9999 -9999 -9999 -9999 -9999 -9999 -9999
7.70 8.21 7.98 7.49 7.48 7.70 7.46 7.94 8.06 8.01 7.47 8.23 7.51 7.68 8.34 7.49 7.46 7.66 8.18 8.08 7.86 8.05 7.65 8.25 8.26 7.51 8.24 7.78 8.24 8.13 7.74 8.13 8.19 8.34 7.65 8.17 7.89 8.11 7.67 8.07 7.50 7.80 8.38 7.99 7.45 7.81 8.22 7.60 7.90 8.27 7.44 7.75 8.06 7.78 8.12 8.27 7.53 8.13 7.98 8.19 7.79 8.06 8.22 7.93 8.30 7.87 7.96 8.43 8.09 7.76 8.19 8.40 7.53 7.55 8.10 7.85 8.31 8.28 7.77 7.72 8.20 7.66 7.93 7.49 7.50 7.52 7.68 8.04 7.73 7.44 8.28 8.17 8.25 8.09 7.63 8.11 7.90 7.92 7.57 7.70 7.94 8.32 8.11 7.57 8.37 8.03 8.29 7.99 8.05 7.45 7.81 8.07 7.46 8.37 8.10 8.25 8.30 8.15 7.84 7.59 8.31 7.71 8.24 8.11 8.17 7.97 8.21 7.53 7.69 7.64 7.64 8.20 7.47 8.23 7.45 7.75 8.39 8.08 7.54 7.72 7.74 7.62 7.56 7.46 8.22 8.15 8.20 8.09 7.76 7.87 7.56 7.71 7.78 8.32 8.37 7.90 7.48 7.93 8.34 7.50 8.18 7.83 7.78 8.27 7.89 7.60 7.97 8.15 7.89 7.79 -9999 -9999 -9999 -9999 -9999 -9999 -9999 -9999 -9999 -9999 -9999 -9999 -9999 -9999 -9999 -9999 -9999 -9999 -9999 -9999 -9999 -9999 -9999 -9999 -9999 -9999 -9999 -9999 -9999 -9999 -9999 -9999 -9999 -9999 -9999 -9999 -9999 -9999 -9999 -9999 -9999 -9999 -9999 -9999 -9999
7.99 7.97 7.47 7.69 8.22 8.23 7.62 8.13 7.86 7.57 8.09 7.51 7.74 7.70 8.25 8.06 7.60 8.00 8.27 8.32 7.99 7.60 8.07 7.89 7.54 7.59 7.91 7.56 7.83 7.92 8.25 8.28 7.99 8.22 7.53 7.71 8.35 7.87 8.12 7.59 7.78 8.21 8.16 7.73 7.77 7.89 8.40 8.09 7.54 8.07 8.39 8.06 7.61 8.12 8.29 7.63 8.24 8.03 8.23 7.70 7.69 8.34 8.33 8.20 7.44 7.96 7.90 8.41 8.05 7.95 8.29 8.29 8.25 8.43 7.81 8.03 7.45 8.30 8.37 7.77 8.14 7.80 8.38 7.53 8.09 7.69 8.06 8.06 8.15 7.76 7.51 7.94 7.94 8.40 7.60 7.85 8.19 7.71 7.85 7.97 7.88 8.21 8.21 7.47 7.64 7.57 8.15 7.46 8.11 7.53 7.70 7.93 7.91 7.45 8.40 7.67 8.29 7.63 7.45 7.86 8.14 7.71 8.17 7.67 8.37 7.78 7.45 7.49 7.77 7.88 7.46 8.25 8.18 7.97 7.61 8.43 8.22 7.87 8.23 8.02 8.13 7.82 7.45 8.09 7.48 7.97 7.86 8.26 7.79 7.45 7.91 8.03 7.63 7.75 7.98 8.22 8.00 7.66 7.91 7.68 8.24 7.56 7.77 8.43 8.43 7.57 8.21 7.55 8.18 8.12 -9999 -9999 -9999 -9999 -9999 -9999 -9999 -9999 -9999 -9999 -9999 -9999 -9999 -9999 -9999 -9999 -9999 -9999 -9999 -9999 -9999 -9999 -9999 -9999 -9999 -9999 -9999 -9999 -9999 -9999 -9999 -9999 -9999 -9999 -9999 -9999 -9999 -9999 -9999 -9999 -9999 -9999 -9999 -9999 -9999
8.14 8.39 7.53 8.38 7.97 7.90 8.12 8.39 7.92 8.40 8.38 7.97 7.84 7.54 7.46 8.16 7.95 7.49 7.65 7.48 7.92 8.03 8.19 7.73 8.11 7.46 8.27 8.32 7.75 7.43 7.82 8.19 8.40 8.34 8.34 8.41 8.14 7.60 8.22 8.41 7.85 8.15 8.17 7.59 7.99 8.12 7.78 7.58 7.78 8.33 8.09 7.59 7.86 7.74 7.86 8.26 7.90 7.68 7.84 7.72 8.21 8.02 7.75 7.88 8.40 7.56 7.86 8.29 7.63 8.22 7.83 8.27 7.44 8.08 8.23 7.62 7.54 8.31 7.99 7.96 8.25 8.07 7.65 7.96 8.01 8.24 7.68 8.22 8.38 7.66 8.14 7.91 7.74 8.36 7.46 7.53 8.15 8.22 7.92 7.79 7.97 7.98 7.90 7.61 8.29 7.47 7.57 8.28 7.91 8.01 8.08 8.19 7.78 8.11 8.30 7.57 7.94 7.66 8.23 7.46 8.22 7.44 8.27 7.94 7.47 7.92 8.25 7.94 7.92 8.08 7.53 7.91 7.67 7.48 8.20 7.57 8.33 7.89 8.26 7.44 8.02 8.16 8.34 8.31 7.88 7.64 8.19 8.35 7.82 7.44 7.86 7.94 7.60 7.98 7.78 7.80 7.50 7.77 7.62 7.65 7.49 8.16 7.74 8.24 7.72 7.51 7.80 7.81 7.88 8.41 -9999 -9999 -9999 -9999 -9999 -9999 -9999 -9999 -9999 -9999 -9999 -9999 -9999 -9999 -9999 -9999 -9999 -9999 -9999 -9999 -9999 -9999 -9999 -9999 -9999 -9999 -9999 -9999 -9999 -9999 -9999 -9999 -9999 -9999 -9999 -9999 -9999 -9999 -9999 -9999 -9999 -9999 -9999 -9999 -9999
8.09 7.72 7.62 8.29 8.12 7.83 8.00 7.79 8.28 8.32 7.95 7.45 8.42 8.00 8.15 7.67 7.99 7.59 7.92 7.70 7.92 8.29 7.72 7.54 8.12 7.64 7.88 8.06 7.51 8.01 7.44 7.99 7.74 7.55 8.08 8.41 8.09 7.68 7.52 8.17 8.07 7.86 7.91 7.60 8.34 8.15 8.00 8.13 7.78 7.82 7.64 7.87 7.94 8.15 7.59 7.87 7.97 7.55 7.49 7.56 7.73 8.05 7.60 8.34 7.77 7.46 8.23 8.27 8.35 8.36 8.13 7.48 8.06 7.76 7.63 8.34 7.92 8.30 8.02 8.06 7.62 7.61 8.27 8.09 7.51 7.45 7.88 8.30 8.40 7.71 7.78 8.36 8.20 7.96 7.50 7.66 7.88 7.60 7.57 8.33 8.04 7.98 8.37 7.98 8.19 7.97 7.83 8.36 7.84 7.98 7.91 7.94 8.18 7.76 7.87 7.86 8.02 8.11 7.60 7.92 7.78 7.52 8.33 8.11 8.13 8.25 7.59 7.59 8.18 7.49 7.83 7.68 7.67 7.95 8.00 7.67 7.50 7.64 7.86 7.55 7.46 7.45 7.94 7.96 8.37 7.82 7.63 7.68 8.01 8.22 7.51 8.15 8.28 7.99 8.40 7.70 7.89 7.84 7.97 7.68 7.88 7.95 8.29 7.69 7.65 8.30 8.07 8.13 7.94 7.66 -9999 -9999 -9999 -9999 -9999 -9999 -9999 -9999 -9999 -9999 -9999 -9999 -9999 -9999 -9999 -9999 -9999 -9999 -9999 -9999 -9999 -9999 -9999 -9999 -9999 -9999 -9999 -9999 -9999 -9999 -9999 -9999 -9999 -9999 -9999 -9999 -9999 -9999 -9999 -9999 -9999 -9999 -9999 -9999 -9999
7.66 7.61 8.10 8.18 8.20 8.35 7.79 8.41 8.17 8.22 8.30 7.63 8.10 8.21 7.85 8.26 7.91 7.46 7.56 7.57 8.11 7.78 7.96 7.86 7.51 7.58 7.94 7.83 8.08 8.09 7.56 8.15 8.27 8.19 8.42 7.67 7.70 8.43 8.26 7.61 7.90 8.28 7.73 7.80 7.90 7.79 7.45 8.29 7.47 8.13 7.57 7.89 8.01 8.09 7.92 8.26 8.19 7.95 8.27 7.85 8.08 7.69 7.88 8.09 8.16 7.99 7.54 8.25 7.85 7.84 8.31 7.53 7.84 7.99 7.91 7.78 7.44 7.75 8.07 7.53 7.46 8.38 8.32 7.91 8.13 8.01 7.56 7.45 8.09 8.03 7.71 7.52 8.26 7.61 7.89 7.88 7.59 7.97 7.45 7.83 7.49 7.91 7.49 8.07 7.57 7.99 7.51 8.23 8.35 7.73 8.35 8.23 7.86 8.32 7.76 8.21 8.28 8.21 7.76 7.45 8.35 8.41 8.39 7.97 8.12 7.57 7.53 8.18 8.01 7.77 8.15 7.88 8.38 8.39 8.24 8.12 8.03 7.63 7.57 7.60 7.67 7.45 8.39 8.32 7.93 7.97 8.18 8.32 7.44 7.98 8.07 7.85 7.65 8.08 8.08 7.65 7.45 7.99 7.92 7.64 8.00 7.73 8.16 7.48 7.54 7.58 8.15 8.23 7.97 8.24 -9999 -9999 -9999 -9999 -9999 -9999 -9999 -9999 -9999 -9999 -9999 -9999 -9999 -9999 -9999 -9999 -9999 -9999 -9999 -9999 -9999 -9999 -9999 -9999 -9999 -9999 -9999 -9999 -9999 -9999 -9999 -9999 -9999 -9999 -9999 -9999 -9999 -9999 -9999 -9999 -9999 -9999 -9999 -9999 -9999
7.89 7.62 7.63 7.83 8.21 8.16 7.48 7.63 8.05 8.33 7.63 7.61 7.63 8.38 7.53 7.50 7.63 8.17 8.29 7.45 7.86 8.02 8.12 7.52 7.46 8.34 7.64 7.69 8.30 8.24 7.45 8.34 7.61 7.53 7.69 7.60 8.11 8.03 7.77 7.47 8.23 7.79 7.73 7.76 8.06 7.66 7.99 8.40 7.66 8.11 8.20 7.59 7.61 8.42 7.55 7.69 8.20 7.60 8.05 7.68 7.90 8.08 7.81 8.41 8.25 7.84 8.04 8.01 7.87 8.32 8.20 7.64 7.81 7.46 7.86 7.86 7.62 7.59 8.11 8.00 7.98 8.33 8.19 8.16 7.68 8.24 7.56 8.05 7.81 8.17 7.66 8.35 7.66 8.37 8.14 7.50 8.36 7.51 8.40 8.35 8.11 7.88 7.60 8.21 8.37 7.79 8.27 8.43 8.32 7.97 8.25 8.08 7.96 7.87 8.43 8.10 7.81 8.23 7.82 7.54 8.37 7.59 7.75 7.74 7.87 8.29 7.48 7.67 8.19 7.53 8.29 8.23 7.56 8.14 7.98 7.49 8.10 8.03 8.18 8.34 8.26 7.57 8.29 7.99 8.20 8.02 8.16 8.00 7.58 7.93 8.26 7.62 7.91 8.03 8.15 8.28 7.85 8.14 8.30 8.20 7.88 8.21 7.48 7.59 7.88 8.31 8.07 8.36 7.45 8.37 -9999 -9999 -9999 -9999 -9999 -9999 -9999 -9999 -9999 -9999 -9999 -9999 -9999 -9999 -9999 -9999 -9999 -9999 -9999 -9999 -9999 -9999 -9999 -9999 -9999 -9999 -9999 -9999 -9999 -9999 -9999 -9999 -9999 -9999 -9999 -9999 -9999 -9999 -9999 -9999 -9999 -9999 -9999 -9999 -9999
8.05 7.48 7.57 8.41 8.30 7.49 7.50 8.43 7.83 8.06 8.09 7.54 7.94 8.28 7.91 8.06 7.80 7.62 7.44 8.02 7.52 7.77 8.09 8.41 8.27 7.57 7.74 7.55 7.71 8.24 7.79 8.14 8.14 7.90 7.76 7.74 7.78 7.77 7.95 8.42 8.16 7.95 7.94 7.86 7.51 8.09 7.47 8.18 8.16 8.29 7.49 8.07 8.00 7.94 7.77 8.33 7.62 8.09 8.06 8.17 8.17 8.43 7.77 8.40 7.87 7.88 7.75 7.70 7.94 8.41 7.67 8.09 8.36 7.47 7.61 7.77 7.80 8.10 7.96 7.49 7.66 7.80 8.29 7.78 8.08 7.78 7.54 7.62 8.15 7.70 8.02 8.23 8.27 8.33 7.69 8.21 8.08 8.15 8.22 7.69 8.16 7.68 7.59 8.31 8.14 8.32 8.15 7.96 7.71 8.14 8.06 7.51 8.36 8.28 8.00 8.42 8.13 8.16 7.91 8.32 7.67 7.92 7.66 7.58 8.02 7.50 8.25 7.82 8.37 8.21 8.31 7.54 7.58 7.64 8.42 8.16 7.71 7.84 7.97 7.44 7.84 7.46 7.46 8.04 8.10 8.27 8.17 7.69 7.92 7.64 8.11 8.04 8.14 7.82 8.43 7.65 7.94 7.97 8.36 7.54 7.55 8.37 7.52 7.59 7.67 8.20 7.69 7.64 7.81 7.53 7.59 -9999 -9999 -9999 -9999 -9999 -9999 -9999 -9999 -9999 -9999 -9999 -9999 -9999 -9999 -9999 -9999 -9999 -9999 -9999 -9999 -9999 -9999 -9999 -9999 -9999 -9999 -9999 -9999 -9999 -9999 -9999 -9999 -9999 -9999 -9999 -9999 -9999 -9999 -9999 -9999 -9999 -9999 -9999 -9999
7.76 7.90 7.52 7.69 7.60 7.80 8.14 8.24 7.91 7.95 8.04 8.22 7.91 7.96 8.21 8.38 8.30 8.09 7.52 7.86 7.70 8.20 7.79 7.57 8.28 7.51 8.12 8.31 7.55 7.93 7.95 7.87 8.20 7.52 8.00 8.36 7.87 7.90 7.49 8.29 7.58 7.92 8.28 7.89 8.12 8.04 8.12 7.72 7.99 7.99 8.43 7.78 8.42 7.76 8.37 7.74 7.89 7.45 7.58 7.96 8.32 7.69 7.63 7.76 8.01 7.78 8.25 7.99 7.72 7.57 7.69 7.93 8.16 7.75 8.18 8.33 7.76 7.79 8.06 8.37 7.81 7.69 7.60 8.37 8.07 7.79 7.90 7.64 8.00 7.55 8.41 8.20 8.35 7.50 7.71 7.99 7.53 7.62 8.02 7.68 8.03 8.28 7.79 7.54 8.37 8.08 8.03 7.63 7.85 7.72 8.27 7.43 7.59 7.98 7.60 7.72 7.65 7.97 7.86 8.16 7.97 7.49 8.04 8.26 8.09 7.46 7.92 7.76 8.29 7.45 8.37 7.53 7.53 7.80 7.57 7.88 7.54 7.74 7.95 7.56 7.96 7.74 7.53 8.11 8.02 7.79 8.38 7.72 8.43 8.43 7.82 7.94 8.22 7.49 7.79 7.59 8.10 8.40 7.80 7.91 7.94 8.29 8.36 7.57 8.16 7.49 8.42 8.15 8.20 7.95 7.69 -9999 -9999 -9999 -9999 -9999 -9999 -9999 -9999 -9999 -9999 -9999 -9999 -9999 -9999 -9999 -9999 -9999 -9999 -9999 -9999 -9999 -9999 -9999 -9999 -9999 -9999 -9999 -9999 -9999 -9999 -9999 -9999 -9999 -9999 -9999 -9999 -9999 -9999 -9999 -9999 -9999 -9999 -9999 -9999
7.89 8.32 8.09 8.20 7.51 7.73 8.32 8.19 7.79 7.93 7.72 7.84 7.75 8.04 8.24 7.49 7.68 7.93 7.91 8.17 8.14 7.89 7.89 8.02 7.45 7.80 7.89 7.44 7.56 7.54 7.75 7.66 7.97 7.71 7.76 8.17 7.63 8.04 8.19 8.29 7.82 7.94 8.03 8.31 8.04 7.45 8.18 8.33 7.66 7.60 8.16 8.20 7.43 8.21 8.39 7.57 8.17 8.29 7.93 7.72 7.55 7.93 7.70 7.57 8.41 8.19 8.07 7.54 7.64 7.93 7.50 7.66 7.55 8.10 7.66 8.01 7.80 8.33 7.79 7.54 8.21 8.01 7.66 7.83 7.79 7.83 7.58 8.08 7.62 7.90 7.50 7.61 7.80 7.76 8.21 7.96 8.02 8.01 7.74 8.26 8.05 7.90 7.94 8.12 8.29 8.00 7.58 7.48 7.71 7.66 8.36 7.79 8.34 7.54 7.50 8.32 8.15 8.09 7.52 7.87 7.92 7.91 8.01 7.86 8.17 7.84 7.91 8.40 7.71 8.22 7.98 8.39 8.15 7.63 7.96 8.09 7.94 8.42 8.40 8.26 7.69 8.26 8.24 7.65 8.09 7.97 7.46 7.81 8.41 8.00 8.34 7.67 8.31 7.78 8.21 7.82 7.56 8.43 7.93 8.06 8.05 8.24 7.79 7.98 7.80 7.91 8.24 8.35 7.88 8.01 7.50 -9999 -9999 -9999 -9999 -9999 -9999 -9999 -9999 -9999 -9999 -9999 -9999 -9999 -9999 -9999 -9999 -9999 -9999 -9999 -9999 -9999 -9999 -9999 -9999 -9999 -9999 -9999 -9999 -9999 -9999 -9999 -9999 -9999 -9999 -9999 -9999 -9999 -9999 -9999 -9999 -9999 -9999 -9999 -9999
7.56 7.99 8.11 7.44 8.14 7.92 8.34 8.31 7.45 7.43 7.65 8.33 8.39 7.81 8.06 7.69 8.28 7.56 7.69 7.44 8.31 8.40 7.61 8.13 8.29 8.39 8.21 8.40 7.84 8.07 8.05 8.37 8.08 7.78 7.87 7.54 8.24 7.93 8.08 8.30 7.96 8.24 7.62 7.88 8.37 7.60 8.31 7.50 8.40 8.43 7.83 7.60 7.58 8.29 7.59 8.03 8.25 7.94 7.74 8.40 7.88 7.87 7.59 7.99 7.80 7.45 7.62 8.32 8.26 8.05 7.98 7.68 8.35 8.23 8.37 8.05 8.12 7.93 7.78 7.84 7.47 7.97 7.73 7.73 8.05 8.10 7.60 8.25 7.84 7.93 7.78 7.68 8.30 8.15 8.03 8.34 8.39 7.85 7.53 7.69 8.35 8.33 8.11 7.52 8.34 8.02 8.30 8.07 7.60 7.75 8.26 7.47 7.80 7.77 7.92 8.24 7.98 7.44 8.07 8.37 8.36 7.88 7.61 8.17 8.33 7.98 7.92 7.62 7.59 7.90 8.25 8.38 8.27 7.85 8.14 7.92 8.21 8.08 8.11 7.79 7.76 7.54 7.45 7.57 7.90 7.74 8.01 8.07 7.59 8.02 8.12 8.21 8.23 7.82 7.83 8.06 7.60 8.22 7.89 7.97 8.30 7.90 8.27 7.89 8.10 7.60 7.57 8.38 7.73 7.71 8.02 -9999 -9999 -9999 -9999 -9999 -9999 -9999 -9999 -9999 -9999 -9999 -9999 -9999 -9999 -9999 -9999 -9999 -9999 -9999 -9999 -9999 -9999 -9999 -9999 -9999 -9999 -9999 -9999 -9999 -9999 -9999 -9999 -9999 -9999 -9999 -9999 -9999 -9999 -9999 -9999 -9999 -9999 -9999 -9999
7.69 8.03 7.52 7.82 8.29 8.05 8.30 8.35 8.30 8.07 8.30 8.30 7.54 7.69 7.79 8.06 7.71 7.48 7.65 7.61 7.79 7.66 7.65 8.36 7.72 7.78 8.32 7.49 7.58 8.06 8.07 7.49 7.85 7.66 7.89 7.72 8.32 7.44 8.05 7.48 7.62 7.95 8.36 7.48 7.70 7.55 8.04 7.62 7.83 7.88 8.13 8.34 7.58 8.21 8.21 8.29 8.33 7.92 7.97 7.79 7.81 8.12 8.09 7.94 7.94 8.05 7.71 8.19 8.18 7.70 7.87 7.91 7.83 8.13 8.43 8.27 7.93 7.83 8.38 8.32 8.13 8.15 8.24 8.29 7.78 7.70 8.09 7.56 8.24 7.50 7.91 7.60 8.11 8.43 8.20 7.73 8.01 7.89 7.44 7.62 8.27 8.09 7.85 7.66 7.67 8.05 7.51 8.22 8.32 7.59 8.10 7.96 8.39 7.94 7.59 8.14 8.37 8.40 7.56 8.35 8.02 7.91 7.45 8.15 7.61 8.29 7.82 7.62 7.93 8.13 8.00 7.46 8.32 7.95 7.48 7.45 8.03 8.27 8.37 7.48 7.45 7.62 8.27 8.11 7.46 8.00 7.73 7.84 7.89 8.35 7.81 8.41 7.79 7.49 7.54 8.03 7.59 7.91 7.65 8.16 8.19 7.56 7.71 8.08 7.50 7.76 8.34 7.61 7.53 7.61 7.92 -9999 -9999 -9999 -9999 -9999 -9999 -9999 -9999 -9999 -9999 -9999 -9999 -9999 -9999 -9999 -9999 -9999 -9999 -9999 -9999 -9999 -9999 -9999 -9999 -9999 -9999 -9999 -9999 -9999 -9999 -9999 -9999 -9999 -9999 -9999 -9999 -9999 -9999 -9999 -9999 -9999 -9999 -9999 -9999
8.18 8.36 7.79 7.53 7.50 7.96 7.77 7.69 8.39 8.26 8.18 7.99 7.55 8.08 8.20 8.26 8.32 8.14 7.65 7.91 8.27 7.49 7.71 7.63 8.03 8.43 7.98 7.87 8.35 8.40 7.62 7.74 8.17 7.53 7.90 7.94 8.19 7.76 8.42 7.62 8.04 7.78 7.83 8.38 7.63 7.73 8.08 7.52 8.32 8.17 7.66 7.75 7.76 8.36 8.09 7.59 8.16 7.60 7.52 8.17 7.55 8.22 7.81 8.01 8.10 8.08 7.79 7.47 8.28 7.56 8.06 7.58 7.59 7.62 7.68 8.05 8.01 7.81 8.10 8.20 7.97 7.79 7.67 7.49 8.20 7.73 8.09 8.34 7.66 7.86 7.89 7.73 7.55 7.72 7.93 7.45 7.45 7.71 7.94 8.31 8.23 7.85 7.84 7.67 8.00 7.84 8.11 7.75 8.37 8.38 7.56 8.09 8.34 8.18 8.28 7.61 8.05 7.85 8.43 7.90 8.38 7.86 8.36 7.67 8.30 8.16 7.75 8.11 8.33 8.43 8.06 7.55 8.03 7.97 8.01 7.64 7.77 7.56 7.47 8.03 7.72 7.62 7.54 7.90 8.42 8.41 7.95 7.85 7.46 7.97 7.78 8.20 8.32 7.87 7.58 7.86 8.30 8.04 7.44 7.65 7.63 8.41 8.19 8.01 7.77 7.94 8.40 8.04 7.93 8.07 8.31 -9999 -9999 -9999 -9999 -9999 -9999 -9999 -9999 -9999 -9999 -9999 -9999 -9999 -9999 -9999 -9999 -9999 -9999 -9999 -9999 -9999 -9999 -9999 -9999 -9999 -9999 -9999 -9999 -9999 -9999 -9999 -9999 -9999 -9999 -9999 -9999 -9999 -9999 -9999 -9999 -9999 -9999 -9999 -9999
8.12 7.98 7.65 8.05 7.50 8.42 7.85 7.93 8.29 8.01 7.56 7.62 8.01 7.50 8.32 8.28 8.33 7.46 7.70 7.64 8.03 7.56 8.05 7.79 7.48 7.83 7.88 7.61 7.51 7.92 8.32 7.74 7.86 7.71 8.14 7.51 7.78 7.62 7.91 7.53 8.39 7.50 7.72 8.25 8.38 8.14 8.09 8.09 7.49 8.22 8.37 7.55 7.77 8.25 8.16 8.40 8.31 8.04 7.76 8.03 8.26 7.86 8.00 8.12 8.07 7.98 7.51 7.80 7.65 8.06 7.46 8.33 8.04 8.00 7.88 8.43 8.06 7.62 7.85 8.06 8.03 7.47 8.29 7.92 8.22 8.32 7.95 7.62 7.87 7.67 7.61 7.63 7.90 7.62 7.65 7.99 8.03 8.04 8.02 7.83 7.80 7.60 8.42 7.78 7.65 7.97 7.74 7.90 7.93 7.96 7.48 8.01 7.97 8.10 7.97 8.03 7.54 7.61 7.85 7.67 8.22 7.51 7.81 8.25 8.23 7.62 8.21 7.69 7.91 7.82 7.63 8.13 7.98 7.54 8.20 7.74 7.68 8.32 7.91 8.06 8.02 8.21 8.28 8.11 8.26 7.55 8.06 8.05 8.15 7.43 7.98 8.03 7.94 8.33 7.63 8.25 7.85 8.26 7.54 7.58 8.02 7.54 7.50 7.67 8.06 7.56 7.70 8.12 8.34 7.77 7.78 -9999 -9999 -9999 -9999 -9999 -9999 -9999 -9999 -9999 -9999 -9999 -9999 -9999 -9999 -9999 -9999 -9999 -9999 -9999 -9999 -9999 -9999 -9999 -9999 -9999 -9999 -9999 -9999 -9999 -9999 -9999 -9999 -9999 -9999 -9999 -9999 -9999 -9999 -9999 -9999 -9999 -9999 -9999 -9999
7.68 8.04 8.05 8.17 8.43 8.00 8.08 7.94 7.81 7.94 8.28 7.45 7.74 7.96 7.92 8.09 8.24 7.95 7.95 8.24 7.91 7.66 7.57 7.49 8.04 7.68 7.47 8.00 7.50 7.49 8.27 7.81 7.72 7.44 8.16 8.09 8.08 8.33 8.35 7.73 7.82 7.72 8.35 7.68 8.37 8.22 7.57 7.64 7.89 7.54 8.36 7.93 8.18 7.63 7.53 8.13 8.12 8.09 7.82 7.93 7.64 7.88 7.66 7.65 8.06 8.11 8.05 7.60 7.60 8.12 7.90 7.77 7.78 8.33 7.93 8.41 8.21 8.31 8.05 7.44 7.44 8.18 7.58 8.07 7.51 7.90 8.30 8.08 8.01 7.67 7.93 8.34 8.20 8.11 8.36 7.61 7.92 7.77 8.37 8.39 8.31 7.72 7.61 7.97 8.13 7.56 7.72 8.06 8.17 8.06 7.90 8.28 7.44 8.09 7.46 7.81 7.83 7.76 8.23 8.14 8.10 7.62 8.33 7.68 8.15 7.64 7.74 7.81 8.17 7.89 8.00 8.07 8.43 7.56 8.27 8.02 7.76 8.31 8.34 8.10 7.76 7.54 8.12 7.46 8.04 7.61 7.63 7.99 7.94 7.48 7.77 7.74 8.27 7.44 7.82 8.13 8.20 7.88 7.71 7.59 7.85 7.86 7.54 7.68 7.94 8.26 7.55 8.13 7.90 8.13 7.64 7.61 -9999 -9999 -9999 -9999 -9999 -9999 -9999 -9999 -9999 -9999 -9999 -9999 -9999 -9999 -9999 -9999 -9999 -9999 -9999 -9999 -9999 -9999 -9999 -9999 -9999 -9999 -9999 -9999 -9999 -9999 -9999 -9999 -9999 -9999 -9999 -9999 -9999 -9999 -9999 -9999 -9999 -9999 -9999
7.69 7.87 8.40 8.17 7.91 7.58 8.39 7.48 7.63 7.49 8.40 8.19 8.30 8.21 7.47 8.21 8.22 7.46 7.72 8.17 8.03 8.29 8.42 8.12 7.55 8.39 8.32 7.98 8.03 8.35 8.00 8.19 8.05 7.79 8.19 7.85 8.12 7.71 7.61 8.04 8.25 7.65 7.57 7.55 8.30 8.26 7.54 7.83 8.05 8.20 7.56 7.63 8.21 7.55 8.24 7.82 8.24 7.74 7.80 8.35 7.73 8.37 8.09 7.90 7.99 8.34 7.90 8.08 7.69 7.71 8.37 7.52 7.57 7.49 8.29 8.25 8.41 7.75 7.59 7.89 8.09 8.20 8.29 8.05 8.27 7.84 7.86 8.36 8.12 8.16 8.25 8.06 8.17 7.94 8.35 8.43 7.54 7.92 8.32 8.18 7.70 8.30 8.10 8.26 8.26 7.88 7.46 7.82 7.73 8.37 7.47 8.37 7.91 8.02 8.08 7.88 8.01 7.91 8.39 7.52 8.35 7.84 7.77 8.14 7.57 7.84 7.73 7.76 7.54 8.36 7.94 7.93 7.86 7.47 7.51 7.82 7.70 7.82 8.06 7.70 7.60 7.44 8.04 7.86 7.62 7.86 8.30 7.92 8.04 7.55 8.08 8.33 7.65 7.64 7.96 8.15 7.72 7.72 8.04 7.53 7.89 8.33 8.16 7.88 8.26 8.02 7.99 7.73 7.90 7.70 8.23 7.86 -9999 -9999 -9999 -9999 -9999 -9999 -9999 -9999 -9999 -9999 -9999 -9999 -9999 -9999 -9999 -9999 -9999 -9999 -9999 -9999 -9999 -9999 -9999 -9999 -9999 -9999 -9999 -9999 -9999 -9999 -9999 -9999 -9999 -9999 -9999 -9999 -9999 -9999 -9999 -9999 -9999 -9999 -9999
7.60 7.82 7.66 8.25 8.33 8.43 8.24 7.97 7.51 7.58 7.60 8.30 7.53 7.77 7.91 7.68 8.13 8.24 8.33 8.29 7.87 7.87 8.14 8.33 8.13 8.26 8.00 7.75 8.02 8.33 7.65 8.37 7.59 7.66 7.44 7.51 7.90 8.16 8.29 7.63 7.44 7.60 8.23 7.60 7.56 8.40 7.77 8.08 7.65 7.50 8.21 8.13 7.96 7.46 8.31 8.02 7.79 8.14 7.86 8.26 8.34 7.66 8.04 7.58 7.92 7.94 8.37 8.20 7.98 7.64 8.13 8.06 8.06 7.91 8.42 7.99 8.42 7.86 7.50 8.10 7.54 7.75 7.44 7.67 8.05 8.29 7.49 7.96 7.79 7.87 8.06 7.58 7.89 7.95 7.74 7.96 7.76 8.29 7.89 7.81 7.68 7.75 8.08 8.43 7.51 7.98 7.81 8.06 8.22 8.15 8.26 7.87 7.57 8.40 7.84 7.76 8.31 7.93 7.87 7.65 7.86 7.45 7.43 8.34 8.18 7.86 7.75 7.92 7.78 7.93 7.82 7.50 7.56 7.44 8.37 8.30 8.05 7.76 7.86 7.67 7.92 7.50 8.39 7.89 7.72 8.14 8.21 7.69 8.34 8.05 8.41 8.30 8.41 8.40 7.57 8.13 7.66 8.08 7.44 7.95 8.34 8.02 7.71 7.97 7.95 7.90 8.35 7.54 8.33 7.95 7.51 7.53 -9999 -9999 -9999 -9999 -9999 -9999 -9999 -9999 -9999 -9999 -9999 -9999 -9999 -9999 -9999 -9999 -9999 -9999 -9999 -9999 -9999 -9999 -9999 -9999 -9999 -9999 -9999 -9999 -9999 -9999 -9999 -9999 -9999 -9999 -9999 -9999 -9999 -9999 -9999 -9999 -9999 -9999 -9999
7.84 7.47 8.21 7.94 7.57 7.72 7.72 7.67 7.70 7.72 8.02 7.44 7.93 7.62 8.30 7.79 7.81 8.12 7.76 7.79 7.95 8.42 8.43 8.18 7.59 7.92 7.77 7.70 8.01 7.50 7.59 7.64 8.15 7.90 8.13 8.36 7.93 8.33 8.37 8.29 8.07 8.42 8.07 8.02 7.67 7.60 8.12 7.73 8.24 8.10 8.08 8.30 7.60 8.34 7.80 8.43 7.80 8.38 7.71 8.21 8.21 8.17 8.07 7.78 7.71 7.82 7.59 8.34 8.35 7.46 7.92 7.50 7.55 7.79 8.34 8.35 7.58 7.84 7.72 8.33 8.02 7.66 8.03 8.33 7.78 7.84 7.46 8.22 7.78 8.22 7.62 8.29 7.74 7.57 8.33 8.10 7.50 8.29 8.03 7.77 8.38 7.98 8.21 7.89 8.00 8.12 7.43 8.01 7.78 7.99 7.99 7.92 7.47 7.60 8.43 8.28 7.76 8.10 7.74 8.14 7.59 7.94 7.60 7.95 7.79 8.03 8.06 7.78 7.63 8.11 7.53 7.46 7.45 7.70 7.74 8.24 7.50 7.96 7.84 7.76 7.93 8.32 7.72 7.60 7.76 8.41 7.59 7.45 8.37 7.87 8.39 8.39 8.35 7.74 8.26 8.09 7.60 7.59 7.64 7.44 8.12 8.40 8.14 7.53 8.11 7.94 8.36 8.29 8.02 8.11 7.80 8.22 -9999 -9999 -9999 -9999 -9999 -9999 -9999 -9999 -9999 -9999 -9999 -9999 -9999 -9999 -9999 -9999 -9999 -9999 -9999 -9999 -9999 -9999 -9999 -9999 -9999 -9999 -9999 -9999 -9999 -9999 -9999 -9999 -9999 -9999 -9999 -9999 -9999 -9999 -9999 -9999 -9999 -9999 -9999
7.55 7.90 8.29 7.73 7.92 8.20 7.60 7.50 7.76 7.64 8.04 8.31 7.83 7.46 8.23 8.36 7.69 8.34 8.29 7.76 8.13 7.58 7.46 7.70 8.01 8.19 8.23 8.37 8.15 7.58 7.77 7.66 7.61 8.34 8.19 8.19 7.65 8.27 7.64 8.22 7.60 8.09 7.50 8.37 7.83 7.72 8.20 7.46 8.13 7.58 8.24 7.65 7.50 7.49 7.57 8.41 7.88 7.85 8.09 7.98 7.93 8.05 7.77 8.23 8.32 8.42 7.71 8.22 7.57 8.26 8.25 8.24 7.49 7.71 7.87 7.86 7.88 7.57 8.15 7.66 8.06 7.60 7.59 7.92 8.35 8.31 8.07 8.40 8.16 7.59 7.91 8.07 8.38 8.03 8.07 8.39 7.83 7.45 7.57 8.16 8.28 8.13 8.38 7.76 7.90 8.20 7.79 7.52 8.21 7.71 7.61 7.46 8.25 7.60 7.94 8.27 7.93 7.92 7.95 7.70 7.64 7.74 7.62 8.02 8.36 7.47 8.34 8.18 8.01 7.63 7.70 8.14 7.59 8.23 7.63 7.84 7.95 8.39 8.03 7.75 8.17 8.15 7.73 7.57 7.45 8.09 7.58 8.33 7.83 7.77 7.52 7.95 8.25 8.20 7.91 7.64 8.21 7.44 7.74 8.09 7.62 7.91 7.48 7.95 8.17 8.34 8.02 8.09 8.04 7.89 8.28 7.83 -9999 -9999 -9999 -9999 -9999 -9999 -9999 -9999 -9999 -9999 -9999 -9999 -9999 -9999 -9999 -9999 -9999 -9999 -9999 -9999 -9999 -9999 -9999 -9999 -9999 -9999 -9999 -9999 -9999 -9999 -9999 -9999 -9999 -9999 -9999 -9999 -9999 -9999 -9999 -9999 -9999 -9999 -9999
8.04 7.52 8.18 7.78 8.16 7.61 8.37 7.82 7.99 8.03 8.30 7.86 7.85 7.67 8.03 8.40 7.61 7.59 7.77 7.87 7.53 8.34 7.67 8.21 7.48 7.45 8.23 7.62 7.68 8.34 7.79 7.77 8.21 8.36 8.41 7.96 7.71 7.50 8.11 8.42 7.52 8.19 8.13 8.31 8.42 8.05 8.27 8.39 8.17 8.35 7.64 7.51 8.12 7.62 7.67 8.21 7.79 8.09 7.84 8.07 7.73 8.00 7.58 7.68 7.76 8.17 8.23 8.07 8.12 7.67 8.36 7.52 8.00 8.37 7.44 7.50 7.72 8.14 7.92 7.89 8.26 8.15 7.74 7.80 8.26 8.25 7.90 8.25 8.03 8.05 8.08 7.62 7.45 7.50 7.98 7.67 8.28 8.15 8.15 7.53 8.06 8.30 7.59 7.81 8.27 8.00 8.27 7.68 8.15 8.04 7.50 7.62 7.80 8.43 8.15 7.52 7.95 8.10 8.00 8.11 8.02 7.66 8.10 8.10 8.14 7.77 8.40 7.81 7.66 8.28 7.53 7.51 7.75 7.88 7.76 7.53 7.44 7.77 8.12 7.58 7.48 7.56 8.07 8.03 8.24 8.08 7.84 8.35 7.57 7.97 7.94 7.47 8.42 8.13 7.94 7.88 8.36 8.43 8.10 7.55 8.15 8.06 8.25 8.21 8.32 8.03 8.05 7.69 8.34 7.79 8.01 8.05 -9999 -9999 -9999 -9999 -9999 -9999 -9999 -9999 -9999 -9999 -9999 -9999 -9999 -9999 -9999 -9999 -9999 -9999 -9999 -9999 -9999 -9999 -9999 -9999 -9999 -9999 -9999 -9999 -9999 -9999 -9999 -9999 -9999 -9999 -9999 -9999 -9999 -9999 -9999 -9999 -9999 -9999 -9999
7.70 7.64 7.70 7.63 7.81 8.36 8.27 7.70 7.85 8.40 8.25 8.02 7.85 7.44 7.93 8.12 8.21 7.61 7.89 7.97 8.32 8.09 7.48 7.50 8.28 7.82 8.34 7.83 7.54 8.42 8.22 8.40 7.64 7.79 7.75 7.68 8.38 7.82 8.00 8.27 8.34 7.77 7.80 7.60 8.31 7.56 8.07 7.55 8.11 7.82 8.32 7.99 7.57 7.88 8.05 7.67 7.50 8.13 7.82 8.38 7.71 7.52 8.02 8.13 7.53 7.92 7.51 8.31 8.41 7.71 7.59 7.63 8.22 8.14 7.58 8.35 7.44 7.56 8.40 8.01 7.89 7.93 7.97 7.54 8.41 7.64 8.07 7.70 8.29 8.22 7.81 7.62 8.22 8.29 7.55 7.74 7.52 8.00 8.15 7.86 8.30 8.16 7.66 8.16 7.80 7.88 8.01 7.97 8.26 7.89 7.92 7.58 7.81 8.27 7.51 7.60 7.68 7.54 8.13 7.44 8.05 7.99 7.51 8.28 8.11 7.73 7.96 7.58 7.75 7.83 8.39 7.72 8.34 8.24 8.33 8.24 8.26 7.65 7.87 8.29 8.35 8.39 8.11 8.13 7.68 7.96 8.05 8.07 7.54 8.19 8.22 8.39 8.24 7.56 7.94 7.74 7.93 7.44 7.79 7.98 8.00 7.69 8.21 8.29 7.55 8.24 7.95 8.41 7.57 8.31 7.68 7.47 8.09 -9999 -9999 -9999 -9999 -9999 -9999 -9999 -9999 -9999 -9999 -9999 -9999 -9999 -9999 -9999 -9999 -9999 -9999 -9999 -9999 -9999 -9999 -9999 -9999 -9999 -9999 -9999 -9999 -9999 -9999 -9999 -9999 -9999 -9999 -9999 -9999 -9999 -9999 -9999 -9999 -9999 -9999
7.85 8.17 8.40 7.75 8.14 7.78 7.84 7.63 8.23 8.04 8.40 7.57 7.96 7.73 8.03 7.75 7.65 7.69 7.90 7.74 8.39 8.42 7.71 7.62 7.83 8.30 7.56 8.25 7.97 8.16 8.32 7.74 7.54 7.64 8.17 8.11 8.23 7.46 7.93 8.31 7.73 8.01 8.17 8.09 7.46 8.27 7.87 7.77 7.45 7.72 8.25 8.41 8.42 8.21 8.13 7.91 8.32 8.20 8.41 8.16 8.03 7.75 7.73 7.90 8.19 7.57 7.58 7.52 8.18 7.96 8.36 8.29 8.08 8.31 7.75 7.93 7.69 8.02 7.73 8.10 8.00 8.28 7.67 8.20 8.13 7.87 8.11 8.01 7.50 8.07 8.30 7.57 8.31 7.94 8.19 7.83 7.68 7.80 8.23 8.33 7.55 8.12 8.42 8.07 7.73 7.65 8.00 7.44 7.62 7.67 8.21 7.68 7.89 7.96 8.23 8.20 7.97 7.98 7.61 7.53 7.45 8.35 8.08 8.26 8.29 7.84 8.18 7.79 8.38 7.77 8.37 7.46 8.12 8.19 7.85 7.71 7.56 7.82 7.78 8.39 7.81 7.65 7.87 8.07 7.50 8.29 7.80 8.23 7.91 7.70 7.94 7.61 7.92 8.12 7.92 8.11 7.46 7.60 8.33 7.62 7.48 8.10 7.46 8.22 7.92 7.78 7.51 8.15 8.14 7.97 8.36 8.38 8.34 -9999 -9999 -9999 -9999 -9999 -9999 -9999 -9999 -9999 -9999 -9999 -9999 -9999 -9999 -9999 -9999 -9999 -9999 -9999 -9999 -9999 -9999 -9999 -9999 -9999 -9999 -9999 -9999 -9999 -9999 -9999 -9999 -9999 -9999 -9999 -9999 -9999 -9999 -9999 -9999 -9999 -9999
8.00 7.68 8.14 7.88 8.11 7.49 7.69 8.00 7.65 7.64 8.12 7.99 7.70 8.33 7.94 8.18 8.06 7.49 7.89 8.09 8.18 8.08 7.63 8.12 7.66 7.61 7.73 7.76 7.50 8.04 7.93 7.80 7.87 7.44 7.64 7.63 7.73 8.02 8.19 8.31 7.68 7.55 7.81 8.16 7.98 7.43 7.76 7.79 8.22 7.56 7.70 7.99 8.43 7.77 7.76 7.60 8.36 8.13 7.76 8.27 7.90 7.59 8.36 8.23 7.82 8.06 7.99 7.71 8.21 8.36 7.84 8.21 7.75 8.23 8.36 8.16 7.96 7.88 8.43 8.27 8.00 7.95 8.12 8.14 7.52 7.52 8.23 8.19 8.10 7.64 8.29 7.72 7.47 7.73 8.36 8.08 7.79 7.97 7.94 7.56 7.82 8.37 8.16 7.46 7.92 8.07 8.35 8.13 8.20 7.74 7.47 8.37 8.41 8.02 7.62 7.99 7.50 7.83 7.70 8.09 8.40 7.72 7.68 8.31 7.46 7.93 8.35 8.36 7.50 7.77 8.00 7.56 7.65 7.81 8.07 7.47 8.27 7.55 7.81 7.53 8.40 7.83 8.04 8.12 8.11 7.93 8.29 8.00 8.34 7.46 7.61 8.41 8.20 7.54 8.34 7.96 7.92 7.83 8.13 7.77 8.28 7.84 7.67 8.18 8.24 7.71 8.17 8.25 7.75 8.33 8.23 7.46 7.76 -9999 -9999 -9999 -9999 -9999 -9999 -9999 -9999 -9999 -9999 -9999 -9999 -9999 -9999 -9999 -9999 -9999 -9999 -9999 -9999 -9999 -9999 -9999 -9999 -9999 -9999 -9999 -9999 -9999 -9999 -9999 -9999 -9999 -9999 -9999 -9999 -9999 -9999 -9999 -9999 -9999 -9999
7.86 7.61 8.34 8.10 7.53 7.59 7.46 8.15 8.25 8.23 7.46 7.67 7.89 8.21 7.71 7.85 8.25 7.54 7.59 7.80 8.16 7.90 8.20 7.46 8.14 8.22 7.47 8.35 8.36 7.97 7.77 8.20 7.98 7.44 7.93 8.31 8.11 7.50 7.98 8.11 7.74 7.62 7.99 7.86 7.69 8.22 7.89 8.35 7.70 8.08 7.94 7.95 7.91 7.51 7.59 7.44 8.39 7.52 7.89 8.12 7.85 7.73 7.87 7.66 7.94 8.28 7.78 8.40 7.59 8.23 8.18 8.36 8.01 8.34 8.34 7.62 8.26 7.46 8.23 7.56 8.04 7.60 7.68 8.02 7.86 8.27 8.32 7.60 7.53 8.33 7.77 8.17 7.96 8.40 8.34 7.90 8.18 7.85 7.44 7.55 8.01 8.26 7.71 7.83 8.39 7.77 8.03 8.40 7.89 7.97 8.19 8.00 7.57 8.10 8.00 7.70 8.42 8.19 7.97 8.27 8.19 7.91 7.99 7.59 7.54 8.23 7.55 7.52 8.36 8.11 7.82 8.04 8.27 7.96 8.09 7.97 7.81 7.90 7.99 8.14 7.74 8.20 8.27 7.88 7.96 8.43 7.83 7.60 8.00 8.31 8.38 7.60 7.47 7.55 7.54 7.60 7.93 7.65 7.53 8.06 7.63 8.29 7.46 7.50 7.90 8.28 8.35 7.44 7.51 7.71 7.66 7.58 7.65 -9999 -9999 -9999 -9999 -9999 -9999 -9999 -9999 -9999 -9999 -9999 -9999 -9999 -9999 -9999 -9999 -9999 -9999 -9999 -9999 -9999 -9999 -9999 -9999 -9999 -9999 -9999 -9999 -9999 -9999 -9999 -9999 -9999 -9999 -9999 -9999 -9999 -9999 -9999 -9999 -9999 -9999
7.43 8.41 8.36 7.45 7.75 8.30 8.20 7.52 8.27 8.14 7.47 7.99 7.69 7.45 7.88 7.70 8.06 8.34 7.98 8.14 8.11 7.92 8.38 8.38 7.50 8.23 8.08 7.68 8.26 7.76 8.07 7.69 7.71 8.24 7.45 7.63 7.59 7.55 8.32 7.56 8.18 7.96 7.87 7.74 7.75 8.36 7.55 7.70 7.77 7.52 8.26 8.38 8.01 7.64 8.24 8.16 7.58 7.62 8.29 7.75 7.76 7.83 7.61 8.15 8.27 7.62 7.93 8.26 7.60 7.86 7.66 8.14 7.45 7.89 8.37 7.68 8.35 7.46 7.62 7.95 7.67 8.15 7.62 8.28 8.00 8.33 7.50 7.83 7.52 7.96 7.85 7.93 8.12 7.95 7.61 7.54 8.14 7.59 8.00 8.05 7.99 7.44 7.55 8.38 8.04 7.71 7.57 7.54 8.09 7.88 7.68 8.01 8.02 7.59 7.59 7.66 7.69 8.31 8.10 7.73 7.69 7.84 8.13 8.02 8.33 7.59 7.54 7.60 7.75 7.83 8.13 8.28 8.39 7.45 8.37 7.75 7.67 7.61 8.09 7.60 8.41 7.54 8.20 8.35 7.66 8.38 7.58 8.11 8.07 7.59 7.73 7.58 7.93 7.49 8.36 8.39 8.41 7.97 8.08 8.11 8.25 7.87 8.33 7.85 7.81 8.03 8.42 8.34 7.85 8.10 7.64 7.88 8.29 -9999 -9999 -9999 -9999 -9999 -9999 -9999 -9999 -9999 -9999 -9999 -9999 -9999 -9999 -9999 -9999 -9999 -9999 -9999 -9999 -9999 -9999 -9999 -9999 -9999 -9999 -9999 -9999 -9999 -9999 -9999 -9999 -9999 -9999 -9999 -9999 -9999 -9999 -9999 -9999 -9999 -9999
8.28 8.24 7.80 8.35 8.17 7.75 7.98 7.70 7.93 8.37 7.45 7.99 8.07 8.34 8.33 7.61 8.20 7.88 8.17 7.55 7.73 7.68 8.43 7.54 8.26 8.07 7.67 8.39 8.03 8.06 8.21 7.58 7.69 7.79 8.16 8.37 7.65 8.04 7.58 7.88 7.92 8.03 8.21 7.95 7.51 8.37 8.07 8.43 8.04 7.91 8.14 8.05 7.63 7.88 7.63 7.96 7.81 8.22 7.76 7.66 7.49 8.19 8.31 7.69 8.08 7.85 8.42 7.97 7.44 8.33 7.89 7.92 8.18 7.75 7.90 7.49 8.20 8.29 7.85 7.88 7.93 8.08 7.67 7.79 8.40 7.71 7.71 7.66 7.85 7.65 8.00 7.92 8.27 7.86 8.43 7.56 8.29 7.72 8.37 7.56 8.24 8.28 8.02 7.73 8.36 8.19 8.17 7.64 7.98 8.23 7.55 7.55 7.62 7.79 8.39 8.14 7.74 7.50 7.58 8.17 7.85 7.83 7.84 8.19 8.43 7.83 8.24 8.01 7.94 7.46 8.37 8.11 7.52 7.77 8.42 7.91 7.52 7.89 7.81 7.45 7.92 8.18 7.87 7.98 8.15 7.69 8.04 8.32 8.11 8.09 7.54 8.05 7.99 8.08 7.97 8.19 8.16 7.47 7.55 7.44 7.99 7.78 8.35 8.20 8.27 8.36 8.42 7.69 8.37 7.99 8.38 7.77 7.58 -9999 -9999 -9999 -9999 -9999 -9999 -9999 -9999 -9999 -9999 -9999 -9999 -9999 -9999 -9999 -9999 -9999 -9999 -9999 -9999 -9999 -9999 -9999 -9999 -9999 -9999 -9999 -9999 -9999 -9999 -9999 -9999 -9999 -9999 -9999 -9999 -9999 -9999 -9999 -9999 -9999 -9999
8.40 7.62 7.63 8.24 8.31 7.69 7.54 7.57 8.24 8.13 8.02 7.46 7.56 8.11 7.98 7.90 7.47 7.49 7.98 8.04 8.18 7.99 7.85 8.29 7.76 7.64 7.53 7.52 8.13 7.87 8.13 8.12 8.03 7.92 8.17 8.02 8.04 8.30 7.69 7.50 7.54 8.12 7.86 8.02 8.19 7.74 8.00 8.16 7.97 8.37 8.06 8.14 8.08 8.21 7.98 8.25 7.78 7.73 7.44 7.72 8.30 7.82 7.93 7.69 7.80 8.27 7.64 7.66 7.95 7.43 7.85 7.73 8.24 7.65 7.55 7.98 7.75 8.35 8.28 7.55 7.63 8.20 7.66 7.67 8.08 7.76 7.68 7.84 7.99 8.26 7.77 8.21 8.36 7.90 8.04 7.45 7.70 7.90 8.28 8.02 7.50 7.76 8.22 7.73 7.57 7.65 7.94 7.68 7.78 8.16 7.75 8.23 8.07 7.71 7.45 7.52 8.41 8.07 7.58 8.04 7.59 8.32 8.06 7.67 7.66 8.24 7.91 8.36 8.12 7.81 8.28 8.33 8.43 7.89 8.11 8.38 8.19 8.16 7.72 7.66 7.48 7.73 7.78 7.90 7.46 7.92 7.44 7.66 7.90 8.07 8.18 8.42 7.86 8.43 7.72 8.35 8.28 8.31 7.96 7.68 8.15 7.46 8.39 7.96 8.29 7.78 8.17 7.94 7.90 7.96 7.62 7.92 8.16 -9999 -9999 -9999 -9999 -9999 -9999 -9999 -9999 -9999 -9999 -9999 -9999 -9999 -9999 -9999 -9999 -9999 -9999 -9999 -9999 -9999 -9999 -9999 -9999 -9999 -9999 -9999 -9999 -9999 -9999 -9999 -9999 -9999 -9999 -9999 -9999 -9999 -9999 -9999 -9999 -9999 -9999
7.82 8.40 7.66 8.35 8.13 7.80 8.31 8.40 7.48 7.89 8.32 8.42 7.54 8.17 8.26 8.41 7.86 7.68 7.87 7.63 7.86 7.99 8.14 8.24 7.51 8.01 7.76 7.56 8.02 7.52 8.16 7.50 8.02 7.93 7.66 7.54 8.26 7.86 8.14 8.00 8.29 7.51 7.57 7.68 8.09 7.60 7.57 8.13 8.35 8.05 7.92 8.24 8.31 8.08 7.52 7.97 7.58 8.17 7.69 8.22 7.91 7.70 8.27 7.95 8.28 8.31 8.15 8.00 8.10 7.87 8.23 7.65 7.44 8.34 8.37 7.81 8.34 7.83 8.30 8.30 7.83 7.83 8.40 7.80 8.26 8.28 7.90 7.62 7.63 8.04 8.10 8.30 7.81 7.53 7.96 7.53 7.63 7.45 7.64 7.87 7.83 7.80 7.59 7.98 8.25 8.33 7.99 8.19 7.66 8.20 7.92 7.52 7.43 7.92 7.70 8.30 8.03 7.67 8.42 7.65 8.39 7.93 8.05 8.09 7.45 8.01 7.92 8.22 8.02 7.98 8.37 7.91 7.75 8.39 8.25 7.71 8.07 8.16 8.33 7.65 7.91 7.48 7.91 7.87 8.37 8.22 8.28 7.81 8.16 8.29 8.15 8.23 8.16 7.60 7.98 7.92 8.31 7.78 7.57 8.09 8.29 7.62 8.20 7.84 8.28 7.50 7.72 7.73 7.82 8.35 7.64 7.62 7.80 8.05 -9999 -9999 -9999 -9999 -9999 -9999 -9999 -9999 -9999 -9999 -9999 -9999 -9999 -9999 -9999 -9999 -9999 -9999 -9999 -9999 -9999 -9999 -9999 -9999 -9999 -9999 -9999 -9999 -9999 -9999 -9999 -9999 -9999 -9999 -9999 -9999 -9999 -9999 -9999 -9999 -9999
7.68 7.91 8.04 7.50 8.02 8.31 7.85 7.55 8.00 7.49 7.92 7.80 7.84 8.22 7.65 7.72 7.56 8.14 7.73 8.34 8.01 7.50 8.07 8.30 8.33 7.90 8.00 7.51 7.74 7.75 8.01 7.93 8.25 8.01 7.74 7.85 7.92 8.27 7.60 7.93 7.92 8.17 7.61 7.79 7.56 8.29 7.75 7.83 7.77 7.50 7.84 8.29 7.55 7.92 8.23 7.82 7.94 7.56 8.27 8.33 7.45 7.50 7.57 8.37 7.64 7.53 7.91 7.94 7.91 7.53 7.99 8.10 7.93 7.76 8.21 8.22 8.01 8.19 8.28 8.05 8.29 8.19 8.39 7.75 7.57 7.62 7.45 8.37 7.61 7.57 7.49 7.88 7.96 7.47 8.06 8.15 8.14 7.51 8.08 7.91 8.26 8.02 7.44 8.29 7.51 7.52 8.33 8.06 8.12 7.89 7.47 8.22 8.11 7.54 7.73 8.24 7.88 7.50 8.12 8.20 7.61 7.98 8.15 8.21 7.64 7.59 7.48 7.84 8.15 8.29 8.36 8.39 7.76 7.96 7.90 7.51 8.43 7.65 8.37 7.56 7.55 7.82 8.30 7.64 8.36 8.13 7.59 8.14 7.52 7.63 8.04 7.84 7.89 7.78 8.02 7.64 7.78 7.78 8.39 8.11 7.70 8.43 8.17 8.34 7.84 8.19 7.54 7.91 8.43 8.36 8.19 7.86 7.51 8.31 -9999 -9999 -9999 -9999 -9999 -9999 -9999 -9999 -9999 -9999 -9999 -9999 -9999 -9999 -9999 -9999 -9999 -9999 -9999 -9999 -9999 -9999 -9999 -9999 -9999 -9999 -9999 -9999 -9999 -9999 -9999 -9999 -9999 -9999 -9999 -9999 -9999 -9999 -9999 -9999 -9999
8.28 7.49 8.38 7.86 7.58 8.38 8.35 7.51 8.06 8.12 8.05 7.44 8.41 8.02 7.93 7.47 7.76 7.81 7.72 7.61 7.82 7.53 8.22 8.18 7.44 7.68 7.78 7.54 7.72 8.40 8.13 7.45 7.52 8.20 8.10 7.43 7.72 7.55 8.00 8.21 7.49 7.71 8.23 8.37 7.69 8.24 7.65 7.45 7.74 8.23 7.82 7.91 7.91 8.15 7.92 7.51 8.26 7.71 7.63 8.01 7.51 7.44 7.60 7.93 7.94 7.97 8.35 8.10 7.90 7.62 7.82 8.20 8.10 8.36 7.96 8.17 8.01 7.70 7.73 7.86 7.61 8.35 8.15 7.59 7.48 8.12 7.57 7.45 7.86 7.76 7.80 7.90 7.59 7.57 8.23 8.42 8.36 7.57 7.47 8.38 7.74 7.71 8.14 8.06 7.82 8.37 7.78 8.17 8.17 7.98 8.00 7.59 7.83 7.89 8.14 7.90 7.87 7.80 8.00 8.11 7.99 7.60 7.91 8.41 7.51 8.35 7.91 7.99 8.37 8.03 7.77 7.66 7.88 7.75 8.22 7.93 7.47 7.66 7.64 7.66 7.67 7.57 8.06 7.82 8.11 7.87 8.21 7.98 8.15 7.73 8.03 7.93 8.35 7.86 8.36 8.40 8.04 8.21 7.46 8.07 8.15 7.58 7.56 7.66 7.96 8.18 8.38 7.43 8.34 8.15 8.42 7.64 8.13 7.82 -9999 -9999 -9999 -9999 -9999 -9999 -9999 -9999 -9999 -9999 -9999 -9999 -9999 -9999 -9999 -9999 -9999 -9999 -9999 -9999 -9999 -9999 -9999 -9999 -9999 -9999 -9999 -9999 -9999 -9999 -9999 -9999 -9999 -9999 -9999 -9999 -9999 -9999 -9999 -9999 -9999
8.36 7.49 7.96 8.13 7.74 8.06 7.80 8.33 8.38 7.83 8.12 7.77 8.00 7.62 8.35 8.08 7.60 8.16 7.70 7.64 7.83 7.57 8.08 8.15 7.73 7.56 7.90 8.25 7.65 8.15 7.60 7.69 8.24 8.15 7.48 7.85 7.82 8.09 8.32 8.40 7.70 8.43 8.09 8.20 8.23 8.19 8.26 8.34 8.38 7.74 8.06 8.23 7.75 8.20 7.71 7.87 7.67 8.34 7.92 7.88 7.72 7.96 7.87 7.56 7.63 8.23 7.79 7.84 8.39 7.88 7.77 7.89 7.68 7.72 7.56 8.24 7.49 7.61 7.72 7.49 8.00 7.45 7.49 7.89 7.44 8.41 7.69 8.29 8.12 8.30 7.81 7.89 8.11 8.17 8.31 8.31 8.00 8.24 8.15 7.53 8.22 8.34 8.06 7.69 7.64 8.01 8.28 8.33 7.84 8.09 8.13 7.60 7.78 8.42 7.50 7.57 7.46 8.06 8.09 8.20 7.92 7.66 8.27 7.67 7.67 8.16 8.04 7.89 7.97 7.50 7.49 7.44 7.50 8.10 7.92 8.29 7.76 7.67 7.51 8.33 8.33 7.66 7.69 8.12 7.71 7.84 8.40 8.24 8.11 7.92 7.75 8.24 8.37 8.22 7.90 8.04 8.29 8.06 7.89 8.32 8.20 7.73 8.39 7.68 7.55 7.78 7.85 8.28 7.82 7.43 7.84 7.47 8.16 7.48 -9999 -9999 -9999 -9999 -9999 -9999 -9999 -9999 -9999 -9999 -9999 -9999 -9999 -9999 -9999 -9999 -9999 -9999 -9999 -9999 -9999 -9999 -9999 -9999 -9999 -9999 -9999 -9999 -9999 -9999 -9999 -9999 -9999 -9999 -9999 -9999 -9999 -9999 -9999 -9999 -9999
7.80 8.02 8.20 7.84 8.24 8.08 7.79 7.63 8.03 7.82 8.36 8.14 7.48 7.59 7.99 8.02 7.61 8.41 7.92 7.58 7.96 7.91 7.50 8.15 7.90 7.59 8.28 7.51 7.82 8.07 7.49 8.24 8.34 8.15 7.87 8.34 7.46 8.29 7.66 7.62 7.74 7.64 8.03 8.37 7.76 7.94 7.63 8.10 8.19 8.00 8.20 7.99 7.80 8.32 7.88 7.88 8.42 8.34 8.34 7.84 7.60 8.34 7.75 8.18 8.03 7.86 7.53 8.39 8.12 7.64 7.48 7.97 8.00 8.27 8.36 7.94 7.53 8.33 7.91 8.09 7.47 7.88 8.34 7.58 8.15 7.90 7.51 7.93 8.23 7.55 8.29 7.53 8.03 7.90 7.81 7.47 8.00 8.22 7.82 7.96 7.90 7.48 7.65 7.76 8.38 7.60 7.61 7.78 7.83 7.66 8.38 7.87 7.66 7.55 7.91 8.19 8.12 7.67 8.42 8.23 7.79 8.37 8.00 7.69 7.98 8.06 8.40 7.89 8.30 7.46 8.00 7.98 7.48 7.58 7.80 8.22 7.48 8.21 7.92 8.13 8.09 8.42 7.57 8.13 8.13 7.72 7.98 7.51 8.37 7.87 7.58 7.71 7.97 7.79 7.44 7.86 8.42 7.58 8.13 8.41 7.91 8.31 7.75 8.04 8.15 8.18 8.12 7.48 8.38 7.49 7.86 8.15 8.25 7.67 -9999 -9999 -9999 -9999 -9999 -9999 -9999 -9999 -9999 -9999 -9999 -9999 -9999 -9999 -9999 -9999 -9999 -9999 -9999 -9999 -9999 -9999 -9999 -9999 -9999 -9999 -9999 -9999 -9999 -9999 -9999 -9999 -9999 -9999 -9999 -9999 -9999 -9999 -9999 -9999 -9999
7.64 8.40 7.45 7.62 8.09 7.80 7.51 8.35 8.29 8.41 7.53 7.43 8.17 8.27 8.31 8.05 8.20 8.08 8.28 8.06 7.92 7.97 8.28 7.69 7.88 8.01 8.39 8.14 7.58 7.72 7.53 8.11 8.40 7.54 7.66 7.48 8.04 8.09 7.76 8.24 8.35 8.25 8.29 8.26 7.44 7.59 7.60 8.22 7.57 7.61 8.32 7.88 8.43 8.16 8.40 7.60 8.01 7.66 8.35 7.79 7.64 7.82 8.39 8.33 7.52 7.92 7.59 7.52 7.48 8.37 7.95 8.02 7.67 8.22 8.14 7.90 8.28 7.69 8.29 8.16 7.81 7.44 7.47 8.07 8.17 7.98 8.07 7.70 7.55 7.69 7.88 8.07 8.36 7.93 8.07 7.58 7.78 7.68 8.10 8.14 8.32 7.72 8.11 8.00 7.50 8.11 8.25 7.49 7.51 8.18 8.43 8.14 7.68 7.48 8.22 7.58 8.01 8.11 8.13 7.48 8.10 7.74 7.57 8.16 7.83 8.29 8.00 7.81 7.72 7.73 7.85 8.06 7.76 7.77 7.79 8.24 8.24 7.58 7.65 7.64 8.29 8.02 7.66 8.25 7.49 8.15 8.09 7.61 7.57 7.44 7.66 8.40 7.65 7.83 8.13 7.46 7.72 8.25 7.52 7.80 7.84 7.45 7.92 7.72 7.56 8.31 7.52 7.94 7.66 8.23 7.75 7.63 7.45 8.07 -9999 -9999 -9999 -9999 -9999 -9999 -9999 -9999 -9999 -9999 -9999 -9999 -9999 -9999 -9999 -9999 -9999 -9999 -9999 -9999 -9999 -9999 -9999 -9999 -9999 -9999 -9999 -9999 -9999 -9999 -9999 -9999 -9999 -9999 -9999 -9999 -9999 -9999 -9999 -9999 -9999
7.91 7.87 7.85 8.39 8.26 8.09 7.76 8.28 7.59 8.09 8.13 7.46 8.37 8.02 8.06 8.36 8.12 7.60 8.41 7.98 8.34 8.31 7.61 8.05 7.79 7.63 7.89 7.92 8.09 8.02 7.90 8.05 8.38 7.88 8.39 7.98 8.21 8.00 7.85 8.29 7.89 7.86 7.48 7.97 8.30 7.88 8.05 7.92 8.36 8.05 8.07 8.38 8.18 8.21 7.59 8.06 8.08 7.87 8.07 7.92 7.86 8.06 7.89 8.01 7.87 7.74 8.14 7.91 7.69 7.51 7.90 7.55 8.41 7.90 8.18 7.96 7.92 7.60 7.75 7.96 8.32 8.22 7.69 7.97 8.02 8.23 7.66 8.18 7.68 7.62 7.88 7.50 8.37 8.41 7.79 7.69 7.76 8.25 7.57 7.49 8.35 7.86 8.27 8.02 8.25 7.73 8.32 7.89 8.33 7.59 8.20 8.08 8.23 7.99 8.15 7.73 7.90 8.10 7.67 7.87 8.34 7.47 8.30 8.02 8.11 7.89 8.01 7.82 7.63 7.68 7.78 7.44 8.11 8.37 8.16 7.54 8.13 8.23 8.25 7.48 8.26 7.59 7.97 7.76 7.94 7.44 8.27 8.08 8.16 7.48 7.77 7.61 7.87 7.89 8.18 7.45 7.45 7.95 7.83 8.32 8.18 7.62 8.41 7.72 8.40 8.34 7.68 8.34 7.78 8.40 8.42 7.45 8.04 7.81 -9999 -9999 -9999 -9999 -9999 -9999 -9999 -9999 -9999 -9999 -9999 -9999 -9999 -9999 -9999 -9999 -9999 -9999 -9999 -9999 -9999 -9999 -9999 -9999 -9999 -9999 -9999 -9999 -9999 -9999 -9999 -9999 -9999 -9999 -9999 -9999 -9999 -9999 -9999 -9999 -9999
7.59 7.87 8.31 8.05 8.05 8.28 7.99 7.97 8.37 7.47 7.94 7.73 8.39 8.13 8.14 7.72 7.48 7.90 8.10 8.01 8.21 8.42 8.20 8.15 7.46 8.24 7.51 7.74 7.81 8.28 7.52 7.93 8.34 7.87 7.53 7.91 8.03 7.61 7.44 8.12 8.29 7.56 8.26 7.97 7.80 7.74 8.28 7.55 7.60 7.74 7.51 8.32 7.51 7.84 8.29 8.02 7.90 8.28 7.76 7.69 7.83 8.12 8.37 8.19 7.78 8.03 7.85 7.44 7.74 7.56 8.41 8.04 7.75 8.38 8.11 7.96 7.80 8.27 7.80 7.52 7.84 7.58 8.41 7.90 7.97 8.42 8.40 8.02 7.71 8.22 8.22 8.12 7.45 8.19 7.77 8.03 7.65 7.74 8.24 7.48 7.78 7.67 8.39 8.28 7.80 7.87 7.71 7.46 7.68 8.11 7.56 8.14 7.77 7.77 8.02 7.78 7.53 8.22 7.67 8.24 7.45 7.48 7.86 7.67 7.59 7.86 8.26 8.04 7.97 8.00 7.53 7.76 7.52 8.41 7.71 7.61 7.76 8.06 7.95 8.43 7.79 8.35 7.70 8.16 8.23 8.29 7.85 7.98 8.20 8.19 7.92 8.25 7.46 8.32 7.66 7.82 7.74 7.56 8.16 7.74 7.86 7.76 8.39 8.16 8.09 7.85 8.16 8.25 7.71 7.62 7.71 7.70 8.37 8.22 7.48 -9999 -9999 -9999 -9999 -9999 -9999 -9999 -9999 -9999 -9999 -9999 -9999 -9999 -9999 -9999 -9999 -9999 -9999 -9999 -9999 -9999 -9999 -9999 -9999 -9999 -9999 -9999 -9999 -9999 -9999 -9999 -9999 -9999 -9999 -9999 -9999 -9999 -9999 -9999 -9999
8.05 8.38 7.79 8.22 7.73 7.93 7.68 7.68 8.15 7.66 7.92 7.88 7.60 8.20 7.49 8.11 7.85 7.95 8.14 7.82 8.31 7.98 8.13 8.31 7.50 7.94 8.05 7.66 8.10 8.11 7.52 7.57 8.37 7.76 7.83 7.82 7.82 7.69 7.57 8.01 7.67 7.92 8.38 7.81 8.41 7.52 8.01 7.44 8.19 7.62 8.29 8.38 7.90 8.13 7.71 7.53 8.01 7.47 7.71 7.61 8.39 7.95 8.31 7.74 8.15 7.57 8.41 8.03 8.17 7.62 7.63 7.88 8.43 8.13 7.73 7.69 7.51 7.63 8.05 8.16 8.39 8.35 8.01 7.88 7.98 8.36 8.25 7.75 8.18 7.97 7.57 7.57 8.42 7.63 8.11 7.74 8.10 8.17 8.05 7.72 8.04 7.52 7.44 7.78 7.68 8.35 8.05 8.15 7.70 8.31 7.68 8.41 7.96 8.12 7.73 7.94 7.64 8.29 7.74 7.79 7.68 8.28 8.07 7.59 8.07 7.83 7.56 8.11 8.05 8.03 7.91 7.91 7.87 7.64 7.97 7.86 7.82 7.65 7.84 8.29 7.74 7.84 8.32 7.84 7.78 8.36 8.29 7.64 7.84 8.03 7.82 7.77 7.69 8.37 7.89 7.46 7.55 7.80 8.31 7.53 8.20 8.01 7.45 7.70 7.50 7.82 8.21 7.58 7.73 7.84 8.27 7.83 7.54 8.05 8.06 -9999 -9999 -9999 -9999 -9999 -9999 -9999 -9999 -9999 -9999 -9999 -9999 -9999 -9999 -9999 -9999 -9999 -9999 -9999 -9999 -9999 -9999 -9999 -9999 -9999 -9999 -9999 -9999 -9999 -9999 -9999 -9999 -9999 -9999 -9999 -9999 -9999 -9999 -9999 -9999
7.83 8.41 7.57 7.56 8.08 7.84 8.27 8.11 8.28 8.12 7.78 7.93 7.65 7.52 7.77 7.95 8.39 8.01 8.32 7.73 7.45 8.13 7.79 8.06 7.99 7.93 7.98 7.80 7.96 8.10 8.23 7.78 7.70 7.98 7.44 7.53 8.28 7.78 7.89 7.53 8.21 8.28 7.55 8.18 8.42 7.75 7.62 7.73 7.97 7.82 8.04 7.48 7.89 7.95 7.83 7.85 7.69 8.15 7.60 8.33 7.45 7.53 7.75 7.93 7.66 8.27 8.23 7.79 7.64 8.10 8.16 7.72 7.71 7.48 7.49 7.61 7.59 8.28 8.37 7.51 7.97 7.84 7.91 8.41 8.05 8.29 8.05 8.01 8.17 8.35 7.80 7.80 8.32 8.04 8.05 7.50 8.11 7.70 7.64 7.55 8.34 7.90 7.71 8.13 7.53 7.57 7.61 7.73 7.61 8.28 7.53 8.24 8.23 7.94 8.26 8.42 8.41 7.47 7.63 7.53 7.87 7.85 7.63 8.37 7.87 8.05 7.78 8.11 8.39 7.58 8.18 8.06 7.56 8.31 7.94 8.29 7.62 8.11 7.75 8.18 8.43 7.68 7.51 7.78 8.42 7.93 8.09 7.91 8.12 7.51 7.88 7.94 7.69 8.27 7.57 8.14 7.81 7.62 8.10 8.16 7.77 8.36 7.85 8.14 7.47 7.98 8.40 7.62 7.89 7.86 8.43 8.34 7.99 7.81 7.61 -9999 -9999 -9999 -9999 -9999 -9999 -9999 -9999 -9999 -9999 -9999 -9999 -9999 -9999 -9999 -9999 -9999 -9999 -9999 -9999 -9999 -9999 -9999 -9999 -9999 -9999 -9999 -9999 -9999 -9999 -9999 -9999 -9999 -9999 -9999 -9999 -9999 -9999 -9999 -9999
8.04 8.25 8.00 8.15 7.44 8.36 8.01 7.93 7.52 8.11 8.23 7.68 8.29 8.16 7.96 7.54 8.19 7.86 7.79 8.37 7.81 7.87 7.58 8.29 8.06 8.43 8.34 7.68 7.77 8.01 7.48 7.69 8.24 7.67 7.67 7.71 7.95 8.26 8.37 7.52 8.32 8.28 7.72 7.48 7.68 7.79 8.43 7.46 7.67 7.66 8.28 8.20 7.76 8.29 7.89 8.06 7.68 8.02 7.97 8.14 7.67 7.59 8.35 8.17 8.07 7.55 8.18 8.18 8.42 7.66 8.16 8.24 8.04 7.67 7.81 8.41 7.60 8.14 7.96 8.34 7.88 7.66 7.79 7.64 8.40 7.76 8.05 7.77 7.93 8.35 8.36 7.69 8.26 8.35 7.76 8.26 8.21 7.62 7.96 7.50 8.08 7.61 8.42 8.22 8.31 7.59 8.32 7.95 7.76 7.64 7.65 8.33 7.86 8.08 8.09 8.15 7.51 8.43 7.65 8.11 8.14 8.43 7.52 7.65 7.49 8.36 7.48 7.87 7.61 8.18 7.75 8.11 7.90 8.11 8.16 8.08 7.87 8.17 8.26 7.45 7.65 7.67 8.10 8.03 8.10 7.84 7.66 8.26 7.49 8.31 7.52 8.18 7.91 8.00 8.13 7.51 7.94 7.85 8.29 7.92 7.80 8.12 8.09 7.54 7.97 8.29 7.69 7.59 7.54 7.49 8.05 8.29 7.86 7.92 8.02 -9999 -9999 -9999 -9999 -9999 -9999 -9999 -9999 -9999 -9999 -9999 -9999 -9999 -9999 -9999 -9999 -9999 -9999 -9999 -9999 -9999 -9999 -9999 -9999 -9999 -9999 -9999 -9999 -9999 -9999 -9999 -9999 -9999 -9999 -9999 -9999 -9999 -9999 -9999 -9999
7.59 8.29 7.82 7.62 7.85 7.66 7.48 7.57 7.52 7.72 7.53 7.89 7.89 7.96 8.12 7.83 7.65 8.27 7.47 8.19 8.32 8.25 8.11 7.56 8.20 8.07 8.21 8.12 7.75 8.22 8.01 8.34 7.60 8.35 7.72 7.99 8.04 8.31 8.15 7.97 7.70 7.78 7.97 7.92 8.08 8.20 8.03 8.15 7.73 7.76 7.53 8.13 8.32 8.05 8.04 7.96 7.45 8.03 8.43 8.15 8.36 8.14 7.80 8.32 7.67 7.58 8.22 7.62 7.65 8.41 7.64 8.04 8.28 8.28 8.34 7.75 7.47 7.87 8.43 7.52 8.27 7.71 7.70 7.90 8.05 8.23 7.47 7.93 8.43 7.85 8.32 8.13 8.33 7.66 7.57 8.18 7.55 8.04 7.48 7.65 7.71 8.15 8.15 8.03 8.10 7.98 7.59 7.87 8.14 8.33 7.79 8.13 8.04 7.44 7.95 7.68 8.08 7.54 7.96 7.46 7.67 8.18 8.39 7.85 7.85 8.17 7.86 8.28 8.03 8.37 7.75 8.09 7.78 7.98 8.27 8.15 7.87 7.79 8.37 8.17 8.17 8.08 7.67 7.66 7.61 8.41 8.08 7.60 7.78 7.99 8.04 8.07 8.00 8.34 7.61 7.57 7.91 8.15 8.10 7.84 8.24 8.31 8.06 7.72 7.56 8.05 8.38 7.91 8.26 8.27 7.89 8.08 8.04 8.23 7.84 -9999 -9999 -9999 -9999 -9999 -9999 -9999 -9999 -9999 -9999 -9999 -9999 -9999 -9999 -9999 -9999 -9999 -9999 -9999 -9999 -9999 -9999 -9999 -9999 -9999 -9999 -9999 -9999 -9999 -9999 -9999 -9999 -9999 -9999 -9999 -9999 -9999 -9999 -9999 -9999
8.09 7.80 8.24 8.42 7.63 8.15 8.12 7.93 7.53 7.74 7.91 8.33 7.50 8.23 7.49 7.54 8.28 8.37 7.51 8.29 8.14 8.20 8.22 7.64 7.64 7.71 7.75 8.35 7.47 8.32 7.96 8.06 7.71 7.53 7.47 7.70 7.74 7.70 8.31 7.54 7.88 7.67 7.68 7.65 8.09 7.52 7.61 8.42 7.68 7.87 7.76 8.43 7.88 7.52 7.58 7.60 8.07 8.39 7.46 8.34 8.36 8.11 8.16 8.37 7.97 8.41 8.40 8.34 7.58 7.43 7.76 7.51 7.56 7.49 8.43 8.27 7.45 7.87 8.14 8.08 8.37 8.27 7.96 8.14 7.44 7.86 7.80 8.20 7.79 7.94 7.91 7.99 7.91 7.91 8.06 8.30 7.59 8.40 7.47 8.16 8.18 8.24 8.20 7.83 7.57 8.21 8.24 8.30 8.04 8.42 7.55 7.92 8.11 8.28 7.48 8.07 8.00 8.26 7.86 7.74 7.51 8.05 8.33 8.39 7.68 8.22 8.12 7.45 7.64 7.84 7.56 7.92 8.33 8.20 7.81 8.29 8.15 8.26 8.11 7.63 7.66 8.11 7.88 7.49 7.77 7.69 7.80 8.11 7.46 8.39 7.80 8.41 7.87 8.16 7.67 7.94 8.35 8.26 7.91 8.30 7.86 7.44 8.16 8.12 8.07 7.57 7.85 7.49 7.56 7.78 8.25 7.85 8.20 8.08 8.32 -9999 -9999 -9999 -9999 -9999 -9999 -9999 -9999 -9999 -9999 -9999 -9999 -9999 -9999 -9999 -9999 -9999 -9999 -9999 -9999 -9999 -9999 -9999 -9999 -9999 -9999 -9999 -9999 -9999 -9999 -9999 -9999 -9999 -9999 -9999 -9999 -9999 -9999 -9999 -9999
7.50 8.29 8.19 8.23 8.01 7.93 7.95 7.88 8.08 8.04 7.53 8.42 7.49 8.26 7.53 8.17 7.48 7.85 7.82 8.24 8.22 7.70 7.66 8.40 7.95 8.21 7.65 7.52 7.52 8.23 8.01 7.48 8.35 7.60 7.66 7.54 8.29 8.29 7.52 7.87 7.86 7.45 7.73 8.27 7.57 7.52 7.58 8.04 7.47 7.80 7.59 8.40 7.75 8.02 7.77 7.69 8.00 7.69 8.06 7.66 8.04 8.16 7.92 8.34 8.29 8.26 7.60 8.25 7.66 8.21 8.35 7.54 7.87 8.18 8.13 7.88 8.13 7.79 7.54 8.31 7.69 8.18 8.29 7.58 8.01 8.16 7.66 8.39 7.64 8.13 7.67 8.24 8.25 7.77 7.61 7.59 8.01 7.85 7.56 8.03 7.91 7.65 8.06 8.11 7.82 8.22 7.50 8.10 7.79 8.35 8.22 8.11 7.48 7.70 7.44 7.59 8.12 8.07 8.20 8.06 7.83 8.08 8.06 8.11 7.65 8.37 8.22 8.18 8.27 8.36 8.13 7.96 8.11 7.57 8.39 7.72 8.10 8.18 8.18 7.99 8.19 8.35 7.64 7.96 8.05 8.34 8.40 7.69 8.12 7.91 7.45 8.12 8.39 7.95 7.80 7.49 8.19 7.63 7.86 7.72 8.07 8.35 7.79 8.05 7.61 8.18 7.87 7.63 8.37 8.23 7.45 8.27 7.81 8.13 8.03 -9999 -9999 -9999 -9999 -9999 -9999 -9999 -9999 -9999 -9999 -9999 -9999 -9999 -9999 -9999 -9999 -9999 -9999 -9999 -9999 -9999 -9999 -9999 -9999 -9999 -9999 -9999 -9999 -9999 -9999 -9999 -9999 -9999 -9999 -9999 -9999 -9999 -9999 -9999 -9999
7.83 7.56 7.77 7.82 8.06 7.97 7.95 8.08 8.13 7.69 8.40 7.71 7.97 7.77 8.04 8.32 8.35 8.32 8.42 7.62 7.89 8.40 8.23 7.70 8.41 7.86 8.31 8.00 7.65 7.61 7.74 7.59 7.88 8.12 7.43 8.06 7.58 8.09 7.74 7.97 7.54 7.92 7.78 8.28 8.35 7.56 8.22 8.12 7.79 8.38 7.82 8.37 7.64 8.06 7.98 8.42 7.54 8.22 8.03 8.30 7.80 8.35 8.08 7.63 8.20 7.98 7.91 7.61 7.57 8.29 8.19 7.89 7.56 8.23 7.84 7.70 7.87 8.29 7.68 8.20 8.14 8.01 7.73 7.73 7.74 8.08 8.14 7.97 7.44 8.24 8.11 8.20 7.96 7.49 7.54 8.11 7.67 8.34 7.69 7.66 7.61 8.33 8.32 7.49 7.92 7.53 7.49 7.97 8.33 8.38 8.13 8.33 7.96 8.04 7.99 7.77 7.96 8.17 8.01 7.49 7.69 8.21 7.58 8.05 8.37 7.73 8.29 8.00 8.10 8.24 8.22 7.67 8.02 8.43 8.04 7.89 8.29 8.30 7.72 7.55 7.71 7.83 7.90 8.33 7.77 8.20 8.24 7.95 7.63 7.88 7.80 8.43 8.27 8.31 7.62 8.34 8.42 8.31 7.90 7.92 7.49 8.05 7.85 8.03 7.67 7.85 7.67 7.64 7.78 7.95 7.62 7.46 8.35 8.00 8.02 8.39 -9999 -9999 -9999 -9999 -9999 -9999 -9999 -9999 -9999 -9999 -9999 -9999 -9999 -9999 -9999 -9999 -9999 -9999 -9999 -9999 -9999 -9999 -9999 -9999 -9999 -9999 -9999 -9999 -9999 -9999 -9999 -9999 -9999 -9999 -9999 -9999 -9999 -9999 -9999
7.98 7.47 7.86 7.47 8.01 7.66 7.66 8.30 8.04 7.63 8.27 8.31 7.94 7.92 7.85 7.51 7.73 7.55 7.66 8.27 7.87 7.49 8.25 8.08 7.44 8.33 8.00 7.74 8.41 7.49 8.28 8.34 7.65 7.92 8.18 8.31 8.29 7.58 7.83 8.38 8.16 7.65 7.69 7.80 7.57 8.02 7.71 8.24 8.17 7.71 7.65 7.61 7.85 8.35 8.09 8.09 8.38 8.02 7.97 7.47 8.06 8.21 7.58 8.14 8.19 8.09 7.44 7.69 7.79 8.38 7.82 7.88 7.78 8.11 8.31 8.32 7.88 8.15 7.95 8.13 8.19 8.17 8.23 8.34 7.50 7.62 7.68 7.48 8.02 8.17 8.22 7.97 7.52 7.65 8.08 7.65 7.57 8.02 7.78 7.95 7.88 7.71 7.75 8.25 7.43 7.59 8.35 8.10 7.43 8.26 7.90 7.46 8.03 7.72 8.03 7.57 7.75 7.87 7.56 7.71 7.79 8.38 7.71 7.90 7.62 8.36 8.33 7.55 7.72 7.47 7.68 7.44 8.08 8.06 7.47 8.36 7.51 7.79 8.18 7.78 7.94 7.99 8.32 7.68 8.37 7.46 7.43 7.53 7.98 7.58 8.21 8.02 8.33 7.51 7.94 7.84 7.59 7.89 8.33 7.45 8.19 8.34 8.09 7.43 7.47 7.75 8.03 7.55 8.30 8.29 7.73 7.51 7.85 7.83 7.85 8.07 -9999 -9999 -9999 -9999 -9999 -9999 -9999 -9999 -9999 -9999 -9999 -9999 -9999 -9999 -9999 -9999 -9999 -9999 -9999 -9999 -9999 -9999 -9999 -9999 -9999 -9999 -9999 -9999 -9999 -9999 -9999 -9999 -9999 -9999 -9999 -9999 -9999 -9999 -9999
7.88 7.54 7.90 7.45 7.93 8.24 7.65 7.56 7.44 8.33 7.97 8.26 7.80 7.74 8.33 7.61 7.65 7.66 8.25 8.33 8.34 8.35 7.64 7.59 7.76 7.50 8.32 7.57 7.99 8.11 8.18 7.47 7.57 7.97 7.66 7.69 7.63 7.55 8.10 8.16 8.15 8.20 8.31 8.15 7.59 8.21 8.27 8.04 8.07 8.20 8.00 8.27 7.71 7.92 8.10 7.65 7.76 7.79 8.34 7.87 8.27 7.82 7.46 7.94 7.61 8.13 7.80 8.13 8.12 8.00 8.34 8.13 8.39 8.40 7.49 8.06 7.66 7.46 8.24 7.98 8.18 7.44 7.73 8.16 8.24 7.53 7.72 7.88 7.62 7.66 7.55 7.77 8.18 8.35 8.24 7.53 8.29 7.44 8.37 8.40 8.25 7.95 7.88 8.14 7.84 7.87 8.36 7.62 7.86 7.45 8.30 7.61 8.30 8.23 7.80 7.89 8.24 7.82 8.08 8.06 8.33 7.47 7.48 7.74 8.10 8.41 7.81 7.48 7.76 8.08 7.71 7.75 7.91 7.57 8.11 8.13 7.68 7.75 7.49 7.76 8.25 7.85 8.38 7.52 7.82 8.03 8.32 7.97 8.10 8.42 8.22 8.25 7.54 8.24 7.79 7.79 8.37 8.22 7.91 8.34 7.59 8.27 8.38 7.91 8.31 8.19 8.37 7.53 7.72 7.66 7.98 -9999 -9999 -9999 -9999 -9999 -9999 -9999 -9999 -9999 -9999 -9999 -9999 -9999 -9999 -9999 -9999 -9999 -9999 -9999 -9999 -9999 -9999 -9999 -9999 -9999 -9999 -9999 -9999 -9999 -9999 -9999 -9999 -9999 -9999 -9999 -9999 -9999 -9999 -9999 -9999 -9999 -9999 -9999 -9999
8.16 7.70 8.07 7.81 8.21 7.81 7.78 7.65 7.46 7.76 8.04 7.66 7.55 8.43 7.52 8.28 7.45 7.89 7.93 8.33 8.24 8.03 7.89 7.99 8.33 8.11 8.43 8.37 8.02 8.03 7.86 8.12 7.89 7.62 8.17 8.20 8.27 8.23 8.13 7.79 8.06 7.97 7.99 8.43 8.27 7.77 7.95 7.57 7.78 7.93 7.51 7.86 8.33 7.73 7.71 7.66 7.72 7.87 8.07 7.72 7.56 7.47 8.08 8.36 7.89 8.31 7.86 8.39 8.37 7.63 7.73 7.61 7.90 7.87 7.58 7.74 8.25 7.91 7.50 8.08 7.85 7.59 7.65 8.42 7.49 7.64 7.77 7.57 8.34 7.45 8.15 8.22 7.82 7.83 8.06 8.09 7.93 7.99 7.83 7.49 8.23 8.14 7.91 8.36 7.68 7.63 8.34 8.43 7.78 7.64 7.48 7.89 8.22 8.24 7.73 7.47 7.95 8.27 8.01 7.93 8.42 7.61 8.24 8.37 7.97 8.27 8.15 7.83 8.22 8.32 7.68 7.96 8.35 7.46 8.13 7.64 8.03 7.90 7.77 7.55 8.06 7.58 8.04 7.69 8.35 8.13 8.26 7.50 8.02 8.32 8.20 7.75 8.05 7.52 8.06 7.78 8.25 7.56 8.41 7.78 8.18 8.27 8.20 7.94 -9999 -9999 -9999 -9999 -9999 -9999 -9999 -9999 -9999 -9999 -9999 -9999 -9999 -9999 -9999 -9999 -9999 -9999 -9999 -9999 -9999 -9999 -9999 -9999 -9999 -9999 -9999 -9999 -9999 -9999 -9999 -9999 -9999 -9999 -9999 -9999 -9999 -9999 -9999 -9999 -9999 -9999 -9999 -9999 -9999 -9999 -9999 -9999 -9999 -9999 -9999
7.95 8.36 7.76 8.24 8.24 8.13 7.53 7.84 7.51 8.15 8.25 7.52 7.91 7.54 8.34 8.36 7.63 8.36 7.71 8.29 8.39 8.03 7.86 7.92 7.76 8.01 7.59 7.63 7.97 7.46 8.15 8.12 8.36 8.01 7.68 8.26 7.82 7.70 8.15 7.79 7.80 8.02 8.35 7.71 8.00 7.96 7.59 7.80 7.45 7.78 8.07 7.99 7.97 7.96 8.03 7.82 8.16 7.50 7.76 7.58 7.74 7.77 7.97 8.08 7.68 7.60 8.17 8.37 8.00 8.43 8.20 8.37 8.37 7.87 7.99 8.03 8.01 7.52 7.64 8.01 8.37 7.85 7.99 7.95 7.48 7.87 7.50 7.45 7.55 8.23 7.90 8.06 7.50 7.65 7.53 8.37 7.46 7.74 8.17 8.43 8.05 7.58 8.08 8.06 7.51 8.41 8.36 8.07 7.85 8.18 7.81 7.50 8.06 7.93 7.45 7.78 8.10 8.28 8.35 7.97 7.91 8.19 8.07 8.34 7.91 7.64 7.57 7.50 7.92 7.69 8.41 8.00 7.62 7.85 8.31 8.03 7.73 8.18 8.27 7.86 7.87 7.47 7.98 7.64 8.03 7.87 7.93 8.12 7.58 7.97 8.03 7.58 8.31 8.09 7.59 8.39 -9999 -9999 -9999 -9999 -9999 -9999 -9999 -9999 -9999 -9999 -9999 -9999 -9999 -9999 -9999 -9999 -9999 -9999 -9999 -9999 -9999 -9999 -9999 -9999 -9999 -9999 -9999 -9999 -9999 -9999 -9999 -9999 -9999 -9999 -9999 -9999 -9999 -9999 -9999 -9999 -9999 -9999 -9999 -9999 -9999 -9999 -9999 -9999 -9999 -9999 -9999 -9999 -9999 -9999 -9999 -9999 -9999 -9999 -9999
7.83 7.61 7.53 8.28 7.63 8.02 8.04 7.55 7.74 7.56 8.16 7.73 7.76 7.57 8.15 7.66 7.60 8.06 8.13 7.65 8.33 8.26 8.23 8.38 8.33 8.27 7.65 7.95 7.71 7.58 7.58 7.84 7.45 8.24 8.36 7.95 7.98 8.05 8.34 7.85 7.78 8.13 7.72 8.21 7.94 7.93 7.51 7.78 7.76 7.78 7.52 8.37 7.55 7.57 7.51 7.99 8.19 7.45 8.35 7.93 7.58 8.22 8.11 8.32 7.70 7.96 7.86 8.07 8.30 7.68 7.73 7.84 7.98 7.71 7.95 8.26 7.63 8.23 7.57 7.75 8.40 7.44 8.08 7.65 7.95 7.56 8.12 7.47 8.32 7.95 8.11 8.40 7.46 8.40 7.66 7.67 7.61 7.69 7.98 8.04 7.71 8.11 8.33 7.55 7.82 8.22 8.15 8.12 7.47 7.59 7.73 7.83 8.05 8.29 7.96 7.78 8.29 8.41 8.09 7.44 8.22 8.21 8.35 7.47 8.35 7.81 7.95 7.55 7.70 8.15 7.93 8.23 8.28 7.77 8.27 7.49 7.65 7.68 7.97 7.64 7.66 8.23 7.85 8.26 8.36 7.73 8.37 7.85 7.94 -9999 -9999 -9999 -9999 -9999 -9999 -9999 -9999 -9999 -9999 -9999 -9999 -9999 -9999 -9999 -9999 -9999 -9999 -9999 -9999 -9999 -9999 -9999 -9999 -9999 -9999 -9999 -9999 -9999 -9999 -9999 -9999 -9999 -9999 -9999 -9999 -9999 -9999 -9999 -9999 -9999 -9999 -9999 -9999 -9999 -9999 -9999 -9999 -9999 -9999 -9999 -9999 -9999 -9999 -9999 -9999 -9999 -9999 -9999 -9999 -9999 -9999 -9999 -9999 -9999 -9999
7.72 7.53 7.89 8.23 8.30 8.14 8.21 8.03 7.54 8.05 8.30 8.00 7.44 7.61 7.79 8.03 8.25 7.84 7.70 7.46 8.29 7.62 7.91 7.72 8.32 8.01 8.33 7.96 8.33 7.67 8.10 7.61 7.58 8.13 8.29 7.68 8.32 7.83 7.89 7.91 7.72 8.06 7.72 7.55 7.61 8.27 7.71 7.48 8.05 8.42 8.35 7.98 7.63 8.19 7.51 8.38 7.84 7.74 7.64 7.75 7.84 8.25 8.26 8.09 8.09 8.31 7.66 8.15 8.40 7.54 8.26 8.41 7.79 7.63 8.24 8.37 7.98 7.57 8.30 7.70 7.61 8.37 7.86 8.07 7.51 7.92 8.38 7.48 8.11 7.90 8.17 7.97 8.08 7.90 8.07 8.17 8.40 7.93 7.70 7.88 7.96 8.02 8.26 7.97 7.49 7.77 8.07 7.44 8.03 8.38 7.51 8.01 8.20 7.61 8.05 7.85 8.33 7.45 8.35 8.32 7.68 8.04 8.30 8.12 7.73 7.75 8.38 7.57 7.66 8.32 7.91 8.33 8.12 8.36 8.25 7.87 8.40 8.04 7.58 8.43 7.52 7.87 8.37 8.40 -9999 -9999 -9999 -9999 -9999 -9999 -9999 -9999 -9999 -9999 -9999 -9999 -9999 -9999 -9999 -9999 -9999 -9999 -9999 -9999 -9999 -9999 -9999 -9999 -9999 -9999 -9999 -9999 -9999 -9999 -9999 -9999 -9999 -9999 -9999 -9999 -9999 -9999 -9999 -9999 -9999 -9999 -9999 -9999 -9999 -9999 -9999 -9999 -9999 -9999 -9999 -9999 -9999 -9999 -9999 -9999 -9999 -9999 -9999 -9999 -9999 -9999 -9999 -9999 -9999 -9999 -9999 -9999 -9999 -9999 -9999
8.11 7.48 7.67 8.24 7.93 7.50 8.35 7.80 8.36 7.46 8.28 8.03 7.66 8.23 8.35 7.93 7.64 7.94 8.09 7.78 8.07 7.78 7.45 7.54 7.63 7.99 8.37 7.64 8.34 8.13 8.12 7.65 8.11 7.67 8.15 7.72 7.72 8.27 8.35 7.80 7.89 7.93 7.77 7.96 7.78 7.49 7.73 7.75 7.79 7.75 7.62 7.75 7.76 8.26 7.90 8.34 7.96 8.12 8.03 7.70 8.28 8.07 8.03 7.66 7.58 7.99 7.55 8.10 8.39 8.10 7.59 8.18 8.32 7.78 8.13 7.66 7.98 8.16 8.00 8.30 7.59 7.93 8.09 7.90 7.63 7.46 8.16 8.27 7.81 8.28 8.01 8.13 7.59 8.35 7.86 7.86 7.55 7.80 7.70 8.27 7.98 8.02 8.28 7.53 7.94 7.72 7.56 8.31 7.50 7.59 8.30 8.40 7.54 7.98 7.46 7.80 8.21 8.06 7.88 7.99 8.09 7.80 7.70 7.95 7.48 8.22 7.71 7.81 7.86 7.46 7.66 8.15 7.55 7.85 8.35 8.13 7.66 7.54 8.18 7.82 7.63 8.23 7.49 7.49 -9999 -9999 -9999 -9999 -9999 -9999 -9999 -9999 -9999 -9999 -9999 -9999 -9999 -9999 -9999 -9999 -9999 -9999 -9999 -9999 -9999 -9999 -9999 -9999 -9999 -9999 -9999 -9999 -9999 -9999 -9999 -9999 -9999 -9999 -9999 -9999 -9999 -9999 -9999 -9999 -9999 -9999 -9999 -9999 -9999 -9999 -9999 -9999 -9999 -9999 -9999 -9999 -9999 -9999 -9999 -9999 -9999 -9999 -9999 -9999 -9999 -9999 -9999 -9999 -9999 -9999 -9999 -9999 -9999 -9999 -9999
7.74 7.96 8.10 7.47 7.98 7.88 7.52 8.41 8.01 8.07 7.46 7.50 7.52 7.94 8.09 7.94 7.44 7.89 7.52 8.41 8.42 7.97 7.89 7.99 7.85 7.55 7.47 8.22 7.80 7.78 7.44 7.97 7.88 8.30 8.10 7.57 8.25 7.60 7.48 7.46 8.26 8.43 7.64 8.30 7.92 7.76 8.42 8.12 7.45 7.77 7.67 7.84 7.64 7.88 8.08 8.11 8.06 7.77 8.06 8.16 7.99 8.36 7.94 7.48 7.65 7.62 7.70 7.99 8.06 7.79 7.83 7.49 8.16 8.31 8.38 7.80 8.08 8.15 8.03 8.01 7.82 7.75 7.44 7.70 8.28 8.07 7.65 8.40 7.66 7.44 7.76 8.43 7.58 7.77 8.12 8.12 7.95 8.26 8.30 7.51 7.89 8.35 8.29 8.27 8.00 7.70 7.63 7.82 7.72 7.54 8.18 8.29 8.11 8.39 8.04 7.70 8.31 7.96 7.86 7.62 7.68 8.36 7.97 7.96 7.78 8.30 7.72 7.92 7.56 8.03 7.53 8.02 7.53 7.70 7.61 7.94 8.25 7.56 7.65 7.70 8.42 8.12 7.87 8.03 -9999 -9999 -9999 -9999 -9999 -9999 -9999 -9999 -9999 -9999 -9999 -9999 -9999 -9999 -9999 -9999 -9999 -9999 -9999 -9999 -9999 -9999 -9999 -9999 -9999 -9999 -9999 -9999 -9999 -9999 -9999 -9999 -9999 -9999 -9999 -9999 -9999 -9999 -9999 -9999 -9999 -9999 -9999 -9999 -9999 -9999 -9999 -9999 -9999 -9999 -9999 -9999 -9999 -9999 -9999 -9999 -9999 -9999 -9999 -9999 -9999 -9999 -9999 -9999 -9999 -9999 -9999 -9999 -9999 -9999 -9999
8.01 7.64 8.31 7.94 7.52 7.79 8.24 7.85 8.01 7.57 7.52 8.25 8.04 8.24 8.31 8.10 7.87 7.94 7.74 8.41 8.20 8.27 8.23 8.06 8.29 7.64 7.74 8.30 8.19 8.04 7.77 7.58 7.57 7.56 7.84 7.98 7.84 7.76 7.98 7.57 7.53 7.47 8.24 7.71 8.08 8.35 8.22 7.53 8.14 8.40 7.65 7.59 8.26 8.34 7.90 8.35 7.97 8.06 7.52 7.85 7.73 8.38 8.25 7.89 8.17 8.39 8.37 8.18 7.69 8.17 7.79 8.36 7.53 7.57 7.99 7.58 7.84 8.04 8.40 8.40 7.89 7.58 7.60 8.06 8.14 8.08 8.02 7.63 7.61 7.86 7.87 7.75 8.16 7.48 8.27 7.73 7.93 7.70 8.07 7.44 8.07 8.31 7.88 8.05 8.16 7.49 7.47 7.80 7.57 7.91 7.46 8.10 7.48 8.26 8.13 7.86 8.00 7.95 7.53 8.40 7.94 8.16 8.21 8.18 8.41 7.66 7.57 8.00 7.65 7.77 7.46 8.34 8.13 8.11 8.12 7.64 8.21 7.65 7.53 8.08 7.71 7.60 8.08 8.38 -9999 -9999 -9999 -9999 -9999 -9999 -9999 -9999 -9999 -9999 -9999 -9999 -9999 -9999 -9999 -9999 -9999 -9999 -9999 -9999 -9999 -9999 -9999 -9999 -9999 -9999 -9999 -9999 -9999 -9999 -9999 -9999 -9999 -9999 -9999 -9999 -9999 -9999 -9999 -9999 -9999 -9999 -9999 -9999 -9999 -9999 -9999 -9999 -9999 -9999 -9999 -9999 -9999 -9999 -9999 -9999 -9999 -9999 -9999 -9999 -9999 -9999 -9999 -9999 -9999 -9999 -9999 -9999 -9999 -9999 -9999
7.54 8.16 7.54 7.53 8.21 8.07 8.04 8.09 7.68 8.07 7.81 7.47 7.96 8.43 8.43 8.02 8.41 7.62 7.58 7.86 8.40 8.06 7.60 8.42 7.91 8.13 7.97 8.22 8.34 7.81 7.75 8.22 7.45 8.19 7.96 7.72 8.03 8.33 8.32 7.97 8.09 7.96 8.33 7.89 7.64 8.14 7.93 7.64 8.28 7.98 7.52 7.65 7.84 7.77 7.73 8.43 7.63 8.17 8.26 7.96 8.17 7.66 7.99 8.35 7.70 7.59 8.15 8.18 8.03 8.30 8.09 7.75 8.22 8.38 7.76 7.69 8.30 8.33 8.00 8.24 8.27 8.12 7.63 7.45 7.73 7.90 7.58 7.50 8.21 8.19 7.69 7.94 7.68 7.99 8.33 7.73 7.53 8.35 7.57 7.56 7.54 7.96 7.89 7.53 7.83 7.57 8.07 8.35 8.17 7.71 7.59 7.99 8.22 8.42 8.13 7.76 8.10 8.05 8.13 8.09 7.62 7.48 7.66 8.09 8.16 7.48 7.93 8.38 7.49 8.06 7.53 7.73 7.67 8.02 7.63 8.01 7.62 8.30 8.06 8.42 8.24 8.26 7.86 8.02 -9999 -9999 -9999 -9999 -9999 -9999 -9999 -9999 -9999 -9999 -9999 -9999 -9999 -9999 -9999 -9999 -9999 -9999 -9999 -9999 -9999 -9999 -9999 -9999 -9999 -9999 -9999 -9999 -9999 -9999 -9999 -9999 -9999 -9999 -9999 -9999 -9999 -9999 -9999 -9999 -9999 -9999 -9999 -9999 -9999 -9999 -9999 -9999 -9999 -9999 -9999 -9999 -9999 -9999 -9999 -9999 -9999 -9999 -9999 -9999 -9999 -9999 -9999 -9999 -9999 -9999 -9999 -9999 -9999 -9999 -9999
7.93 8.06 7.85 7.68 7.60 8.26 8.02 8.15 8.15 7.95 7.50 7.50 8.40 8.15 7.72 8.14 7.85 7.66 8.16 7.57 8.11 7.75 7.63 8.14 8.06 8.02 7.93 8.09 8.32 7.82 8.24 7.56 7.90 7.84 7.59 8.36 7.72 7.52 7.63 7.82 8.01 8.19 7.64 7.77 7.69 8.25 8.33 7.47 8.39 8.31 7.49 8.06 7.53 7.48 7.47 7.99 7.80 7.45 7.62 8.34 8.40 8.35 7.83 8.15 7.74 8.01 7.91 7.94 7.72 7.92 8.05 7.74 8.30 7.48 8.25 8.42 7.89 7.99 7.89 8.28 7.83 8.29 8.14 8.25 7.51 8.22 7.53 8.17 7.47 7.78 7.76 7.93 7.87 7.62 7.90 7.63 8.38 8.04 7.52 7.61 8.16 8.26 8.27 8.07 7.49 7.96 7.63 8.05 7.75 7.64 7.75 7.84 7.91 8.29 7.73 7.96 7.96 7.84 7.44 7.61 7.93 8.16 8.23 8.26 8.31 7.67 8.10 7.52 7.93 7.92 8.26 8.33 7.78 7.86 8.24 7.56 7.64 7.57 7.81 7.92 8.22 7.89 7.47 7.57 7.45 -9999 -9999 -9999 -9999 -9999 -9999 -9999 -9999 -9999 -9999 -9999 -9999 -9999 -9999 -9999 -9999 -9999 -9999 -9999 -9999 -9999 -9999 -9999 -9999 -9999 -9999 -9999 -9999 -9999 -9999 -9999 -9999 -9999 -9999 -9999 -9999 -9999 -9999 -9999 -9999 -9999 -9999 -9999 -9999 -9999 -9999 -9999 -9999 -9999 -9999 -9999 -9999 -9999 -9999 -9999 -9999 -9999 -9999 -9999 -9999 -9999 -9999 -9999 -9999 -9999 -9999 -9999 -9999 -9999 -9999
8.03 8.15 8.18 8.06 7.83 7.87 7.82 8.38 7.82 7.89 8.35 8.19 7.97 7.61 7.63 7.66 8.04 8.32 7.81 7.81 8.10 8.21 7.82 7.76 7.53 8.38 7.62 7.97 8.12 7.60 8.05 7.71 8.15 7.67 8.10 8.24 8.41 7.69 7.75 7.99 7.95 7.54 7.51 7.82 8.03 8.35 7.94 7.80 7.79 7.60 8.29 7.86 8.01 8.06 8.15 7.68 8.35 7.84 7.75 8.00 7.88 7.44 7.45 8.08 8.14 7.47 8.00 8.39 8.19 7.63 7.56 7.78 8.04 8.07 7.49 7.88 8.28 8.06 7.59 8.31 7.83 7.51 7.72 7.82 8.34 7.56 7.64 7.66 8.20 7.53 8.02 7.85 7.82 7.56 8.38 8.31 7.62 8.02 7.69 8.05 7.55 8.03 8.13 8.39 8.32 7.48 7.54 8.14 8.35 7.84 7.94 8.17 7.53 7.92 7.74 7.71 8.16 7.54 8.23 7.59 8.06 8.06 7.77 7.66 7.72 7.51 7.72 7.67 8.28 7.47 7.84 7.70 8.01 8.05 7.62 8.25 8.40 8.27 8.20 8.38 8.42 8.19 8.01 8.32 7.97 -9999 -9999 -9999 -9999 -9999 -9999 -9999 -9999 -9999 -9999 -9999 -9999 -9999 -9999 -9999 -9999 -9999 -9999 -9999 -9999 -9999 -9999 -9999 -9999 -9999 -9999 -9999 -9999 -9999 -9999 -9999 -9999 -9999 -9999 -9999 -9999 -9999 -9999 -9999 -9999 -9999 -9999 -9999 -9999 -9999 -9999 -9999 -9999 -9999 -9999 -9999 -9999 -9999 -9999 -9999 -9999 -9999 -9999 -9999 -9999 -9999 -9999 -9999 -9999 -9999 -9999 -9999 -9999 -9999 -9999
8.04 7.91 8.23 7.96 7.63 7.49 8.01 8.33 7.80 8.00 8.33 8.29 7.61 7.69 8.15 7.83 8.05 7.71 8.26 7.46 7.92 8.40 7.64 8.07 8.01 7.93 7.61 8.02 7.49 8.35 7.77 7.65 7.72 7.94 7.84 7.99 8.22 7.67 8.28 8.22 8.35 8.03 7.95 8.43 8.18 7.67 7.61 7.75 7.58 8.01 7.46 7.78 8.09 7.64 7.86 7.60 8.31 7.69 8.43 8.31 8.35 7.79 7.63 7.76 8.40 8.13 7.70 7.94 7.60 7.76 8.29 8.05 8.36 7.82 7.73 7.71 7.54 7.79 7.90 8.17 7.76 8.32 7.79 7.48 8.08 7.93 8.09 8.15 8.11 8.05 7.84 7.58 7.95 7.65 8.36 8.29 8.04 8.03 8.00 7.89 8.26 7.94 7.80 7.66 8.38 7.49 7.57 7.58 8.38 8.09 8.02 8.42 7.73 7.97 7.44 8.25 7.46 7.56 8.27 7.76 7.84 7.70 8.29 7.54 7.47 7.45 8.41 7.59 7.72 7.66 7.67 8.09 7.58 8.31 8.16 7.57 8.16 8.32 8.20 7.92 7.76 8.01 8.10 8.36 7.68 -9999 -9999 -9999 -9999 -9999 -9999 -9999 -9999 -9999 -9999 -9999 -9999 -9999 -9999 -9999 -9999 -9999 -9999 -9999 -9999 -9999 -9999 -9999 -9999 -9999 -9999 -9999 -9999 -9999 -9999 -9999 -9999 -9999 -9999 -9999 -9999 -9999 -9999 -9999 -9999 -9999 -9999 -9999 -9999 -9999 -9999 -9999 -9999 -9999 -9999 -9999 -9999 -9999 -9999 -9999 -9999 -9999 -9999 -9999 -9999 -9999 -9999 -9999 -9999 -9999 -9999 -9999 -9999 -9999 -9999
7.72 8.27 7.51 7.49 8.42 8.11 7.59 8.06 7.55 7.47 8.21 7.87 8.39 8.25 7.64 7.93 7.96 8.17 8.13 8.10 7.76 8.26 7.65 7.78 8.17 7.63 8.09 8.05 7.90 7.67 7.72 8.21 8.21 7.95 7.83 7.88 8.27 7.72 8.02 7.60 7.99 7.60 8.16 8.33 8.02 7.81 7.52 8.14 8.27 7.87 7.86 7.92 7.91 8.09 7.95 8.02 8.00 7.96 8.15 7.81 7.85 8.27 8.42 8.32 7.59 7.75 8.36 8.24 7.55 7.63 7.87 7.92 7.71 8.03 8.40 7.97 7.47 8.03 7.52 7.46 8.33 7.60 7.85 7.60 8.10 8.43 7.65 7.64 7.95 8.16 8.37 7.91 7.70 7.47 7.61 7.56 8.39 8.21 7.48 7.61 7.72 7.94 8.21 8.12 8.26 7.59 7.45 7.59 8.17 7.77 8.18 7.82 7.73 8.09 8.28 7.92 7.77 7.93 8.01 7.71 7.83 7.73 7.45 7.55 8.07 7.64 7.62 8.43 8.11 8.20 7.94 7.88 7.86 8.31 7.80 7.94 7.50 7.81 7.87 7.71 7.45 8.10 8.37 7.77 7.65 -9999 -9999 -9999 -9999 -9999 -9999 -9999 -9999 -9999 -9999 -9999 -9999 -9999 -9999 -9999 -9999 -9999 -9999 -9999 -9999 -9999 -9999 -9999 -9999 -9999 -9999 -9999 -9999 -9999 -9999 -9999 -9999 -9999 -9999 -9999 -9999 -9999 -9999 -9999 -9999 -9999 -9999 -9999 -9999 -9999 -9999 -9999 -9999 -9999 -9999 -9999 -9999 -9999 -9999 -9999 -9999 -9999 -9999 -9999 -9999 -9999 -9999 -9999 -9999 -9999 -9999 -9999 -9999 -9999 -9999
7.96 7.70 7.74 8.23 8.23 7.69 7.56 7.78 8.38 7.46 8.40 7.74 8.00 7.89 8.19 7.67 7.86 7.51 7.51 8.37 7.55 8.21 7.98 7.71 7.84 8.38 7.62 8.09 8.37 7.80 7.65 8.28 7.93 8.30 8.41 8.39 8.17 8.12 7.53 7.48 7.62 7.70 7.83 8.13 7.47 8.26 7.92 7.62 7.86 8.21 8.36 7.45 8.15 7.63 7.73 7.85 8.22 7.91 7.71 7.52 7.56 8.04 7.85 7.80 8.22 8.11 7.53 8.10 7.57 8.35 8.28 7.45 7.77 7.53 7.90 7.51 7.55 7.65 8.13 7.75 8.41 7.83 7.80 7.75 8.06 7.53 8.28 7.54 7.62 8.35 7.44 7.54 8.10 7.52 7.63 7.74 7.95 8.22 8.03 7.92 7.57 8.41 7.66 7.43 7.77 8.35 7.45 7.86 7.95 7.96 8.19 8.31 7.92 7.98 8.12 8.41 8.19 7.70 8.21 7.68 8.30 8.07 7.51 8.38 7.46 8.20 7.83 7.81 8.30 8.15 7.93 7.88 8.01 8.06 7.79 7.58 8.28 8.41 7.80 8.11 8.31 7.48 8.02 7.89 7.98 -9999 -9999 -9999 -9999 -9999 -9999 -9999 -9999 -9999 -9999 -9999 -9999 -9999 -9999 -9999 -9999 -9999 -9999 -9999 -9999 -9999 -9999 -9999 -9999 -9999 -9999 -9999 -9999 -9999 -9999 -9999 -9999 -9999 -9999 -9999 -9999 -9999 -9999 -9999 -9999 -9999 -9999 -9999 -9999 -9999 -9999 -9999 -9999 -9999 -9999 -9999 -9999 -9999 -9999 -9999 -9999 -9999 -9999 -9999 -9999 -9999 -9999 -9999 -9999 -9999 -9999 -9999 -9999 -9999 -9999
8.37 7.87 7.72 8.31 7.95 7.45 7.62 7.62 7.74 8.29 8.14 7.98 8.03 8.41 8.25 7.45 7.70 8.30 8.40 7.68 7.59 8.25 8.11 8.24 7.84 7.96 7.70 8.37 7.85 8.00 7.98 7.50 7.90 7.76 7.95 7.64 7.80 8.25 7.80 7.69 7.76 7.93 8.37 8.38 8.38 8.37 7.55 7.73 7.88 7.65 7.49 7.98 8.32 7.66 7.81 7.93 7.67 8.30 7.93 7.86 8.33 8.23 7.67 8.19 8.38 8.29 7.52 7.83 7.97 7.96 7.58 7.98 8.23 8.30 8.21 7.85 7.72 7.87 7.95 8.03 8.21 7.61 7.65 7.48 8.36 8.25 7.45 8.25 7.86 7.57 8.21 8.30 8.39 8.09 8.00 7.84 8.27 7.48 7.68 8.31 8.14 7.77 7.86 7.80 8.24 8.41 8.18 8.13 7.70 7.56 7.80 7.91 7.60 7.84 7.89 8.12 7.45 7.97 7.63 7.48 7.94 8.16 7.57 7.63 7.48 7.70 8.27 7.43 8.36 7.81 8.40 7.50 7.88 7.84 8.00 7.51 7.72 7.63 8.12 8.15 8.22 7.65 8.24 8.37 8.08 -9999 -9999 -9999 -9999 -9999 -9999 -9999 -9999 -9999 -9999 -9999 -9999 -9999 -9999 -9999 -9999 -9999 -9999 -9999 -9999 -9999 -9999 -9999 -9999 -9999 -9999 -9999 -9999 -9999 -9999 -9999 -9999 -9999 -9999 -9999 -9999 -9999 -9999 -9999 -9999 -9999 -9999 -9999 -9999 -9999 -9999 -9999 -9999 -9999 -9999 -9999 -9999 -9999 -9999 -9999 -9999 -9999 -9999 -9999 -9999 -9999 -9999 -9999 -9999 -9999 -9999 -9999 -9999 -9999 -9999
7.89 7.57 8.40 8.26 8.13 7.49 8.27 7.78 7.46 7.87 7.88 7.56 7.55 8.16 8.14 8.02 8.12 8.27 7.57 8.43 7.69 8.33 8.39 7.70 7.79 8.15 7.89 7.86 8.02 8.01 8.00 8.25 8.36 7.92 8.05 7.50 8.10 7.60 8.07 7.44 8.38 8.36 7.66 8.12 8.22 7.73 7.61 8.19 7.88 8.12 7.76 8.39 7.70 8.08 7.58 7.82 8.26 8.14 8.21 8.42 7.50 7.45 8.00 7.50 8.21 7.73 7.44 8.30 7.64 7.91 8.03 7.58 8.39 7.83 8.03 8.13 8.23 8.29 7.77 7.99 8.21 7.92 7.94 7.67 7.53 8.32 7.54 7.83 7.82 7.96 7.51 7.59 8.21 8.00 8.04 7.51 7.61 7.46 8.36 7.48 8.01 7.62 7.97 8.43 8.18 8.35 8.04 7.51 7.74 7.67 7.94 8.04 7.80 7.56 7.71 7.71 8.22 8.13 8.39 7.84 8.00 7.47 8.34 8.16 7.98 8.34 7.86 8.28 7.54 7.55 7.65 7.60 7.44 7.98 8.30 8.09 8.26 7.45 7.51 7.80 7.96 8.42 8.28 7.58 -9999 -9999 -9999 -9999 -9999 -9999 -9999 -9999 -9999 -9999 -9999 -9999 -9999 -9999 -9999 -9999 -9999 -9999 -9999 -9999 -9999 -9999 -9999 -9999 -9999 -9999 -9999 -9999 -9999 -9999 -9999 -9999 -9999 -9999 -9999 -9999 -9999 -9999 -9999 -9999 -9999 -9999 -9999 -9999 -9999 -9999 -9999 -9999 -9999 -9999 -9999 -9999 -9999 -9999 -9999 -9999 -9999 -9999 -9999 -9999 -9999 -9999 -9999 -9999 -9999 -9999 -9999 -9999 -9999 -9999 -9999
7.81 8.39 7.56 8.12 7.86 7.78 8.42 7.64 7.92 8.07 7.64 7.57 7.53 8.08 8.16 8.04 8.09 8.18 8.39 7.99 7.49 7.81 7.47 8.05 7.49 7.85 7.94 8.25 8.01 8.05 7.73 8.27 7.58 7.51 8.37 7.86 7.47 7.68 8.04 8.11 8.23 8.33 7.52 8.04 7.60 8.26 8.03 8.12 7.57 7.99 7.94 8.42 7.76 8.37 7.94 7.63 8.13 8.42 7.68 7.64 8.23 8.02 8.42 8.01 7.82 7.86 8.23 8.25 7.83 8.24 7.92 8.25 7.47 7.78 7.76 7.91 7.92 8.19 7.57 7.97 7.53 7.61 7.85 8.12 8.26 7.91 8.32 7.75 7.84 7.80 7.62 7.67 7.65 8.21 8.13 8.01 7.88 7.60 7.48 8.00 7.88 7.98 7.48 8.27 8.40 7.46 7.46 8.37 8.37 7.50 7.66 8.40 7.67 8.24 8.40 7.68 8.12 8.14 7.91 8.20 8.00 8.03 8.26 8.14 7.77 7.92 8.31 8.00 7.73 8.05 8.26 7.75 7.69 7.57 8.00 7.49 -9999 -9999 -9999 -9999 -9999 -9999 -9999 -9999 -9999 -9999 -9999 -9999 -9999 -9999 -9999 -9999 -9999 -9999 -9999 -9999 -9999 -9999 -9999 -9999 -9999 -9999 -9999 -9999 -9999 -9999 -9999 -9999 -9999 -9999 -9999 -9999 -9999 -9999 -9999 -9999 -9999 -9999 -9999 -9999 -9999 -9999 -9999 -9999 -9999 -9999 -9999 -9999 -9999 -9999 -9999 -9999 -9999 -9999 -9999 -9999 -9999 -9999 -9999 -9999 -9999 -9999 -9999 -9999 -9999 -9999 -9999 -9999 -9999 -9999 -9999 -9999 -9999 -9999 -9999
7.66 7.52 7.52 7.93 7.76 7.62 7.56 7.87 8.27 7.78 8.33 7.77 7.45 7.77 7.66 7.85 7.71 7.62 8.37 8.22 8.38 8.15 7.80 7.97 8.11 8.08 7.53 7.84 8.34 7.55 8.26 8.14 8.00 7.74 8.16 8.32 8.22 7.96 7.77 8.04 7.52 7.68 8.34 7.62 7.57 8.28 7.91 8.11 7.47 7.73 7.98 8.34 8.23 8.03 7.85 7.88 8.03 7.98 7.60 7.58 7.90 8.35 7.84 7.49 8.08 7.65 8.12 7.91 7.74 7.81 8.19 7.60 8.25 7.80 8.39 7.73 7.67 7.77 7.75 8.13 8.38 7.74 8.08 7.70 7.47 7.61 8.19 7.44 7.69 7.44 8.27 7.74 8.42 8.24 8.24 7.75 8.13 7.88 7.87 7.45 7.68 8.15 8.17 7.65 8.27 8.43 7.45 8.02 7.43 7.70 7.96 8.14 7.78 7.75 7.50 8.27 7.73 7.82 7.55 7.91 7.56 7.71 7.69 8.19 7.65 8.03 7.56 7.99 8.38 -9999 -9999 -9999 -9999 -9999 -9999 -9999 -9999 -9999 -9999 -9999 -9999 -9999 -9999 -9999 -9999 -9999 -9999 -9999 -9999 -9999 -9999 -9999 -9999 -9999 -9999 -9999 -9999 -9999 -9999 -9999 -9999 -9999 -9999 -9999 -9999 -9999 -9999 -9999 -9999 -9999 -9999 -9999 -9999 -9999 -9999 -9999 -9999 -9999 -9999 -9999 -9999 -9999 -9999 -9999 -9999 -9999 -9999 -9999 -9999 -9999 -9999 -9999 -9999 -9999 -9999 -9999 -9999 -9999 -9999 -9999 -9999 -9999 -9999 -9999 -9999 -9999 -9999 -9999 -9999 -9999 -9999 -9999 -9999 -9999 -9999
8.17 7.70 8.27 8.22 7.82 8.00 8.17 8.26 7.96 7.53 8.13 7.45 7.71 8.16 7.69 8.04 8.15 8.38 8.11 7.49 8.03 7.52 7.65 7.80 8.42 7.67 7.80 7.72 8.19 8.09 7.58 7.80 7.90 8.09 8.34 8.10 7.92 8.23 7.45 8.21 7.74 8.31 8.32 7.48 7.51 7.56 7.63 8.38 7.76 7.95 8.21 8.11 7.61 7.83 7.85 8.27 7.44 8.14 8.12 7.55 7.82 8.02 8.03 7.62 7.53 8.42 8.35 7.45 8.31 7.61 8.06 7.75 7.87 7.83 8.28 8.01 8.24 7.51 7.75 7.95 8.29 8.18 8.29 8.11 8.19 7.82 7.73 7.63 8.04 8.34 8.29 8.32 8.37 7.70 8.06 8.35 7.68 8.05 8.07 7.73 7.51 7.69 7.74 7.90 7.95 8.43 8.19 7.81 8.22 7.99 7.98 8.31 8.01 7.70 7.50 8.22 7.63 8.26 7.79 8.27 8.14 -9999 -9999 -9999 -9999 -9999 -9999 -9999 -9999 -9999 -9999 -9999 -9999 -9999 -9999 -9999 -9999 -9999 -9999 -9999 -9999 -9999 -9999 -9999 -9999 -9999 -9999 -9999 -9999 -9999 -9999 -9999 -9999 -9999 -9999 -9999 -9999 -9999 -9999 -9999 -9999 -9999 -9999 -9999 -9999 -9999 -9999 -9999 -9999 -9999 -9999 -9999 -9999 -9999 -9999 -9999 -9999 -9999 -9999 -9999 -9999 -9999 -9999 -9999 -9999 -9999 -9999 -9999 -9999 -9999 -9999 -9999 -9999 -9999 -9999 -9999 -9999 -9999 -9999 -9999 -9999 -9999 -9999 -9999 -9999 -9999 -9999 -9999 -9999 -9999 -9999 -9999 -9999 -9999 -9999
7.85 7.98 8.29 7.73 7.73 7.97 8.38 8.11 8.11 8.04 7.49 8.32 8.02 8.05 8.39 7.66 7.86 7.54 7.45 8.31 7.45 7.96 7.85 7.77 8.39 7.45 7.46 8.23 8.33 7.87 7.90 7.67 7.83 8.18 7.74 8.18 7.73 7.83 7.95 8.01 7.81 7.80 8.27 7.79 7.71 8.01 8.16 7.60 7.85 8.08 8.26 7.44 7.97 7.49 7.94 7.79 7.59 8.34 7.53 7.97 7.46 7.49 8.37 8.01 8.37 7.65 8.14 8.38 7.60 8.22 8.37 7.74 8.19 7.74 7.52 8.27 7.61 7.93 8.27 7.81 7.72 8.26 8.04 7.72 7.73 7.67 8.41 8.17 7.87 7.75 8.31 7.82 8.19 8.07 7.94 7.68 7.83 7.56 7.66 7.68 7.66 7.90 8.28 8.30 8.02 8.37 8.22 7.65 8.18 8.19 8.24 7.80 8.18 7.84 -9999 -9999 -9999 -9999 -9999 -9999 -9999 -9999 -9999 -9999 -9999 -9999 -9999 -9999 -9999 -9999 -9999 -9999 -9999 -9999 -9999 -9999 -9999 -9999 -9999 -9999 -9999 -9999 -9999 -9999 -9999 -9999 -9999 -9999 -9999 -9999 -9999 -9999 -9999 -9999 -9999 -9999 -9999 -9999 -9999 -9999 -9999 -9999 -9999 -9999 -9999 -9999 -9999 -9999 -9999 -9999 -9999 -9999 -9999 -9999 -9999 -9999 -9999 -9999 -9999 -9999 -9999 -9999 -9999 -9999 -9999 -9999 -9999 -9999 -9999 -9999 -9999 -9999 -9999 -9999 -9999 -9999 -9999 -9999 -9999 -9999 -9999 -9999 -9999 -9999 -9999 -9999 -9999 -9999 -9999 -9999 -9999 -9999 -9999 -9999 -9999
8.41 7.96 7.82 7.80 7.62 8.33 7.69 8.32 7.99 8.03 7.61 7.76 7.82 7.52 7.54 7.73 7.69 7.73 7.95 8.30 7.49 7.93 8.27 7.93 8.39 7.64 7.47 7.62 8.25 8.04 8.14 8.14 8.04 7.61 8.22 8.09 8.30 7.92 7.92 7.72 8.35 7.51 8.41 8.33 7.66 8.40 8.08 7.47 7.53 7.86 7.86 7.48 7.64 7.92 8.14 8.06 7.72 7.60 8.24 8.14 7.52 8.06 7.66 7.71 7.94 8.02 8.29 8.12 8.05 7.47 7.95 8.11 8.29 7.99 7.59 7.59 8.08 7.97 8.27 7.58 8.29 8.31 7.85 7.87 7.65 8.17 8.21 7.95 7.79 7.60 7.98 8.43 8.40 8.27 8.07 7.52 7.85 8.22 7.91 8.25 7.48 7.80 7.44 8.04 7.79 7.92 -9999 -9999 -9999 -9999 -9999 -9999 -9999 -9999 -9999 -9999 -9999 -9999 -9999 -9999 -9999 -9999 -9999 -9999 -9999 -9999 -9999 -9999 -9999 -9999 -9999 -9999 -9999 -9999 -9999 -9999 -9999 -9999 -9999 -9999 -9999 -9999 -9999 -9999 -9999 -9999 -9999 -9999 -9999 -9999 -9999 -9999 -9999 -9999 -9999 -9999 -9999 -9999 -9999 -9999 -9999 -9999 -9999 -9999 -9999 -9999 -9999 -9999 -9999 -9999 -9999 -9999 -9999 -9999 -9999 -9999 -9999 -9999 -9999 -9999 -9999 -9999 -9999 -9999 -9999 -9999 -9999 -9999 -9999 -9999 -9999 -9999 -9999 -9999 -9999 -9999 -9999 -9999 -9999 -9999 -9999 -9999 -9999 -9999 -9999 -9999 -9999 -9999 -9999 -9999 -9999 -9999 -9999 -9999 -9999
8.32 7.73 7.73 7.94 8.09 8.20 7.73 7.61 7.90 7.81 8.29 8.15 7.72 8.30 8.10 7.66 7.83 7.71 7.71 8.21 8.41 8.15 7.69 7.46 7.68 8.22 8.16 7.74 8.37 7.93 7.89 7.44 8.04 8.23 7.76 7.94 8.39 7.86 8.13 8.42 8.27 8.09 8.24 8.37 8.36 7.56 8.26 8.32 7.89 7.52 8.28 8.09 8.29 8.17 7.92 7.89 7.57 8.24 7.97 8.27 7.72 7.72 8.43 7.47 7.72 8.25 7.56 8.14 8.30 8.05 7.80 8.35 7.81 7.63 7.51 7.87 8.22 7.72 8.34 7.64 7.61 8.34 8.13 7.59 7.51 8.38 8.05 7.65 7.54 8.17 7.63 7.56 7.63 7.82 8.00 7.93 7.76 7.96 -9999 -9999 -9999 -9999 -9999 -9999 -9999 -9999 -9999 -9999 -9999 -9999 -9999 -9999 -9999 -9999 -9999 -9999 -9999 -9999 -9999 -9999 -9999 -9999 -9999 -9999 -9999 -9999 -9999 -9999 -9999 -9999 -9999 -9999 -9999 -9999 -9999 -9999 -9999 -9999 -9999 -9999 -9999 -9999 -9999 -9999 -9999 -9999 -9999 -9999 -9999 -9999 -9999 -9999 -9999 -9999 -9999 -9999 -9999 -9999 -9999 -9999 -9999 -9999 -9999 -9999 -9999 -9999 -9999 -9999 -9999 -9999 -9999 -9999 -9999 -9999 -9999 -9999 -9999 -9999 -9999 -9999 -9999 -9999 -9999 -9999 -9999 -9999 -9999 -9999 -9999 -9999 -9999 -9999 -9999 -9999 -9999 -9999 -9999 -9999 -9999 -9999 -9999 -9999 -9999 -9999 -9999 -9999 -9999 -9999 -9999 -9999 -9999 -9999 -9999 -9999 -9999
7.52 8.31 8.24 8.05 8.38 8.43 7.63 8.30 8.20 8.08 8.23 7.62 7.89 8.09 7.79 8.22 7.83 8.00 7.95 8.26 7.80 8.17 7.69 7.62 7.65 7.59 7.83 8.40 8.42 8.31 7.52 7.47 8.30 7.74 7.67 7.46 8.02 8.15 7.88 7.83 7.54 8.07 8.21 8.06 7.98 7.82 8.33 7.43 7.88 7.88 8.00 7.52 8.37 7.79 7.72 8.10 8.32 7.46 7.95 8.12 8.36 8.01 7.94 7.46 7.96 7.70 8.09 7.56 7.95 8.14 8.38 8.35 7.69 7.99 8.01 8.21 7.81 7.53 7.75 7.97 7.50 8.25 7.99 8.27 8.33 7.66 7.86 7.64 7.94 8.18 -9999 -9999 -9999 -9999 -9999 -9999 -9999 -9999 -9999 -9999 -9999 -9999 -9999 -9999 -9999 -9999 -9999 -9999 -9999 -9999 -9999 -9999 -9999 -9999 -9999 -9999 -9999 -9999 -9999 -9999 -9999 -9999 -9999 -9999 -9999 -9999 -9999 -9999 -9999 -9999 -9999 -9999 -9999 -9999 -9999 -9999 -9999 -9999 -9999 -9999 -9999 -9999 -9999 -9999 -9999 -9999 -9999 -9999 -9999 -9999 -9999 -9999 -9999 -9999 -9999 -9999 -9999 -9999 -9999 -9999 -9999 -9999 -9999 -9999 -9999 -9999 -9999 -9999 -9999 -9999 -9999 -9999 -9999 -9999 -9999 -9999 -9999 -9999 -9999 -9999 -9999 -9999 -9999 -9999 -9999 -9999 -9999 -9999 -9999 -9999 -9999 -9999 -9999 -9999 -9999 -9999 -9999 -9999 -9999 -9999 -9999 -9999 -9999 -9999 -9999 -9999 -9999 -9999 -9999 -9999 -9999 -9999 -9999 -9999 -9999
7.80 8.10 7.62 7.76 8.20 8.30 8.10 7.97 7.84 7.56 8.04 8.36 7.45 7.64 7.91 8.22 7.80 7.86 7.59 7.64 7.55 7.77 7.96 8.15 8.15 8.36 8.29 7.60 7.57 7.53 8.15 7.61 7.44 8.09 8.05 7.64 7.59 8.34 7.99 7.83 8.41 8.36 7.52 7.89 8.20 7.55 8.16 8.28 7.69 7.73 7.76 8.09 8.42 8.29 8.34 7.71 8.04 7.71 8.24 7.46 7.95 7.64 8.12 8.35 7.49 7.91 8.04 8.01 7.67 7.75 7.82 7.57 7.61 8.36 7.95 8.26 7.48 8.05 8.08 7.77 7.57 7.72 -9999 -9999 -9999 -9999 -9999 -9999 -9999 -9999 -9999 -9999 -9999 -9999 -9999 -9999 -9999 -9999 -9999 -9999 -9999 -9999 -9999 -9999 -9999 -9999 -9999 -9999 -9999 -9999 -9999 -9999 -9999 -9999 -9999 -9999 -9999 -9999 -9999 -9999 -9999 -9999 -9999 -9999 -9999 -9999 -9999 -9999 -9999 -9999 -9999 -9999 -9999 -9999 -9999 -9999 -9999 -9999 -9999 -9999 -9999 -9999 -9999 -9999 -9999 -9999 -9999 -9999 -9999 -9999 -9999 -9999 -9999 -9999 -9999 -9999 -9999 -9999 -9999 -9999 -9999 -9999 -9999 -9999 -9999 -9999 -9999 -9999 -9999 -9999 -9999 -9999 -9999 -9999 -9999 -9999 -9999 -9999 -9999 -9999 -9999 -9999 -9999 -9999 -9999 -9999 -9999 -9999 -9999 -9999 -9999 -9999 -9999 -9999 -9999 -9999 -9999 -9999 -9999 -9999 -9999 -9999 -9999 -9999 -9999 -9999 -9999 -9999 -9999 -9999 -9999 -9999 -9999 -9999 -9999
7.83 7.79 7.50 8.26 7.76 8.34 8.36 8.09 7.47 8.35 8.04 7.50 7.97 8.35 8.06 7.66 8.03 8.03 8.07 7.83 7.86 8.16 8.38 7.55 8.19 8.09 8.35 8.23 8.04 7.86 7.89 8.09 7.71 7.60 7.99 8.27 7.70 8.06 7.92 7.78 8.21 8.43 8.24 7.75 8.16 7.75 8.30 8.41 7.55 8.04 8.28 8.02 7.44 7.93 8.11 7.59 7.50 8.29 8.04 7.82 8.30 8.10 8.12 8.11 8.05 8.27 7.54 8.17 8.19 8.15 8.13 7.77 7.83 7.77 -9999 -9999 -9999 -9999 -9999 -9999 -9999 -9999 -9999 -9999 -9999 -9999 -9999 -9999 -9999 -9999 -9999 -9999 -9999 -9999 -9999 -9999 -9999 -9999 -9999 -9999 -9999 -9999 -9999 -9999 -9999 -9999 -9999 -9999 -9999 -9999 -9999 -9999 -9999 -9999 -9999 -9999 -9999 -9999 -9999 -9999 -9999 -9999 -9999 -9999 -9999 -9999 -9999 -9999 -9999 -9999 -9999 -9999 -9999 -9999 -9999 -9999 -9999 -9999 -9999 -9999 -9999 -9999 -9999 -9999 -9999 -9999 -9999 -9999 -9999 -9999 -9999 -9999 -9999 -9999 -9999 -9999 -9999 -9999 -9999 -9999 -9999 -9999 -9999 -9999 -9999 -9999 -9999 -9999 -9999 -9999 -9999 -9999 -9999 -9999 -9999 -9999 -9999 -9999 -9999 -9999 -9999 -9999 -9999 -9999 -9999 -9999 -9999 -9999 -9999 -9999 -9999 -9999 -9999 -9999 -9999 -9999 -9999 -9999 -9999 -9999 -9999 -9999 -9999 -9999 -9999 -9999 -9999 -9999 -9999 -9999 -9999 -9999 -9999 -9999 -9999
7.61 7.74 8.40 7.69 8.07 8.34 8.32 8.24 7.69 7.62 7.81 8.01 8.17 8.21 8.09 7.89 8.41 7.46 7.57 7.67 7.97 7.51 7.66 7.66 7.51 7.86 7.79 7.70 7.46 7.50 8.13 7.80 8.42 8.14 8.00 8.06 7.55 7.86 7.46 7.98 7.48 8.13 8.27 7.44 8.41 8.21 7.75 7.77 7.46 8.20 7.72 8.42 7.74 8.19 7.60 7.92 7.69 7.90 8.20 7.75 8.00 7.54 7.78 7.61 7.86 7.88 -9999 -9999 -9999 -9999 -9999 -9999 -9999 -9999 -9999 -9999 -9999 -9999 -9999 -9999 -9999 -9999 -9999 -9999 -9999 -9999 -9999 -9999 -9999 -9999 -9999 -9999 -9999 -9999 -9999 -9999 -9999 -9999 -9999 -9999 -9999 -9999 -9999 -9999 -9999 -9999 -9999 -9999 -9999 -9999 -9999 -9999 -9999 -9999 -9999 -9999 -9999 -9999 -9999 -9999 -9999 -9999 -9999 -9999 -9999 -9999 -9999 -9999 -9999 -9999 -9999 -9999 -9999 -9999 -9999 -9999 -9999 -9999 -9999 -9999 -9999 -9999 -9999 -9999 -9999 -9999 -9999 -9999 -9999 -9999 -9999 -9999 -9999 -9999 -9999 -9999 -9999 -9999 -9999 -9999 -9999 -9999 -9999 -9999 -9999 -9999 -9999 -9999 -9999 -9999 -9999 -9999 -9999 -9999 -9999 -9999 -9999 -9999 -9999 -9999 -9999 -9999 -9999 -9999 -9999 -9999 -9999 -9999 -9999 -9999 -9999 -9999 -9999 -9999 -9999 -9999 -9999 -9999 -9999 -9999 -9999 -9999 -9999 -9999 -9999 -9999 -9999 -9999 -9999 -9999 -9999 -9999 -9999 -9999 -9999
7.66 8.43 8.31 7.90 7.46 8.25 7.84 8.11 8.11 8.39 7.69 8.16 7.54 7.68 7.71 7.80 8.43 7.79 7.79 7.67 7.49 8.30 8.39 8.33 7.83 7.92 7.51 7.67 8.23 8.18 8.05 7.74 7.94 7.57 7.75 8.25 7.97 7.59 7.99 7.53 8.33 7.86 7.76 7.99 7.53 7.75 7.88 8.20 7.79 7.69 8.03 7.65 8.05 7.51 7.57 7.73 7.69 -9999 -9999 -9999 -9999 -9999 -9999 -9999 -9999 -9999 -9999 -9999 -9999 -9999 -9999 -9999 -9999 -9999 -9999 -9999 -9999 -9999 -9999 -9999 -9999 -9999 -9999 -9999 -9999 -9999 -9999 -9999 -9999 -9999 -9999 -9999 -9999 -9999 -9999 -9999 -9999 -9999 -9999 -9999 -9999 -9999 -9999 -9999 -9999 -9999 -9999 -9999 -9999 -9999 -9999 -9999 -9999 -9999 -9999 -9999 -9999 -9999 -9999 -9999 -9999 -9999 -9999 -9999 -9999 -9999 -9999 -9999 -9999 -9999 -9999 -9999 -9999 -9999 -9999 -9999 -9999 -9999 -9999 -9999 -9999 -9999 -9999 -9999 -9999 -9999 -9999 -9999 -9999 -9999 -9999 -9999 -9999 -9999 -9999 -9999 -9999 -9999 -9999 -9999 -9999 -9999 -9999 -9999 -9999 -9999 -9999 -9999 -9999 -9999 -9999 -9999 -9999 -9999 -9999 -9999 -9999 -9999 -9999 -9999 -9999 -9999 -9999 -9999 -9999 -9999 -9999 -9999 -9999 -9999 -9999 -9999 -9999 -9999 -9999 -9999 -9999 -9999 -9999 -9999 -9999 -9999 -9999 -9999 -9999 -9999 -9999 -9999 -9999 -9999 -9999 -9999 -9999 -9999 -9999
7.93 7.51 7.58 8.09 7.97 7.96 7.64 7.98 7.71 8.23 8.22 7.76 8.09 8.11 8.28 7.65 8.10 8.23 7.50 7.52 7.88 8.20 7.60 7.57 8.10 7.47 8.16 7.47 7.93 7.68 7.71 8.38 7.74 7.82 7.88 8.43 7.86 7.90 7.52 8.19 7.60 7.50 8.22 8.02 7.52 8.05 8.17 8.08 7.68 -9999 -9999 -9999 -9999 -9999 -9999 -9999 -9999 -9999 -9999 -9999 -9999 -9999 -9999 -9999 -9999 -9999 -9999 -9999 -9999 -9999 -9999 -9999 -9999 -9999 -9999 -9999 -9999 -9999 -9999 -9999 -9999 -9999 -9999 -9999 -9999 -9999 -9999 -9999 -9999 -9999 -9999 -9999 -9999 -9999 -9999 -9999 -9999 -9999 -9999 -9999 -9999 -9999 -9999 -9999 -9999 -9999 -9999 -9999 -9999 -9999 -9999 -9999 -9999 -9999 -9999 -9999 -9999 -9999 -9999 -9999 -9999 -9999 -9999 -9999 -9999 -9999 -9999 -9999 -9999 -9999 -9999 -9999 -9999 -9999 -9999 -9999 -9999 -9999 -9999 -9999 -9999 -9999 -9999 -9999 -9999 -9999 -9999 -9999 -9999 -9999 -9999 -9999 -9999 -9999 -9999 -9999 -9999 -9999 -9999 -9999 -9999 -9999 -9999 -9999 -9999 -9999 -9999 -9999 -9999 -9999 -9999 -9999 -9999 -9999 -9999 -9999 -9999 -9999 -9999 -9999 -9999 -9999 -9999 -9999 -9999 -9999 -9999 -9999 -9999 -9999 -9999 -9999 -9999 -9999 -9999 -9999 -9999 -9999 -9999 -9999 -9999 -9999 -9999 -9999 -9999 -9999 -9999 -9999 -9999 -9999 -9999 -9999 -9999 -9999 -9999
8.00 7.64 8.16 8.32 7.69 7.67 7.75 8.39 7.46 8.36 8.07 8.40 8.35 7.59 8.02 7.69 7.96 7.86 7.66 7.85 8.30 7.76 7.45 7.65 7.49 7.98 8.18 7.82 7.56 7.52 7.61 7.64 8.12 7.52 7.78 8.09 8.36 7.60 7.53 8.17 -9999 -9999 -9999 -9999 -9999 -9999 -9999 -9999 -9999 -9999 -9999 -9999 -9999 -9999 -9999 -9999 -9999 -9999 -9999 -9999 -9999 -9999 -9999 -9999 -9999 -9999 -9999 -9999 -9999 -9999 -9999 -9999 -9999 -9999 -9999 -9999 -9999 -9999 -9999 -9999 -9999 -9999 -9999 -9999 -9999 -9999 -9999 -9999 -9999 -9999 -9999 -9999 -9999 -9999 -9999 -9999 -9999 -9999 -9999 -9999 -9999 -9999 -9999 -9999 -9999 -9999 -9999 -9999 -9999 -9999 -9999 -9999 -9999 -9999 -9999 -9999 -9999 -9999 -9999 -9999 -9999 -9999 -9999 -9999 -9999 -9999 -9999 -9999 -9999 -9999 -9999 -9999 -9999 -9999 -9999 -9999 -9999 -9999 -9999 -9999 -9999 -9999 -9999 -9999 -9999 -9999 -9999 -9999 -9999 -9999 -9999 -9999 -9999 -9999 -9999 -9999 -9999 -9999 -9999 -9999 -9999 -9999 -9999 -9999 -9999 -9999 -9999 -9999 -9999 -9999 -9999 -9999 -9999 -9999 -9999 -9999 -9999 -9999 -9999 -9999 -9999 -9999 -9999 -9999 -9999 -9999 -9999 -9999 -9999 -9999 -9999 -9999 -9999 -9999 -9999 -9999 -9999 -9999 -9999 -9999 -9999 -9999 -9999 -9999 -9999 -9999 -9999 -9999 -9999 -9999 -9999 -9999 -9999 -9999 -9999
7.47 7.58 8.21 7.83 7.55 8.29 7.65 8.05 8.02 7.98 7.74 8.29 8.29 8.39 7.93 8.34 8.25 7.51 8.06 8.06 8.12 7.57 7.77 8.00 8.21 7.81 7.46 8.08 7.53 8.42 8.06 -9999 -9999 -9999 -9999 -9999 -9999 -9999 -9999 -9999 -9999 -9999 -9999 -9999 -9999 -9999 -9999 -9999 -9999 -9999 -9999 -9999 -9999 -9999 -9999 -9999 -9999 -9999 -9999 -9999 -9999 -9999 -9999 -9999 -9999 -9999 -9999 -9999 -9999 -9999 -9999 -9999 -9999 -9999 -9999 -9999 -9999 -9999 -9999 -9999 -9999 -9999 -9999 -9999 -9999 -9999 -9999 -9999 -9999 -9999 -9999 -9999 -9999 -9999 -9999 -9999 -9999 -9999 -9999 -9999 -9999 -9999 -9999 -9999 -9999 -9999 -9999 -9999 -9999 -9999 -9999 -9999 -9999 -9999 -9999 -9999 -9999 -9999 -9999 -9999 -9999 -9999 -9999 -9999 -9999 -9999 -9999 -9999 -9999 -9999 -9999 -9999 -9999 -9999 -9999 -9999 -9999 -9999 -9999 -9999 -9999 -9999 -9999 -9999 -9999 -9999 -9999 -9999 -9999 -9999 -9999 -9999 -9999 -9999 -9999 -9999 -9999 -9999 -9999 -9999 -9999 -9999 -9999 -9999 -9999 -9999 -9999 -9999 -9999 -9999 -9999 -9999 -9999 -9999 -9999 -9999 -9999 -9999 -9999 -9999 -9999 -9999 -9999 -9999 -9999 -9999 -9999 -9999 -9999 -9999 -9999 -9999 -9999 -9999 -9999 -9999 -9999 -9999 -9999 -9999 -9999 -9999 -9999 -9999 -9999 -9999 -9999 -9999 -9999 -9999 -9999 -9999 -9999 -9999 -9999
7.56 7.79 7.94 7.77 8.28 8.21 8.18 8.38 7.95 7.90 7.95 7.84 7.82 7.46 7.54 7.73 8.17 7.55 7.55 8.24 7.57 8.25 -9999 -9999 -9999 -9999 -9999 -9999 -9999 -9999 -9999 -9999 -9999 -9999 -9999 -9999 -9999 -9999 -9999 -9999 -9999 -9999 -9999 -9999 -9999 -9999 -9999 -9999 -9999 -9999 -9999 -9999 -9999 -9999 -9999 -9999 -9999 -9999 -9999 -9999 -9999 -9999 -9999 -9999 -9999 -9999 -9999 -9999 -9999 -9999 -9999 -9999 -9999 -9999 -9999 -9999 -9999 -9999 -9999 -9999 -9999 -9999 -9999 -9999 -9999 -9999 -9999 -9999 -9999 -9999 -9999 -9999 -9999 -9999 -9999 -9999 -9999 -9999 -9999 -9999 -9999 -9999 -9999 -9999 -9999 -9999 -9999 -9999 -9999 -9999 -9999 -9999 -9999 -9999 -9999 -9999 -9999 -9999 -9999 -9999 -9999 -9999 -9999 -9999 -9999 -9999 -9999 -9999 -9999 -9999 -9999 -9999 -9999 -9999 -9999 -9999 -9999 -9999 -9999 -9999 -9999 -9999 -9999 -9999 -9999 -9999 -9999 -9999 -9999 -9999 -9999 -9999 -9999 -9999 -9999 -9999 -9999 -9999 -9999 -9999 -9999 -9999 -9999 -9999 -9999 -9999 -9999 -9999 -9999 -9999 -9999 -9999 -9999 -9999 -9999 -9999 -9999 -9999 -9999 -9999 -9999 -9999 -9999 -9999 -9999 -9999 -9999 -9999 -9999 -9999 -9999 -9999 -9999 -9999 -9999 -9999 -9999 -9999 -9999 -9999 -9999 -9999 -9999 -9999 -9999 -9999 -9999 -9999 -9999 -9999 -9999 -9999 -9999 -9999 -9999
7.88 7.79 7.83 8.30 7.60 7.92 8.43 7.71 8.20 7.66 8.12 7.58 8.27 -9999 -9999 -9999 -9999 -9999 -9999 -9999 -9999 -9999 -9999 -9999 -9999 -9999 -9999 -9999 -9999 -9999 -9999 -9999 -9999 -9999 -9999 -9999 -9999 -9999 -9999 -9999 -9999 -9999 -9999 -9999 -9999 -9999 -9999 -9999 -9999 -9999 -9999 -9999 -9999 -9999 -9999 -9999 -9999 -9999 -9999 -9999 -9999 -9999 -9999 -9999 -9999 -9999 -9999 -9999 -9999 -9999 -9999 -9999 -9999 -9999 -9999 -9999 -9999 -9999 -9999 -9999 -9999 -9999 -9999 -9999 -9999 -9999 -9999 -9999 -9999 -9999 -9999 -9999 -9999 -9999 -9999 -9999 -9999 -9999 -9999 -9999 -9999 -9999 -9999 -9999 -9999 -9999 -9999 -9999 -9999 -9999 -9999 -9999 -9999 -9999 -9999 -9999 -9999 -9999 -9999 -9999 -9999 -9999 -9999 -9999 -9999 -9999 -9999 -9999 -9999 -9999 -9999 -9999 -9999 -9999 -9999 -9999 -9999 -9999 -9999 -9999 -9999 -9999 -9999 -9999 -9999 -9999 -9999 -9999 -9999 -9999 -9999 -9999 -9999 -9999 -9999 -9999 -9999 -9999 -9999 -9999 -9999 -9999 -9999 -9999 -9999 -9999 -9999 -9999 -9999 -9999 -9999 -9999 -9999 -9999 -9999 -9999 -9999 -9999 -9999 -9999 -9999 -9999 -9999 -9999 -9999 -9999 -9999 -9999 -9999 -9999 -9999 -9999 -9999 -9999 -9999 -9999 -9999 -9999 -9999 -9999 -9999 -9999 -9999 -9999 -9999 -9999 -9999 -9999 -9999 -9999 -9999 -9999 -9999 -9999 -9999
7.70 7.77 8.05 -9999 -9999 -9999 -9999 -9999 -9999 -9999 -9999 -9999 -9999 -9999 -9999 -9999 -9999 -9999 -9999 -9999 -9999 -9999 -9999 -9999 -9999 -9999 -9999 -9999 -9999 -9999 -9999 -9999 -9999 -9999 -9999 -9999 -9999 -9999 -9999 -9999 -9999 -9999 -9999 -9999 -9999 -9999 -9999 -9999 -9999 -9999 -9999 -9999 -9999 -9999 -9999 -9999 -9999 -9999 -9999 -9999 -9999 -9999 -9999 -9999 -9999 -9999 -9999 -9999 -9999 -9999 -9999 -9999 -9999 -9999 -9999 -9999 -9999 -9999 -9999 -9999 -9999 -9999 -9999 -9999 -9999 -9999 -9999 -9999 -9999 -9999 -9999 -9999 -9999 -9999 -9999 -9999 -9999 -9999 -9999 -9999 -9999 -9999 -9999 -9999 -9999 -9999 -9999 -9999 -9999 -9999 -9999 -9999 -9999 -9999 -9999 -9999 -9999 -9999 -9999 -9999 -9999 -9999 -9999 -9999 -9999 -9999 -9999 -9999 -9999 -9999 -9999 -9999 -9999 -9999 -9999 -9999 -9999 -9999 -9999 -9999 -9999 -9999 -9999 -9999 -9999 -9999 -9999 -9999 -9999 -9999 -9999 -9999 -9999 -9999 -9999 -9999 -9999 -9999 -9999 -9999 -9999 -9999 -9999 -9999 -9999 -9999 -9999 -9999 -9999 -9999 -9999 -9999 -9999 -9999 -9999 -9999 -9999 -9999 -9999 -9999 -9999 -9999 -9999 -9999 -9999 -9999 -9999 -9999 -9999 -9999 -9999 -9999 -9999 -9999 -9999 -9999 -9999 -9999 -9999 -9999 -9999 -9999 -9999 -9999 -9999 -9999 -9999 -9999 -9999 -9999 -9999 -9999 -9999 -9999 -9999
-9999 -9999 -9999 -9999 -9999 -9999 -9999 -9999 -9999 -9999 -9999 -9999 -9999 -9999 -9999 -9999 -9999 -9999 -9999 -9999 -9999 -9999 -9999 -9999 -9999 -9999 -9999 -9999 -9999 -9999 -9999 -9999 -9999 -9999 -9999 -9999 -9999 -9999 -9999 -9999 -9999 -9999 -9999 -9999 -9999 -9999 -9999 -9999 -9999 -9999 -9999 -9999 -9999 -9999 -9999 -9999 -9999 -9999 -9999 -9999 -9999 -9999 -9999 -9999 -9999 -9999 -9999 -9999 -9999 -9999 -9999 -9999 -9999 -9999 -9999 -9999 -9999 -9999 -9999 -9999 -9999 -9999 -9999 -9999 -9999 -9999 -9999 -9999 -9999 -9999 -9999 -9999 -9999 -9999 -9999 -9999 -9999 -9999 -9999 -9999 -9999 -9999 -9999 -9999 -9999 -9999 -9999 -9999 -9999 -9999 -9999 -9999 -9999 -9999 -9999 -9999 -9999 -9999 -9999 -9999 -9999 -9999 -9999 -9999 -9999 -9999 -9999 -9999 -9999 -9999 -9999 -9999 -9999 -9999 -9999 -9999 -9999 -9999 -9999 -9999 -9999 -9999 -9999 -9999 -9999 -9999 -9999 -9999 -9999 -9999 -9999 -9999 -9999 -9999 -9999 -9999 -9999 -9999 -9999 -9999 -9999 -9999 -9999 -9999 -9999 -9999 -9999 -9999 -9999 -9999 -9999 -9999 -9999 -9999 -9999 -9999 -9999 -9999 -9999 -9999 -9999 -9999 -9999 -9999 -9999 -9999 -9999 -9999 -9999 -9999 -9999 -9999 -9999 -9999 -9999 -9999 -9999 -9999 -9999 -9999 -9999 -9999 -9999 -9999 -9999 -9999 -9999 -9999 -9999 -9999 -9999 -9999 -9999 -9999 -9999
-9999 -9999 -9999 -9999 -9999 -9999 -9999 -9999 -9999 -9999 -9999 -9999 -9999 -9999 -9999 -9999 -9999 -9999 -9999 -9999 -9999 -9999 -9999 -9999 -9999 -9999 -9999 -9999 -9999 -9999 -9999 -9999 -9999 -9999 -9999 -9999 -9999 -9999 -9999 -9999 -9999 -9999 -9999 -9999 -9999 -9999 -9999 -9999 -9999 -9999 -9999 -9999 -9999 -9999 -9999 -9999 -9999 -9999 -9999 -9999 -9999 -9999 -9999 -9999 -9999 -9999 -9999 -9999 -9999 -9999 -9999 -9999 -9999 -9999 -9999 -9999 -9999 -9999 -9999 -9999 -9999 -9999 -9999 -9999 -9999 -9999 -9999 -9999 -9999 -9999 -9999 -9999 -9999 -9999 -9999 -9999 -9999 -9999 -9999 -9999 -9999 -9999 -9999 -9999 -9999 -9999 -9999 -9999 -9999 -9999 -9999 -9999 -9999 -9999 -9999 -9999 -9999 -9999 -9999 -9999 -9999 -9999 -9999 -9999 -9999 -9999 -9999 -9999 -9999 -9999 -9999 -9999 -9999 -9999 -9999 -9999 -9999 -9999 -9999 -9999 -9999 -9999 -9999 -9999 -9999 -9999 -9999 -9999 -9999 -9999 -9999 -9999 -9999 -9999 -9999 -9999 -9999 -9999 -9999 -9999 -9999 -9999 -9999 -9999 -9999 -9999 -9999 -9999 -9999 -9999 -9999 -9999 -9999 -9999 -9999 -9999 -9999 -9999 -9999 -9999 -9999 -9999 -9999 -9999 -9999 -9999 -9999 -9999 -9999 -9999 -9999 -9999 -9999 -9999 -9999 -9999 -9999 -9999 -9999 -9999 -9999 -9999 -9999 -9999 -9999 -9999 -9999 -9999 -9999 -9999 -9999 -9999 -9999 -9999 -9999
-9999 -9999 -9999 -9999 -9999 -9999 -9999 -9999 -9999 -9999 -9999 -9999 -9999 -9999 -9999 -9999 -9999 -9999 -9999 -9999 -9999 -9999 -9999 -9999 -9999 -9999 -9999 -9999 -9999 -9999 -9999 -9999 -9999 -9999 -9999 -9999 -9999 -9999 -9999 -9999 -9999 -9999 -9999 -9999 -9999 -9999 -9999 -9999 -9999 -9999 -9999 -9999 -9999 -9999 -9999 -9999 -9999 -9999 -9999 -9999 -9999 -9999 -9999 -9999 -9999 -9999 -9999 -9999 -9999 -9999 -9999 -9999 -9999 -9999 -9999 -9999 -9999 -9999 -9999 -9999 -9999 -9999 -9999 -9999 -9999 -9999 -9999 -9999 -9999 -9999 -9999 -9999 -9999 -9999 -9999 -9999 -9999 -9999 -9999 -9999 -9999 -9999 -9999 -9999 -9999 -9999 -9999 -9999 -9999 -9999 -9999 -9999 -9999 -9999 -9999 -9999 -9999 -9999 -9999 -9999 -9999 -9999 -9999 -9999 -9999 -9999 -9999 -9999 -9999 -9999 -9999 -9999 -9999 -9999 -9999 -9999 -9999 -9999 -9999 -9999 -9999 -9999 -9999 -9999 -9999 -9999 -9999 -9999 -9999 -9999 -9999 -9999 -9999 -9999 -9999 -9999 -9999 -9999 -9999 -9999 -9999 -9999 -9999 -9999 -9999 -9999 -9999 -9999 -9999 -9999 -9999 -9999 -9999 -9999 -9999 -9999 -9999 -9999 -9999 -9999 -9999 -9999 -9999 -9999 -9999 -9999 -9999 -9999 -9999 -9999 -9999 -9999 -9999 -9999 -9999 -9999 -9999 -9999 -9999 -9999 -9999 -9999 -9999 -9999 -9999 -9999 -9999 -9999 -9999 -9999 -9999 -9999 -9999 -9999 -9999
-9999 -9999 -9999 -9999 -9999 -9999 -9999 -9999 -9999 -9999 -9999 -9999 -9999 -9999 -9999 -9999 -9999 -9999 -9999 -9999 -9999 -9999 -9999 -9999 -9999 -9999 -9999 -9999 -9999 -9999 -9999 -9999 -9999 -9999 -9999 -9999 -9999 -9999 -9999 -9999 -9999 -9999 -9999 -9999 -9999 -9999 -9999 -9999 -9999 -9999 -9999 -9999 -9999 -9999 -9999 -9999 -9999 -9999 -9999 -9999 -9999 -9999 -9999 -9999 -9999 -9999 -9999 -9999 -9999 -9999 -9999 -9999 -9999 -9999 -9999 -9999 -9999 -9999 -9999 -9999 -9999 -9999 -9999 -9999 -9999 -9999 -9999 -9999 -9999 -9999 -9999 -9999 -9999 -9999 -9999 -9999 -9999 -9999 -9999 -9999 -9999 -9999 -9999 -9999 -9999 -9999 -9999 -9999 -9999 -9999 -9999 -9999 -9999 -9999 -9999 -9999 -9999 -9999 -9999 -9999 -9999 -9999 -9999 -9999 -9999 -9999 -9999 -9999 -9999 -9999 -9999 -9999 -9999 -9999 -9999 -9999 -9999 -9999 -9999 -9999 -9999 -9999 -9999 -9999 -9999 -9999 -9999 -9999 -9999 -9999 -9999 -9999 -9999 -9999 -9999 -9999 -9999 -9999 -9999 -9999 -9999 -9999 -9999 -9999 -9999 -9999 -9999 -9999 -9999 -9999 -9999 -9999 -9999 -9999 -9999 -9999 -9999 -9999 -9999 -9999 -9999 -9999 -9999 -9999 -9999 -9999 -9999 -9999 -9999 -9999 -9999 -9999 -9999 -9999 -9999 -9999 -9999 -9999 -9999 -9999 -9999 -9999 -9999 -9999 -9999 -9999 -9999 -9999 -9999 -9999 -9999 -9999 -9999 -9999 -9999
-9999 -9999 -9999 -9999 -9999 -9999 -9999 -9999 -9999 -9999 -9999 -9999 -9999 -9999 -9999 -9999 -9999 -9999 -9999 -9999 -9999 -9999 -9999 -9999 -9999 -9999 -9999 -9999 -9999 -9999 -9999 -9999 -9999 -9999 -9999 -9999 -9999 -9999 -9999 -9999 -9999 -9999 -9999 -9999 -9999 -9999 -9999 -9999 -9999 -9999 -9999 -9999 -9999 -9999 -9999 -9999 -9999 -9999 -9999 -9999 -9999 -9999 -9999 -9999 -9999 -9999 -9999 -9999 -9999 -9999 -9999 -9999 -9999 -9999 -9999 -9999 -9999 -9999 -9999 -9999 -9999 -9999 -9999 -9999 -9999 -9999 -9999 -9999 -9999 -9999 -9999 -9999 -9999 -9999 -9999 -9999 -9999 -9999 -9999 -9999 -9999 -9999 -9999 -9999 -9999 -9999 -9999 -9999 -9999 -9999 -9999 -9999 -9999 -9999 -9999 -9999 -9999 -9999 -9999 -9999 -9999 -9999 -9999 -9999 -9999 -9999 -9999 -9999 -9999 -9999 -9999 -9999 -9999 -9999 -9999 -9999 -9999 -9999 -9999 -9999 -9999 -9999 -9999 -9999 -9999 -9999 -9999 -9999 -9999 -9999 -9999 -9999 -9999 -9999 -9999 -9999 -9999 -9999 -9999 -9999 -9999 -9999 -9999 -9999 -9999 -9999 -9999 -9999 -9999 -9999 -9999 -9999 -9999 -9999 -9999 -9999 -9999 -9999 -9999 -9999 -9999 -9999 -9999 -9999 -9999 -9999 -9999 -9999 -9999 -9999 -9999 -9999 -9999 -9999 -9999 -9999 -9999 -9999 -9999 -9999 -9999 -9999 -9999 -9999 -9999 -9999 -9999 -9999 -9999 -9999 -9999 -9999 -9999 -9999 -9999
-9999 -9999 -9999 -9999 -9999 -9999 -9999 -9999 -9999 -9999 -9999 -9999 -9999 -9999 -9999 -9999 -9999 -9999 -9999 -9999 -9999 -9999 -9999 -9999 -9999 -9999 -9999 -9999 -9999 -9999 -9999 -9999 -9999 -9999 -9999 -9999 -9999 -9999 -9999 -9999 -9999 -9999 -9999 -9999 -9999 -9999 -9999 -9999 -9999 -9999 -9999 -9999 -9999 -9999 -9999 -9999 -9999 -9999 -9999 -9999 -9999 -9999 -9999 -9999 -9999 -9999 -9999 -9999 -9999 -9999 -9999 -9999 -9999 -9999 -9999 -9999 -9999 -9999 -9999 -9999 -9999 -9999 -9999 -9999 -9999 -9999 -9999 -9999 -9999 -9999 -9999 -9999 -9999 -9999 -9999 -9999 -9999 -9999 -9999 -9999 -9999 -9999 -9999 -9999 -9999 -9999 -9999 -9999 -9999 -9999 -9999 -9999 -9999 -9999 -9999 -9999 -9999 -9999 -9999 -9999 -9999 -9999 -9999 -9999 -9999 -9999 -9999 -9999 -9999 -9999 -9999 -9999 -9999 -9999 -9999 -9999 -9999 -9999 -9999 -9999 -9999 -9999 -9999 -9999 -9999 -9999 -9999 -9999 -9999 -9999 -9999 -9999 -9999 -9999 -9999 -9999 -9999 -9999 -9999 -9999 -9999 -9999 -9999 -9999 -9999 -9999 -9999 -9999 -9999 -9999 -9999 -9999 -9999 -9999 -9999 -9999 -9999 -9999 -9999 -9999 -9999 -9999 -9999 -9999 -9999 -9999 -9999 -9999 -9999 -9999 -9999 -9999 -9999 -9999 -9999 -9999 -9999 -9999 -9999 -9999 -9999 -9999 -9999 -9999 -9999 -9999 -9999 -9999 -9999 -9999 -9999 -9999 -9999 -9999 -9999
-9999 -9999 -9999 -9999 -9999 -9999 -9999 -9999 -9999 -9999 -9999 -9999 -9999 -9999 -9999 -9999 -9999 -9999 -9999 -9999 -9999 -9999 -9999 -9999 -9999 -9999 -9999 -9999 -9999 -9999 -9999 -9999 -9999 -9999 -9999 -9999 -9999 -9999 -9999 -9999 -9999 -9999 -9999 -9999 -9999 -9999 -9999 -9999 -9999 -9999 -9999 -9999 -9999 -9999 -9999 -9999 -9999 -9999 -9999 -9999 -9999 -9999 -9999 -9999 -9999 -9999 -9999 -9999 -9999 -9999 -9999 -9999 -9999 -9999 -9999 -9999 -9999 -9999 -9999 -9999 -9999 -9999 -9999 -9999 -9999 -9999 -9999 -9999 -9999 -9999 -9999 -9999 -9999 -9999 -9999 -9999 -9999 -9999 -9999 -9999 -9999 -9999 -9999 -9999 -9999 -9999 -9999 -9999 -9999 -9999 -9999 -9999 -9999 -9999 -9999 -9999 -9999 -9999 -9999 -9999 -9999 -9999 -9999 -9999 -9999 -9999 -9999 -9999 -9999 -9999 -9999 -9999 -9999 -9999 -9999 -9999 -9999 -9999 -9999 -9999 -9999 -9999 -9999 -9999 -9999 -9999 -9999 -9999 -9999 -9999 -9999 -9999 -9999 -9999 -9999 -9999 -9999 -9999 -9999 -9999 -9999 -9999 -9999 -9999 -9999 -9999 -9999 -9999 -9999 -9999 -9999 -9999 -9999 -9999 -9999 -9999 -9999 -9999 -9999 -9999 -9999 -9999 -9999 -9999 -9999 -9999 -9999 -9999 -9999 -9999 -9999 -9999 -9999 -9999 -9999 -9999 -9999 -9999 -9999 -9999 -9999 -9999 -9999 -9999 -9999 -9999 -9999 -9999 -9999 -9999 -9999 -9999 -9999 -9999 -9999
-9999 -9999 -9999 -9999 -9999 -9999 -9999 -9999 -9999 -9999 -9999 -9999 -9999 -9999 -9999 -9999 -9999 -9999 -9999 -9999 -9999 -9999 -9999 -9999 -9999 -9999 -9999 -9999 -9999 -9999 -9999 -9999 -9999 -9999 -9999 -9999 -9999 -9999 -9999 -9999 -9999 -9999 -9999 -9999 -9999 -9999 -9999 -9999 -9999 -9999 -9999 -9999 -9999 -9999 -9999 -9999 -9999 -9999 -9999 -9999 -9999 -9999 -9999 -9999 -9999 -9999 -9999 -9999 -9999 -9999 -9999 -9999 -9999 -9999 -9999 -9999 -9999 -9999 -9999 -9999 -9999 -9999 -9999 -9999 -9999 -9999 -9999 -9999 -9999 -9999 -9999 -9999 -9999 -9999 -9999 -9999 -9999 -9999 -9999 -9999 -9999 -9999 -9999 -9999 -9999 -9999 -9999 -9999 -9999 -9999 -9999 -9999 -9999 -9999 -9999 -9999 -9999 -9999 -9999 -9999 -9999 -9999 -9999 -9999 -9999 -9999 -9999 -9999 -9999 -9999 -9999 -9999 -9999 -9999 -9999 -9999 -9999 -9999 -9999 -9999 -9999 -9999 -9999 -9999 -9999 -9999 -9999 -9999 -9999 -9999 -9999 -9999 -9999 -9999 -9999 -9999 -9999 -9999 -9999 -9999 -9999 -9999 -9999 -9999 -9999 -9999 -9999 -9999 -9999 -9999 -9999 -9999 -9999 -9999 -9999 -9999 -9999 -9999 -9999 -9999 -9999 -9999 -9999 -9999 -9999 -9999 -9999 -9999 -9999 -9999 -9999 -9999 -9999 -9999 -9999 -9999 -9999 -9999 -9999 -9999 -9999 -9999 -9999 -9999 -9999 -9999 -9999 -9999 -9999 -9999 -9999 -9999 -9999 -9999 -9999
-9999 -9999 -9999 -9999 -9999 -9999 -9999 -9999 -9999 -9999 -9999 -9999 -9999 -9999 -9999 -9999 -9999 -9999 -9999 -9999 -9999 -9999 -9999 -9999 -9999 -9999 -9999 -9999 -9999 -9999 -9999 -9999 -9999 -9999 -9999 -9999 -9999 -9999 -9999 -9999 -9999 -9999 -9999 -9999 -9999 -9999 -9999 -9999 -9999 -9999 -9999 -9999 -9999 -9999 -9999 -9999 -9999 -9999 -9999 -9999 -9999 -9999 -9999 -9999 -9999 -9999 -9999 -9999 -9999 -9999 -9999 -9999 -9999 -9999 -9999 -9999 -9999 -9999 -9999 -9999 -9999 -9999 -9999 -9999 -9999 -9999 -9999 -9999 -9999 -9999 -9999 -9999 -9999 -9999 -9999 -9999 -9999 -9999 -9999 -9999 -9999 -9999 -9999 -9999 -9999 -9999 -9999 -9999 -9999 -9999 -9999 -9999 -9999 -9999 -9999 -9999 -9999 -9999 -9999 -9999 -9999 -9999 -9999 -9999 -9999 -9999 -9999 -9999 -9999 -9999 -9999 -9999 -9999 -9999 -9999 -9999 -9999 -9999 -9999 -9999 -9999 -9999 -9999 -9999 -9999 -9999 -9999 -9999 -9999 -9999 -9999 -9999 -9999 -9999 -9999 -9999 -9999 -9999 -9999 -9999 -9999 -9999 -9999 -9999 -9999 -9999 -9999 -9999 -9999 -9999 -9999 -9999 -9999 -9999 -9999 -9999 -9999 -9999 -9999 -9999 -9999 -9999 -9999 -9999 -9999 -9999 -9999 -9999 -9999 -9999 -9999 -9999 -9999 -9999 -9999 -9999 -9999 -9999 -9999 -9999 -9999 -9999 -9999 -9999 -9999 -9999 -9999 -9999 -9999 -9999 -9999 -9999 -9999 -9999 -9999
-9999 -9999 -9999 -9999 -9999 -9999 -9999 -9999 -9999 -9999 -9999 -9999 -9999 -9999 -9999 -9999 -9999 -9999 -9999 -9999 -9999 -9999 -9999 -9999 -9999 -9999 -9999 -9999 -9999 -9999 -9999 -9999 -9999 -9999 -9999 -9999 -9999 -9999 -9999 -9999 -9999 -9999 -9999 -9999 -9999 -9999 -9999 -9999 -9999 -9999 -9999 -9999 -9999 -9999 -9999 -9999 -9999 -9999 -9999 -9999 -9999 -9999 -9999 -9999 -9999 -9999 -9999 -9999 -9999 -9999 -9999 -9999 -9999 -9999 -9999 -9999 -9999 -9999 -9999 -9999 -9999 -9999 -9999 -9999 -9999 -9999 -9999 -9999 -9999 -9999 -9999 -9999 -9999 -9999 -9999 -9999 -9999 -9999 -9999 -9999 -9999 -9999 -9999 -9999 -9999 -9999 -9999 -9999 -9999 -9999 -9999 -9999 -9999 -9999 -9999 -9999 -9999 -9999 -9999 -9999 -9999 -9999 -9999 -9999 -9999 -9999 -9999 -9999 -9999 -9999 -9999 -9999 -9999 -9999 -9999 -9999 -9999 -9999 -9999 -9999 -9999 -9999 -9999 -9999 -9999 -9999 -9999 -9999 -9999 -9999 -9999 -9999 -9999 -9999 -9999 -9999 -9999 -9999 -9999 -9999 -9999 -9999 -9999 -9999 -9999 -9999 -9999 -9999 -9999 -9999 -9999 -9999 -9999 -9999 -9999 -9999 -9999 -9999 -9999 -9999 -9999 -9999 -9999 -9999 -9999 -9999 -9999 -9999 -9999 -9999 -9999 -9999 -9999 -9999 -9999 -9999 -9999 -9999 -9999 -9999 -9999 -9999 -9999 -9999 -9999 -9999 -9999 -9999 -9999 -9999 -9999 -9999 -9999 -9999 -9999
-9999 -9999 -9999 -9999 -9999 -9999 -9999 -9999 -9999 -9999 -9999 -9999 -9999 -9999 -9999 -9999 -9999 -9999 -9999 -9999 -9999 -9999 -9999 -9999 -9999 -9999 -9999 -9999 -9999 -9999 -9999 -9999 -9999 -9999 -9999 -9999 -9999 -9999 -9999 -9999 -9999 -9999 -9999 -9999 -9999 -9999 -9999 -9999 -9999 -9999 -9999 -9999 -9999 -9999 -9999 -9999 -9999 -9999 -9999 -9999 -9999 -9999 -9999 -9999 -9999 -9999 -9999 -9999 -9999 -9999 -9999 -9999 -9999 -9999 -9999 -9999 -9999 -9999 -9999 -9999 -9999 -9999 -9999 -9999 -9999 -9999 -9999 -9999 -9999 -9999 -9999 -9999 -9999 -9999 -9999 -9999 -9999 -9999 -9999 -9999 -9999 -9999 -9999 -9999 -9999 -9999 -9999 -9999 -9999 -9999 -9999 -9999 -9999 -9999 -9999 -9999 -9999 -9999 -9999 -9999 -9999 -9999 -9999 -9999 -9999 -9999 -9999 -9999 -9999 -9999 -9999 -9999 -9999 -9999 -9999 -9999 -9999 -9999 -9999 -9999 -9999 -9999 -9999 -9999 -9999 -9999 -9999 -9999 -9999 -9999 -9999 -9999 -9999 -9999 -9999 -9999 -9999 -9999 -9999 -9999 -9999 -9999 -9999 -9999 -9999 -9999 -9999 -9999 -9999 -9999 -9999 -9999 -9999 -9999 -9999 -9999 -9999 -9999 -9999 -9999 -9999 -9999 -9999 -9999 -9999 -9999 -9999 -9999 -9999 -9999 -9999 -9999 -9999 -9999 -9999 -9999 -9999 -9999 -9999 -9999 -9999 -9999 -9999 -9999 -9999 -9999 -9999 -9999 -9999 -9999 -9999 -9999 -9999 -9999 -9999
-9999 -9999 -9999 -9999 -9999 -9999 -9999 -9999 -9999 -9999 -9999 -9999 -9999 -9999 -9999 -9999 -9999 -9999 -9999 -9999 -9999 -9999 -9999 -9999 -9999 -9999 -9999 -9999 -9999 -9999 -9999 -9999 -9999 -9999 -9999 -9999 -9999 -9999 -9999 -9999 -9999 -9999 -9999 -9999 -9999 -9999 -9999 -9999 -9999 -9999 -9999 -9999 -9999 -9999 -9999 -9999 -9999 -9999 -9999 -9999 -9999 -9999 -9999 -9999 -9999 -9999 -9999 -9999 -9999 -9999 -9999 -9999 -9999 -9999 -9999 -9999 -9999 -9999 -9999 -9999 -9999 -9999 -9999 -9999 -9999 -9999 -9999 -9999 -9999 -9999 -9999 -9999 -9999 -9999 -9999 -9999 -9999 -9999 -9999 -9999 -9999 -9999 -9999 -9999 -9999 -9999 -9999 -9999 -9999 -9999 -9999 -9999 -9999 -9999 -9999 -9999 -9999 -9999 -9999 -9999 -9999 -9999 -9999 -9999 -9999 -9999 -9999 -9999 -9999 -9999 -9999 -9999 -9999 -9999 -9999 -9999 -9999 -9999 -9999 -9999 -9999 -9999 -9999 -9999 -9999 -9999 -9999 -9999 -9999 -9999 -9999 -9999 -9999 -9999 -9999 -9999 -9999 -9999 -9999 -9999 -9999 -9999 -9999 -9999 -9999 -9999 -9999 -9999 -9999 -9999 -9999 -9999 -9999 -9999 -9999 -9999 -9999 -9999 -9999 -9999 -9999 -9999 -9999 -9999 -9999 -9999 -9999 -9999 -9999 -9999 -9999 -9999 -9999 -9999 -9999 -9999 -9999 -9999 -9999 -9999 -9999 -9999 -9999 -9999 -9999 -9999 -9999 -9999 -9999 -9999 -9999 -9999 -9999 -9999 -9999
-9999 -9999 -9999 -9999 -9999 -9999 -9999 -9999 -9999 -9999 -9999 -9999 -9999 -9999 -9999 -9999 -9999 -9999 -9999 -9999 -9999 -9999 -9999 -9999 -9999 -9999 -9999 -9999 -9999 -9999 -9999 -9999 -9999 -9999 -9999 -9999 -9999 -9999 -9999 -9999 -9999 -9999 -9999 -9999 -9999 -9999 -9999 -9999 -9999 -9999 -9999 -9999 -9999 -9999 -9999 -9999 -9999 -9999 -9999 -9999 -9999 -9999 -9999 -9999 -9999 -9999 -9999 -9999 -9999 -9999 -9999 -9999 -9999 -9999 -9999 -9999 -9999 -9999 -9999 -9999 -9999 -9999 -9999 -9999 -9999 -9999 -9999 -9999 -9999 -9999 -9999 -9999 -9999 -9999 -9999 -9999 -9999 -9999 -9999 -9999 -9999 -9999 -9999 -9999 -9999 -9999 -9999 -9999 -9999 -9999 -9999 -9999 -9999 -9999 -9999 -9999 -9999 -9999 -9999 -9999 -9999 -9999 -9999 -9999 -9999 -9999 -9999 -9999 -9999 -9999 -9999 -9999 -9999 -9999 -9999 -9999 -9999 -9999 -9999 -9999 -9999 -9999 -9999 -9999 -9999 -9999 -9999 -9999 -9999 -9999 -9999 -9999 -9999 -9999 -9999 -9999 -9999 -9999 -9999 -9999 -9999 -9999 -9999 -9999 -9999 -9999 -9999 -9999 -9999 -9999 -9999 -9999 -9999 -9999 -9999 -9999 -9999 -9999 -9999 -9999 -9999 -9999 -9999 -9999 -9999 -9999 -9999 -9999 -9999 -9999 -9999 -9999 -9999 -9999 -9999 -9999 -9999 -9999 -9999 -9999 -9999 -9999 -9999 -9999 -9999 -9999 -9999 -9999 -9999 -9999 -9999 -9999 -9999 -9999 -9999
-9999 -9999 -9999 -9999 -9999 -9999 -9999 -9999 -9999 -9999 -9999 -9999 -9999 -9999 -9999 -9999 -9999 -9999 -9999 -9999 -9999 -9999 -9999 -9999 -9999 -9999 -9999 -9999 -9999 -9999 -9999 -9999 -9999 -9999 -9999 -9999 -9999 -9999 -9999 -9999 -9999 -9999 -9999 -9999 -9999 -9999 -9999 -9999 -9999 -9999 -9999 -9999 -9999 -9999 -9999 -9999 -9999 -9999 -9999 -9999 -9999 -9999 -9999 -9999 -9999 -9999 -9999 -9999 -9999 -9999 -9999 -9999 -9999 -9999 -9999 -9999 -9999 -9999 -9999 -9999 -9999 -9999 -9999 -9999 -9999 -9999 -9999 -9999 -9999 -9999 -9999 -9999 -9999 -9999 -9999 -9999 -9999 -9999 -9999 -9999 -9999 -9999 -9999 -9999 -9999 -9999 -9999 -9999 -9999 -9999 -9999 -9999 -9999 -9999 -9999 -9999 -9999 -9999 -9999 -9999 -9999 -9999 -9999 -9999 -9999 -9999 -9999 -9999 -9999 -9999 -9999 -9999 -9999 -9999 -9999 -9999 -9999 -9999 -9999 -9999 -9999 -9999 -9999 -9999 -9999 -9999 -9999 -9999 -9999 -9999 -9999 -9999 -9999 -9999 -9999 -9999 -9999 -9999 -9999 -9999 -9999 -9999 -9999 -9999 -9999 -9999 -9999 -9999 -9999 -9999 -9999 -9999 -9999 -9999 -9999 -9999 -9999 -9999 -9999 -9999 -9999 -9999 -9999 -9999 -9999 -9999 -9999 -9999 -9999 -9999 -9999 -9999 -9999 -9999 -9999 -9999 -9999 -9999 -9999 -9999 -9999 -9999 -9999 -9999 -9999 -9999 -9999 -9999 -9999 -9999 -9999 -9999 -9999 -9999 -9999
-9999 -9999 -9999 -9999 -9999 -9999 -9999 -9999 -9999 -9999 -9999 -9999 -9999 -9999 -9999 -9999 -9999 -9999 -9999 -9999 -9999 -9999 -9999 -9999 -9999 -9999 -9999 -9999 -9999 -9999 -9999 -9999 -9999 -9999 -9999 -9999 -9999 -9999 -9999 -9999 -9999 -9999 -9999 -9999 -9999 -9999 -9999 -9999 -9999 -9999 -9999 -9999 -9999 -9999 -9999 -9999 -9999 -9999 -9999 -9999 -9999 -9999 -9999 -9999 -9999 -9999 -9999 -9999 -9999 -9999 -9999 -9999 -9999 -9999 -9999 -9999 -9999 -9999 -9999 -9999 -9999 -9999 -9999 -9999 -9999 -9999 -9999 -9999 -9999 -9999 -9999 -9999 -9999 -9999 -9999 -9999 -9999 -9999 -9999 -9999 -9999 -9999 -9999 -9999 -9999 -9999 -9999 -9999 -9999 -9999 -9999 -9999 -9999 -9999 -9999 -9999 -9999 -9999 -9999 -9999 -9999 -9999 -9999 -9999 -9999 -9999 -9999 -9999 -9999 -9999 -9999 -9999 -9999 -9999 -9999 -9999 -9999 -9999 -9999 -9999 -9999 -9999 -9999 -9999 -9999 -9999 -9999 -9999 -9999 -9999 -9999 -9999 -9999 -9999 -9999 -9999 -9999 -9999 -9999 -9999 -9999 -9999 -9999 -9999 -9999 -9999 -9999 -9999 -9999 -9999 -9999 -9999 -9999 -9999 -9999 -9999 -9999 -9999 -9999 -9999 -9999 -9999 -9999 -9999 -9999 -9999 -9999 -9999 -9999 -9999 -9999 -9999 -9999 -9999 -9999 -9999 -9999 -9999 -9999 -9999 -9999 -9999 -9999 -9999 -9999 -9999 -9999 -9999 -9999 -9999 -9999 -9999 -9999 -9999 -9999
-9999 -9999 -9999 -9999 -9999 -9999 -9999 -9999 -9999 -9999 -9999 -9999 -9999 -9999 -9999 -9999 -9999 -9999 -9999 -9999 -9999 -9999 -9999 -9999 -9999 -9999 -9999 -9999 -9999 -9999 -9999 -9999 -9999 -9999 -9999 -9999 -9999 -9999 -9999 -9999 -9999 -9999 -9999 -9999 -9999 -9999 -9999 -9999 -9999 -9999 -9999 -9999 -9999 -9999 -9999 -9999 -9999 -9999 -9999 -9999 -9999 -9999 -9999 -9999 -9999 -9999 -9999 -9999 -9999 -9999 -9999 -9999 -9999 -9999 -9999 -9999 -9999 -9999 -9999 -9999 -9999 -9999 -9999 -9999 -9999 -9999 -9999 -9999 -9999 -9999 -9999 -9999 -9999 -9999 -9999 -9999 -9999 -9999 -9999 -9999 -9999 -9999 -9999 -9999 -9999 -9999 -9999 -9999 -9999 -9999 -9999 -9999 -9999 -9999 -9999 -9999 -9999 -9999 -9999 -9999 -9999 -9999 -9999 -9999 -9999 -9999 -9999 -9999 -9999 -9999 -9999 -9999 -9999 -9999 -9999 -9999 -9999 -9999 -9999 -9999 -9999 -9999 -9999 -9999 -9999 -9999 -9999 -9999 -9999 -9999 -9999 -9999 -9999 -9999 -9999 -9999 -9999 -9999 -9999 -9999 -9999 -9999 -9999 -9999 -9999 -9999 -9999 -9999 -9999 -9999 -9999 -9999 -9999 -9999 -9999 -9999 -9999 -9999 -9999 -9999 -9999 -9999 -9999 -9999 -9999 -9999 -9999 -9999 -9999 -9999 -9999 -9999 -9999 -9999 -9999 -9999 -9999 -9999 -9999 -9999 -9999 -9999 -9999 -9999 -9999 -9999 -9999 -9999 -9999 -9999 -9999 -9999 -9999 -9999 -9999
-9999 -9999 -9999 -9999 -9999 -9999 -9999 -9999 -9999 -9999 -9999 -9999 -9999 -9999 -9999 -9999 -9999 -9999 -9999 -9999 -9999 -9999 -9999 -9999 -9999 -9999 -9999 -9999 -9999 -9999 -9999 -9999 -9999 -9999 -9999 -9999 -9999 -9999 -9999 -9999 -9999 -9999 -9999 -9999 -9999 -9999 -9999 -9999 -9999 -9999 -9999 -9999 -9999 -9999 -9999 -9999 -9999 -9999 -9999 -9999 -9999 -9999 -9999 -9999 -9999 -9999 -9999 -9999 -9999 -9999 -9999 -9999 -9999 -9999 -9999 -9999 -9999 -9999 -9999 -9999 -9999 -9999 -9999 -9999 -9999 -9999 -9999 -9999 -9999 -9999 -9999 -9999 -9999 -9999 -9999 -9999 -9999 -9999 -9999 -9999 -9999 -9999 -9999 -9999 -9999 -9999 -9999 -9999 -9999 -9999 -9999 -9999 -9999 -9999 -9999 -9999 -9999 -9999 -9999 -9999 -9999 -9999 -9999 -9999 -9999 -9999 -9999 -9999 -9999 -9999 -9999 -9999 -9999 -9999 -9999 -9999 -9999 -9999 -9999 -9999 -9999 -9999 -9999 -9999 -9999 -9999 -9999 -9999 -9999 -9999 -9999 -9999 -9999 -9999 -9999 -9999 -9999 -9999 -9999 -9999 -9999 -9999 -9999 -9999 -9999 -9999 -9999 -9999 -9999 -9999 -9999 -9999 -9999 -9999 -9999 -9999 -9999 -9999 -9999 -9999 -9999 -9999 -9999 -9999 -9999 -9999 -9999 -9999 -9999 -9999 -9999 -9999 -9999 -9999 -9999 -9999 -9999 -9999 -9999 -9999 -9999 -9999 -9999 -9999 -9999 -9999 -9999 -9999 -9999 -9999 -9999 -9999 -9999 -9999 -9999
-9999 -9999 -9999 -9999 -9999 -9999 -9999 -9999 -9999 -9999 -9999 -9999 -9999 -9999 -9999 -9999 -9999 -9999 -9999 -9999 -9999 -9999 -9999 -9999 -9999 -9999 -9999 -9999 -9999 -9999 -9999 -9999 -9999 -9999 -9999 -9999 -9999 -9999 -9999 -9999 -9999 -9999 -9999 -9999 -9999 -9999 -9999 -9999 -9999 -9999 -9999 -9999 -9999 -9999 -9999 -9999 -9999 -9999 -9999 -9999 -9999 -9999 -9999 -9999 -9999 -9999 -9999 -9999 -9999 -9999 -9999 -9999 -9999 -9999 -9999 -9999 -9999 -9999 -9999 -9999 -9999 -9999 -9999 -9999 -9999 -9999 -9999 -9999 -9999 -9999 -9999 -9999 -9999 -9999 -9999 -9999 -9999 -9999 -9999 -9999 -9999 -9999 -9999 -9999 -9999 -9999 -9999 -9999 -9999 -9999 -9999 -9999 -9999 -9999 -9999 -9999 -9999 -9999 -9999 -9999 -9999 -9999 -9999 -9999 -9999 -9999 -9999 -9999 -9999 -9999 -9999 -9999 -9999 -9999 -9999 -9999 -9999 -9999 -9999 -9999 -9999 -9999 -9999 -9999 -9999 -9999 -9999 -9999 -9999 -9999 -9999 -9999 -9999 -9999 -9999 -9999 -9999 -9999 -9999 -9999 -9999 -9999 -9999 -9999 -9999 -9999 -9999 -9999 -9999 -9999 -9999 -9999 -9999 -9999 -9999 -9999 -9999 -9999 -9999 -9999 -9999 -9999 -9999 -9999 -9999 -9999 -9999 -9999 -9999 -9999 -9999 -9999 -9999 -9999 -9999 -9999 -9999 -9999 -9999 -9999 -9999 -9999 -9999 -9999 -9999 -9999 -9999 -9999 -9999 -9999 -9999 -9999 -9999 -9999 -9999
-9999 -9999 -9999 -9999 -9999 -9999 -9999 -9999 -9999 -9999 -9999 -9999 -9999 -9999 -9999 -9999 -9999 -9999 -9999 -9999 -9999 -9999 -9999 -9999 -9999 -9999 -9999 -9999 -9999 -9999 -9999 -9999 -9999 -9999 -9999 -9999 -9999 -9999 -9999 -9999 -9999 -9999 -9999 -9999 -9999 -9999 -9999 -9999 -9999 -9999 -9999 -9999 -9999 -9999 -9999 -9999 -9999 -9999 -9999 -9999 -9999 -9999 -9999 -9999 -9999 -9999 -9999 -9999 -9999 -9999 -9999 -9999 -9999 -9999 -9999 -9999 -9999 -9999 -9999 -9999 -9999 -9999 -9999 -9999 -9999 -9999 -9999 -9999 -9999 -9999 -9999 -9999 -9999 -9999 -9999 -9999 -9999 -9999 -9999 -9999 -9999 -9999 -9999 -9999 -9999 -9999 -9999 -9999 -9999 -9999 -9999 -9999 -9999 -9999 -9999 -9999 -9999 -9999 -9999 -9999 -9999 -9999 -9999 -9999 -9999 -9999 -9999 -9999 -9999 -9999 -9999 -9999 -9999 -9999 -9999 -9999 -9999 -9999 -9999 -9999 -9999 -9999 -9999 -9999 -9999 -9999 -9999 -9999 -9999 -9999 -9999 -9999 -9999 -9999 -9999 -9999 -9999 -9999 -9999 -9999 -9999 -9999 -9999 -9999 -9999 -9999 -9999 -9999 -9999 -9999 -9999 -9999 -9999 -9999 -9999 -9999 -9999 -9999 -9999 -9999 -9999 -9999 -9999 -9999 -9999 -9999 -9999 -9999 -9999 -9999 -9999 -9999 -9999 -9999 -9999 -9999 -9999 -9999 -9999 -9999 -9999 -9999 -9999 -9999 -9999 -9999 -9999 -9999 -9999 -9999 -9999 -9999 -9999 -9999 -9999
-9999 -9999 -9999 -9999 -9999 -9999 -9999 -9999 -9999 -9999 -9999 -9999 -9999 -9999 -9999 -9999 -9999 -9999 -9999 -9999 -9999 -9999 -9999 -9999 -9999 -9999 -9999 -9999 -9999 -9999 -9999 -9999 -9999 -9999 -9999 -9999 -9999 -9999 -9999 -9999 -9999 -9999 -9999 -9999 -9999 -9999 -9999 -9999 -9999 -9999 -9999 -9999 -9999 -9999 -9999 -9999 -9999 -9999 -9999 -9999 -9999 -9999 -9999 -9999 -9999 -9999 -9999 -9999 -9999 -9999 -9999 -9999 -9999 -9999 -9999 -9999 -9999 -9999 -9999 -9999 -9999 -9999 -9999 -9999 -9999 -9999 -9999 -9999 -9999 -9999 -9999 -9999 -9999 -9999 -9999 -9999 -9999 -9999 -9999 -9999 -9999 -9999 -9999 -9999 -9999 -9999 -9999 -9999 -9999 -9999 -9999 -9999 -9999 -9999 -9999 -9999 -9999 -9999 -9999 -9999 -9999 -9999 -9999 -9999 -9999 -9999 -9999 -9999 -9999 -9999 -9999 -9999 -9999 -9999 -9999 -9999 -9999 -9999 -9999 -9999 -9999 -9999 -9999 -9999 -9999 -9999 -9999 -9999 -9999 -9999 -9999 -9999 -9999 -9999 -9999 -9999 -9999 -9999 -9999 -9999 -9999 -9999 -9999 -9999 -9999 -9999 -9999 -9999 -9999 -9999 -9999 -9999 -9999 -9999 -9999 -9999 -9999 -9999 -9999 -9999 -9999 -9999 -9999 -9999 -9999 -9999 -9999 -9999 -9999 -9999 -9999 -9999 -9999 -9999 -9999 -9999 -9999 -9999 -9999 -9999 -9999 -9999 -9999 -9999 -9999 -9999 -9999 -9999 -9999 -9999 -9999 -9999 -9999 -9999 -9999
-9999 -9999 -9999 -9999 -9999 -9999 -9999 -9999 -9999 -9999 -9999 -9999 -9999 -9999 -9999 -9999 -9999 -9999 -9999 -9999 -9999 -9999 -9999 -9999 -9999 -9999 -9999 -9999 -9999 -9999 -9999 -9999 -9999 -9999 -9999 -9999 -9999 -9999 -9999 -9999 -9999 -9999 -9999 -9999 -9999 -9999 -9999 -9999 -9999 -9999 -9999 -9999 -9999 -9999 -9999 -9999 -9999 -9999 -9999 -9999 -9999 -9999 -9999 -9999 -9999 -9999 -9999 -9999 -9999 -9999 -9999 -9999 -9999 -9999 -9999 -9999 -9999 -9999 -9999 -9999 -9999 -9999 -9999 -9999 -9999 -9999 -9999 -9999 -9999 -9999 -9999 -9999 -9999 -9999 -9999 -9999 -9999 -9999 -9999 -9999 -9999 -9999 -9999 -9999 -9999 -9999 -9999 -9999 -9999 -9999 -9999 -9999 -9999 -9999 -9999 -9999 -9999 -9999 -9999 -9999 -9999 -9999 -9999 -9999 -9999 -9999 -9999 -9999 -9999 -9999 -9999 -9999 -9999 -9999 -9999 -9999 -9999 -9999 -9999 -9999 -9999 -9999 -9999 -9999 -9999 -9999 -9999 -9999 -9999 -9999 -9999 -9999 -9999 -9999 -9999 -9999 -9999 -9999 -9999 -9999 -9999 -9999 -9999 -9999 -9999 -9999 -9999 -9999 -9999 -9999 -9999 -9999 -9999 -9999 -9999 -9999 -9999 -9999 -9999 -9999 -9999 -9999 -9999 -9999 -9999 -9999 -9999 -9999 -9999 -9999 -9999 -9999 -9999 -9999 -9999 -9999 -9999 -9999 -9999 -9999 -9999 -9999 -9999 -9999 -9999 -9999 -9999 -9999 -9999 -9999 -9999 -9999 -9999 -9999 -9999
-9999 -9999 -9999 -9999 -9999 -9999 -9999 -9999 -9999 -9999 -9999 -9999 -9999 -9999 -9999 -9999 -9999 -9999 -9999 -9999 -9999 -9999 -9999 -9999 -9999 -9999 -9999 -9999 -9999 -9999 -9999 -9999 -9999 -9999 -9999 -9999 -9999 -9999 -9999 -9999 -9999 -9999 -9999 -9999 -9999 -9999 -9999 -9999 -9999 -9999 -9999 -9999 -9999 -9999 -9999 -9999 -9999 -9999 -9999 -9999 -9999 -9999 -9999 -9999 -9999 -9999 -9999 -9999 -9999 -9999 -9999 -9999 -9999 -9999 -9999 -9999 -9999 -9999 -9999 -9999 -9999 -9999 -9999 -9999 -9999 -9999 -9999 -9999 -9999 -9999 -9999 -9999 -9999 -9999 -9999 -9999 -9999 -9999 -9999 -9999 -9999 -9999 -9999 -9999 -9999 -9999 -9999 -9999 -9999 -9999 -9999 -9999 -9999 -9999 -9999 -9999 -9999 -9999 -9999 -9999 -9999 -9999 -9999 -9999 -9999 -9999 -9999 -9999 -9999 -9999 -9999 -9999 -9999 -9999 -9999 -9999 -9999 -9999 -9999 -9999 -9999 -9999 -9999 -9999 -9999 -9999 -9999 -9999 -9999 -9999 -9999 -9999 -9999 -9999 -9999 -9999 -9999 -9999 -9999 -9999 -9999 -9999 -9999 -9999 -9999 -9999 -9999 -9999 -9999 -9999 -9999 -9999 -9999 -9999 -9999 -9999 -9999 -9999 -9999 -9999 -9999 -9999 -9999 -9999 -9999 -9999 -9999 -9999 -9999 -9999 -9999 -9999 -9999 -9999 -9999 -9999 -9999 -9999 -9999 -9999 -9999 -9999 -9999 -9999 -9999 -9999 -9999 -9999 -9999 -9999 -9999 -9999 -9999 -9999 -9999
-9999 -9999 -9999 -9999 -9999 -9999 -9999 -9999 -9999 -9999 -9999 -9999 -9999 -9999 -9999 -9999 -9999 -9999 -9999 -9999 -9999 -9999 -9999 -9999 -9999 -9999 -9999 -9999 -9999 -9999 -9999 -9999 -9999 -9999 -9999 -9999 -9999 -9999 -9999 -9999 -9999 -9999 -9999 -9999 -9999 -9999 -9999 -9999 -9999 -9999 -9999 -9999 -9999 -9999 -9999 -9999 -9999 -9999 -9999 -9999 -9999 -9999 -9999 -9999 -9999 -9999 -9999 -9999 -9999 -9999 -9999 -9999 -9999 -9999 -9999 -9999 -9999 -9999 -9999 -9999 -9999 -9999 -9999 -9999 -9999 -9999 -9999 -9999 -9999 -9999 -9999 -9999 -9999 -9999 -9999 -9999 -9999 -9999 -9999 -9999 -9999 -9999 -9999 -9999 -9999 -9999 -9999 -9999 -9999 -9999 -9999 -9999 -9999 -9999 -9999 -9999 -9999 -9999 -9999 -9999 -9999 -9999 -9999 -9999 -9999 -9999 -9999 -9999 -9999 -9999 -9999 -9999 -9999 -9999 -9999 -9999 -9999 -9999 -9999 -9999 -9999 -9999 -9999 -9999 -9999 -9999 -9999 -9999 -9999 -9999 -9999 -9999 -9999 -9999 -9999 -9999 -9999 -9999 -9999 -9999 -9999 -9999 -9999 -9999 -9999 -9999 -9999 -9999 -9999 -9999 -9999 -9999 -9999 -9999 -9999 -9999 -9999 -9999 -9999 -9999 -9999 -9999 -9999 -9999 -9999 -9999 -9999 -9999 -9999 -9999 -9999 -9999 -9999 -9999 -9999 -9999 -9999 -9999 -9999 -9999 -9999 -9999 -9999 -9999 -9999 -9999 -9999 -9999 -9999 -9999 -9999 -9999 -9999 -9999 -9999
-9999 -9999 -9999 -9999 -9999 -9999 -9999 -9999 -9999 -9999 -9999 -9999 -9999 -9999 -9999 -9999 -9999 -9999 -9999 -9999 -9999 -9999 -9999 -9999 -9999 -9999 -9999 -9999 -9999 -9999 -9999 -9999 -9999 -9999 -9999 -9999 -9999 -9999 -9999 -9999 -9999 -9999 -9999 -9999 -9999 -9999 -9999 -9999 -9999 -9999 -9999 -9999 -9999 -9999 -9999 -9999 -9999 -9999 -9999 -9999 -9999 -9999 -9999 -9999 -9999 -9999 -9999 -9999 -9999 -9999 -9999 -9999 -9999 -9999 -9999 -9999 -9999 -9999 -9999 -9999 -9999 -9999 -9999 -9999 -9999 -9999 -9999 -9999 -9999 -9999 -9999 -9999 -9999 -9999 -9999 -9999 -9999 -9999 -9999 -9999 -9999 -9999 -9999 -9999 -9999 -9999 -9999 -9999 -9999 -9999 -9999 -9999 -9999 -9999 -9999 -9999 -9999 -9999 -9999 -9999 -9999 -9999 -9999 -9999 -9999 -9999 -9999 -9999 -9999 -9999 -9999 -9999 -9999 -9999 -9999 -9999 -9999 -9999 -9999 -9999 -9999 -9999 -9999 -9999 -9999 -9999 -9999 -9999 -9999 -9999 -9999 -9999 -9999 -9999 -9999 -9999 -9999 -9999 -9999 -9999 -9999 -9999 -9999 -9999 -9999 -9999 -9999 -9999 -9999 -9999 -9999 -9999 -9999 -9999 -9999 -9999 -9999 -9999 -9999 -9999 -9999 -9999 -9999 -9999 -9999 -9999 -9999 -9999 -9999 -9999 -9999 -9999 -9999 -9999 -9999 -9999 -9999 -9999 -9999 -9999 -9999 -9999 -9999 -9999 -9999 -9999 -9999 -9999 -9999 -9999 -9999 -9999 -9999 -9999 -9999
-9999 -9999 -9999 -9999 -9999 -9999 -9999 -9999 -9999 -9999 -9999 -9999 -9999 -9999 -9999 -9999 -9999 -9999 -9999 -9999 -9999 -9999 -9999 -9999 -9999 -9999 -9999 -9999 -9999 -9999 -9999 -9999 -9999 -9999 -9999 -9999 -9999 -9999 -9999 -9999 -9999 -9999 -9999 -9999 -9999 -9999 -9999 -9999 -9999 -9999 -9999 -9999 -9999 -9999 -9999 -9999 -9999 -9999 -9999 -9999 -9999 -9999 -9999 -9999 -9999 -9999 -9999 -9999 -9999 -9999 -9999 -9999 -9999 -9999 -9999 -9999 -9999 -9999 -9999 -9999 -9999 -9999 -9999 -9999 -9999 -9999 -9999 -9999 -9999 -9999 -9999 -9999 -9999 -9999 -9999 -9999 -9999 -9999 -9999 -9999 -9999 -9999 -9999 -9999 -9999 -9999 -9999 -9999 -9999 -9999 -9999 -9999 -9999 -9999 -9999 -9999 -9999 -9999 -9999 -9999 -9999 -9999 -9999 -9999 -9999 -9999 -9999 -9999 -9999 -9999 -9999 -9999 -9999 -9999 -9999 -9999 -9999 -9999 -9999 -9999 -9999 -9999 -9999 -9999 -9999 -9999 -9999 -9999 -9999 -9999 -9999 -9999 -9999 -9999 -9999 -9999 -9999 -9999 -9999 -9999 -9999 -9999 -9999 -9999 -9999 -9999 -9999 -9999 -9999 -9999 -9999 -9999 -9999 -9999 -9999 -9999 -9999 -9999 -9999 -9999 -9999 -9999 -9999 -9999 -9999 -9999 -9999 -9999 -9999 -9999 -9999 -9999 -9999 -9999 -9999 -9999 -9999 -9999 -9999 -9999 -9999 -9999 -9999 -9999 -9999 -9999 -9999 -9999 -9999 -9999 -9999 -9999 -9999 -9999 -9999
-9999 -9999 -9999 -9999 -9999 -9999 -9999 -9999 -9999 -9999 -9999 -9999 -9999 -9999 -9999 -9999 -9999 -9999 -9999 -9999 -9999 -9999 -9999 -9999 -9999 -9999 -9999 -9999 -9999 -9999 -9999 -9999 -9999 -9999 -9999 -9999 -9999 -9999 -9999 -9999 -9999 -9999 -9999 -9999 -9999 -9999 -9999 -9999 -9999 -9999 -9999 -9999 -9999 -9999 -9999 -9999 -9999 -9999 -9999 -9999 -9999 -9999 -9999 -9999 -9999 -9999 -9999 -9999 -9999 -9999 -9999 -9999 -9999 -9999 -9999 -9999 -9999 -9999 -9999 -9999 -9999 -9999 -9999 -9999 -9999 -9999 -9999 -9999 -9999 -9999 -9999 -9999 -9999 -9999 -9999 -9999 -9999 -9999 -9999 -9999 -9999 -9999 -9999 -9999 -9999 -9999 -9999 -9999 -9999 -9999 -9999 -9999 -9999 -9999 -9999 -9999 -9999 -9999 -9999 -9999 -9999 -9999 -9999 -9999 -9999 -9999 -9999 -9999 -9999 -9999 -9999 -9999 -9999 -9999 -9999 -9999 -9999 -9999 -9999 -9999 -9999 -9999 -9999 -9999 -9999 -9999 -9999 -9999 -9999 -9999 -9999 -9999 -9999 -9999 -9999 -9999 -9999 -9999 -9999 -9999 -9999 -9999 -9999 -9999 -9999 -9999 -9999 -9999 -9999 -9999 -9999 -9999 -9999 -9999 -9999 -9999 -9999 -9999 -9999 -9999 -9999 -9999 -9999 -9999 -9999 -9999 -9999 -9999 -9999 -9999 -9999 -9999 -9999 -9999 -9999 -9999 -9999 -9999 -9999 -9999 -9999 -9999 -9999 -9999 -9999 -9999 -9999 -9999 -9999 -9999 -9999 -9999 -9999 -9999 -9999
-9999 -9999 -9999 -9999 -9999 -9999 -9999 -9999 -9999 -9999 -9999 -9999 -9999 -9999 -9999 -9999 -9999 -9999 -9999 -9999 -9999 -9999 -9999 -9999 -9999 -9999 -9999 -9999 -9999 -9999 -9999 -9999 -9999 -9999 -9999 -9999 -9999 -9999 -9999 -9999 -9999 -9999 -9999 -9999 -9999 -9999 -9999 -9999 -9999 -9999 -9999 -9999 -9999 -9999 -9999 -9999 -9999 -9999 -9999 -9999 -9999 -9999 -9999 -9999 -9999 -9999 -9999 -9999 -9999 -9999 -9999 -9999 -9999 -9999 -9999 -9999 -9999 -9999 -9999 -9999 -9999 -9999 -9999 -9999 -9999 -9999 -9999 -9999 -9999 -9999 -9999 -9999 -9999 -9999 -9999 -9999 -9999 -9999 -9999 -9999 -9999 -9999 -9999 -9999 -9999 -9999 -9999 -9999 -9999 -9999 -9999 -9999 -9999 -9999 -9999 -9999 -9999 -9999 -9999 -9999 -9999 -9999 -9999 -9999 -9999 -9999 -9999 -9999 -9999 -9999 -9999 -9999 -9999 -9999 -9999 -9999 -9999 -9999 -9999 -9999 -9999 -9999 -9999 -9999 -9999 -9999 -9999 -9999 -9999 -9999 -9999 -9999 -9999 -9999 -9999 -9999 -9999 -9999 -9999 -9999 -9999 -9999 -9999 -9999 -9999 -9999 -9999 -9999 -9999 -9999 -9999 -9999 -9999 -9999 -9999 -9999 -9999 -9999 -9999 -9999 -9999 -9999 -9999 -9999 -9999 -9999 -9999 -9999 -9999 -9999 -9999 -9999 -9999 -9999 -9999 -9999 -9999 -9999 -9999 -9999 -9999 -9999 -9999 -9999 -9999 -9999 -9999 -9999 -9999 -9999 -9999 -9999 -9999 -9999 -9999
-9999 -9999 -9999 -9999 -9999 -9999 -9999 -9999 -9999 -9999 -9999 -9999 -9999 -9999 -9999 -9999 -9999 -9999 -9999 -9999 -9999 -9999 -9999 -9999 -9999 -9999 -9999 -9999 -9999 -9999 -9999 -9999 -9999 -9999 -9999 -9999 -9999 -9999 -9999 -9999 -9999 -9999 -9999 -9999 -9999 -9999 -9999 -9999 -9999 -9999 -9999 -9999 -9999 -9999 -9999 -9999 -9999 -9999 -9999 -9999 -9999 -9999 -9999 -9999 -9999 -9999 -9999 -9999 -9999 -9999 -9999 -9999 -9999 -9999 -9999 -9999 -9999 -9999 -9999 -9999 -9999 -9999 -9999 -9999 -9999 -9999 -9999 -9999 -9999 -9999 -9999 -9999 -9999 -9999 -9999 -9999 -9999 -9999 -9999 -9999 -9999 -9999 -9999 -9999 -9999 -9999 -9999 -9999 -9999 -9999 -9999 -9999 -9999 -9999 -9999 -9999 -9999 -9999 -9999 -9999 -9999 -9999 -9999 -9999 -9999 -9999 -9999 -9999 -9999 -9999 -9999 -9999 -9999 -9999 -9999 -9999 -9999 -9999 -9999 -9999 -9999 -9999 -9999 -9999 -9999 -9999 -9999 -9999 -9999 -9999 -9999 -9999 -9999 -9999 -9999 -9999 -9999 -9999 -9999 -9999 -9999 -9999 -9999 -9999 -9999 -9999 -9999 -9999 -9999 -9999 -9999 -9999 -9999 -9999 -9999 -9999 -9999 -9999 -9999 -9999 -9999 -9999 -9999 -9999 -9999 -9999 -9999 -9999 -9999 -9999 -9999 -9999 -9999 -9999 -9999 -9999 -9999 -9999 -9999 -9999 -9999 -9999 -9999 -9999 -9999 -9999 -9999 -9999 -9999 -9999 -9999 -9999 -9999 -9999 -9999
-9999 -9999 -9999 -9999 -9999 -9999 -9999 -9999 -9999 -9999 -9999 -9999 -9999 -9999 -9999 -9999 -9999 -9999 -9999 -9999 -9999 -9999 -9999 -9999 -9999 -9999 -9999 -9999 -9999 -9999 -9999 -9999 -9999 -9999 -9999 -9999 -9999 -9999 -9999 -9999 -9999 -9999 -9999 -9999 -9999 -9999 -9999 -9999 -9999 -9999 -9999 -9999 -9999 -9999 -9999 -9999 -9999 -9999 -9999 -9999 -9999 -9999 -9999 -9999 -9999 -9999 -9999 -9999 -9999 -9999 -9999 -9999 -9999 -9999 -9999 -9999 -9999 -9999 -9999 -9999 -9999 -9999 -9999 -9999 -9999 -9999 -9999 -9999 -9999 -9999 -9999 -9999 -9999 -9999 -9999 -9999 -9999 -9999 -9999 -9999 -9999 -9999 -9999 -9999 -9999 -9999 -9999 -9999 -9999 -9999 -9999 -9999 -9999 -9999 -9999 -9999 -9999 -9999 -9999 -9999 -9999 -9999 -9999 -9999 -9999 -9999 -9999 -9999 -9999 -9999 -9999 -9999 -9999 -9999 -9999 -9999 -9999 -9999 -9999 -9999 -9999 -9999 -9999 -9999 -9999 -9999 -9999 -9999 -9999 -9999 -9999 -9999 -9999 -9999 -9999 -9999 -9999 -9999 -9999 -9999 -9999 -9999 -9999 -9999 -9999 -9999 -9999 -9999 -9999 -9999 -9999 -9999 -9999 -9999 -9999 -9999 -9999 -9999 -9999 -9999 -9999 -9999 -9999 -9999 -9999 -9999 -9999 -9999 -9999 -9999 -9999 -9999 -9999 -9999 -9999 -9999 -9999 -9999 -9999 -9999 -9999 -9999 -9999 -9999 -9999 -9999 -9999 -9999 -9999 -9999 -9999 -9999 -9999 -9999 -9999
-9999 -9999 -9999 -9999 -9999 -9999 -9999 -9999 -9999 -9999 -9999 -9999 -9999 -9999 -9999 -9999 -9999 -9999 -9999 -9999 -9999 -9999 -9999 -9999 -9999 -9999 -9999 -9999 -9999 -9999 -9999 -9999 -9999 -9999 -9999 -9999 -9999 -9999 -9999 -9999 -9999 -9999 -9999 -9999 -9999 -9999 -9999 -9999 -9999 -9999 -9999 -9999 -9999 -9999 -9999 -9999 -9999 -9999 -9999 -9999 -9999 -9999 -9999 -9999 -9999 -9999 -9999 -9999 -9999 -9999 -9999 -9999 -9999 -9999 -9999 -9999 -9999 -9999 -9999 -9999 -9999 -9999 -9999 -9999 -9999 -9999 -9999 -9999 -9999 -9999 -9999 -9999 -9999 -9999 -9999 -9999 -9999 -9999 -9999 -9999 -9999 -9999 -9999 -9999 -9999 -9999 -9999 -9999 -9999 -9999 -9999 -9999 -9999 -9999 -9999 -9999 -9999 -9999 -9999 -9999 -9999 -9999 -9999 -9999 -9999 -9999 -9999 -9999 -9999 -9999 -9999 -9999 -9999 -9999 -9999 -9999 -9999 -9999 -9999 -9999 -9999 -9999 -9999 -9999 -9999 -9999 -9999 -9999 -9999 -9999 -9999 -9999 -9999 -9999 -9999 -9999 -9999 -9999 -9999 -9999 -9999 -9999 -9999 -9999 -9999 -9999 -9999 -9999 -9999 -9999 -9999 -9999 -9999 -9999 -9999 -9999 -9999 -9999 -9999 -9999 -9999 -9999 -9999 -9999 -9999 -9999 -9999 -9999 -9999 -9999 -9999 -9999 -9999 -9999 -9999 -9999 -9999 -9999 -9999 -9999 -9999 -9999 -9999 -9999 -9999 -9999 -9999 -9999 -9999 -9999 -9999 -9999 -9999 -9999 -9999
-9999 -9999 -9999 -9999 -9999 -9999 -9999 -9999 -9999 -9999 -9999 -9999 -9999 -9999 -9999 -9999 -9999 -9999 -9999 -9999 -9999 -9999 -9999 -9999 -9999 -9999 -9999 -9999 -9999 -9999 -9999 -9999 -9999 -9999 -9999 -9999 -9999 -9999 -9999 -9999 -9999 -9999 -9999 -9999 -9999 -9999 -9999 -9999 -9999 -9999 -9999 -9999 -9999 -9999 -9999 -9999 -9999 -9999 -9999 -9999 -9999 -9999 -9999 -9999 -9999 -9999 -9999 -9999 -9999 -9999 -9999 -9999 -9999 -9999 -9999 -9999 -9999 -9999 -9999 -9999 -9999 -9999 -9999 -9999 -9999 -9999 -9999 -9999 -9999 -9999 -9999 -9999 -9999 -9999 -9999 -9999 -9999 -9999 -9999 -9999 -9999 -9999 -9999 -9999 -9999 -9999 -9999 -9999 -9999 -9999 -9999 -9999 -9999 -9999 -9999 -9999 -9999 -9999 -9999 -9999 -9999 -9999 -9999 -9999 -9999 -9999 -9999 -9999 -9999 -9999 -9999 -9999 -9999 -9999 -9999 -9999 -9999 -9999 -9999 -9999 -9999 -9999 -9999 -9999 -9999 -9999 -9999 -9999 -9999 -9999 -9999 -9999 -9999 -9999 -9999 -9999 -9999 -9999 -9999 -9999 -9999 -9999 -9999 -9999 -9999 -9999 -9999 -9999 -9999 -9999 -9999 -9999 -9999 -9999 -9999 -9999 -9999 -9999 -9999 -9999 -9999 -9999 -9999 -9999 -9999 -9999 -9999 -9999 -9999 -9999 -9999 -9999 -9999 -9999 -9999 -9999 -9999 -9999 -9999 -9999 -9999 -9999 -9999 -9999 -9999 -9999 -9999 -9999 -9999 -9999 -9999 -9999 -9999 -9999 -9999
-9999 -9999 -9999 -9999 -9999 -9999 -9999 -9999 -9999 -9999 -9999 -9999 -9999 -9999 -9999 -9999 -9999 -9999 -9999 -9999 -9999 -9999 -9999 -9999 -9999 -9999 -9999 -9999 -9999 -9999 -9999 -9999 -9999 -9999 -9999 -9999 -9999 -9999 -9999 -9999 -9999 -9999 -9999 -9999 -9999 -9999 -9999 -9999 -9999 -9999 -9999 -9999 -9999 -9999 -9999 -9999 -9999 -9999 -9999 -9999 -9999 -9999 -9999 -9999 -9999 -9999 -9999 -9999 -9999 -9999 -9999 -9999 -9999 -9999 -9999 -9999 -9999 -9999 -9999 -9999 -9999 -9999 -9999 -9999 -9999 -9999 -9999 -9999 -9999 -9999 -9999 -9999 -9999 -9999 -9999 -9999 -9999 -9999 -9999 -9999 -9999 -9999 -9999 -9999 -9999 -9999 -9999 -9999 -9999 -9999 -9999 -9999 -9999 -9999 -9999 -9999 -9999 -9999 -9999 -9999 -9999 -9999 -9999 -9999 -9999 -9999 -9999 -9999 -9999 -9999 -9999 -9999 -9999 -9999 -9999 -9999 -9999 -9999 -9999 -9999 -9999 -9999 -9999 -9999 -9999 -9999 -9999 -9999 -9999 -9999 -9999 -9999 -9999 -9999 -9999 -9999 -9999 -9999 -9999 -9999 -9999 -9999 -9999 -9999 -9999 -9999 -9999 -9999 -9999 -9999 -9999 -9999 -9999 -9999 -9999 -9999 -9999 -9999 -9999 -9999 -9999 -9999 -9999 -9999 -9999 -9999 -9999 -9999 -9999 -9999 -9999 -9999 -9999 -9999 -9999 -9999 -9999 -9999 -9999 -9999 -9999 -9999 -9999 -9999 -9999 -9999 -9999 -9999 -9999 -9999 -9999 -9999 -9999 -9999 -9999
-9999 -9999 -9999 -9999 -9999 -9999 -9999 -9999 -9999 -9999 -9999 -9999 -9999 -9999 -9999 -9999 -9999 -9999 -9999 -9999 -9999 -9999 -9999 -9999 -9999 -9999 -9999 -9999 -9999 -9999 -9999 -9999 -9999 -9999 -9999 -9999 -9999 -9999 -9999 -9999 -9999 -9999 -9999 -9999 -9999 -9999 -9999 -9999 -9999 -9999 -9999 -9999 -9999 -9999 -9999 -9999 -9999 -9999 -9999 -9999 -9999 -9999 -9999 -9999 -9999 -9999 -9999 -9999 -9999 -9999 -9999 -9999 -9999 -9999 -9999 -9999 -9999 -9999 -9999 -9999 -9999 -9999 -9999 -9999 -9999 -9999 -9999 -9999 -9999 -9999 -9999 -9999 -9999 -9999 -9999 -9999 -9999 -9999 -9999 -9999 -9999 -9999 -9999 -9999 -9999 -9999 -9999 -9999 -9999 -9999 -9999 -9999 -9999 -9999 -9999 -9999 -9999 -9999 -9999 -9999 -9999 -9999 -9999 -9999 -9999 -9999 -9999 -9999 -9999 -9999 -9999 -9999 -9999 -9999 -9999 -9999 -9999 -9999 -9999 -9999 -9999 -9999 -9999 -9999 -9999 -9999 -9999 -9999 -9999 -9999 -9999 -9999 -9999 -9999 -9999 -9999 -9999 -9999 -9999 -9999 -9999 -9999 -9999 -9999 -9999 -9999 -9999 -9999 -9999 -9999 -9999 -9999 -9999 -9999 -9999 -9999 -9999 -9999 -9999 -9999 -9999 -9999 -9999 -9999 -9999 -9999 -9999 -9999 -9999 -9999 -9999 -9999 -9999 -9999 -9999 -9999 -9999 -9999 -9999 -9999 -9999 -9999 -9999 -9999 -9999 -9999 -9999 -9999 -9999 -9999 -9999 -9999 -9999 -9999 -9999
-9999 -9999 -9999 -9999 -9999 -9999 -9999 -9999 -9999 -9999 -9999 -9999 -9999 -9999 -9999 -9999 -9999 -9999 -9999 -9999 -9999 -9999 -9999 -9999 -9999 -9999 -9999 -9999 -9999 -9999 -9999 -9999 -9999 -9999 -9999 -9999 -9999 -9999 -9999 -9999 -9999 -9999 -9999 -9999 -9999 -9999 -9999 -9999 -9999 -9999 -9999 -9999 -9999 -9999 -9999 -9999 -9999 -9999 -9999 -9999 -9999 -9999 -9999 -9999 -9999 -9999 -9999 -9999 -9999 -9999 -9999 -9999 -9999 -9999 -9999 -9999 -9999 -9999 -9999 -9999 -9999 -9999 -9999 -9999 -9999 -9999 -9999 -9999 -9999 -9999 -9999 -9999 -9999 -9999 -9999 -9999 -9999 -9999 -9999 -9999 -9999 -9999 -9999 -9999 -9999 -9999 -9999 -9999 -9999 -9999 -9999 -9999 -9999 -9999 -9999 -9999 -9999 -9999 -9999 -9999 -9999 -9999 -9999 -9999 -9999 -9999 -9999 -9999 -9999 -9999 -9999 -9999 -9999 -9999 -9999 -9999 -9999 -9999 -9999 -9999 -9999 -9999 -9999 -9999 -9999 -9999 -9999 -9999 -9999 -9999 -9999 -9999 -9999 -9999 -9999 -9999 -9999 -9999 -9999 -9999 -9999 -9999 -9999 -9999 -9999 -9999 -9999 -9999 -9999 -9999 -9999 -9999 -9999 -9999 -9999 -9999 -9999 -9999 -9999 -9999 -9999 -9999 -9999 -9999 -9999 -9999 -9999 -9999 -9999 -9999 -9999 -9999 -9999 -9999 -9999 -9999 -9999 -9999 -9999 -9999 -9999 -9999 -9999 -9999 -9999 -9999 -9999 -9999 -9999 -9999 -9999 -9999 -9999 -9999 -9999
